assets/lighting/cinematic/grade-magic-hour-pink/lut.cube
TITLE "Magic Hour Pink"
# TKRS lighting-batch-001 original LUT
# Intended usage: pre-sunset pink-lavender sky influence
# License: CC0-1.0
LUT_3D_SIZE 17
DOMAIN_MIN 0.0 0.0 0.0
DOMAIN_MAX 1.0 1.0 1.0
0.000000 0.000000 0.000000
0.025350 0.000000 0.000000
0.081599 0.000000 0.000000
0.137849 0.000000 0.000000
0.194098 0.000000 0.000000
0.250348 0.000000 0.000000
0.306597 0.000000 0.000000
0.362847 0.000000 0.000000
0.419096 0.000000 0.000000
0.475346 0.000000 0.000000
0.531595 0.000000 0.000000
0.587845 0.000000 0.000000
0.644095 0.000000 0.000000
0.700344 0.000000 0.000000
0.756594 0.000000 0.000000
0.812843 0.000000 0.000000
0.869093 0.000000 0.000000
0.000000 0.018293 0.000000
0.021868 0.017235 0.000000
0.078118 0.016177 0.000000
0.134367 0.015118 0.000000
0.190617 0.014060 0.000000
0.246866 0.013002 0.000000
0.303116 0.011943 0.000000
0.359366 0.010885 0.000000
0.415615 0.009827 0.000000
0.471865 0.008768 0.000000
0.528114 0.007710 0.000000
0.584364 0.006652 0.000000
0.640613 0.005593 0.000000
0.696863 0.004535 0.000000
0.753990 0.003479 0.000000
0.813464 0.002427 0.000000
0.873941 0.001369 0.000000
0.000000 0.066087 0.000000
0.018387 0.065028 0.000000
0.074637 0.063970 0.000000
0.130886 0.062912 0.000000
0.187136 0.061853 0.000000
0.243385 0.060795 0.000000
0.299635 0.059737 0.000000
0.355884 0.058678 0.000000
0.412134 0.057620 0.000000
0.468383 0.056562 0.000000
0.524633 0.055503 0.000000
0.581842 0.054510 0.000000
0.640749 0.053606 0.000000
0.700521 0.052719 0.000000
0.761102 0.051839 0.000000
0.822483 0.050962 0.000000
0.884666 0.050085 0.000000
0.000000 0.113880 0.000000
0.014906 0.112822 0.000000
0.071155 0.111763 0.000000
0.127405 0.110705 0.000000
0.183654 0.109647 0.000000
0.239904 0.108588 0.000000
0.296154 0.107530 0.000000
0.352403 0.106472 0.000000
0.409537 0.105579 0.000000
0.467829 0.104831 0.000000
0.526873 0.104119 0.000000
0.586657 0.103427 0.000000
0.647189 0.102747 0.000000
0.708482 0.102077 0.000000
0.770551 0.101412 0.000000
0.833409 0.100751 0.000000
0.897071 0.100092 0.000000
0.000000 0.161673 0.000000
0.011425 0.160615 0.000000
0.067674 0.159557 0.000000
0.123924 0.158498 0.000000
0.180173 0.157440 0.000000
0.237060 0.156688 0.000000
0.294699 0.156103 0.000000
0.352993 0.155570 0.000000
0.411963 0.155069 0.000000
0.471633 0.154590 0.000000
0.532026 0.154128 0.000000
0.593161 0.153679 0.000000
0.655057 0.153240 0.000000
0.717730 0.152808 0.000000
0.781196 0.152381 0.000000
0.845470 0.151959 0.000000
0.910564 0.151539 0.000000
0.000000 0.209467 0.000000
0.007943 0.208409 0.000000
0.064401 0.207839 0.000000
0.121354 0.207424 0.000000
0.178876 0.207073 0.000000
0.237018 0.206766 0.000000
0.295815 0.206491 0.000000
0.355297 0.206239 0.000000
0.415489 0.206007 0.000000
0.476414 0.205791 0.000000
0.538092 0.205588 0.000000
0.600539 0.205395 0.000000
0.663772 0.205210 0.000000
0.727808 0.205033 0.000000
0.792658 0.204861 0.000000
0.858338 0.204693 0.000000
0.924858 0.204528 0.000000
0.000000 0.258793 0.000000
0.004520 0.258629 0.000000
0.061819 0.258519 0.000000
0.119731 0.258449 0.000000
0.178292 0.258410 0.000000
0.237533 0.258397 0.000000
0.297480 0.258406 0.000000
0.358154 0.258432 0.000000
0.419576 0.258474 0.000000
0.481764 0.258529 0.000000
0.544734 0.258595 0.000000
0.608502 0.258670 0.000000
0.673083 0.258753 0.000000
0.738488 0.258843 0.000000
0.804731 0.258938 0.000000
0.871824 0.259038 0.000000
0.939777 0.259141 0.000000
0.000000 0.310465 0.000000
0.001010 0.310641 0.000000
0.059292 0.310849 0.000000
0.118252 0.311084 0.000000
0.177916 0.311342 0.000000
0.238307 0.311620 0.000000
0.299443 0.311915 0.000000
0.361343 0.312226 0.000000
0.424024 0.312549 0.000000
0.487500 0.312884 0.000000
0.551786 0.313229 0.000000
0.616895 0.313583 0.000000
0.682840 0.313944 0.000000
0.749632 0.314312 0.000000
0.817283 0.314686 0.000000
0.885804 0.315064 0.000000
0.955203 0.315446 0.000000
0.000000 0.363827 0.000000
0.000000 0.364318 0.000000
0.056729 0.364833 0.000000
0.116808 0.365370 0.000000
0.177633 0.365926 0.000000
0.239221 0.366499 0.000000
0.301589 0.367086 0.000000
0.364751 0.367688 0.000000
0.428722 0.368301 0.000000
0.493515 0.368924 0.000000
0.559142 0.369558 0.000000
0.625616 0.370199 0.000000
0.692946 0.370848 0.000000
0.761145 0.371503 0.000000
0.830222 0.372164 0.000000
0.900186 0.372830 0.000000
0.971048 0.373500 0.000000
0.000000 0.418892 0.000000
0.000000 0.419695 0.000000
0.054094 0.420518 0.000000
0.115348 0.421360 0.000000
0.177382 0.422218 0.000000
0.240210 0.423092 0.000000
0.303848 0.423978 0.000000
0.368306 0.424878 0.000000
0.433598 0.425788 0.000000
0.499736 0.426708 0.000000
0.566730 0.427637 0.000000
0.634592 0.428575 0.000000
0.703330 0.429519 0.000000
0.772955 0.430470 0.000000
0.843477 0.431427 0.000000
0.914904 0.432389 0.000000
0.987244 0.433355 0.000000
0.000000 0.475705 0.000000
0.000000 0.476821 0.000000
0.051360 0.477956 0.000000
0.113837 0.479107 0.000000
0.177123 0.480273 0.000000
0.241231 0.481453 0.000000
0.306172 0.482645 0.000000
0.371958 0.483849 0.000000
0.438601 0.485063 0.000000
0.506110 0.486287 0.000000
0.574497 0.487520 0.000000
0.643769 0.488761 0.000000
0.713937 0.490008 0.000000
0.785009 0.491262 0.000000
0.856995 0.492522 0.000000
0.929901 0.493788 0.000000
1.000000 0.495057 0.000000
0.000000 0.534309 0.000000
0.000000 0.535743 0.000000
0.048512 0.537193 0.000000
0.112254 0.538658 0.000000
0.176829 0.540138 0.000000
0.242250 0.541630 0.000000
0.308527 0.543134 0.000000
0.375671 0.544649 0.000000
0.443691 0.546174 0.000000
0.512597 0.547708 0.000000
0.582399 0.549251 0.000000
0.653105 0.550801 0.000000
0.724723 0.552359 0.000000
0.797263 0.553923 0.000000
0.870731 0.555493 0.000000
0.945135 0.557068 0.000000
1.000000 0.558648 0.000000
0.000000 0.594748 0.000000
0.000000 0.596504 0.000000
0.045537 0.598274 0.000000
0.110579 0.600059 0.000000
0.176477 0.601857 0.000000
0.243243 0.603667 0.000000
0.310885 0.605488 0.000000
0.379413 0.607320 0.000000
0.448837 0.609162 0.000000
0.519164 0.611013 0.000000
0.590405 0.612872 0.000000
0.662565 0.614739 0.000000
0.735654 0.616612 0.000000
0.809680 0.618493 0.000000
0.884648 0.620379 0.000000
0.960568 0.622270 0.000000
1.000000 0.624167 0.000000
0.000000 0.657063 0.000000
0.000000 0.659145 0.000000
0.042423 0.661240 0.000000
0.108798 0.663350 0.000000
0.176051 0.665471 0.000000
0.244189 0.667605 0.000000
0.313224 0.669749 0.000000
0.383162 0.671903 0.000000
0.454013 0.674067 0.000000
0.525785 0.676240 0.000000
0.598485 0.678421 0.000000
0.672120 0.680610 0.000000
0.746700 0.682806 0.000000
0.822230 0.685008 0.000000
0.898717 0.687216 0.000000
0.976169 0.689430 0.000000
1.000000 0.691648 0.000000
0.000000 0.721292 0.000000
0.000000 0.723704 0.000000
0.039162 0.726129 0.000000
0.106901 0.728568 0.000000
0.175535 0.731018 0.000000
0.245074 0.733480 0.000000
0.315525 0.735952 0.000000
0.386898 0.738435 0.000000
0.459199 0.740926 0.000000
0.532435 0.743426 0.000000
0.606616 0.745935 0.000000
0.681746 0.748451 0.000000
0.757835 0.750974 0.000000
0.834887 0.753503 0.000000
0.912910 0.756039 0.000000
0.989134 0.756936 0.000000
1.000000 0.755651 0.000000
0.000000 0.787469 0.000000
0.000000 0.790216 0.000000
0.035747 0.792976 0.000000
0.104876 0.795749 0.000000
0.174919 0.798533 0.000000
0.245882 0.801328 0.000000
0.317774 0.804133 0.000000
0.390603 0.806948 0.000000
0.464375 0.809772 0.000000
0.539097 0.812605 0.000000
0.614778 0.815445 0.000000
0.691422 0.818294 0.000000
0.766182 0.818789 0.000000
0.838997 0.817505 0.000000
0.911812 0.816220 0.000000
0.984627 0.814936 0.000000
1.000000 0.813651 0.000000
0.000000 0.855629 0.000000
0.000000 0.858715 0.000000
0.032171 0.861814 0.000000
0.102716 0.864925 0.000000
0.174191 0.868047 0.000000
0.246602 0.871180 0.000000
0.319957 0.874323 0.000000
0.394263 0.877475 0.000000
0.469526 0.880636 0.000000
0.543231 0.880642 0.000000
0.616046 0.879358 0.000000
0.688861 0.878073 0.000000
0.761676 0.876789 0.000000
0.834491 0.875505 0.000000
0.907306 0.874220 0.000000
0.980121 0.872936 0.000000
1.000000 0.871652 0.000000
0.000000 0.000000 0.020702
0.025017 0.000000 0.019518
0.081267 0.000000 0.018334
0.137516 0.000000 0.017151
0.193766 0.000000 0.015967
0.250016 0.000000 0.014783
0.306265 0.000000 0.013599
0.362515 0.000000 0.012415
0.418764 0.000000 0.011231
0.475014 0.000000 0.010047
0.531263 0.000000 0.008863
0.587513 0.000000 0.007679
0.643762 0.000000 0.006495
0.700012 0.000000 0.005311
0.756261 0.000000 0.004127
0.812511 0.000000 0.002944
0.868761 0.000000 0.001760
0.000000 0.017976 0.016984
0.021536 0.016918 0.015801
0.077786 0.015859 0.014617
0.134035 0.014801 0.013433
0.190285 0.013743 0.012249
0.246534 0.012684 0.011065
0.302784 0.011626 0.009881
0.359033 0.010568 0.008697
0.415283 0.009509 0.007513
0.471532 0.008451 0.006329
0.527782 0.007393 0.005145
0.584032 0.006334 0.003961
0.640281 0.005276 0.002777
0.696531 0.004218 0.001594
0.754463 0.003164 0.000410
0.814192 0.002111 0.000000
0.874860 0.001051 0.000000
0.000000 0.065770 0.013267
0.018055 0.064711 0.012083
0.074304 0.063653 0.010899
0.130554 0.062595 0.009715
0.186803 0.061536 0.008531
0.243053 0.060478 0.007347
0.299303 0.059419 0.006163
0.355552 0.058361 0.004979
0.411802 0.057303 0.003795
0.468051 0.056244 0.002611
0.524301 0.055186 0.001427
0.582159 0.054236 0.000244
0.641265 0.053339 0.000000
0.701201 0.052455 0.000000
0.761934 0.051576 0.000000
0.823462 0.050699 0.000000
0.885791 0.049822 0.000000
0.000000 0.113563 0.009549
0.014574 0.112505 0.008365
0.070823 0.111446 0.007181
0.127073 0.110388 0.005997
0.183322 0.109330 0.004813
0.239572 0.108271 0.003629
0.295821 0.107213 0.002445
0.352071 0.106154 0.001261
0.409678 0.105349 0.000078
0.468125 0.104615 0.000000
0.527308 0.103910 0.000000
0.587226 0.103222 0.000000
0.647892 0.102546 0.000000
0.709319 0.101877 0.000000
0.771523 0.101214 0.000000
0.834518 0.100554 0.000000
0.898318 0.099895 0.000000
0.000000 0.161356 0.005831
0.011092 0.160298 0.004647
0.067342 0.159240 0.003463
0.123591 0.158181 0.002279
0.179896 0.157158 0.001095
0.237010 0.156505 0.000000
0.294767 0.155940 0.000000
0.353178 0.155417 0.000000
0.412266 0.154923 0.000000
0.472057 0.154450 0.000000
0.532573 0.153993 0.000000
0.593834 0.153547 0.000000
0.655857 0.153110 0.000000
0.718661 0.152679 0.000000
0.782259 0.152254 0.000000
0.846667 0.151833 0.000000
0.911897 0.151414 0.000000
0.000000 0.209150 0.002113
0.007616 0.208199 0.000929
0.064146 0.207705 0.000000
0.121187 0.207313 0.000000
0.178806 0.206978 0.000000
0.237051 0.206681 0.000000
0.295956 0.206413 0.000000
0.355551 0.206168 0.000000
0.415860 0.205941 0.000000
0.476904 0.205729 0.000000
0.538704 0.205529 0.000000
0.601277 0.205339 0.000000
0.664638 0.205156 0.000000
0.728804 0.204981 0.000000
0.793787 0.204810 0.000000
0.859600 0.204643 0.000000
0.926257 0.204480 0.000000
0.000000 0.258737 0.000000
0.004190 0.258591 0.000000
0.061578 0.258494 0.000000
0.119586 0.258434 0.000000
0.178250 0.258404 0.000000
0.237599 0.258398 0.000000
0.297657 0.258412 0.000000
0.358446 0.258443 0.000000
0.419987 0.258489 0.000000
0.482297 0.258548 0.000000
0.545392 0.258616 0.000000
0.609287 0.258694 0.000000
0.673996 0.258779 0.000000
0.739533 0.258871 0.000000
0.805910 0.258968 0.000000
0.873138 0.259069 0.000000
0.941229 0.259173 0.000000
0.000000 0.310514 0.000000
0.000669 0.310700 0.000000
0.059049 0.310917 0.000000
0.118114 0.311159 0.000000
0.177886 0.311424 0.000000
0.238389 0.311707 0.000000
0.299641 0.312007 0.000000
0.361660 0.312321 0.000000
0.424463 0.312648 0.000000
0.488063 0.312987 0.000000
0.552476 0.313334 0.000000
0.617715 0.313691 0.000000
0.683791 0.314054 0.000000
0.750716 0.314424 0.000000
0.818503 0.314799 0.000000
0.887160 0.315178 0.000000
0.956699 0.315561 0.000000
0.000000 0.363971 0.000000
0.000000 0.364470 0.000000
0.056481 0.364992 0.000000
0.116670 0.365535 0.000000
0.177608 0.366096 0.000000
0.239313 0.366673 0.000000
0.301800 0.367265 0.000000
0.365085 0.367870 0.000000
0.429180 0.368487 0.000000
0.494101 0.369113 0.000000
0.559857 0.369749 0.000000
0.626462 0.370393 0.000000
0.693926 0.371044 0.000000
0.762260 0.371701 0.000000
0.831474 0.372363 0.000000
0.901577 0.373030 0.000000
0.972579 0.373702 0.000000
0.000000 0.419131 0.000000
0.000000 0.419940 0.000000
0.053837 0.420769 0.000000
0.115206 0.421615 0.000000
0.177358 0.422478 0.000000
0.240307 0.423356 0.000000
0.304067 0.424247 0.000000
0.368651 0.425149 0.000000
0.434071 0.426063 0.000000
0.500338 0.426986 0.000000
0.567464 0.427918 0.000000
0.635459 0.428857 0.000000
0.704333 0.429804 0.000000
0.774096 0.430757 0.000000
0.844757 0.431715 0.000000
0.916324 0.432678 0.000000
0.988806 0.433645 0.000000
0.000000 0.476037 0.000000
0.000000 0.477159 0.000000
0.051094 0.478299 0.000000
0.113690 0.479455 0.000000
0.177097 0.480625 0.000000
0.241328 0.481809 0.000000
0.306396 0.483005 0.000000
0.372311 0.484212 0.000000
0.439084 0.485429 0.000000
0.506725 0.486656 0.000000
0.575245 0.487891 0.000000
0.644654 0.489134 0.000000
0.714959 0.490383 0.000000
0.786171 0.491639 0.000000
0.858297 0.492901 0.000000
0.931346 0.494168 0.000000
1.000000 0.495439 0.000000
0.000000 0.534737 0.000000
0.000000 0.536176 0.000000
0.048234 0.537631 0.000000
0.112098 0.539100 0.000000
0.176798 0.540583 0.000000
0.242346 0.542079 0.000000
0.308752 0.543587 0.000000
0.376027 0.545105 0.000000
0.444180 0.546633 0.000000
0.513221 0.548170 0.000000
0.583159 0.549715 0.000000
0.654003 0.551267 0.000000
0.725761 0.552827 0.000000
0.798441 0.554393 0.000000
0.872052 0.555965 0.000000
0.946600 0.557541 0.000000
1.000000 0.559123 0.000000
0.000000 0.595273 0.000000
0.000000 0.597033 0.000000
0.045246 0.598808 0.000000
0.110413 0.600596 0.000000
0.176440 0.602398 0.000000
0.243335 0.604212 0.000000
0.311109 0.606036 0.000000
0.379771 0.607871 0.000000
0.449330 0.609716 0.000000
0.519794 0.611569 0.000000
0.591173 0.613431 0.000000
0.663473 0.615299 0.000000
0.736704 0.617175 0.000000
0.810872 0.619057 0.000000
0.885985 0.620945 0.000000
0.962050 0.622838 0.000000
1.000000 0.624736 0.000000
0.000000 0.657685 0.000000
0.000000 0.659771 0.000000
0.042118 0.661871 0.000000
0.108622 0.663984 0.000000
0.176005 0.666109 0.000000
0.244277 0.668246 0.000000
0.313445 0.670394 0.000000
0.383520 0.672551 0.000000
0.454508 0.674718 0.000000
0.526418 0.676893 0.000000
0.599259 0.679076 0.000000
0.673036 0.681267 0.000000
0.747759 0.683465 0.000000
0.823433 0.685669 0.000000
0.900067 0.687879 0.000000
0.977666 0.690094 0.000000
1.000000 0.692314 0.000000
0.000000 0.722013 0.000000
0.000000 0.724429 0.000000
0.038843 0.726859 0.000000
0.106713 0.729301 0.000000
0.175481 0.731755 0.000000
0.245155 0.734220 0.000000
0.315743 0.736695 0.000000
0.387253 0.739180 0.000000
0.459693 0.741675 0.000000
0.533071 0.744177 0.000000
0.607394 0.746688 0.000000
0.682668 0.749206 0.000000
0.758901 0.751731 0.000000
0.836100 0.754262 0.000000
0.914270 0.756800 0.000000
0.988703 0.756551 0.000000
1.000000 0.755266 0.000000
0.000000 0.788291 0.000000
0.000000 0.791042 0.000000
0.035413 0.793806 0.000000
0.104676 0.796582 0.000000
0.174854 0.799369 0.000000
0.245955 0.802167 0.000000
0.317986 0.804975 0.000000
0.390954 0.807793 0.000000
0.464868 0.810620 0.000000
0.539733 0.813455 0.000000
0.615557 0.816298 0.000000
0.692347 0.819149 0.000000
0.765752 0.818404 0.000000
0.838567 0.817120 0.000000
0.911382 0.815835 0.000000
0.984197 0.814551 0.000000
1.000000 0.813267 0.000000
0.000000 0.856553 0.000000
0.000000 0.859643 0.000000
0.031821 0.862745 0.000000
0.102503 0.865859 0.000000
0.174115 0.868985 0.000000
0.246666 0.872121 0.000000
0.320161 0.875266 0.000000
0.394609 0.878421 0.000000
0.469986 0.881542 0.000000
0.542801 0.880257 0.000000
0.615616 0.878973 0.000000
0.688431 0.877689 0.000000
0.761246 0.876404 0.000000
0.834061 0.875120 0.000000
0.906876 0.873835 0.000000
0.979691 0.872551 0.000000
1.000000 0.871267 0.000000
0.000000 0.000000 0.074405
0.024685 0.000000 0.073221
0.080935 0.000000 0.072037
0.137184 0.000000 0.070853
0.193434 0.000000 0.069669
0.249683 0.000000 0.068485
0.305933 0.000000 0.067301
0.362182 0.000000 0.066117
0.418432 0.000000 0.064933
0.474681 0.000000 0.063749
0.530931 0.000000 0.062565
0.587181 0.000000 0.061382
0.643430 0.000000 0.060198
0.699680 0.000000 0.059014
0.755929 0.000000 0.057830
0.812179 0.000000 0.056646
0.868428 0.000000 0.055462
0.000000 0.017659 0.070687
0.021204 0.016601 0.069503
0.077453 0.015542 0.068319
0.133703 0.014484 0.067135
0.189952 0.013426 0.065951
0.246202 0.012367 0.064767
0.302452 0.011309 0.063583
0.358701 0.010251 0.062399
0.414951 0.009192 0.061215
0.471200 0.008134 0.060031
0.527450 0.007076 0.058848
0.583699 0.006017 0.057664
0.639949 0.004959 0.056480
0.696214 0.003901 0.055296
0.755007 0.002849 0.054178
0.814958 0.001794 0.053076
0.875805 0.000732 0.051978
0.000000 0.065452 0.066969
0.017723 0.064394 0.065785
0.073972 0.063336 0.064601
0.130222 0.062277 0.063417
0.186471 0.061219 0.062233
0.242721 0.060161 0.061049
0.298970 0.059102 0.059865
0.355220 0.058044 0.058681
0.411469 0.056986 0.057498
0.467719 0.055927 0.056314
0.524156 0.054883 0.055137
0.582523 0.053966 0.054023
0.641809 0.053073 0.052921
0.701901 0.052191 0.051824
0.762783 0.051313 0.050729
0.824457 0.050436 0.049634
0.886930 0.049559 0.048537
0.000000 0.113246 0.063251
0.014241 0.112187 0.062067
0.070491 0.111129 0.060883
0.126740 0.110071 0.059699
0.182990 0.109012 0.058515
0.239240 0.107954 0.057331
0.295489 0.106896 0.056148
0.352011 0.105897 0.054979
0.409848 0.105125 0.053868
0.468440 0.104401 0.052767
0.527758 0.103702 0.051671
0.587808 0.103018 0.050575
0.648606 0.102345 0.049480
0.710167 0.101678 0.048384
0.772506 0.101016 0.047286
0.835637 0.100356 0.046185
0.899574 0.099698 0.045082
0.000000 0.161039 0.059533
0.010760 0.159981 0.058349
0.067010 0.158922 0.057165
0.123259 0.157864 0.055981
0.179730 0.156946 0.054822
0.236974 0.156330 0.053713
0.294846 0.155779 0.052613
0.353371 0.155267 0.051517
0.412577 0.154780 0.050422
0.472489 0.154312 0.049326
0.533128 0.153858 0.048230
0.594514 0.153415 0.047131
0.656665 0.152980 0.046031
0.719598 0.152552 0.044927
0.783329 0.152128 0.043820
0.847871 0.151707 0.042710
0.913237 0.151288 0.041595
0.000000 0.208833 0.055815
0.007291 0.208034 0.054665
0.063895 0.207580 0.053559
0.121023 0.207208 0.052459
0.178740 0.206885 0.051363
0.237088 0.206598 0.050268
0.296102 0.206337 0.049172
0.355809 0.206098 0.048076
0.416234 0.205876 0.046977
0.477399 0.205668 0.045876
0.539321 0.205471 0.044772
0.602019 0.205283 0.043664
0.665509 0.205103 0.042554
0.729805 0.204929 0.041439
0.794920 0.204760 0.040320
0.860869 0.204594 0.039196
0.927662 0.204431 0.038069
0.000000 0.258687 0.052305
0.003859 0.258558 0.051209
0.061337 0.258473 0.050114
0.119442 0.258422 0.049019
0.178209 0.258400 0.047922
0.237666 0.258400 0.046823
0.297836 0.258420 0.045721
0.358741 0.258456 0.044617
0.420401 0.258506 0.043509
0.482833 0.258567 0.042397
0.546052 0.258639 0.041282
0.610075 0.258719 0.040162
0.674914 0.258806 0.039038
0.740583 0.258899 0.037910
0.807093 0.258998 0.036777
0.874457 0.259100 0.035639
0.942686 0.259205 0.034495
0.000000 0.310567 0.048865
0.000327 0.310762 0.047768
0.058807 0.310987 0.046668
0.117976 0.311236 0.045566
0.177857 0.311507 0.044461
0.238473 0.311795 0.043353
0.299841 0.312100 0.042241
0.361979 0.312418 0.041125
0.424904 0.312749 0.040005
0.488629 0.313090 0.038880
0.553169 0.313440 0.037751
0.618537 0.313799 0.036617
0.684745 0.314164 0.035478
0.751804 0.314535 0.034334
0.819725 0.314912 0.033185
0.888520 0.315292 0.032031
0.958198 0.315677 0.030871
0.000000 0.364118 0.045412
0.000000 0.364624 0.044306
0.056233 0.365152 0.043197
0.116532 0.365701 0.042085
0.177584 0.366267 0.040968
0.239406 0.366849 0.039847
0.302013 0.367445 0.038722
0.365420 0.368054 0.037592
0.429641 0.368673 0.036458
0.494688 0.369303 0.035318
0.560574 0.369941 0.034174
0.627311 0.370587 0.033024
0.694909 0.371240 0.031868
0.763378 0.371899 0.030707
0.832729 0.372563 0.029541
0.902971 0.373231 0.028369
0.974114 0.373903 0.027191
0.000000 0.419371 0.041928
0.000000 0.420186 0.040811
0.053580 0.421021 0.039690
0.115064 0.421872 0.038564
0.177334 0.422740 0.037434
0.240404 0.423622 0.036298
0.304287 0.424516 0.035158
0.368997 0.425422 0.034013
0.434545 0.426338 0.032862
0.500942 0.427264 0.031706
0.568200 0.428198 0.030544
0.636329 0.429140 0.029377
0.705339 0.430089 0.028204
0.775239 0.431043 0.027025
0.846038 0.432003 0.025840
0.917746 0.432968 0.024649
0.990371 0.433936 0.023452
0.000000 0.476372 0.038406
0.000000 0.477499 0.037275
0.050826 0.478644 0.036139
0.113541 0.479804 0.034998
0.177071 0.480978 0.033851
0.241426 0.482166 0.032700
0.306620 0.483365 0.031543
0.372663 0.484576 0.030381
0.439567 0.485796 0.029213
0.507341 0.487025 0.028039
0.575996 0.488263 0.026859
0.645540 0.489508 0.025673
0.715983 0.490759 0.024482
0.787334 0.492017 0.023284
0.859601 0.493280 0.022080
0.932792 0.494548 0.020869
1.000000 0.495820 0.019652
0.000000 0.535166 0.034837
0.000000 0.536610 0.033690
0.047955 0.538070 0.032538
0.111941 0.539543 0.031380
0.176767 0.541030 0.030217
0.242442 0.542530 0.029048
0.308977 0.544041 0.027874
0.376383 0.545562 0.026693
0.444670 0.547092 0.025507
0.513846 0.548632 0.024314
0.583920 0.550179 0.023115
0.654902 0.551734 0.021910
0.726800 0.553296 0.020699
0.799621 0.554863 0.019481
0.873374 0.556437 0.018257
0.948066 0.558015 0.017026
1.000000 0.559597 0.015789
0.000000 0.595799 0.031217
0.000000 0.597563 0.030053
0.044953 0.599342 0.028884
0.110247 0.601135 0.027708
0.176402 0.602940 0.026527
0.243427 0.604757 0.025340
0.311333 0.606585 0.024146
0.380129 0.608423 0.022946
0.449823 0.610270 0.021741
0.520425 0.612126 0.020528
0.591942 0.613990 0.019310
0.664382 0.615861 0.018085
0.737755 0.617739 0.016853
0.812066 0.619622 0.015615
0.887323 0.621512 0.014370
0.963534 0.623406 0.013118
1.000000 0.625306 0.011859
0.000000 0.658309 0.027543
0.000000 0.660399 0.026361
0.041812 0.662503 0.025172
0.108445 0.664620 0.023978
0.175960 0.666749 0.022778
0.244364 0.668889 0.021571
0.313666 0.671039 0.020358
0.383877 0.673199 0.019138
0.455003 0.675369 0.017912
0.527052 0.677547 0.016680
0.600033 0.679732 0.015440
0.673953 0.681925 0.014194
0.748819 0.684125 0.012942
0.824638 0.686331 0.011682
0.901417 0.688542 0.010416
0.979164 0.690759 0.009142
1.000000 0.692980 0.007862
0.000000 0.722736 0.023810
0.000000 0.725156 0.022609
0.038523 0.727589 0.021401
0.106525 0.730035 0.020187
0.175426 0.732492 0.018967
0.245235 0.734961 0.017740
0.315959 0.737439 0.016506
0.387608 0.739927 0.015266
0.460188 0.742424 0.014019
0.533707 0.744929 0.012766
0.608172 0.747442 0.011505
0.683590 0.749962 0.010238
0.759968 0.752489 0.008963
0.837313 0.755022 0.007682
0.915458 0.757450 0.006393
0.988273 0.756166 0.005083
1.000000 0.754882 0.003774
0.000000 0.789114 0.020016
0.000000 0.791869 0.018795
0.035077 0.794636 0.017567
0.104475 0.797416 0.016333
0.174789 0.800207 0.015092
0.246027 0.803008 0.013844
0.318196 0.805819 0.012589
0.391305 0.808639 0.011328
0.465360 0.811469 0.010059
0.540369 0.814306 0.008784
0.616337 0.817152 0.007502
0.692507 0.819303 0.006209
0.765322 0.818019 0.004900
0.838137 0.816735 0.003590
0.910952 0.815450 0.002281
0.983767 0.814166 0.000971
1.000000 0.812882 0.000000
0.000000 0.857477 0.016159
0.000000 0.860571 0.014917
0.031470 0.863677 0.013668
0.102288 0.866795 0.012413
0.174038 0.869923 0.011150
0.246728 0.873062 0.009881
0.320365 0.876211 0.008604
0.394955 0.879369 0.007321
0.469556 0.881157 0.006026
0.542371 0.879872 0.004716
0.615186 0.878588 0.003407
0.688001 0.877304 0.002097
0.760816 0.876019 0.000788
0.833631 0.874735 0.000000
0.906445 0.873450 0.000000
0.979260 0.872166 0.000000
1.000000 0.870882 0.000000
0.000000 0.000000 0.128107
0.024353 0.000000 0.126923
0.080602 0.000000 0.125739
0.136852 0.000000 0.124555
0.193101 0.000000 0.123371
0.249351 0.000000 0.122187
0.305601 0.000000 0.121003
0.361850 0.000000 0.119819
0.418100 0.000000 0.118636
0.474349 0.000000 0.117452
0.530599 0.000000 0.116268
0.586848 0.000000 0.115084
0.643098 0.000000 0.113900
0.699347 0.000000 0.112716
