assets/lighting/cinematic/grade-magic-hour-pink/lut.cube
TITLE "Magic Hour Pink"
# TKRS lighting-batch-001 original LUT
# Intended usage: pre-sunset pink-lavender sky influence
# License: CC0-1.0
LUT_3D_SIZE 5
DOMAIN_MIN 0.0 0.0 0.0
DOMAIN_MAX 1.0 1.0 1.0
0.000000 0.000000 0.000000
0.194098 0.000000 0.000000
0.419096 0.000000 0.000000
0.644095 0.000000 0.000000
0.869093 0.000000 0.000000
0.000000 0.161673 0.000000
0.180173 0.157440 0.000000
0.411963 0.155069 0.000000
0.655057 0.153240 0.000000
0.910564 0.151539 0.000000
0.000000 0.363827 0.000000
0.177633 0.365926 0.000000
0.428722 0.368301 0.000000
0.692946 0.370848 0.000000
0.971048 0.373500 0.000000
0.000000 0.594748 0.000000
0.176477 0.601857 0.000000
0.448837 0.609162 0.000000
0.735654 0.616612 0.000000
1.000000 0.624167 0.000000
0.000000 0.855629 0.000000
0.174191 0.868047 0.000000
0.469526 0.880636 0.000000
0.761676 0.876789 0.000000
1.000000 0.871652 0.000000
0.000000 0.000000 0.181809
0.192769 0.000000 0.177074
0.417767 0.000000 0.172338
0.642766 0.000000 0.167602
0.868948 0.000000 0.162947
0.000000 0.160405 0.166938
0.179467 0.156566 0.162406
0.413223 0.154497 0.158784
0.658301 0.152723 0.155308
0.915938 0.151038 0.151872
0.000000 0.364418 0.154824
0.177536 0.366614 0.151390
0.430565 0.369050 0.147949
0.696881 0.371634 0.144477
0.977192 0.374308 0.140960
0.000000 0.596854 0.143987
0.176324 0.604028 0.140462
0.450810 0.611382 0.136877
0.739859 0.618867 0.133223
1.000000 0.626446 0.129491
0.000000 0.859330 0.132704
0.173882 0.871804 0.128961
0.468696 0.880387 0.124822
0.759955 0.875249 0.119584
1.000000 0.870112 0.114346
0.000000 0.000000 0.396618
0.191440 0.000000 0.391883
0.416439 0.000000 0.387147
0.641437 0.000000 0.382411
0.871800 0.000000 0.378518
0.000000 0.159136 0.381747
0.179071 0.155887 0.378201
0.414594 0.153948 0.376300
0.661650 0.152213 0.374741
0.921415 0.150537 0.373365
0.000000 0.365044 0.374539
0.177441 0.367324 0.373182
0.432432 0.369812 0.371927
0.700852 0.372428 0.370732
0.983385 0.375120 0.369569
0.000000 0.598982 0.370568
0.176159 0.606215 0.369408
0.452787 0.613613 0.368256
0.744078 0.621130 0.367095
1.000000 0.628731 0.365914
0.000000 0.863049 0.366931
0.173554 0.875575 0.365745
0.466975 0.878847 0.362413
0.758235 0.873710 0.357176
1.000000 0.868572 0.351938
0.000000 0.000000 0.611428
0.190111 0.000000 0.606692
0.415110 0.000000 0.601956
0.640108 0.000000 0.597221
0.875350 0.000000 0.595011
0.000000 0.157867 0.596556
0.178771 0.155268 0.594947
0.416054 0.153416 0.594922
0.665092 0.151708 0.595381
0.926989 0.150036 0.596140
0.000000 0.365699 0.595472
0.177346 0.368052 0.596265
0.434318 0.370585 0.597255
0.704858 0.373229 0.598388
0.989622 0.375934 0.599624
0.000000 0.601130 0.598555
0.175982 0.608417 0.599804
0.454766 0.615855 0.601123
0.748312 0.623401 0.602492
1.000000 0.631020 0.603892
0.000000 0.866785 0.602687
0.173209 0.879359 0.604090
0.465255 0.877308 0.600005
0.756515 0.872170 0.594768
1.000000 0.867033 0.589530
0.000000 0.000000 0.826237
0.188782 0.000000 0.821501
0.413781 0.000000 0.816765
0.638868 0.000000 0.812070
0.879322 0.000000 0.812526
0.000000 0.156817 0.811928
0.178532 0.154687 0.812734
0.417589 0.152896 0.814702
0.668615 0.151207 0.817264
0.932650 0.149532 0.820227
0.000000 0.366380 0.817659
0.177249 0.368796 0.820667
0.436221 0.371368 0.823958
0.708895 0.374035 0.827464
0.995901 0.376751 0.831141
0.000000 0.603295 0.827971
0.175791 0.610633 0.831668
0.456746 0.618107 0.835496
0.752558 0.625678 0.839428
1.000000 0.633314 0.843440
0.000000 0.870537 0.839986
0.172275 0.880905 0.842835
0.463535 0.875768 0.837597
0.754795 0.870630 0.832359
1.000000 0.865493 0.827122
