assets/lighting/cinematic/grade-magic-hour-pink/lut.cube
TITLE "Magic Hour Pink"
# TKRS lighting-batch-001 original LUT
# Intended usage: pre-sunset pink-lavender sky influence
# License: CC0-1.0
LUT_3D_SIZE 9
DOMAIN_MIN 0.0 0.0 0.0
DOMAIN_MAX 1.0 1.0 1.0
0.000000 0.000000 0.000000
0.081599 0.000000 0.000000
0.194098 0.000000 0.000000
0.306597 0.000000 0.000000
0.419096 0.000000 0.000000
0.531595 0.000000 0.000000
0.644095 0.000000 0.000000
0.756594 0.000000 0.000000
0.869093 0.000000 0.000000
0.000000 0.066087 0.000000
0.074637 0.063970 0.000000
0.187136 0.061853 0.000000
0.299635 0.059737 0.000000
0.412134 0.057620 0.000000
0.524633 0.055503 0.000000
0.640749 0.053606 0.000000
0.761102 0.051839 0.000000
0.884666 0.050085 0.000000
0.000000 0.161673 0.000000
0.067674 0.159557 0.000000
0.180173 0.157440 0.000000
0.294699 0.156103 0.000000
0.411963 0.155069 0.000000
0.532026 0.154128 0.000000
0.655057 0.153240 0.000000
0.781196 0.152381 0.000000
0.910564 0.151539 0.000000
0.000000 0.258793 0.000000
0.061819 0.258519 0.000000
0.178292 0.258410 0.000000
0.297480 0.258406 0.000000
0.419576 0.258474 0.000000
0.544734 0.258595 0.000000
0.673083 0.258753 0.000000
0.804731 0.258938 0.000000
0.939777 0.259141 0.000000
0.000000 0.363827 0.000000
0.056729 0.364833 0.000000
0.177633 0.365926 0.000000
0.301589 0.367086 0.000000
0.428722 0.368301 0.000000
0.559142 0.369558 0.000000
0.692946 0.370848 0.000000
0.830222 0.372164 0.000000
0.971048 0.373500 0.000000
0.000000 0.475705 0.000000
0.051360 0.477956 0.000000
0.177123 0.480273 0.000000
0.306172 0.482645 0.000000
0.438601 0.485063 0.000000
0.574497 0.487520 0.000000
0.713937 0.490008 0.000000
0.856995 0.492522 0.000000
1.000000 0.495057 0.000000
0.000000 0.594748 0.000000
0.045537 0.598274 0.000000
0.176477 0.601857 0.000000
0.310885 0.605488 0.000000
0.448837 0.609162 0.000000
0.590405 0.612872 0.000000
0.735654 0.616612 0.000000
0.884648 0.620379 0.000000
1.000000 0.624167 0.000000
0.000000 0.721292 0.000000
0.039162 0.726129 0.000000
0.175535 0.731018 0.000000
0.315525 0.735952 0.000000
0.459199 0.740926 0.000000
0.606616 0.745935 0.000000
0.757835 0.750974 0.000000
0.912910 0.756039 0.000000
1.000000 0.755651 0.000000
0.000000 0.855629 0.000000
0.032171 0.861814 0.000000
0.174191 0.868047 0.000000
0.319957 0.874323 0.000000
0.469526 0.880636 0.000000
0.616046 0.879358 0.000000
0.761676 0.876789 0.000000
0.907306 0.874220 0.000000
1.000000 0.871652 0.000000
0.000000 0.000000 0.074405
0.080935 0.000000 0.072037
0.193434 0.000000 0.069669
0.305933 0.000000 0.067301
0.418432 0.000000 0.064933
0.530931 0.000000 0.062565
0.643430 0.000000 0.060198
0.755929 0.000000 0.057830
0.868428 0.000000 0.055462
0.000000 0.065452 0.066969
0.073972 0.063336 0.064601
0.186471 0.061219 0.062233
0.298970 0.059102 0.059865
0.411469 0.056986 0.057498
0.524156 0.054883 0.055137
0.641809 0.053073 0.052921
0.762783 0.051313 0.050729
0.886930 0.049559 0.048537
0.000000 0.161039 0.059533
0.067010 0.158922 0.057165
0.179730 0.156946 0.054822
0.294846 0.155779 0.052613
0.412577 0.154780 0.050422
0.533128 0.153858 0.048230
0.656665 0.152980 0.046031
0.783329 0.152128 0.043820
0.913237 0.151288 0.041595
0.000000 0.258687 0.052305
0.061337 0.258473 0.050114
0.178209 0.258400 0.047922
0.297836 0.258420 0.045721
0.420401 0.258506 0.043509
0.546052 0.258639 0.041282
0.674914 0.258806 0.039038
0.807093 0.258998 0.036777
0.942686 0.259205 0.034495
0.000000 0.364118 0.045412
0.056233 0.365152 0.043197
0.177584 0.366267 0.040968
0.302013 0.367445 0.038722
0.429641 0.368673 0.036458
0.560574 0.369941 0.034174
0.694909 0.371240 0.031868
0.832729 0.372563 0.029541
0.974114 0.373903 0.027191
0.000000 0.476372 0.038406
0.050826 0.478644 0.036139
0.177071 0.480978 0.033851
0.306620 0.483365 0.031543
0.439567 0.485796 0.029213
0.575996 0.488263 0.026859
0.715983 0.490759 0.024482
0.859601 0.493280 0.022080
1.000000 0.495820 0.019652
0.000000 0.595799 0.031217
0.044953 0.599342 0.028884
0.176402 0.602940 0.026527
0.311333 0.606585 0.024146
0.449823 0.610270 0.021741
0.591942 0.613990 0.019310
0.737755 0.617739 0.016853
0.887323 0.621512 0.014370
1.000000 0.625306 0.011859
0.000000 0.722736 0.023810
0.038523 0.727589 0.021401
0.175426 0.732492 0.018967
0.315959 0.737439 0.016506
0.460188 0.742424 0.014019
0.608172 0.747442 0.011505
0.759968 0.752489 0.008963
0.915458 0.757450 0.006393
1.000000 0.754882 0.003774
0.000000 0.857477 0.016159
0.031470 0.863677 0.013668
0.174038 0.869923 0.011150
0.320365 0.876211 0.008604
0.469556 0.881157 0.006026
0.615186 0.878588 0.003407
0.760816 0.876019 0.000788
0.906445 0.873450 0.000000
1.000000 0.870882 0.000000
0.000000 0.000000 0.181809
0.080270 0.000000 0.179441
0.192769 0.000000 0.177074
0.305268 0.000000 0.174706
0.417767 0.000000 0.172338
0.530267 0.000000 0.169970
0.642766 0.000000 0.167602
0.755265 0.000000 0.165234
0.868948 0.000000 0.162947
0.000000 0.064818 0.174373
0.073308 0.062701 0.172006
0.185807 0.060585 0.169638
0.298306 0.058468 0.167270
0.410805 0.056351 0.164902
0.524551 0.054328 0.162674
0.642965 0.052544 0.160816
0.764529 0.050787 0.159031
0.889247 0.049032 0.157281
0.000000 0.160405 0.166938
0.066345 0.158288 0.164570
0.179467 0.156566 0.162406
0.295030 0.155468 0.160563
0.413223 0.154497 0.158784
0.534258 0.153591 0.157037
0.658301 0.152723 0.155308
0.785489 0.151875 0.153588
0.915938 0.151038 0.151872
0.000000 0.258604 0.160310
0.060855 0.258439 0.158537
0.178132 0.258397 0.156793
0.298202 0.258440 0.155066
0.421238 0.258541 0.153347
0.547385 0.258686 0.151631
0.676761 0.258861 0.149913
0.809472 0.259058 0.148191
0.945612 0.259269 0.146461
0.000000 0.364418 0.154824
0.055733 0.365479 0.153106
0.177536 0.366614 0.151390
0.302441 0.367809 0.149672
0.430565 0.369050 0.147949
0.562015 0.370327 0.146218
0.696881 0.371634 0.144477
0.835248 0.372963 0.142725
0.977192 0.374308 0.140960
0.000000 0.477045 0.149430
0.050287 0.479337 0.147706
0.177016 0.481689 0.145974
0.307069 0.484089 0.144232
0.440536 0.486532 0.142478
0.577499 0.489008 0.140711
0.718035 0.491512 0.138929
0.862215 0.494040 0.137130
1.000000 0.496585 0.135315
0.000000 0.596854 0.143987
0.044365 0.600415 0.142231
0.176324 0.604028 0.140462
0.311781 0.607686 0.138677
0.450810 0.611382 0.136877
0.593482 0.615110 0.135059
0.739859 0.618867 0.133223
0.890003 0.622647 0.131367
1.000000 0.626446 0.129491
0.000000 0.724185 0.138426
0.037877 0.729054 0.136623
0.175312 0.733971 0.134802
0.316391 0.738929 0.132963
0.461176 0.743924 0.131105
0.609729 0.748952 0.129227
0.762104 0.754007 0.127327
0.914598 0.756680 0.125189
1.000000 0.754112 0.122570
0.000000 0.859330 0.132704
0.030762 0.865545 0.130843
0.173882 0.871804 0.128961
0.320770 0.878103 0.127059
0.468696 0.880387 0.124822
0.614326 0.877818 0.122203
0.759955 0.875249 0.119584
0.905585 0.872681 0.116965
1.000000 0.870112 0.114346
0.000000 0.000000 0.289214
0.079606 0.000000 0.286846
0.192105 0.000000 0.284478
0.304604 0.000000 0.282110
0.417103 0.000000 0.279742
0.529602 0.000000 0.277375
0.642101 0.000000 0.275007
0.754600 0.000000 0.272639
0.870253 0.000000 0.270625
0.000000 0.064184 0.281778
0.072643 0.062067 0.279410
0.185142 0.059950 0.277042
0.297641 0.057834 0.274675
0.410140 0.055717 0.272307
0.525151 0.053787 0.270406
0.644200 0.052016 0.268946
0.766332 0.050262 0.267591
0.891613 0.048504 0.266299
0.000000 0.159770 0.274342
0.065681 0.157654 0.271975
0.179253 0.156216 0.270192
0.295245 0.155168 0.268751
0.413896 0.154220 0.267407
0.535415 0.153328 0.266122
0.659964 0.152467 0.264876
0.787675 0.151624 0.263658
0.918664 0.150788 0.262460
0.000000 0.258538 0.268558
0.060373 0.258416 0.267224
0.178061 0.258403 0.265945
0.298576 0.258465 0.264704
0.422087 0.258581 0.263489
0.548730 0.258736 0.262293
0.678622 0.258919 0.261110
0.811867 0.259120 0.259935
0.948555 0.259334 0.258764
0.000000 0.364727 0.264532
0.055231 0.365812 0.263320
0.177488 0.366967 0.262127
0.302872 0.368176 0.260945
0.431496 0.369429 0.259771
0.563462 0.370716 0.258600
0.698862 0.372030 0.257431
0.837777 0.373365 0.256260
0.980283 0.374713 0.255085
0.000000 0.477725 0.260780
0.049744 0.480036 0.259606
0.176961 0.482403 0.258436
0.307519 0.484817 0.257267
0.441507 0.487270 0.256096
0.579007 0.489756 0.254920
0.720094 0.492268 0.253738
0.864836 0.494801 0.252549
1.000000 0.497350 0.251350
0.000000 0.597916 0.257103
0.043771 0.601493 0.255931
0.176243 0.605120 0.254755
0.312228 0.608790 0.253572
0.451799 0.612496 0.252381
0.595024 0.616234 0.251181
0.741967 0.619998 0.249969
0.892688 0.623784 0.248746
1.000000 0.627588 0.247509
0.000000 0.725639 0.253405
0.037226 0.730523 0.252213
0.175195 0.735452 0.251011
0.316821 0.740423 0.249798
0.462165 0.745428 0.248573
0.611287 0.750464 0.247334
0.764242 0.755526 0.246081
0.913738 0.755911 0.243985
1.000000 0.753342 0.241366
0.000000 0.861188 0.249627
0.030048 0.867416 0.248400
0.173720 0.873687 0.247159
0.321172 0.879998 0.245904
0.467835 0.879617 0.243617
0.613465 0.877048 0.240999
0.759095 0.874480 0.238380
0.904725 0.871911 0.235761
1.000000 0.869342 0.233142
0.000000 0.000000 0.396618
0.078941 0.000000 0.394251
0.191440 0.000000 0.391883
0.303939 0.000000 0.389515
0.416439 0.000000 0.387147
0.528938 0.000000 0.384779
0.641437 0.000000 0.382411
0.753936 0.000000 0.380044
0.871800 0.000000 0.378518
0.000000 0.063549 0.389183
0.071979 0.061433 0.386815
0.184478 0.059316 0.384447
0.296977 0.057199 0.382079
0.409476 0.055083 0.379711
0.525868 0.053252 0.378357
0.645500 0.051490 0.377322
0.768187 0.049736 0.376419
0.894025 0.047975 0.375600
0.000000 0.159136 0.381747
0.065054 0.157086 0.379459
0.179071 0.155887 0.378201
0.295486 0.154876 0.377189
0.414594 0.153948 0.376300
0.536596 0.153067 0.375491
0.661650 0.152213 0.374741
0.789886 0.151373 0.374036
0.921415 0.150537 0.373365
0.000000 0.258487 0.377058
0.059891 0.258402 0.376182
0.177994 0.258414 0.375383
0.298959 0.258495 0.374640
0.422946 0.258624 0.373940
0.550087 0.258788 0.373273
0.680498 0.258977 0.372633
0.814277 0.259183 0.372013
0.951514 0.259399 0.371408
0.000000 0.365044 0.374539
0.054725 0.366152 0.373845
0.177441 0.367324 0.373182
0.303306 0.368547 0.372545
0.432432 0.369812 0.371927
0.564918 0.371108 0.371324
0.700852 0.372428 0.370732
0.840316 0.373767 0.370148
0.983385 0.375120 0.369569
0.000000 0.478411 0.372457
0.049197 0.480740 0.371841
0.176903 0.483122 0.371240
0.307969 0.485549 0.370650
0.442481 0.488012 0.370067
0.580520 0.490506 0.369488
0.722158 0.493025 0.368912
0.867464 0.495563 0.368336
1.000000 0.498117 0.367759
0.000000 0.598982 0.370568
0.043172 0.602575 0.369985
0.176159 0.606215 0.369408
0.312673 0.609897 0.368832
0.452787 0.613613 0.368256
0.596568 0.617359 0.367677
0.744078 0.621130 0.367095
0.895377 0.624922 0.366508
1.000000 0.628731 0.365914
0.000000 0.727097 0.368751
0.036569 0.731996 0.368175
0.175074 0.736938 0.367596
0.317248 0.741919 0.367013
0.463152 0.746934 0.366425
0.612845 0.751978 0.365830
0.766382 0.757048 0.365226
0.912878 0.755141 0.362781
1.000000 0.752572 0.360162
0.000000 0.863049 0.366931
0.029328 0.869291 0.366342
0.173554 0.875575 0.365745
0.321345 0.881416 0.365032
0.466975 0.878847 0.362413
0.612605 0.876278 0.359795
0.758235 0.873710 0.357176
0.903865 0.871141 0.354557
1.000000 0.868572 0.351938
0.000000 0.000000 0.504023
0.078277 0.000000 0.501655
0.190776 0.000000 0.499287
0.303275 0.000000 0.496919
0.415774 0.000000 0.494552
0.528273 0.000000 0.492184
0.640772 0.000000 0.489816
0.753800 0.000000 0.487571
0.873512 0.000000 0.486642
0.000000 0.062915 0.496587
0.071314 0.060798 0.494219
0.183813 0.058682 0.491852
0.296312 0.056565 0.489484
0.409482 0.054513 0.487404
0.526671 0.052722 0.486543
0.646856 0.050964 0.485956
0.770089 0.049209 0.485521
0.896479 0.047444 0.485190
0.000000 0.158502 0.489152
0.064525 0.156689 0.487254
0.178912 0.155572 0.486449
0.295749 0.154592 0.485887
0.415314 0.153681 0.485469
0.537800 0.152809 0.485150
0.663360 0.151960 0.484908
0.792121 0.151122 0.484725
0.924191 0.150287 0.484591
0.000000 0.258449 0.485821
0.059407 0.258397 0.485419
0.177931 0.258432 0.485112
0.299349 0.258529 0.484879
0.423814 0.258670 0.484704
0.551457 0.258843 0.484575
0.682386 0.259038 0.484485
0.816701 0.259247 0.484427
0.954489 0.259465 0.484394
0.000000 0.365368 0.484851
0.054216 0.366497 0.484683
0.177393 0.367686 0.484560
0.303743 0.368922 0.484475
0.433373 0.370197 0.484421
0.566380 0.371501 0.484392
0.702851 0.372828 0.484383
0.842866 0.374172 0.484392
0.986498 0.375527 0.484415
0.000000 0.479103 0.484466
0.048645 0.481449 0.484415
0.176843 0.483845 0.484389
0.308419 0.486283 0.484384
0.443457 0.488757 0.484395
0.582036 0.491259 0.484419
0.724228 0.493784 0.484453
0.870099 0.496327 0.484496
1.000000 0.498884 0.484544
0.000000 0.600053 0.484384
0.042568 0.603661 0.484397
0.176072 0.607315 0.484423
0.313118 0.611007 0.484459
0.453776 0.614733 0.484502
0.598114 0.618487 0.484551
0.746193 0.622264 0.484602
0.898072 0.626062 0.484655
1.000000 0.629875 0.484707
0.000000 0.728560 0.484465
0.035907 0.733472 0.484509
0.174949 0.738427 0.484558
0.317673 0.743419 0.484610
0.464139 0.748443 0.484662
0.614405 0.753495 0.484715
0.766388 0.756940 0.484196
0.912018 0.754371 0.481577
1.000000 0.751802 0.478958
0.000000 0.864915 0.484617
0.028602 0.871170 0.484670
0.173384 0.877465 0.484722
0.320485 0.880646 0.483828
0.466115 0.878077 0.481209
0.611745 0.875509 0.478590
0.757375 0.872940 0.475972
0.903005 0.870371 0.473353
1.000000 0.867802 0.470734
0.000000 0.000000 0.611428
0.077612 0.000000 0.609060
0.190111 0.000000 0.606692
0.302611 0.000000 0.604324
0.415110 0.000000 0.601956
0.527609 0.000000 0.599588
0.640108 0.000000 0.597221
0.754739 0.000000 0.595460
0.875350 0.000000 0.595011
0.000000 0.062281 0.603992
0.070650 0.060164 0.601624
0.183149 0.058047 0.599256
0.295648 0.055930 0.596888
0.409763 0.053968 0.595368
0.527541 0.052194 0.594977
0.648263 0.050439 0.594857
0.772034 0.048682 0.594904
0.898972 0.046912 0.595074
0.000000 0.157867 0.596556
0.064015 0.156331 0.595289
0.178771 0.155268 0.594947
0.296031 0.154313 0.594854
0.416054 0.153416 0.594922
0.539025 0.152553 0.595106
0.665092 0.151708 0.595381
0.794377 0.150872 0.595730
0.926989 0.150036 0.596140
0.000000 0.258422 0.594856
0.058923 0.258400 0.594941
0.177871 0.258456 0.595139
0.299745 0.258567 0.595426
0.424692 0.258719 0.595784
0.552837 0.258899 0.596202
0.684288 0.259099 0.596670
0.819140 0.259312 0.597181
0.957480 0.259531 0.597727
0.000000 0.365699 0.595472
0.053703 0.366847 0.595840
0.177346 0.368052 0.596265
0.304182 0.369301 0.596739
0.434318 0.370585 0.597255
0.567848 0.371897 0.597806
0.704858 0.373229 0.598388
0.845425 0.374577 0.598995
0.989622 0.375934 0.599624
0.000000 0.479800 0.596809
0.048088 0.482162 0.597330
0.176782 0.484572 0.597886
0.308870 0.487021 0.598471
0.444435 0.489504 0.599082
0.583556 0.492013 0.599714
0.726303 0.494544 0.600364
0.872741 0.497092 0.601029
1.000000 0.499653 0.601707
0.000000 0.601130 0.598555
0.041959 0.604752 0.599169
0.175982 0.608417 0.599804
0.313561 0.612120 0.600456
0.454766 0.615855 0.601123
0.599663 0.619617 0.601803
0.748312 0.623401 0.602492
0.900771 0.627203 0.603189
1.000000 0.631020 0.603892
0.000000 0.730028 0.600549
0.035238 0.734953 0.601218
0.174820 0.739919 0.601899
0.318096 0.744921 0.602589
0.465125 0.749954 0.603287
0.615964 0.755014 0.603991
0.765528 0.756170 0.602992
0.911158 0.753601 0.600373
1.000000 0.751032 0.597754
0.000000 0.866785 0.602687
0.027870 0.873053 0.603386
0.173209 0.879359 0.604090
0.319625 0.879876 0.602624
0.465255 0.877308 0.600005
0.610885 0.874739 0.597386
0.756515 0.872170 0.594768
0.902145 0.869601 0.592149
1.000000 0.867033 0.589530
0.000000 0.000000 0.718832
0.076948 0.000000 0.716464
0.189447 0.000000 0.714096
0.301946 0.000000 0.711729
0.414445 0.000000 0.709361
0.526944 0.000000 0.706993
0.639443 0.000000 0.704625
0.755933 0.000000 0.703600
0.877292 0.000000 0.703636
0.000000 0.061646 0.711396
0.069985 0.059530 0.709029
0.182484 0.057413 0.706661
0.294984 0.055296 0.704293
0.410149 0.053432 0.703579
0.528467 0.051667 0.703668
0.649715 0.049913 0.704031
0.774020 0.048153 0.704576
0.901503 0.046377 0.705257
0.000000 0.157239 0.703975
0.063516 0.155996 0.703569
0.178645 0.154974 0.703706
0.296331 0.154040 0.704098
0.416813 0.153155 0.704664
0.540270 0.152298 0.705362
0.666844 0.151457 0.706165
0.796655 0.150622 0.707055
0.929809 0.149784 0.708018
0.000000 0.258406 0.704168
0.058437 0.258410 0.704755
0.177814 0.258484 0.705469
0.300148 0.258609 0.706285
0.425579 0.258770 0.707186
0.554228 0.258957 0.708158
0.686202 0.259162 0.709191
0.821592 0.259377 0.710277
0.960485 0.259597 0.711408
0.000000 0.366037 0.706407
0.053187 0.367203 0.707318
0.177297 0.368422 0.708300
0.304623 0.369682 0.709341
0.435268 0.370976 0.710433
0.569323 0.372294 0.711571
0.706872 0.373632 0.712747
0.847993 0.374983 0.713958
0.992756 0.376343 0.715198
0.000000 0.480503 0.709491
0.047527 0.482880 0.710590
0.176718 0.485302 0.711733
0.309320 0.487762 0.712915
0.445416 0.490253 0.714130
0.585080 0.492770 0.715375
0.728383 0.495306 0.716645
0.875390 0.497858 0.717938
1.000000 0.500422 0.719250
0.000000 0.602210 0.713083
0.041344 0.605846 0.714303
0.175888 0.609524 0.715551
0.314002 0.613237 0.716825
0.455756 0.616980 0.718121
0.601213 0.620749 0.719435
0.750433 0.624538 0.720767
0.903475 0.628346 0.722112
1.000000 0.632166 0.723469
0.000000 0.731499 0.717005
0.034564 0.736437 0.718304
0.174687 0.741415 0.719621
0.318516 0.746427 0.720954
0.466110 0.751468 0.722302
0.617524 0.756535 0.723660
0.764668 0.755400 0.721788
0.910298 0.752831 0.719169
1.000000 0.750263 0.716550
0.000000 0.868659 0.721143
0.027131 0.874939 0.722492
0.173029 0.881256 0.723852
0.318765 0.879106 0.721420
0.464395 0.876538 0.718801
0.610025 0.873969 0.716182
0.755655 0.871400 0.713563
0.901285 0.868831 0.710945
1.000000 0.866263 0.708326
0.000000 0.000000 0.826237
0.076283 0.000000 0.823869
0.188782 0.000000 0.821501
0.301282 0.000000 0.819133
0.413781 0.000000 0.816765
0.526280 0.000000 0.814398
0.638868 0.000000 0.812070
0.757286 0.000000 0.811994
0.879322 0.000000 0.812526
0.000000 0.061012 0.818801
0.069321 0.058895 0.816433
0.181820 0.056778 0.814065
0.294599 0.054700 0.811976
0.410607 0.052900 0.812045
0.529441 0.051141 0.812627
0.651207 0.049387 0.813487
0.776042 0.047623 0.814541
0.904068 0.045841 0.815745
0.000000 0.156817 0.811928
0.063023 0.155677 0.812104
0.178532 0.154687 0.812734
0.296645 0.153770 0.813624
0.417589 0.152896 0.814702
0.541533 0.152045 0.815924
0.668615 0.151207 0.817264
0.798954 0.150371 0.818703
0.932650 0.149532 0.820227
0.000000 0.258398 0.813765
0.057949 0.258426 0.814865
0.177760 0.258517 0.816106
0.300556 0.258654 0.817461
0.426473 0.258824 0.818912
0.555629 0.259017 0.820446
0.688127 0.259226 0.822052
0.824058 0.259443 0.823719
0.963505 0.259664 0.825441
0.000000 0.366380 0.817659
0.052667 0.367563 0.819123
0.177249 0.368796 0.820667
0.305067 0.370067 0.822282
0.436221 0.371368 0.823958
0.570803 0.372693 0.825687
0.708895 0.374035 0.827464
0.850571 0.375390 0.829284
0.995901 0.376751 0.831141
0.000000 0.481210 0.822514
0.046961 0.483601 0.824197
0.176652 0.486036 0.825934
0.309770 0.488506 0.827717
0.446397 0.491005 0.829542
0.586607 0.493528 0.831404
0.730468 0.496070 0.833299
0.878044 0.498626 0.835224
1.000000 0.501192 0.837175
0.000000 0.603295 0.827971
0.040724 0.606944 0.829801
0.175791 0.610633 0.831668
0.314442 0.614355 0.833568
0.456746 0.618107 0.835496
0.602764 0.621882 0.837451
0.752558 0.625678 0.839428
0.906182 0.629489 0.841425
1.000000 0.633314 0.843440
0.000000 0.732975 0.833837
0.033883 0.737925 0.835769
0.174550 0.742913 0.837727
0.318934 0.747935 0.839707
0.467093 0.752984 0.841707
0.618178 0.757199 0.843203
0.763808 0.754630 0.840584
0.909437 0.752061 0.837965
1.000000 0.749493 0.835346
0.000000 0.870537 0.839986
0.026386 0.876828 0.841989
0.172275 0.880905 0.842835
0.317905 0.878337 0.840216
0.463535 0.875768 0.837597
0.609165 0.873199 0.834978
0.754795 0.870630 0.832359
0.900424 0.868062 0.829741
1.000000 0.865493 0.827122
