assets/lighting/cinematic/grade-hotel-warm/lut.cube
TITLE "Hotel Warm Tungsten"
# TKRS lighting-batch-001 original LUT
# Intended usage: hotel lobby / suite practical warmth
# License: CC0-1.0
LUT_3D_SIZE 9
DOMAIN_MIN 0.0 0.0 0.0
DOMAIN_MAX 1.0 1.0 1.0
0.000000 0.000000 0.000000
0.079249 0.000000 0.000000
0.190098 0.000000 0.000000
0.300946 0.000000 0.000000
0.411795 0.000000 0.000000
0.522644 0.000000 0.000000
0.633493 0.000000 0.000000
0.744342 0.000000 0.000000
0.855190 0.000000 0.000000
0.000000 0.059255 0.000000
0.075897 0.058197 0.000000
0.186746 0.057138 0.000000
0.297594 0.056080 0.000000
0.408443 0.055022 0.000000
0.519292 0.053963 0.000000
0.632479 0.053105 0.000000
0.749970 0.052486 0.000000
0.870355 0.051912 0.000000
0.000000 0.148010 0.000000
0.072545 0.146952 0.000000
0.183393 0.145893 0.000000
0.295240 0.145335 0.000000
0.409842 0.145493 0.000000
0.526931 0.145812 0.000000
0.646645 0.146227 0.000000
0.769109 0.146706 0.000000
0.894430 0.147232 0.000000
0.000000 0.237506 0.000000
0.069977 0.238426 0.000000
0.183799 0.239632 0.000000
0.299971 0.241011 0.000000
0.418684 0.242513 0.000000
0.540084 0.244109 0.000000
0.664291 0.245781 0.000000
0.791407 0.247513 0.000000
0.921522 0.249297 0.000000
0.000000 0.335709 0.000000
0.068586 0.338229 0.000000
0.186078 0.340891 0.000000
0.306231 0.343670 0.000000
0.429164 0.346546 0.000000
0.554983 0.349503 0.000000
0.683777 0.352532 0.000000
0.815628 0.355622 0.000000
0.950610 0.358765 0.000000
0.000000 0.441462 0.000000
0.067282 0.445477 0.000000
0.188814 0.449607 0.000000
0.313217 0.453836 0.000000
0.440582 0.458152 0.000000
0.570990 0.462547 0.000000
0.704515 0.467011 0.000000
0.841225 0.471537 0.000000
0.981181 0.476120 0.000000
0.000000 0.555035 0.000000
0.065921 0.560576 0.000000
0.191763 0.566219 0.000000
0.320640 0.571954 0.000000
0.452625 0.577773 0.000000
0.587785 0.583668 0.000000
0.726183 0.589632 0.000000
0.867877 0.595659 0.000000
1.000000 0.601745 0.000000
0.000000 0.676787 0.000000
0.064430 0.683896 0.000000
0.194800 0.691101 0.000000
0.328340 0.698395 0.000000
0.465110 0.705769 0.000000
0.605170 0.713219 0.000000
0.748572 0.720738 0.000000
0.895368 0.728321 0.000000
1.000000 0.735965 0.000000
0.000000 0.807042 0.000000
0.062766 0.815762 0.000000
0.197847 0.824574 0.000000
0.336212 0.833471 0.000000
0.477914 0.842449 0.000000
0.623006 0.851502 0.000000
0.767945 0.856565 0.000000
0.908259 0.855220 0.000000
1.000000 0.853875 0.000000
0.000000 0.000000 0.050110
0.078950 0.000000 0.049077
0.189799 0.000000 0.048043
0.300648 0.000000 0.047010
0.411497 0.000000 0.045977
0.522345 0.000000 0.044944
0.633194 0.000000 0.043910
0.744043 0.000000 0.042877
0.854892 0.000000 0.041844
0.000000 0.058976 0.047055
0.075598 0.057918 0.046022
0.186447 0.056860 0.044988
0.297296 0.055801 0.043955
0.408144 0.054743 0.042922
0.518993 0.053684 0.041889
0.633471 0.052935 0.041028
0.751476 0.052332 0.040246
0.872327 0.051764 0.039481
0.000000 0.147731 0.044000
0.072246 0.146673 0.042966
0.183095 0.145615 0.041933
0.295536 0.145353 0.041062
0.410523 0.145565 0.040280
0.528001 0.145914 0.039514
0.648117 0.146348 0.038755
0.770995 0.146841 0.037995
0.896743 0.147377 0.037230
0.000000 0.237707 0.041097
0.069841 0.238723 0.040313
0.183972 0.239981 0.039547
0.300487 0.241396 0.038788
0.419567 0.242925 0.038028
0.541354 0.244543 0.037263
0.665965 0.246232 0.036492
0.793498 0.247979 0.035711
0.924043 0.249774 0.034920
0.000000 0.336357 0.038820
0.068469 0.338918 0.038060
0.186308 0.341613 0.037296
0.306830 0.344419 0.036525
0.430150 0.347317 0.035745
0.556370 0.350295 0.034954
0.685580 0.353340 0.034151
0.817859 0.356445 0.033334
0.953280 0.359602 0.032503
0.000000 0.442508 0.036559
0.067165 0.446555 0.035779
0.189070 0.450712 0.034989
0.313863 0.454965 0.034186
0.441633 0.459303 0.033370
0.572458 0.463717 0.032539
0.706412 0.468198 0.031692
0.843561 0.472739 0.030830
0.983966 0.477336 0.029950
0.000000 0.556484 0.034221
0.065794 0.562053 0.033405
0.192031 0.567722 0.032575
0.321316 0.573480 0.031729
0.453722 0.579319 0.030867
0.589313 0.585233 0.029989
0.728151 0.591214 0.029092
0.870295 0.597257 0.028177
1.000000 0.603357 0.027243
0.000000 0.678650 0.031766
0.064289 0.685786 0.030905
0.195072 0.693015 0.030027
0.329035 0.700330 0.029131
0.466240 0.707725 0.028217
0.606743 0.715193 0.027284
0.750597 0.722730 0.026332
0.897853 0.730330 0.025359
1.000000 0.737988 0.024367
0.000000 0.809330 0.029170
0.062608 0.818075 0.028257
0.198116 0.826910 0.027325
0.336919 0.835829 0.026373
0.479068 0.844827 0.025402
0.624614 0.853899 0.024410
0.767566 0.856210 0.023256
0.907881 0.854866 0.022022
1.000000 0.853521 0.020787
0.000000 0.000000 0.129020
0.078651 0.000000 0.127986
0.189500 0.000000 0.126953
0.300349 0.000000 0.125920
0.411198 0.000000 0.124887
0.522047 0.000000 0.123853
0.632895 0.000000 0.122820
0.743744 0.000000 0.121787
0.855273 0.000000 0.120824
0.000000 0.058697 0.125965
0.075299 0.057639 0.124931
0.186148 0.056581 0.123898
0.296997 0.055522 0.122865
0.407846 0.054464 0.121832
0.518981 0.053436 0.120847
0.634545 0.052771 0.120461
0.753033 0.052180 0.120215
0.874341 0.051618 0.120035
0.000000 0.147452 0.122909
0.071947 0.146394 0.121876
0.182856 0.145384 0.120872
0.295871 0.145390 0.120474
0.411231 0.145647 0.120224
0.529095 0.146021 0.120042
0.649611 0.146473 0.119903
0.772904 0.146979 0.119794
0.899078 0.147524 0.119706
0.000000 0.237942 0.120487
0.069709 0.239036 0.120233
0.184152 0.240341 0.120049
0.301012 0.241789 0.119908
0.420462 0.243344 0.119798
0.542637 0.244982 0.119710
0.667652 0.246687 0.119637
0.795603 0.248448 0.119574
0.926578 0.250254 0.119518
0.000000 0.337017 0.119914
0.068353 0.339616 0.119803
0.186542 0.342343 0.119713
0.307434 0.345174 0.119639
0.431142 0.348095 0.119576
0.557766 0.351091 0.119520
0.687393 0.354153 0.119468
0.820100 0.357272 0.119417
0.955961 0.360441 0.119366
0.000000 0.443563 0.119642
0.067047 0.447640 0.119579
0.189328 0.451824 0.119523
0.314513 0.456100 0.119470
0.442688 0.460459 0.119420
0.573932 0.464891 0.119368
0.708316 0.469389 0.119314
0.845905 0.473945 0.119256
0.986760 0.478555 0.119193
0.000000 0.557941 0.119472
0.065666 0.563537 0.119422
0.192300 0.569230 0.119370
0.321995 0.575011 0.119317
0.454822 0.580870 0.119259
0.590845 0.586802 0.119196
0.730125 0.592800 0.119126
0.872720 0.598859 0.119048
1.000000 0.604973 0.118961
0.000000 0.680521 0.119319
0.064147 0.687682 0.119262
0.195344 0.694934 0.119199
0.329733 0.702271 0.119129
0.467372 0.709686 0.119052
0.608319 0.717172 0.118965
0.752626 0.724726 0.118869
0.900344 0.732342 0.118761
1.000000 0.740016 0.118642
0.000000 0.811625 0.119132
0.062449 0.820394 0.119055
0.198386 0.829252 0.118969
0.337626 0.838193 0.118873
0.480223 0.847210 0.118766
0.626224 0.856300 0.118648
0.767188 0.855856 0.117509
0.907503 0.854511 0.116275
1.000000 0.853167 0.115041
0.000000 0.000000 0.207929
0.078353 0.000000 0.206896
0.189202 0.000000 0.205863
0.300050 0.000000 0.204830
0.410899 0.000000 0.203796
0.521748 0.000000 0.202763
0.632597 0.000000 0.201730
0.743446 0.000000 0.200697
0.856433 0.000000 0.200029
0.000000 0.058419 0.204874
0.075001 0.057360 0.203841
0.185849 0.056302 0.202808
0.296698 0.055243 0.201775
0.407547 0.054185 0.200741
0.519538 0.053246 0.200030
0.635685 0.052611 0.200162
0.754634 0.052030 0.200482
0.876392 0.051472 0.200910
0.000000 0.147174 0.201819
0.071649 0.146115 0.200786
0.182846 0.145339 0.200032
0.296236 0.145442 0.200152
0.411964 0.145736 0.200466
0.530212 0.146134 0.200889
0.651128 0.146601 0.201389
0.774834 0.147119 0.201946
0.901435 0.147674 0.202547
0.000000 0.238203 0.200142
0.069580 0.239363 0.200450
0.184339 0.240710 0.200869
0.301547 0.242189 0.201366
0.421367 0.243768 0.201921
0.543932 0.245425 0.202521
0.669352 0.247146 0.203156
0.797723 0.248919 0.203821
0.929129 0.250737 0.204510
0.000000 0.337688 0.201344
0.068237 0.340323 0.201896
0.186778 0.343079 0.202494
0.308043 0.345936 0.203128
0.432141 0.348877 0.203792
0.559170 0.351892 0.204480
0.689214 0.354970 0.205187
0.822352 0.358103 0.205910
0.958653 0.361284 0.206646
0.000000 0.444626 0.203100
0.066928 0.448733 0.203763
0.189587 0.452942 0.204450
0.315166 0.457241 0.205156
0.443749 0.461620 0.205879
0.575412 0.466070 0.206614
0.710227 0.470584 0.207359
0.848257 0.475155 0.208112
0.989562 0.479778 0.208871
0.000000 0.559406 0.205125
0.065537 0.565028 0.205847
0.192570 0.570745 0.206582
0.322676 0.576547 0.207327
0.455925 0.582426 0.208079
0.592381 0.588376 0.208838
0.732105 0.594391 0.209600
0.875151 0.600465 0.210365
1.000000 0.606593 0.211130
0.000000 0.682398 0.207294
0.064004 0.689584 0.208047
0.195616 0.696859 0.208805
0.330431 0.704217 0.209567
0.468506 0.711651 0.210332
0.609898 0.719156 0.211097
0.754660 0.726727 0.211861
0.902839 0.734358 0.212624
1.000000 0.740048 0.212943
0.000000 0.813927 0.209534
0.062287 0.822720 0.210299
0.198655 0.831600 0.211064
0.338335 0.840561 0.211828
0.481379 0.849599 0.212591
0.626495 0.856846 0.212997
0.766810 0.855502 0.211762
0.907125 0.854157 0.210528
1.000000 0.852812 0.209294
0.000000 0.000000 0.286839
0.078054 0.000000 0.285806
0.188903 0.000000 0.284773
0.299752 0.000000 0.283740
0.410600 0.000000 0.282706
0.521449 0.000000 0.281673
0.632298 0.000000 0.280640
0.743147 0.000000 0.279607
0.857795 0.000000 0.279480
0.000000 0.058140 0.283784
0.074702 0.057081 0.282751
0.185551 0.056023 0.281718
0.296400 0.054965 0.280684
0.407248 0.053906 0.279651
0.520231 0.053069 0.279457
0.636879 0.052454 0.280146
0.756277 0.051881 0.281059
0.878479 0.051327 0.282113
0.000000 0.146895 0.280729
0.071350 0.145836 0.279696
0.182889 0.145337 0.279435
0.296628 0.145507 0.280111
0.412719 0.145833 0.281016
0.531350 0.146251 0.282065
0.652665 0.146734 0.283219
0.776785 0.147262 0.284455
0.903811 0.147825 0.285758
0.000000 0.238485 0.280076
0.069454 0.239703 0.280973
0.184533 0.241089 0.282017
0.302090 0.242597 0.283168
0.422283 0.244197 0.284401
0.545239 0.245873 0.285700
0.671065 0.247608 0.287056
0.799855 0.249394 0.288458
0.931694 0.251222 0.289900
0.000000 0.338369 0.283116
0.068121 0.341038 0.284346
0.187018 0.343823 0.285643
0.308657 0.346703 0.286996
0.433147 0.349665 0.288396
0.560582 0.352697 0.289836
0.691045 0.355790 0.291311
0.824614 0.358936 0.292815
0.961356 0.362129 0.294345
0.000000 0.445697 0.286937
0.066808 0.449832 0.288335
0.189848 0.454066 0.289773
0.315822 0.458387 0.291247
0.444814 0.462786 0.292750
0.576898 0.467253 0.294278
0.712144 0.471783 0.295829
0.850616 0.476368 0.297399
0.992373 0.481004 0.298986
0.000000 0.560878 0.291182
0.065407 0.566526 0.292684
0.192840 0.572266 0.294212
0.323359 0.578089 0.295762
0.457032 0.583987 0.297331
0.593922 0.589955 0.298917
0.734089 0.595986 0.300517
0.877588 0.602074 0.302129
1.000000 0.608216 0.303751
0.000000 0.684282 0.295694
0.063859 0.691492 0.297263
0.195888 0.698790 0.298848
0.331130 0.706169 0.300448
0.469643 0.713622 0.302059
0.611481 0.721145 0.303681
0.756697 0.728732 0.305311
0.905340 0.736379 0.306948
1.000000 0.739694 0.307197
0.000000 0.816235 0.300378
0.062125 0.825051 0.301990
0.198923 0.833953 0.303611
0.339044 0.842935 0.305241
0.482537 0.851992 0.306877
0.626117 0.856492 0.307250
0.766432 0.855147 0.306016
0.906747 0.853803 0.304782
1.000000 0.852458 0.303548
0.000000 0.000000 0.365749
0.077755 0.000000 0.364716
0.188604 0.000000 0.363683
0.299453 0.000000 0.362649
0.410302 0.000000 0.361616
0.521151 0.000000 0.360583
0.631999 0.000000 0.359550
0.742848 0.000000 0.358516
0.859292 0.000000 0.359197
0.000000 0.057861 0.362694
0.074403 0.056802 0.361661
0.185252 0.055744 0.360627
0.296101 0.054686 0.359594
0.406950 0.053627 0.358561
0.521008 0.052901 0.359149
0.638121 0.052301 0.360424
0.757958 0.051734 0.361953
0.880598 0.051182 0.363652
0.000000 0.146616 0.359639
0.071051 0.145558 0.358606
0.182964 0.145359 0.359102
0.297041 0.145581 0.360363
0.413494 0.145935 0.361883
0.532507 0.146373 0.363576
0.654221 0.146869 0.365399
0.778755 0.147407 0.367327
0.906208 0.147978 0.369342
0.000000 0.238786 0.360302
0.069329 0.240054 0.361813
0.184732 0.241476 0.363499
0.302642 0.243010 0.365318
0.423209 0.244632 0.367242
0.546556 0.246325 0.369253
0.672790 0.248074 0.371338
0.802001 0.249872 0.373486
0.934272 0.251710 0.375690
0.000000 0.339060 0.365237
0.068006 0.341762 0.367157
0.187259 0.344573 0.369165
0.309275 0.347476 0.371247
0.434158 0.350457 0.373392
0.562001 0.353506 0.375593
0.692885 0.356614 0.377843
0.826885 0.359773 0.380135
0.964070 0.362978 0.382466
0.000000 0.446776 0.371155
0.066688 0.450939 0.373298
0.190110 0.455197 0.375497
0.316481 0.459539 0.377745
0.445883 0.463956 0.380036
0.578389 0.468441 0.382365
0.714069 0.472986 0.384727
0.852984 0.477585 0.387120
0.995193 0.482233 0.389541
0.000000 0.562356 0.377647
0.065276 0.568030 0.379936
0.193110 0.573792 0.382263
0.324043 0.579636 0.384625
0.458141 0.585553 0.387016
0.595467 0.591538 0.389436
0.736079 0.597584 0.391879
0.880032 0.603688 0.394344
1.000000 0.609843 0.396828
0.000000 0.686173 0.384522
0.063712 0.693407 0.386913
0.196160 0.700727 0.389330
0.331831 0.708126 0.391773
0.470782 0.715598 0.394237
0.613068 0.723138 0.396720
0.758739 0.730741 0.399220
0.907846 0.738403 0.401736
1.000000 0.739340 0.401450
0.000000 0.818549 0.391667
0.061960 0.827389 0.394130
0.199191 0.836312 0.396612
0.339754 0.845314 0.399112
0.483697 0.854390 0.401627
0.625739 0.856138 0.401503
0.766054 0.854793 0.400269
0.906369 0.853449 0.399035
1.000000 0.852104 0.397801
0.000000 0.000000 0.444659
0.077457 0.000000 0.443626
0.188305 0.000000 0.442592
0.299154 0.000000 0.441559
0.410003 0.000000 0.440526
0.520852 0.000000 0.439493
0.631701 0.000000 0.438459
0.743379 0.000000 0.437784
0.860890 0.000000 0.439195
0.000000 0.057582 0.441604
0.074105 0.056524 0.440571
0.184953 0.055465 0.439537
0.295802 0.054407 0.438504
0.407000 0.053395 0.437745
0.521850 0.052737 0.439121
0.639404 0.052149 0.441008
0.759673 0.051588 0.443172
0.882749 0.051038 0.445533
0.000000 0.146337 0.438549
0.070796 0.145369 0.437711
0.183061 0.145400 0.439048
0.297473 0.145664 0.440920
0.414288 0.146044 0.443074
0.533683 0.146499 0.445427
0.655796 0.147007 0.447934
0.780743 0.147555 0.450566
0.908623 0.148132 0.453304
0.000000 0.239101 0.440832
0.069207 0.240416 0.442977
0.184937 0.241870 0.445322
0.303201 0.243430 0.447823
0.424144 0.245072 0.450450
0.547885 0.246780 0.453184
0.674527 0.248544 0.456008
0.804160 0.250353 0.458911
0.936865 0.252200 0.461884
0.000000 0.339760 0.447712
0.067890 0.342493 0.450335
0.187504 0.345330 0.453064
0.309898 0.348254 0.455884
0.435176 0.351254 0.458784
0.563428 0.354320 0.461754
0.694733 0.357442 0.464786
0.829166 0.360614 0.467874
0.966794 0.363829 0.471011
0.000000 0.447863 0.455760
0.066567 0.452052 0.458657
0.190373 0.456333 0.461624
0.317143 0.460696 0.464654
0.446956 0.465132 0.467739
0.579886 0.469633 0.470875
0.716000 0.474192 0.474056
0.855359 0.478805 0.477278
0.998021 0.483465 0.480537
0.000000 0.563842 0.464522
0.065143 0.569540 0.467605
0.193381 0.575325 0.470738
0.324730 0.581188 0.473917
0.459254 0.587124 0.477138
0.597017 0.593125 0.480395
0.738074 0.599187 0.483687
0.882482 0.605304 0.487010
1.000000 0.611473 0.490360
0.000000 0.688070 0.473779
0.063564 0.695328 0.476998
0.196432 0.702669 0.480254
0.332532 0.710087 0.483544
0.471923 0.717578 0.486865
0.614657 0.725135 0.490215
0.760786 0.732754 0.493590
0.910234 0.740330 0.496938
1.000000 0.738986 0.495703
0.000000 0.820870 0.483401
0.061794 0.829732 0.486721
0.199459 0.838677 0.490070
0.340464 0.847699 0.493444
0.484859 0.856792 0.496842
0.625361 0.855784 0.495757
0.765676 0.854439 0.494523
0.905991 0.853094 0.493288
1.000000 0.851750 0.492054
0.000000 0.000000 0.523569
0.077158 0.000000 0.522535
0.188007 0.000000 0.521502
0.298856 0.000000 0.520469
0.409704 0.000000 0.519436
0.520553 0.000000 0.518402
0.631402 0.000000 0.517369
0.744393 0.000000 0.517426
0.862571 0.000000 0.519487
0.000000 0.057303 0.520514
0.073806 0.056245 0.519480
0.184655 0.055186 0.518447
0.295503 0.054128 0.517414
0.407400 0.053209 0.517354
0.522743 0.052578 0.519386
0.640725 0.051999 0.521907
0.761420 0.051442 0.524725
0.884930 0.050894 0.527762
0.000000 0.146058 0.517458
0.070614 0.145336 0.517285
0.183175 0.145455 0.519286
0.297922 0.145755 0.521791
0.415099 0.146158 0.524598
0.534876 0.146628 0.527626
0.657389 0.147148 0.530830
0.782750 0.147704 0.534177
0.911057 0.148288 0.537648
0.000000 0.239431 0.521676
0.069085 0.240787 0.524472
0.185146 0.242272 0.527492
0.303767 0.243855 0.530688
0.425088 0.245516 0.534030
0.549224 0.247240 0.537495
0.676276 0.249016 0.541068
0.806332 0.250836 0.544734
0.939470 0.252692 0.548484
0.000000 0.340469 0.530547
0.067774 0.343231 0.533883
0.187750 0.346092 0.537343
0.310526 0.349038 0.540911
0.436200 0.352056 0.544574
0.564861 0.355137 0.548321
0.696590 0.358273 0.552143
0.831456 0.361457 0.556032
0.969528 0.364683 0.559984
0.000000 0.448957 0.540755
0.066445 0.453171 0.544414
0.190637 0.457475 0.548157
0.317807 0.461858 0.551976
0.448034 0.466312 0.555863
0.581388 0.470829 0.559812
0.717937 0.475403 0.563817
0.857741 0.480028 0.567873
1.000000 0.484700 0.571977
0.000000 0.565334 0.551810
0.065009 0.571056 0.555694
0.193653 0.576862 0.559640
0.325418 0.582745 0.563643
0.460370 0.588699 0.567697
0.598570 0.594717 0.571799
0.740074 0.600794 0.575944
0.884937 0.606925 0.580129
1.000000 0.613106 0.584352
0.000000 0.689974 0.563469
0.063415 0.697254 0.567521
0.196703 0.704616 0.571621
0.333235 0.712054 0.575764
0.473066 0.719563 0.579948
0.616250 0.727137 0.584169
0.762836 0.734772 0.588423
0.909856 0.739976 0.591191
1.000000 0.738631 0.589957
0.000000 0.823196 0.575584
0.061626 0.832081 0.579766
0.199726 0.841047 0.583985
0.341174 0.850088 0.588239
0.484668 0.856774 0.591244
0.624983 0.855429 0.590010
0.765298 0.854085 0.588776
0.905613 0.852740 0.587542
1.000000 0.851395 0.586308
0.000000 0.000000 0.602478
0.076859 0.000000 0.601445
0.187708 0.000000 0.600412
0.298557 0.000000 0.599379
0.409406 0.000000 0.598345
0.520254 0.000000 0.597312
0.631103 0.000000 0.596279
0.745564 0.000000 0.597366
0.864322 0.000000 0.600085
0.000000 0.057024 0.599423
0.073507 0.055966 0.598390
0.184356 0.054908 0.597357
0.295205 0.053849 0.596324
0.407894 0.053034 0.597264
0.523679 0.052423 0.599956
0.642080 0.051851 0.603129
0.763198 0.051297 0.606617
0.887139 0.050750 0.610344
0.000000 0.145779 0.596368
0.070450 0.145339 0.597164
0.183305 0.145521 0.599828
0.298387 0.145853 0.602984
0.415925 0.146276 0.606461
0.536085 0.146761 0.610179
0.658998 0.147291 0.614090
0.784774 0.147856 0.618164
0.913509 0.148446 0.622377
0.000000 0.239774 0.602840
0.068966 0.241167 0.606305
0.185361 0.242681 0.610014
0.304341 0.244286 0.613918
0.426040 0.245965 0.617985
0.550573 0.247703 0.622192
0.678035 0.249492 0.626522
0.808515 0.251322 0.630960
0.942089 0.253187 0.635495
0.000000 0.341186 0.613745
0.067658 0.343976 0.617806
0.187999 0.346861 0.622008
0.311157 0.349827 0.626333
0.437229 0.352862 0.630766
0.566302 0.355958 0.635297
0.698454 0.359107 0.639916
0.833756 0.362303 0.644614
0.972273 0.365539 0.649385
0.000000 0.450058 0.626143
0.066322 0.454297 0.630573
0.190902 0.458623 0.635100
0.318474 0.463025 0.639715
0.449115 0.467496 0.644410
0.582895 0.472029 0.649178
0.719880 0.476617 0.654013
0.860130 0.481255 0.658910
1.000000 0.485939 0.663863
0.000000 0.566833 0.639513
0.064874 0.572578 0.644205
0.193924 0.578405 0.648970
0.326107 0.584307 0.653803
0.461488 0.590279 0.658697
0.600127 0.596312 0.663648
0.742079 0.602404 0.668652
0.887399 0.608549 0.673705
1.000000 0.614742 0.678803
0.000000 0.691884 0.653593
0.063264 0.699186 0.658484
0.196975 0.706569 0.663433
0.333939 0.714026 0.668435
0.474211 0.721552 0.673486
0.617845 0.729143 0.678582
0.764890 0.736793 0.683721
0.909478 0.739622 0.685444
1.000000 0.738277 0.684210
0.000000 0.825529 0.668218
0.061456 0.834436 0.673266
0.199992 0.843422 0.678361
0.341886 0.852482 0.683498
0.484290 0.856420 0.685498
0.624605 0.855075 0.684263
0.764920 0.853730 0.683029
0.905235 0.852386 0.681795
1.000000 0.851041 0.680561
