assets/lighting/cinematic/grade-hotel-warm/lut.cube
TITLE "Hotel Warm Tungsten"
# TKRS lighting-batch-001 original LUT
# Intended usage: hotel lobby / suite practical warmth
# License: CC0-1.0
LUT_3D_SIZE 5
DOMAIN_MIN 0.0 0.0 0.0
DOMAIN_MAX 1.0 1.0 1.0
0.000000 0.000000 0.000000
0.190098 0.000000 0.000000
0.411795 0.000000 0.000000
0.633493 0.000000 0.000000
0.855190 0.000000 0.000000
0.000000 0.148010 0.000000
0.183393 0.145893 0.000000
0.409842 0.145493 0.000000
0.646645 0.146227 0.000000
0.894430 0.147232 0.000000
0.000000 0.335709 0.000000
0.186078 0.340891 0.000000
0.429164 0.346546 0.000000
0.683777 0.352532 0.000000
0.950610 0.358765 0.000000
0.000000 0.555035 0.000000
0.191763 0.566219 0.000000
0.452625 0.577773 0.000000
0.726183 0.589632 0.000000
1.000000 0.601745 0.000000
0.000000 0.807042 0.000000
0.197847 0.824574 0.000000
0.477914 0.842449 0.000000
0.767945 0.856565 0.000000
1.000000 0.853875 0.000000
0.000000 0.000000 0.129020
0.189500 0.000000 0.126953
0.411198 0.000000 0.124887
0.632895 0.000000 0.122820
0.855273 0.000000 0.120824
0.000000 0.147452 0.122909
0.182856 0.145384 0.120872
0.411231 0.145647 0.120224
0.649611 0.146473 0.119903
0.899078 0.147524 0.119706
0.000000 0.337017 0.119914
0.186542 0.342343 0.119713
0.431142 0.348095 0.119576
0.687393 0.354153 0.119468
0.955961 0.360441 0.119366
0.000000 0.557941 0.119472
0.192300 0.569230 0.119370
0.454822 0.580870 0.119259
0.730125 0.592800 0.119126
1.000000 0.604973 0.118961
0.000000 0.811625 0.119132
0.198386 0.829252 0.118969
0.480223 0.847210 0.118766
0.767188 0.855856 0.117509
1.000000 0.853167 0.115041
0.000000 0.000000 0.286839
0.188903 0.000000 0.284773
0.410600 0.000000 0.282706
0.632298 0.000000 0.280640
0.857795 0.000000 0.279480
0.000000 0.146895 0.280729
0.182889 0.145337 0.279435
0.412719 0.145833 0.281016
0.652665 0.146734 0.283219
0.903811 0.147825 0.285758
0.000000 0.338369 0.283116
0.187018 0.343823 0.285643
0.433147 0.349665 0.288396
0.691045 0.355790 0.291311
0.961356 0.362129 0.294345
0.000000 0.560878 0.291182
0.192840 0.572266 0.294212
0.457032 0.583987 0.297331
0.734089 0.595986 0.300517
1.000000 0.608216 0.303751
0.000000 0.816235 0.300378
0.198923 0.833953 0.303611
0.482537 0.851992 0.306877
0.766432 0.855147 0.306016
1.000000 0.852458 0.303548
0.000000 0.000000 0.444659
0.188305 0.000000 0.442592
0.410003 0.000000 0.440526
0.631701 0.000000 0.438459
0.860890 0.000000 0.439195
0.000000 0.146337 0.438549
0.183061 0.145400 0.439048
0.414288 0.146044 0.443074
0.655796 0.147007 0.447934
0.908623 0.148132 0.453304
0.000000 0.339760 0.447712
0.187504 0.345330 0.453064
0.435176 0.351254 0.458784
0.694733 0.357442 0.464786
0.966794 0.363829 0.471011
0.000000 0.563842 0.464522
0.193381 0.575325 0.470738
0.459254 0.587124 0.477138
0.738074 0.599187 0.483687
1.000000 0.611473 0.490360
0.000000 0.820870 0.483401
0.199459 0.838677 0.490070
0.484859 0.856792 0.496842
0.765676 0.854439 0.494523
1.000000 0.851750 0.492054
0.000000 0.000000 0.602478
0.187708 0.000000 0.600412
0.409406 0.000000 0.598345
0.631103 0.000000 0.596279
0.864322 0.000000 0.600085
0.000000 0.145779 0.596368
0.183305 0.145521 0.599828
0.415925 0.146276 0.606461
0.658998 0.147291 0.614090
0.913509 0.148446 0.622377
0.000000 0.341186 0.613745
0.187999 0.346861 0.622008
0.437229 0.352862 0.630766
0.698454 0.359107 0.639916
0.972273 0.365539 0.649385
0.000000 0.566833 0.639513
0.193924 0.578405 0.648970
0.461488 0.590279 0.658697
0.742079 0.602404 0.668652
1.000000 0.614742 0.678803
0.000000 0.825529 0.668218
0.199992 0.843422 0.678361
0.484290 0.856420 0.685498
0.764920 0.853730 0.683029
1.000000 0.851041 0.680561
