assets/lighting/cinematic/grade-hotel-warm/lut.cube
TITLE "Hotel Warm Tungsten"
# TKRS lighting-batch-001 original LUT
# Intended usage: hotel lobby / suite practical warmth
# License: CC0-1.0
LUT_3D_SIZE 17
DOMAIN_MIN 0.0 0.0 0.0
DOMAIN_MAX 1.0 1.0 1.0
0.000000 0.000000 0.000000
0.023824 0.000000 0.000000
0.079249 0.000000 0.000000
0.134673 0.000000 0.000000
0.190098 0.000000 0.000000
0.245522 0.000000 0.000000
0.300946 0.000000 0.000000
0.356371 0.000000 0.000000
0.411795 0.000000 0.000000
0.467220 0.000000 0.000000
0.522644 0.000000 0.000000
0.578068 0.000000 0.000000
0.633493 0.000000 0.000000
0.688917 0.000000 0.000000
0.744342 0.000000 0.000000
0.799766 0.000000 0.000000
0.855190 0.000000 0.000000
0.000000 0.014878 0.000000
0.022148 0.014348 0.000000
0.077573 0.013819 0.000000
0.132997 0.013290 0.000000
0.188422 0.012761 0.000000
0.243846 0.012232 0.000000
0.299270 0.011702 0.000000
0.354695 0.011173 0.000000
0.410119 0.010644 0.000000
0.465544 0.010115 0.000000
0.520968 0.009586 0.000000
0.576392 0.009057 0.000000
0.631817 0.008527 0.000000
0.687241 0.007998 0.000000
0.743055 0.007473 0.000000
0.801181 0.006967 0.000000
0.860257 0.006462 0.000000
0.000000 0.059255 0.000000
0.020472 0.058726 0.000000
0.075897 0.058197 0.000000
0.131321 0.057668 0.000000
0.186746 0.057138 0.000000
0.242170 0.056609 0.000000
0.297594 0.056080 0.000000
0.353019 0.055551 0.000000
0.408443 0.055022 0.000000
0.463868 0.054492 0.000000
0.519292 0.053963 0.000000
0.574952 0.053456 0.000000
0.632479 0.053105 0.000000
0.690856 0.052787 0.000000
0.749970 0.052486 0.000000
0.809804 0.052195 0.000000
0.870355 0.051912 0.000000
0.000000 0.103633 0.000000
0.018796 0.103103 0.000000
0.074221 0.102574 0.000000
0.129645 0.102045 0.000000
0.185069 0.101516 0.000000
0.240494 0.100987 0.000000
0.295918 0.100458 0.000000
0.351343 0.099928 0.000000
0.406889 0.099430 0.000000
0.463832 0.099227 0.000000
0.521516 0.099095 0.000000
0.579873 0.098998 0.000000
0.638900 0.098926 0.000000
0.698606 0.098872 0.000000
0.759002 0.098832 0.000000
0.820099 0.098803 0.000000
0.881909 0.098782 0.000000
0.000000 0.148010 0.000000
0.017120 0.147481 0.000000
0.072545 0.146952 0.000000
0.127969 0.146423 0.000000
0.183393 0.145893 0.000000
0.238865 0.145393 0.000000
0.295240 0.145335 0.000000
0.352238 0.145386 0.000000
0.409842 0.145493 0.000000
0.468067 0.145638 0.000000
0.526931 0.145812 0.000000
0.586452 0.146010 0.000000
0.646645 0.146227 0.000000
0.707526 0.146460 0.000000
0.769109 0.146706 0.000000
0.831406 0.146964 0.000000
0.894430 0.147232 0.000000
0.000000 0.192388 0.000000
0.015444 0.191858 0.000000
0.070876 0.191349 0.000000
0.126701 0.191427 0.000000
0.183021 0.191660 0.000000
0.239876 0.191968 0.000000
0.297303 0.192330 0.000000
0.355329 0.192732 0.000000
0.413977 0.193167 0.000000
0.473269 0.193630 0.000000
0.533223 0.194115 0.000000
0.593856 0.194621 0.000000
0.655182 0.195144 0.000000
0.717215 0.195683 0.000000
0.779968 0.196235 0.000000
0.843453 0.196799 0.000000
0.907682 0.197375 0.000000
0.000000 0.237506 0.000000
0.013864 0.237917 0.000000
0.069977 0.238426 0.000000
0.126609 0.239003 0.000000
0.183799 0.239632 0.000000
0.241578 0.240304 0.000000
0.299971 0.241011 0.000000
0.359000 0.241749 0.000000
0.418684 0.242513 0.000000
0.479040 0.243300 0.000000
0.540084 0.244109 0.000000
0.601830 0.244936 0.000000
0.664291 0.245781 0.000000
0.727480 0.246640 0.000000
0.791407 0.247513 0.000000
0.856085 0.248399 0.000000
0.921522 0.249297 0.000000
0.000000 0.285657 0.000000
0.012342 0.286512 0.000000
0.069254 0.287419 0.000000
0.126751 0.288371 0.000000
0.184857 0.289360 0.000000
0.243594 0.290382 0.000000
0.302982 0.291434 0.000000
0.363039 0.292512 0.000000
0.423779 0.293614 0.000000
0.485217 0.294738 0.000000
0.547367 0.295881 0.000000
0.610241 0.297042 0.000000
0.673850 0.298220 0.000000
0.738206 0.299413 0.000000
0.803319 0.300620 0.000000
0.869199 0.301840 0.000000
0.935855 0.303073 0.000000
0.000000 0.335709 0.000000
0.010793 0.336949 0.000000
0.068586 0.338229 0.000000
0.127008 0.339544 0.000000
0.186078 0.340891 0.000000
0.245814 0.342268 0.000000
0.306231 0.343670 0.000000
0.367343 0.345097 0.000000
0.429164 0.346546 0.000000
0.491707 0.348015 0.000000
0.554983 0.349503 0.000000
0.619003 0.351009 0.000000
0.683777 0.352532 0.000000
0.749316 0.354070 0.000000
0.815628 0.355622 0.000000
0.882723 0.357187 0.000000
0.950610 0.358765 0.000000
0.000000 0.387631 0.000000
0.009202 0.389247 0.000000
0.067935 0.390897 0.000000
0.127332 0.392578 0.000000
0.187408 0.394288 0.000000
0.248178 0.396024 0.000000
0.309655 0.397785 0.000000
0.371852 0.399568 0.000000
0.434780 0.401372 0.000000
0.498449 0.403197 0.000000
0.562872 0.405040 0.000000
0.628057 0.406900 0.000000
0.694013 0.408777 0.000000
0.760751 0.410670 0.000000
0.828278 0.412577 0.000000
0.896603 0.414497 0.000000
0.965733 0.416431 0.000000
0.000000 0.441462 0.000000
0.007562 0.443454 0.000000
0.067282 0.445477 0.000000
0.127695 0.447529 0.000000
0.188814 0.449607 0.000000
0.250650 0.451710 0.000000
0.313217 0.453836 0.000000
0.376524 0.455984 0.000000
0.440582 0.458152 0.000000
0.505401 0.460340 0.000000
0.570990 0.462547 0.000000
0.637359 0.464771 0.000000
0.704515 0.467011 0.000000
0.772468 0.469267 0.000000
0.841225 0.471537 0.000000
0.910794 0.473822 0.000000
0.981181 0.476120 0.000000
0.000000 0.497248 0.000000
0.005868 0.499620 0.000000
0.066614 0.502021 0.000000
0.128078 0.504448 0.000000
0.190271 0.506901 0.000000
0.253203 0.509377 0.000000
0.316885 0.511876 0.000000
0.381327 0.514397 0.000000
0.446538 0.516937 0.000000
0.512528 0.519496 0.000000
0.579303 0.522074 0.000000
0.646874 0.524669 0.000000
0.715248 0.527281 0.000000
0.784432 0.529908 0.000000
0.854434 0.532550 0.000000
0.925261 0.535207 0.000000
0.996920 0.537877 0.000000
0.000000 0.555035 0.000000
0.004113 0.557792 0.000000
0.065921 0.560576 0.000000
0.128467 0.563385 0.000000
0.191763 0.566219 0.000000
0.255817 0.569076 0.000000
0.320640 0.571954 0.000000
0.386239 0.574854 0.000000
0.452625 0.577773 0.000000
0.519804 0.580711 0.000000
0.587785 0.583668 0.000000
0.656576 0.586641 0.000000
0.726183 0.589632 0.000000
0.796614 0.592638 0.000000
0.867877 0.595659 0.000000
0.939976 0.598695 0.000000
1.000000 0.601745 0.000000
0.000000 0.614867 0.000000
0.002296 0.618014 0.000000
0.065195 0.621187 0.000000
0.128852 0.624384 0.000000
0.193276 0.627605 0.000000
0.258477 0.630849 0.000000
0.324463 0.634114 0.000000
0.391241 0.637399 0.000000
0.458821 0.640704 0.000000
0.527209 0.644028 0.000000
0.596414 0.647369 0.000000
0.666441 0.650729 0.000000
0.737298 0.654105 0.000000
0.808992 0.657496 0.000000
0.881528 0.660904 0.000000
0.954914 0.664326 0.000000
1.000000 0.667762 0.000000
0.000000 0.676787 0.000000
0.000413 0.680329 0.000000
0.064430 0.683896 0.000000
0.129223 0.687487 0.000000
0.194800 0.691101 0.000000
0.261170 0.694737 0.000000
0.328340 0.698395 0.000000
0.396317 0.702072 0.000000
0.465110 0.705769 0.000000
0.534726 0.709485 0.000000
0.605170 0.713219 0.000000
0.676450 0.716970 0.000000
0.748572 0.720738 0.000000
0.821543 0.724522 0.000000
0.895368 0.728321 0.000000
0.970055 0.732136 0.000000
1.000000 0.735965 0.000000
0.000000 0.740833 0.000000
0.000000 0.744776 0.000000
0.063622 0.748742 0.000000
0.129574 0.752733 0.000000
0.196326 0.756746 0.000000
0.263886 0.760780 0.000000
0.332259 0.764835 0.000000
0.401455 0.768911 0.000000
0.471479 0.773006 0.000000
0.542338 0.777120 0.000000
0.614039 0.781251 0.000000
0.686587 0.785400 0.000000
0.759989 0.789566 0.000000
0.834251 0.793749 0.000000
0.909379 0.797947 0.000000
0.980539 0.798166 0.000000
1.000000 0.797493 0.000000
0.000000 0.807042 0.000000
0.000000 0.811390 0.000000
0.062766 0.815762 0.000000
0.129899 0.820157 0.000000
0.197847 0.824574 0.000000
0.266615 0.829012 0.000000
0.336212 0.833471 0.000000
0.406643 0.837951 0.000000
0.477914 0.842449 0.000000
0.550034 0.846966 0.000000
0.623006 0.851502 0.000000
0.696838 0.856054 0.000000
0.767945 0.856565 0.000000
0.838102 0.855892 0.000000
0.908259 0.855220 0.000000
0.978417 0.854548 0.000000
1.000000 0.853875 0.000000
0.000000 0.000000 0.010655
0.023675 0.000000 0.010138
0.079099 0.000000 0.009622
0.134524 0.000000 0.009105
0.189948 0.000000 0.008588
0.245373 0.000000 0.008072
0.300797 0.000000 0.007555
0.356221 0.000000 0.007039
0.411646 0.000000 0.006522
0.467070 0.000000 0.006005
0.522495 0.000000 0.005489
0.577919 0.000000 0.004972
0.633344 0.000000 0.004455
0.688768 0.000000 0.003939
0.744192 0.000000 0.003422
0.799617 0.000000 0.002906
0.855041 0.000000 0.002389
0.000000 0.014738 0.009127
0.021999 0.014209 0.008611
0.077423 0.013680 0.008094
0.132848 0.013151 0.007578
0.188272 0.012621 0.007061
0.243697 0.012092 0.006544
0.299121 0.011563 0.006028
0.354545 0.011034 0.005511
0.409970 0.010505 0.004994
0.465394 0.009976 0.004478
0.520819 0.009446 0.003961
0.576243 0.008917 0.003445
0.631667 0.008388 0.002928
0.687092 0.007859 0.002411
0.743481 0.007339 0.001897
0.801840 0.006834 0.001383
0.861072 0.006329 0.000867
0.000000 0.059116 0.007600
0.020323 0.058586 0.007083
0.075747 0.058057 0.006567
0.131172 0.057528 0.006050
0.186596 0.056999 0.005533
0.242021 0.056470 0.005017
0.297445 0.055941 0.004500
0.352869 0.055411 0.003984
0.408294 0.054882 0.003467
0.463718 0.054353 0.002950
0.519143 0.053824 0.002434
0.575236 0.053358 0.001919
0.632964 0.053019 0.001405
0.691478 0.052707 0.000890
0.750717 0.052409 0.000371
0.810669 0.052120 0.000000
0.871336 0.051838 0.000000
0.000000 0.103493 0.006072
0.018647 0.102964 0.005556
0.074071 0.102435 0.005039
0.129496 0.101906 0.004522
0.184920 0.101376 0.004006
0.240345 0.100847 0.003489
0.295769 0.100318 0.002973
0.351193 0.099789 0.002456
0.407038 0.099364 0.001941
0.464144 0.099188 0.001427
0.521947 0.099067 0.000912
0.580414 0.098977 0.000393
0.639549 0.098910 0.000000
0.699362 0.098860 0.000000
0.759865 0.098823 0.000000
0.821071 0.098796 0.000000
0.882990 0.098778 0.000000
0.000000 0.147871 0.004545
0.016971 0.147342 0.004028
0.072395 0.146812 0.003512
0.127820 0.146283 0.002995
0.183244 0.145754 0.002478
0.238884 0.145358 0.001963
0.295382 0.145341 0.001450
0.352478 0.145409 0.000934
0.410178 0.145528 0.000416
0.468500 0.145681 0.000000
0.527463 0.145862 0.000000
0.587083 0.146065 0.000000
0.647378 0.146287 0.000000
0.708362 0.146523 0.000000
0.770049 0.146773 0.000000
0.832452 0.147034 0.000000
0.895584 0.147305 0.000000
0.000000 0.192248 0.003017
0.015295 0.191719 0.002501
0.070774 0.191341 0.001985
0.126676 0.191479 0.001472
0.183073 0.191735 0.000957
0.240010 0.192059 0.000438
0.297522 0.192432 0.000000
0.355637 0.192844 0.000000
0.414377 0.193287 0.000000
0.473764 0.193755 0.000000
0.533814 0.194247 0.000000
0.594546 0.194757 0.000000
0.655972 0.195284 0.000000
0.718108 0.195827 0.000000
0.780965 0.196382 0.000000
0.844557 0.196950 0.000000
0.908893 0.197528 0.000000
0.000000 0.237602 0.001494
0.013729 0.238043 0.000979
0.069909 0.238572 0.000461
0.126615 0.239164 0.000000
0.183884 0.239805 0.000000
0.241747 0.240487 0.000000
0.300228 0.241202 0.000000
0.359347 0.241947 0.000000
0.419124 0.242718 0.000000
0.479576 0.243512 0.000000
0.540718 0.244325 0.000000
0.602563 0.245157 0.000000
0.665126 0.246006 0.000000
0.728418 0.246869 0.000000
0.792451 0.247746 0.000000
0.857235 0.248635 0.000000
0.922780 0.249535 0.000000
0.000000 0.285876 0.000000
0.012205 0.286746 0.000000
0.069193 0.287666 0.000000
0.126770 0.288628 0.000000
0.184960 0.289626 0.000000
0.243785 0.290656 0.000000
0.303263 0.291715 0.000000
0.363413 0.292800 0.000000
0.424248 0.293908 0.000000
0.485784 0.295037 0.000000
0.548033 0.296185 0.000000
0.611008 0.297351 0.000000
0.674721 0.298533 0.000000
0.739182 0.299730 0.000000
0.804401 0.300940 0.000000
0.870388 0.302164 0.000000
0.937154 0.303399 0.000000
0.000000 0.336031 0.000000
0.010653 0.337282 0.000000
0.068527 0.338572 0.000000
0.127035 0.339896 0.000000
0.186193 0.341251 0.000000
0.246019 0.342635 0.000000
0.306530 0.344044 0.000000
0.367737 0.345476 0.000000
0.429656 0.346931 0.000000
0.492298 0.348405 0.000000
0.555675 0.349898 0.000000
0.619798 0.351409 0.000000
0.684677 0.352936 0.000000
0.750322 0.354477 0.000000
0.816742 0.356033 0.000000
0.883946 0.357602 0.000000
0.951943 0.359183 0.000000
0.000000 0.388054 0.000000
0.009058 0.389679 0.000000
0.067877 0.391337 0.000000
0.127363 0.393026 0.000000
0.187531 0.394743 0.000000
0.248395 0.396486 0.000000
0.309968 0.398252 0.000000
0.372262 0.400041 0.000000
0.435290 0.401851 0.000000
0.499061 0.403681 0.000000
0.563587 0.405529 0.000000
0.628876 0.407393 0.000000
0.694939 0.409275 0.000000
0.761784 0.411171 0.000000
0.829420 0.413081 0.000000
0.897855 0.415006 0.000000
0.967097 0.416943 0.000000
0.000000 0.441984 0.000000
0.007414 0.443985 0.000000
0.067224 0.446015 0.000000
0.127729 0.448074 0.000000
0.188942 0.450159 0.000000
0.250875 0.452268 0.000000
0.313539 0.454400 0.000000
0.376947 0.456553 0.000000
0.441107 0.458727 0.000000
0.506029 0.460920 0.000000
0.571723 0.463131 0.000000
0.638198 0.465359 0.000000
0.705463 0.467604 0.000000
0.773524 0.469863 0.000000
0.842392 0.472138 0.000000
0.912072 0.474426 0.000000
0.982573 0.476727 0.000000
0.000000 0.497870 0.000000
0.005714 0.500250 0.000000
0.066554 0.502658 0.000000
0.128113 0.505092 0.000000
0.190402 0.507551 0.000000
0.253434 0.510034 0.000000
0.317217 0.512538 0.000000
0.381761 0.515064 0.000000
0.447076 0.517609 0.000000
0.513170 0.520174 0.000000
0.580053 0.522756 0.000000
0.647731 0.525356 0.000000
0.716214 0.527971 0.000000
0.785509 0.530603 0.000000
0.855623 0.533249 0.000000
0.926563 0.535909 0.000000
0.998336 0.538582 0.000000
0.000000 0.555758 0.000000
0.003954 0.558523 0.000000
0.065857 0.561314 0.000000
0.128502 0.564130 0.000000
0.191897 0.566969 0.000000
0.256052 0.569832 0.000000
0.320978 0.572716 0.000000
0.386682 0.575621 0.000000
0.453173 0.578545 0.000000
0.520459 0.581488 0.000000
0.588548 0.584449 0.000000
0.657449 0.587428 0.000000
0.727167 0.590422 0.000000
0.797710 0.593432 0.000000
0.869085 0.596457 0.000000
0.941299 0.599497 0.000000
1.000000 0.602550 0.000000
0.000000 0.615694 0.000000
0.002131 0.618848 0.000000
0.065128 0.622027 0.000000
0.128885 0.625231 0.000000
0.193412 0.628458 0.000000
0.258716 0.631707 0.000000
0.324806 0.634977 0.000000
0.391691 0.638268 0.000000
0.459378 0.641578 0.000000
0.527875 0.644906 0.000000
0.597189 0.648253 0.000000
0.667327 0.651617 0.000000
0.738296 0.654997 0.000000
0.810103 0.658393 0.000000
0.882754 0.661804 0.000000
0.956256 0.665230 0.000000
1.000000 0.668670 0.000000
0.000000 0.677718 0.000000
0.000242 0.681267 0.000000
0.064360 0.684840 0.000000
0.129255 0.688437 0.000000
0.194936 0.692057 0.000000
0.261411 0.695699 0.000000
0.328687 0.699362 0.000000
0.396773 0.703044 0.000000
0.465675 0.706746 0.000000
0.535400 0.710467 0.000000
0.605956 0.714205 0.000000
0.677348 0.717961 0.000000
0.749584 0.721733 0.000000
0.822669 0.725521 0.000000
0.896610 0.729325 0.000000
0.971413 0.733143 0.000000
1.000000 0.736976 0.000000
0.000000 0.741869 0.000000
0.000000 0.745818 0.000000
0.063548 0.749792 0.000000
0.129604 0.753788 0.000000
0.196462 0.757807 0.000000
0.264128 0.761847 0.000000
0.332610 0.765907 0.000000
0.401915 0.769988 0.000000
0.472050 0.774088 0.000000
0.543020 0.778206 0.000000
0.614834 0.782343 0.000000
0.687496 0.786496 0.000000
0.761013 0.790667 0.000000
0.835391 0.794853 0.000000
0.910192 0.798661 0.000000
0.980349 0.797988 0.000000
1.000000 0.797316 0.000000
0.000000 0.808185 0.000000
0.000000 0.812540 0.000000
0.062687 0.816918 0.000000
0.129927 0.821318 0.000000
0.197982 0.825741 0.000000
0.266859 0.830185 0.000000
0.336565 0.834650 0.000000
0.407107 0.839134 0.000000
0.478491 0.843637 0.000000
0.550723 0.848159 0.000000
0.623809 0.852699 0.000000
0.697598 0.857060 0.000000
0.767755 0.856387 0.000000
0.837913 0.855715 0.000000
0.908070 0.855043 0.000000
0.978228 0.854370 0.000000
1.000000 0.853698 0.000000
0.000000 0.000000 0.050110
0.023526 0.000000 0.049593
0.078950 0.000000 0.049077
0.134375 0.000000 0.048560
0.189799 0.000000 0.048043
0.245223 0.000000 0.047527
0.300648 0.000000 0.047010
0.356072 0.000000 0.046493
0.411497 0.000000 0.045977
0.466921 0.000000 0.045460
0.522345 0.000000 0.044944
0.577770 0.000000 0.044427
0.633194 0.000000 0.043910
0.688619 0.000000 0.043394
0.744043 0.000000 0.042877
0.799467 0.000000 0.042361
0.854892 0.000000 0.041844
0.000000 0.014599 0.048582
0.021850 0.014070 0.048066
0.077274 0.013540 0.047549
0.132698 0.013011 0.047032
0.188123 0.012482 0.046516
0.243547 0.011953 0.045999
0.298972 0.011424 0.045483
0.354396 0.010894 0.044966
0.409820 0.010365 0.044449
0.465245 0.009836 0.043933
0.520669 0.009307 0.043416
0.576094 0.008778 0.042899
0.631518 0.008249 0.042383
0.686943 0.007719 0.041866
0.743975 0.007206 0.041415
0.802528 0.006701 0.041010
0.861908 0.006195 0.040617
0.000000 0.058976 0.047055
0.020174 0.058447 0.046538
0.075598 0.057918 0.046022
0.131022 0.057389 0.045505
0.186447 0.056860 0.044988
0.241871 0.056330 0.044472
0.297296 0.055801 0.043955
0.352720 0.055272 0.043438
0.408144 0.054743 0.042922
0.463569 0.054214 0.042405
0.518993 0.053684 0.041889
0.575578 0.053265 0.041433
0.633471 0.052935 0.041028
0.692117 0.052627 0.040634
0.751476 0.052332 0.040246
0.811545 0.052045 0.039863
0.872327 0.051764 0.039481
0.000000 0.103354 0.045527
0.018498 0.102825 0.045011
0.073922 0.102295 0.044494
0.129346 0.101766 0.043977
0.184771 0.101237 0.043461
0.240195 0.100708 0.042944
0.295620 0.100179 0.042427
0.351044 0.099650 0.041911
0.407230 0.099309 0.041451
0.464474 0.099152 0.041045
0.522390 0.099041 0.040651
0.580965 0.098958 0.040263
0.640207 0.098896 0.039879
0.700127 0.098849 0.039498
0.760737 0.098815 0.039118
0.822050 0.098791 0.038738
0.884078 0.098774 0.038359
0.000000 0.147731 0.044000
0.016822 0.147202 0.043483
0.072246 0.146673 0.042966
0.127670 0.146144 0.042450
0.183095 0.145615 0.041933
0.238932 0.145341 0.041469
0.295536 0.145353 0.041062
0.352727 0.145436 0.040667
0.410523 0.145565 0.040280
0.468941 0.145727 0.039896
0.528001 0.145914 0.039514
0.587721 0.146122 0.039134
0.648117 0.146348 0.038755
0.709204 0.146588 0.038375
0.770995 0.146841 0.037995
0.833504 0.147104 0.037613
0.896743 0.147377 0.037230
0.000000 0.192109 0.042472
0.015145 0.191580 0.041956
0.070682 0.191359 0.041487
0.126655 0.191538 0.041079
0.183129 0.191815 0.040684
0.240148 0.192153 0.040296
0.297746 0.192538 0.039912
0.355949 0.192958 0.039531
0.414781 0.193408 0.039151
0.474262 0.193883 0.038771
0.534410 0.194379 0.038391
0.595240 0.194894 0.038011
0.656767 0.195426 0.037630
0.719006 0.195972 0.037247
0.781968 0.196531 0.036862
0.845665 0.197101 0.036475
0.910108 0.197682 0.036086
0.000000 0.237707 0.041097
0.013594 0.238175 0.040701
0.069841 0.238723 0.040313
0.126622 0.239329 0.039929
0.183972 0.239981 0.039547
0.241919 0.240672 0.039167
0.300487 0.241396 0.038788
0.359697 0.242148 0.038408
0.419567 0.242925 0.038028
0.480115 0.243724 0.037646
0.541354 0.244543 0.037263
0.603300 0.245379 0.036879
0.665965 0.246232 0.036492
0.729360 0.247099 0.036103
0.793498 0.247979 0.035711
0.858389 0.248871 0.035317
0.924043 0.249774 0.034920
0.000000 0.286100 0.039945
0.012068 0.286984 0.039564
0.069132 0.287915 0.039184
0.126790 0.288887 0.038804
0.185064 0.289895 0.038424
0.243977 0.290933 0.038044
0.303546 0.291999 0.037663
0.363789 0.293090 0.037280
0.424719 0.294203 0.036895
0.486353 0.295338 0.036509
0.548702 0.296491 0.036120
0.611778 0.297661 0.035728
0.675594 0.298847 0.035334
0.740160 0.300047 0.034937
0.805486 0.301262 0.034537
0.871581 0.302488 0.034133
0.938455 0.303727 0.033727
0.000000 0.336357 0.038820
0.010513 0.337619 0.038441
0.068469 0.338918 0.038060
0.127062 0.340250 0.037679
0.186308 0.341613 0.037296
0.246226 0.343003 0.036912
0.306830 0.344419 0.036525
0.368133 0.345858 0.036137
0.430150 0.347317 0.035745
0.492892 0.348797 0.035351
0.556370 0.350295 0.034954
0.620596 0.351810 0.034554
0.685580 0.353340 0.034151
0.751331 0.354886 0.033744
0.817859 0.356445 0.033334
0.885172 0.358017 0.032920
0.953280 0.359602 0.032503
0.000000 0.388478 0.037696
0.008914 0.390113 0.037313
0.067819 0.391779 0.036929
0.127395 0.393476 0.036542
0.187654 0.395200 0.036153
0.248612 0.396949 0.035762
0.310281 0.398722 0.035368
0.372674 0.400516 0.034971
0.435801 0.402331 0.034572
0.499674 0.404166 0.034168
0.564303 0.406018 0.033762
0.629697 0.407888 0.033352
0.695867 0.409773 0.032938
0.762819 0.411673 0.032521
0.830565 0.413587 0.032099
0.899110 0.415515 0.031674
0.968464 0.417455 0.031245
0.000000 0.442508 0.036559
0.007265 0.444517 0.036170
0.067165 0.446555 0.035779
0.127762 0.448621 0.035385
0.189070 0.450712 0.034989
0.251100 0.452827 0.034589
0.313863 0.454965 0.034186
0.377371 0.457124 0.033780
0.441633 0.459303 0.033370
0.506659 0.461501 0.032956
0.572458 0.463717 0.032539
0.639040 0.465949 0.032118
0.706412 0.468198 0.031692
0.774583 0.470461 0.031263
0.843561 0.472739 0.030830
0.913353 0.475031 0.030392
0.983966 0.477336 0.029950
0.000000 0.498494 0.035402
0.005559 0.500882 0.035006
0.066493 0.503297 0.034606
0.128147 0.505738 0.034203
0.190534 0.508203 0.033797
0.253665 0.510692 0.033387
0.317549 0.513202 0.032974
0.382195 0.515733 0.032557
0.447614 0.518283 0.032136
0.513814 0.520853 0.031711
0.580803 0.523439 0.031282
0.648590 0.526043 0.030849
0.717183 0.528663 0.030411
0.786588 0.531298 0.029969
0.856813 0.533948 0.029523
0.927866 0.536612 0.029072
0.999753 0.539289 0.028617
0.000000 0.556484 0.034221
0.003794 0.559256 0.033815
0.065794 0.562053 0.033405
0.128536 0.564876 0.032992
0.192031 0.567722 0.032575
0.256288 0.570590 0.032154
0.321316 0.573480 0.031729
0.387125 0.576390 0.031300
0.453722 0.579319 0.030867
0.521115 0.582267 0.030430
0.589313 0.585233 0.029989
0.658323 0.588215 0.029542
0.728151 0.591214 0.029092
0.798807 0.594228 0.028637
0.870295 0.597257 0.028177
0.942623 0.600300 0.027712
1.000000 0.603357 0.027243
0.000000 0.616522 0.033010
0.001965 0.619683 0.032593
0.065061 0.622869 0.032172
0.128919 0.626079 0.031748
0.193547 0.629312 0.031319
0.258955 0.632567 0.030886
0.325150 0.635842 0.030449
0.392141 0.639138 0.030008
0.459936 0.642453 0.029562
0.528541 0.645786 0.029112
0.597965 0.649137 0.028657
0.668215 0.652506 0.028197
0.739296 0.655890 0.027733
0.811216 0.659290 0.027264
0.883982 0.662705 0.026790
0.957598 0.666135 0.026311
1.000000 0.669578 0.025827
0.000000 0.678650 0.031766
0.000070 0.682206 0.031338
0.064289 0.685786 0.030905
0.129287 0.689389 0.030468
0.195072 0.693015 0.030027
0.261652 0.696662 0.029581
0.329035 0.700330 0.029131
0.397229 0.704018 0.028676
0.466240 0.707725 0.028217
0.536076 0.711450 0.027753
0.606743 0.715193 0.027284
0.678248 0.718953 0.026810
0.750597 0.722730 0.026332
0.823797 0.726522 0.025848
0.897853 0.730330 0.025359
0.972773 0.734152 0.024866
1.000000 0.737988 0.024367
0.000000 0.742907 0.030487
0.000000 0.746863 0.030046
0.063473 0.750842 0.029601
0.129634 0.754845 0.029151
0.196598 0.758869 0.028696
0.264371 0.762915 0.028237
0.332962 0.766981 0.027773
0.402376 0.771066 0.027304
0.472621 0.775171 0.026831
0.543704 0.779295 0.026352
0.615630 0.783435 0.025869
0.688406 0.787594 0.025381
0.762038 0.791768 0.024887
0.836532 0.795959 0.024388
0.910003 0.798484 0.023846
0.980160 0.797811 0.023229
1.000000 0.797139 0.022612
0.000000 0.809330 0.029170
0.000000 0.813691 0.028716
0.062608 0.818075 0.028257
0.129954 0.822482 0.027793
0.198116 0.826910 0.027325
0.267102 0.831360 0.026851
0.336919 0.835829 0.026373
0.407572 0.840319 0.025890
0.479068 0.844827 0.025402
0.551413 0.849354 0.024908
0.624614 0.853899 0.024410
0.697409 0.856883 0.023873
0.767566 0.856210 0.023256
0.837724 0.855538 0.022639
0.907881 0.854866 0.022022
0.978039 0.854193 0.021404
1.000000 0.853521 0.020787
0.000000 0.000000 0.089565
0.023376 0.000000 0.089048
0.078801 0.000000 0.088531
0.134225 0.000000 0.088015
0.189650 0.000000 0.087498
0.245074 0.000000 0.086982
0.300498 0.000000 0.086465
0.355923 0.000000 0.085948
0.411347 0.000000 0.085432
0.466772 0.000000 0.084915
0.522196 0.000000 0.084399
0.577620 0.000000 0.083882
0.633045 0.000000 0.083365
0.688469 0.000000 0.082849
