assets/lighting/day-night-palettes/grade-winter-cool/lut.cube
TITLE "Winter Cool"
# TKRS lighting-batch-001 original LUT
# Intended usage: snow / winter high-key cool
# License: CC0-1.0
LUT_3D_SIZE 5
DOMAIN_MIN 0.0 0.0 0.0
DOMAIN_MAX 1.0 1.0 1.0
0.000000 0.000000 0.000000
0.146498 0.000000 0.000000
0.313509 0.001666 0.001814
0.480519 0.013231 0.014403
0.647530 0.024795 0.026992
0.016975 0.182296 0.019336
0.184437 0.194277 0.031971
0.357842 0.208935 0.045023
0.538767 0.224608 0.058443
0.727941 0.241101 0.072249
0.057116 0.402534 0.063805
0.237403 0.422676 0.077767
0.425962 0.443767 0.092139
0.623328 0.465760 0.106937
0.829935 0.488628 0.122175
0.104126 0.658239 0.112854
0.300221 0.685322 0.128267
0.505638 0.713371 0.144136
0.720721 0.742365 0.160472
0.945775 0.772291 0.177284
0.158783 0.951194 0.167002
0.372335 0.985701 0.184003
0.592366 1.000000 0.200716
0.805830 1.000000 0.215355
1.000000 1.000000 0.229994
0.000000 0.000000 0.166369
0.150413 0.000000 0.178958
0.317423 0.005762 0.191548
0.484434 0.017327 0.204137
0.652714 0.028941 0.216973
0.020890 0.186392 0.209069
0.189377 0.199320 0.222678
0.364318 0.214387 0.237882
0.546912 0.230360 0.253755
0.737867 0.247128 0.270212
0.061691 0.409555 0.260135
0.243527 0.430040 0.276812
0.433772 0.451455 0.294039
0.632930 0.473761 0.311810
0.841415 0.496933 0.330120
0.109463 0.667719 0.318919
0.307315 0.695147 0.337442
0.514575 0.723533 0.356505
0.731575 0.752859 0.376113
0.958611 0.783112 0.396267
0.164958 0.963301 0.383944
0.380407 0.998164 0.404314
0.597369 1.000000 0.421337
0.810833 1.000000 0.435976
1.000000 1.000000 0.450614
0.000000 0.000000 0.356103
0.154327 0.000000 0.368692
0.321338 0.009858 0.381281
0.488349 0.021423 0.393871
0.660105 0.033197 0.408183
0.024804 0.190488 0.398803
0.194507 0.204537 0.414772
0.370966 0.219949 0.432378
0.555233 0.236210 0.450856
0.747975 0.253249 0.470077
0.066341 0.416701 0.458302
0.249754 0.437521 0.477798
0.441704 0.459255 0.497966
0.642668 0.481870 0.518781
0.853043 0.505345 0.540229
0.114885 0.677323 0.527110
0.314510 0.705093 0.548803
0.523627 0.733813 0.571116
0.742556 0.763468 0.594046
0.971584 0.794048 0.617589
0.171224 0.975534 0.603198
0.388583 1.000000 0.626981
0.602373 1.000000 0.641958
0.815837 1.000000 0.656596
1.000000 1.000000 0.671235
0.000000 0.000000 0.545836
0.158242 0.002390 0.558426
0.325253 0.013954 0.571015
0.492263 0.025519 0.583604
0.668077 0.037517 0.600853
0.028814 0.195151 0.589683
0.199784 0.209890 0.608414
0.377771 0.225617 0.628600
0.563721 0.242158 0.649811
0.758258 0.259465 0.671898
0.071067 0.423968 0.658365
0.256083 0.445117 0.680773
0.449755 0.467165 0.703959
0.652540 0.490087 0.727888
0.864817 0.513864 0.752533
0.120392 0.687049 0.737460
0.321807 0.715157 0.762381
0.532793 0.744210 0.787997
0.753663 0.774194 0.814296
0.984693 0.805099 0.841272
0.177582 0.987893 0.824785
0.393912 1.000000 0.847939
0.607376 1.000000 0.862578
0.820840 1.000000 0.877217
1.000000 1.000000 0.891856
0.000000 0.000000 0.735570
0.162157 0.006486 0.748159
0.329167 0.018050 0.760749
0.497565 0.029687 0.774603
0.676442 0.041900 0.795120
0.032924 0.200230 0.782327
0.205190 0.215361 0.803718
0.384724 0.231386 0.826624
0.572370 0.248202 0.850678
0.768711 0.265774 0.875719
0.075871 0.431353 0.860377
0.262513 0.452825 0.885779
0.457926 0.475185 0.912057
0.662545 0.498411 0.939162
0.876734 0.522489 0.967061
0.125985 0.696895 0.950000
0.329206 0.725340 0.978204
0.542075 0.754724 1.000000
0.764895 0.785035 1.000000
0.991393 0.811441 1.000000
0.184032 1.000000 1.000000
0.398916 1.000000 1.000000
0.612380 1.000000 1.000000
0.825843 1.000000 1.000000
1.000000 1.000000 1.000000
