assets/lighting/day-night-palettes/grade-winter-cool/lut.cube
TITLE "Winter Cool"
# TKRS lighting-batch-001 original LUT
# Intended usage: snow / winter high-key cool
# License: CC0-1.0
LUT_3D_SIZE 9
DOMAIN_MIN 0.0 0.0 0.0
DOMAIN_MAX 1.0 1.0 1.0
0.000000 0.000000 0.000000
0.062993 0.000000 0.000000
0.146498 0.000000 0.000000
0.230004 0.000000 0.000000
0.313509 0.001666 0.001814
0.397014 0.007448 0.008108
0.480519 0.013231 0.014403
0.564025 0.019013 0.020698
0.647530 0.024795 0.026992
0.000000 0.080417 0.000000
0.081737 0.086199 0.004280
0.165242 0.091981 0.010575
0.248747 0.097763 0.016869
0.332252 0.103546 0.023164
0.415817 0.109342 0.029461
0.502777 0.115820 0.035901
0.591974 0.122566 0.042437
0.683260 0.129504 0.049064
0.016975 0.182296 0.019336
0.100480 0.188078 0.025630
0.184437 0.194277 0.031971
0.270254 0.201450 0.038451
0.357842 0.208935 0.045023
0.447314 0.216664 0.051686
0.538767 0.224608 0.058443
0.632285 0.232757 0.065297
0.727941 0.241101 0.072249
0.036212 0.287613 0.041015
0.122006 0.295885 0.047622
0.209535 0.304438 0.054322
0.298933 0.313242 0.061117
0.390304 0.322278 0.068009
0.483734 0.331538 0.075000
0.579296 0.341012 0.082094
0.677054 0.350696 0.089291
0.777067 0.360587 0.096594
0.057116 0.402534 0.063805
0.146265 0.412482 0.070736
0.237403 0.422676 0.077767
0.330612 0.433106 0.084901
0.425962 0.443767 0.092139
0.523515 0.454653 0.099484
0.623328 0.465760 0.106937
0.725452 0.477086 0.114500
0.829935 0.488628 0.122175
0.079713 0.525929 0.087725
0.172604 0.537582 0.095004
0.267652 0.549477 0.102391
0.364916 0.561610 0.109887
0.464450 0.573977 0.117494
0.566303 0.586574 0.125212
0.670523 0.599399 0.133044
0.777151 0.612450 0.140991
0.886228 0.625725 0.149054
0.104126 0.658239 0.112854
0.201031 0.671658 0.120505
0.300221 0.685322 0.128267
0.401741 0.699227 0.136144
0.505638 0.713371 0.144136
0.611951 0.727751 0.152245
0.720721 0.742365 0.160472
0.831984 0.757212 0.168818
0.945775 0.772291 0.177284
0.130454 0.799874 0.139262
0.231588 0.815120 0.147299
0.335109 0.830614 0.155454
0.441057 0.846354 0.163728
0.549471 0.862337 0.172120
0.660386 0.878562 0.180634
0.773837 0.895027 0.189269
0.888605 0.910578 0.197849
0.995337 0.917770 0.205168
0.158783 0.951194 0.167002
0.264321 0.968322 0.175442
0.372335 0.985701 0.184003
0.482860 1.000000 0.192686
0.592366 1.000000 0.200716
0.699098 1.000000 0.208036
0.805830 1.000000 0.215355
0.912562 1.000000 0.222674
1.000000 1.000000 0.229994
0.000000 0.000000 0.071502
0.064950 0.000000 0.077797
0.148456 0.000000 0.084091
0.231961 0.000000 0.090386
0.315466 0.003714 0.096681
0.398971 0.009496 0.102975
0.482477 0.015279 0.109270
0.565982 0.021061 0.115565
0.649491 0.026844 0.121860
0.000189 0.082465 0.092852
0.083694 0.088247 0.099147
0.167199 0.094029 0.105442
0.250704 0.099811 0.111736
0.334210 0.105594 0.118031
0.418633 0.111590 0.124486
0.506235 0.118185 0.131385
0.595919 0.125002 0.138449
0.687676 0.132004 0.145649
0.018932 0.184344 0.114203
0.102438 0.190126 0.120497
0.186878 0.196772 0.127165
0.273077 0.204071 0.134136
0.361057 0.211647 0.141254
0.450938 0.219454 0.148504
0.542817 0.227472 0.155880
0.636774 0.235690 0.163377
0.732881 0.244102 0.170996
0.038320 0.290508 0.136908
0.124439 0.298884 0.144080
0.212329 0.307529 0.151379
0.302112 0.316416 0.158803
0.393888 0.325533 0.166348
0.487740 0.334869 0.174014
0.583738 0.344418 0.181800
0.681946 0.354176 0.189708
0.782420 0.364139 0.197736
0.059394 0.406028 0.161745
0.148918 0.416065 0.169337
0.240452 0.426343 0.177050
0.334074 0.436856 0.184884
0.429852 0.447597 0.192839
0.527846 0.458562 0.200915
0.628112 0.469747 0.209113
0.730700 0.481149 0.217434
0.835656 0.492767 0.225879
0.082175 0.530028 0.187986
0.175474 0.541768 0.195989
0.270945 0.553748 0.204113
0.368644 0.565964 0.212359
0.468626 0.578412 0.220728
0.570938 0.591090 0.229221
0.675626 0.603996 0.237839
0.782732 0.617126 0.246582
0.892296 0.630481 0.255452
0.106784 0.662964 0.215623
0.204122 0.676470 0.224041
0.303755 0.690220 0.232583
0.405731 0.704210 0.241250
0.510092 0.718437 0.250042
0.616879 0.732900 0.258961
0.726132 0.747597 0.268007
0.837886 0.762527 0.277182
0.952176 0.777687 0.286485
0.133318 0.805246 0.244680
0.234904 0.820580 0.253522
0.338886 0.836161 0.262490
0.445306 0.851987 0.271587
0.554200 0.868056 0.280811
0.665603 0.884366 0.290165
0.779549 0.900917 0.299649
0.891106 0.913125 0.308159
0.997838 0.920317 0.315478
0.161859 0.957232 0.275186
0.267867 0.974449 0.284461
0.376358 0.991917 0.293866
0.487369 1.000000 0.303400
0.594868 1.000000 0.311027
0.701600 1.000000 0.318346
0.808332 1.000000 0.325665
0.915063 1.000000 0.332985
1.000000 1.000000 0.340304
0.000000 0.000000 0.166369
0.066908 0.000000 0.172664
0.150413 0.000000 0.178958
0.233918 0.000000 0.185253
0.317423 0.005762 0.191548
0.400929 0.011544 0.197842
0.484434 0.017327 0.204137
0.567939 0.023109 0.210432
0.652714 0.028941 0.216973
0.002146 0.084513 0.187719
0.085651 0.090295 0.194014
0.169157 0.096077 0.200309
0.252662 0.101859 0.206603
0.336167 0.107642 0.212898
0.421663 0.113895 0.219801
0.509783 0.120577 0.227220
0.599936 0.127462 0.234846
0.692157 0.134526 0.242644
0.020890 0.186392 0.209069
0.104461 0.192281 0.215444
0.189377 0.199320 0.222678
0.275947 0.206725 0.230186
0.364318 0.214387 0.237882
0.454608 0.222270 0.245742
0.546912 0.230360 0.253755
0.641308 0.238647 0.261913
0.737867 0.247128 0.270212
0.040444 0.293442 0.233181
0.126897 0.301917 0.240943
0.215150 0.310650 0.248864
0.305322 0.319620 0.256934
0.397506 0.328815 0.265148
0.491781 0.338227 0.273501
0.588218 0.347851 0.281993
0.686877 0.357682 0.290622
0.787813 0.367717 0.299386
0.061691 0.409555 0.260135
0.151595 0.419678 0.268404
0.243527 0.430040 0.276812
0.337565 0.440635 0.285358
0.433772 0.451455 0.294039
0.532209 0.462499 0.302857
0.632930 0.473761 0.311810
0.735984 0.485240 0.320897
0.841415 0.496933 0.330120
0.084657 0.534158 0.288743
0.178367 0.545984 0.297478
0.274263 0.558048 0.306349
0.372400 0.570346 0.315354
0.472831 0.582877 0.324495
0.575604 0.595635 0.333770
0.680762 0.608621 0.343181
0.788348 0.621831 0.352728
0.898399 0.635264 0.362410
0.109463 0.667719 0.318919
0.207236 0.681312 0.328113
0.307315 0.695147 0.337442
0.409747 0.709222 0.346906
0.514575 0.723533 0.356505
0.621838 0.738079 0.366241
0.731575 0.752859 0.376113
0.843821 0.767870 0.386122
0.958611 0.783112 0.396267
0.136203 0.810648 0.350651
0.238243 0.826070 0.360304
0.342690 0.841738 0.370093
0.449582 0.857651 0.380018
0.558957 0.873805 0.390080
0.670850 0.890201 0.400280
0.785293 0.906836 0.410618
0.893608 0.915672 0.418469
1.000000 0.922864 0.425789
0.164958 0.963301 0.383944
0.271436 0.980607 0.394060
0.380407 0.998164 0.404314
0.490638 1.000000 0.414018
0.597369 1.000000 0.421337
0.704101 1.000000 0.428656
0.810833 1.000000 0.435976
0.917565 1.000000 0.443295
1.000000 1.000000 0.450614
0.000000 0.000000 0.261236
0.068865 0.000000 0.267530
0.152370 0.000000 0.273825
0.235875 0.002028 0.280120
0.319381 0.007810 0.286414
0.402886 0.013592 0.292709
0.486391 0.019375 0.299004
0.569897 0.025157 0.305298
0.656315 0.031060 0.312406
0.004103 0.086561 0.282586
0.087609 0.092343 0.288881
0.171114 0.098125 0.295175
0.254619 0.103907 0.301470
0.338272 0.109732 0.307843
0.424813 0.116236 0.315447
0.513409 0.122994 0.323425
0.604019 0.129944 0.331643
0.696700 0.137070 0.340062
0.022847 0.188440 0.303936
0.106659 0.194713 0.310755
0.191922 0.201910 0.318540
0.278859 0.209412 0.326619
0.367621 0.217154 0.334919
0.458321 0.225112 0.343410
0.551051 0.233273 0.352077
0.645887 0.241629 0.360910
0.742899 0.250177 0.369903
0.042587 0.296412 0.329847
0.129378 0.304982 0.338224
0.218000 0.313800 0.346786
0.308563 0.322851 0.355519
0.401156 0.332124 0.364415
0.495858 0.341612 0.373470
0.592735 0.351309 0.382678
0.691846 0.361213 0.392038
0.793246 0.371320 0.401548
0.064006 0.413112 0.358985
0.154293 0.423321 0.367944
0.246628 0.433766 0.377059
0.341083 0.444442 0.386328
0.437723 0.455342 0.395747
0.536605 0.466463 0.405315
0.637782 0.477802 0.415031
0.741303 0.489357 0.424893
0.847211 0.501126 0.434902
0.087160 0.538319 0.390000
0.181283 0.550229 0.399478
0.277606 0.562377 0.409104
0.376183 0.574758 0.418878
0.477066 0.587370 0.428797
0.580300 0.600209 0.438863
0.685931 0.613274 0.449075
0.793997 0.626563 0.459432
0.904538 0.640075 0.469933
0.112163 0.672506 0.422747
0.210373 0.686185 0.432724
0.310900 0.700105 0.442847
0.413791 0.714264 0.453115
0.519086 0.728658 0.463529
0.626827 0.743287 0.474088
0.737050 0.758149 0.484791
0.849790 0.773242 0.495640
0.965081 0.788565 0.506635
0.139110 0.816082 0.457178
0.241606 0.831592 0.467649
0.346518 0.847347 0.478264
0.453885 0.863345 0.489025
0.563743 0.879585 0.499931
0.676127 0.896065 0.510982
0.789378 0.911028 0.521460
0.896110 0.918219 0.528779
1.000000 0.925411 0.536099
0.168080 0.969402 0.493281
0.275031 0.986797 0.504243
0.384482 1.000000 0.515352
0.493139 1.000000 0.524328
0.599871 1.000000 0.531647
0.706603 1.000000 0.538967
0.813335 1.000000 0.546286
0.920067 1.000000 0.553605
1.000000 1.000000 0.560925
0.000000 0.000000 0.356103
0.070822 0.000000 0.362397
0.154327 0.000000 0.368692
0.237833 0.004076 0.374987
0.321338 0.009858 0.381281
0.404843 0.015641 0.387576
0.488349 0.021423 0.393871
0.571998 0.027211 0.400224
0.660105 0.033197 0.408183
0.006061 0.088609 0.377453
0.089566 0.094391 0.383748
0.173071 0.100173 0.390042
0.256576 0.105955 0.396337
0.340974 0.111994 0.403250
0.428054 0.118606 0.411450
0.517104 0.125435 0.420019
0.608164 0.132448 0.428853
0.701301 0.139634 0.437913
0.024804 0.190488 0.398803
0.108907 0.197219 0.406405
0.194507 0.204537 0.414772
0.281812 0.212128 0.423452
0.370966 0.219949 0.432378
0.462076 0.227980 0.441518
0.555233 0.236210 0.450856
0.650510 0.244635 0.460378
0.747975 0.253249 0.470077
0.044746 0.299417 0.426922
0.131882 0.308078 0.435935
0.220876 0.316980 0.445154
0.311833 0.326111 0.454565
0.404840 0.335460 0.464158
0.499969 0.345022 0.473925
0.597288 0.354793 0.483861
0.696853 0.364769 0.493963
0.798717 0.374949 0.504228
0.066341 0.416701 0.458302
0.157015 0.426994 0.467964
0.249754 0.437521 0.477798
0.344630 0.448277 0.487800
0.441704 0.459255 0.497966
0.541033 0.470454 0.508294
0.642668 0.481870 0.518781
0.746657 0.493501 0.529427
0.853043 0.505345 0.540229
0.089683 0.542510 0.491764
0.184222 0.554505 0.501993
0.280974 0.566736 0.512384
0.379994 0.579199 0.522934
0.481329 0.591891 0.533641
0.585028 0.604811 0.544504
0.691131 0.617955 0.555523
0.799680 0.631324 0.566696
0.910712 0.644914 0.578024
0.114885 0.677323 0.527110
0.213533 0.691088 0.537878
0.314510 0.705093 0.548803
0.417861 0.719335 0.559882
0.523627 0.733813 0.571116
0.631846 0.748524 0.582504
0.742556 0.763468 0.594046
0.855791 0.778643 0.605741
0.971584 0.794048 0.617589
0.142040 0.821547 0.564266
0.244993 0.837144 0.575560
0.350372 0.852985 0.587008
0.458215 0.869069 0.598610
0.568558 0.885395 0.610365
0.681433 0.901960 0.622273
0.791880 0.913575 0.631770
0.898611 0.920766 0.639090
1.000000 0.927958 0.646409
0.171224 0.975534 0.603198
0.278649 0.993018 0.615013
0.388583 1.000000 0.626981
0.495641 1.000000 0.634638
0.602373 1.000000 0.641958
0.709105 1.000000 0.649277
0.815837 1.000000 0.656596
0.922568 1.000000 0.663916
1.000000 1.000000 0.671235
0.000000 0.000000 0.450969
0.072779 0.000000 0.457264
0.156285 0.000342 0.463559
0.239790 0.006124 0.469853
0.323295 0.011906 0.476148
0.406801 0.017689 0.482443
0.490306 0.023471 0.488737
0.575169 0.029314 0.495718
0.664034 0.035349 0.504325
0.008018 0.090657 0.472320
0.091523 0.096439 0.478614
0.175028 0.102221 0.484909
0.258534 0.108003 0.491204
0.343825 0.114306 0.499019
0.431371 0.121002 0.507831
0.520863 0.127899 0.517016
0.612368 0.134974 0.526488
0.705959 0.142220 0.536206
0.026788 0.192703 0.493956
0.111191 0.199774 0.502417
0.197128 0.207198 0.511392
0.284803 0.214873 0.520696
0.374349 0.222770 0.530268
0.465872 0.230873 0.540075
0.559456 0.239172 0.550098
0.655176 0.247664 0.560323
0.753095 0.256345 0.570740
0.046923 0.302456 0.524417
0.134409 0.311204 0.534084
0.223780 0.320188 0.543977
0.315134 0.329397 0.554080
0.408555 0.338823 0.564382
0.504115 0.348459 0.574873
0.601877 0.358303 0.585548
0.701897 0.368352 0.596401
0.804228 0.378602 0.607430
0.068694 0.420319 0.558094
0.159758 0.430696 0.568470
0.252906 0.441305 0.579034
0.348204 0.452140 0.589779
0.445715 0.463197 0.600702
0.545492 0.474472 0.611798
0.647587 0.485965 0.623065
0.752046 0.497672 0.634502
0.858912 0.509591 0.646105
0.092226 0.546731 0.594038
0.187184 0.558810 0.605029
0.284368 0.571123 0.616193
0.383831 0.583668 0.627526
0.485622 0.596441 0.639028
0.589786 0.609441 0.650696
0.696364 0.622665 0.662529
0.805396 0.636112 0.674526
0.916920 0.649781 0.686686
0.117628 0.682171 0.632013
0.216717 0.696021 0.643580
0.318146 0.710110 0.655313
0.421959 0.724436 0.667210
0.528196 0.738997 0.679271
0.636895 0.753791 0.691495
0.748093 0.768817 0.703880
0.861825 0.784073 0.716427
0.978122 0.799559 0.729134
0.144991 0.827043 0.671917
0.248404 0.842727 0.684041
0.354252 0.858654 0.696328
0.462573 0.874824 0.708777
0.573401 0.891234 0.721386
0.686770 0.907884 0.734157
0.794381 0.916122 0.742081
0.901113 0.923314 0.749400
1.000000 0.930505 0.756719
0.174392 0.981698 0.713698
0.282292 0.999270 0.726371
0.391411 1.000000 0.737629
0.498143 1.000000 0.744949
0.604874 1.000000 0.752268
0.711606 1.000000 0.759587
0.818338 1.000000 0.766907
0.925070 1.000000 0.774226
1.000000 1.000000 0.781545
0.000000 0.000000 0.545836
0.074737 0.000000 0.552131
0.158242 0.002390 0.558426
0.241747 0.008172 0.564720
0.325253 0.013954 0.571015
0.408758 0.019737 0.577310
0.492263 0.025519 0.583604
0.578609 0.031436 0.591602
0.668077 0.037517 0.600853
0.009975 0.092705 0.567187
0.093480 0.098487 0.573481
0.176986 0.104269 0.579776
0.260692 0.110126 0.586336
0.346771 0.116652 0.595162
0.434755 0.123424 0.604605
0.524681 0.130385 0.614429
0.616628 0.137521 0.624558
0.710671 0.144826 0.634951
0.028814 0.195151 0.589683
0.113506 0.202371 0.598808
0.199784 0.209890 0.608414
0.287830 0.217646 0.618364
0.377771 0.225617 0.628600
0.469707 0.233790 0.639089
0.563721 0.242158 0.649811
0.659884 0.250718 0.660750
0.758258 0.259465 0.671898
0.049118 0.305526 0.622343
0.136959 0.314360 0.632681
0.226710 0.323425 0.643263
0.318464 0.332711 0.654072
0.412303 0.342212 0.665094
0.508294 0.351922 0.676320
0.606501 0.361839 0.687743
0.706979 0.371959 0.699357
0.809777 0.382281 0.711158
0.071067 0.423968 0.658365
0.162525 0.434428 0.669468
0.256083 0.445117 0.680773
0.351806 0.456031 0.692271
0.449755 0.467165 0.703959
0.549983 0.478518 0.715832
0.652540 0.490087 0.727888
0.757470 0.501869 0.740122
0.864817 0.513864 0.752533
0.094789 0.550982 0.696828
0.190168 0.563145 0.708589
0.287787 0.575540 0.720534
0.387696 0.588166 0.732660
0.489944 0.601019 0.744964
0.594575 0.614099 0.757444
0.701629 0.627402 0.770098
0.811147 0.640928 0.782924
0.923163 0.654675 0.795922
0.120392 0.687049 0.737460
0.219924 0.700984 0.749833
0.321807 0.715157 0.762381
0.426084 0.729566 0.775103
0.532793 0.744210 0.787997
0.641975 0.759086 0.801061
0.753663 0.774194 0.814296
0.867891 0.789532 0.827700
0.984693 0.805099 0.841272
0.147965 0.832570 0.780134
0.251839 0.848340 0.793095
0.358158 0.864354 0.806227
0.466957 0.880609 0.819528
0.578272 0.897104 0.832998
0.690151 0.911478 0.845072
0.796883 0.918669 0.852391
0.903615 0.925861 0.859710
1.000000 0.933052 0.867030
0.177582 0.987893 0.824785
0.285960 1.000000 0.838321
0.393912 1.000000 0.847939
0.500644 1.000000 0.855259
0.607376 1.000000 0.862578
0.714108 1.000000 0.869898
0.820840 1.000000 0.877217
0.927572 1.000000 0.884536
1.000000 1.000000 0.891856
0.000000 0.000000 0.640703
0.076694 0.000000 0.646998
0.160199 0.004438 0.653293
0.243705 0.010220 0.659587
0.327210 0.016002 0.665882
0.410715 0.021785 0.672176
0.494501 0.027581 0.678697
0.582206 0.033576 0.687874
0.672216 0.039701 0.697780
0.011932 0.094753 0.662053
0.095438 0.100535 0.668348
0.178943 0.106317 0.674643
0.263251 0.112400 0.682157
0.349791 0.119027 0.691693
0.438198 0.125869 0.701787
0.528554 0.132893 0.712269
0.620941 0.140089 0.723072
0.715435 0.147453 0.734155
0.030860 0.197667 0.685806
0.115849 0.205005 0.695595
0.202471 0.212611 0.705852
0.290892 0.220445 0.716466
0.381230 0.228489 0.727383
0.473581 0.236732 0.738568
0.568026 0.245168 0.750002
0.664633 0.253794 0.761668
0.763464 0.262608 0.773555
0.051331 0.308628 0.720710
0.139532 0.317545 0.731735
0.229666 0.326689 0.743020
0.321824 0.336052 0.754546
0.416082 0.345628 0.766300
0.512508 0.355411 0.778271
0.611161 0.365400 0.790452
0.712097 0.375592 0.802836
0.815365 0.385985 0.815418
0.073459 0.427646 0.759125
0.165314 0.438188 0.770965
0.259285 0.448957 0.783019
0.355436 0.459949 0.795281
0.453826 0.471162 0.807743
0.554506 0.482591 0.820401
0.657526 0.494235 0.833252
0.762929 0.506093 0.846291
0.870757 0.518163 0.859517
0.097373 0.555263 0.800140
0.193176 0.567509 0.812679
0.291231 0.579986 0.825413
0.391588 0.592693 0.838338
0.494295 0.605626 0.851451
0.599394 0.618785 0.864750
0.706926 0.632167 0.878231
0.816930 0.645772 0.891894
0.929441 0.659598 0.905736
0.123178 0.691957 0.843454
0.223155 0.705977 0.856640
0.325494 0.720234 0.870010
0.430236 0.734726 0.883563
0.537420 0.749452 0.897296
0.647084 0.764411 0.911208
0.759263 0.779600 0.925298
0.873991 0.795019 0.939564
0.988891 0.808894 0.952514
0.150961 0.838128 0.888922
0.255298 0.853984 0.902725
0.362089 0.870083 0.916707
0.471369 0.886424 0.930866
0.583172 0.903004 0.945202
0.692653 0.914025 0.955382
0.799385 0.921216 0.962701
0.906117 0.928408 0.970021
1.000000 0.935599 0.977340
0.180796 0.994120 0.936462
0.289652 1.000000 0.950866
0.396414 1.000000 0.958250
0.503146 1.000000 0.965569
0.609878 1.000000 0.972888
0.716610 1.000000 0.980208
0.823342 1.000000 0.987527
0.930074 1.000000 0.994847
1.000000 1.000000 1.000000
0.000000 0.000000 0.735570
0.078651 0.000703 0.741865
0.162157 0.006486 0.748159
0.245662 0.012268 0.754454
0.329167 0.018050 0.760749
0.412672 0.023833 0.767043
0.497565 0.029687 0.774603
0.585922 0.035731 0.784544
0.676442 0.041900 0.795120
0.013890 0.096801 0.756920
0.097395 0.102583 0.763215
0.180900 0.108365 0.769510
0.265915 0.114718 0.778397
0.352873 0.121428 0.788628
0.441696 0.128336 0.799389
0.532479 0.135422 0.810547
0.625306 0.142678 0.822039
0.720251 0.150101 0.833827
0.032924 0.200230 0.782327
0.118219 0.207671 0.792791
0.205190 0.215361 0.803718
0.293987 0.223271 0.815013
0.384724 0.231386 0.826624
0.477493 0.239698 0.838520
0.572370 0.248202 0.850678
0.669423 0.256895 0.863081
0.768711 0.265774 0.875719
0.053562 0.311759 0.819527
0.142127 0.320758 0.831253
0.232649 0.329981 0.843253
0.325212 0.339420 0.855509
0.419892 0.349069 0.868006
0.516754 0.358926 0.880732
0.615856 0.368987 0.893680
0.717252 0.379250 0.906842
0.820990 0.389715 0.920213
0.075871 0.431353 0.860377
0.168126 0.441976 0.872965
0.262513 0.452825 0.885779
0.359094 0.463896 0.898812
0.457926 0.475185 0.912057
0.559061 0.486691 0.925508
0.662545 0.498411 0.939162
0.768422 0.510344 0.953014
0.876734 0.522489 0.967061
0.099978 0.559574 0.903977
0.196207 0.571901 0.917303
0.294700 0.584460 0.930834
0.395508 0.597248 0.944566
0.498675 0.610261 0.958495
0.604244 0.623499 0.972618
0.712256 0.636960 0.986933
0.822747 0.650643 1.000000
0.935754 0.664547 1.000000
0.125985 0.696895 0.950000
0.226410 0.710999 0.964005
0.329206 0.725340 0.978204
0.434415 0.739915 0.992594
0.542075 0.754724 1.000000
0.652223 0.769764 1.000000
0.764895 0.785035 1.000000
0.880123 0.800535 1.000000
0.991393 0.811441 1.000000
0.153979 0.843716 0.998283
0.258781 0.859659 1.000000
0.366046 0.875844 1.000000
0.475808 0.892269 1.000000
0.588101 0.908934 1.000000
0.695154 0.916572 1.000000
0.801886 0.923763 1.000000
0.908618 0.930955 1.000000
1.000000 0.938146 1.000000
0.184032 1.000000 1.000000
0.292184 1.000000 1.000000
0.398916 1.000000 1.000000
0.505648 1.000000 1.000000
0.612380 1.000000 1.000000
0.719111 1.000000 1.000000
0.825843 1.000000 1.000000
0.932575 1.000000 1.000000
1.000000 1.000000 1.000000
