assets/lighting/day-night-palettes/grade-winter-cool/lut.cube
TITLE "Winter Cool"
# TKRS lighting-batch-001 original LUT
# Intended usage: snow / winter high-key cool
# License: CC0-1.0
LUT_3D_SIZE 17
DOMAIN_MIN 0.0 0.0 0.0
DOMAIN_MAX 1.0 1.0 1.0
0.000000 0.000000 0.000000
0.021241 0.000000 0.000000
0.062993 0.000000 0.000000
0.104746 0.000000 0.000000
0.146498 0.000000 0.000000
0.188251 0.000000 0.000000
0.230004 0.000000 0.000000
0.271756 0.000000 0.000000
0.313509 0.001666 0.001814
0.355262 0.004557 0.004961
0.397014 0.007448 0.008108
0.438767 0.010340 0.011256
0.480519 0.013231 0.014403
0.522272 0.016122 0.017550
0.564025 0.019013 0.020698
0.605777 0.021904 0.023845
0.647530 0.024795 0.026992
0.000000 0.029477 0.000000
0.030612 0.032368 0.000000
0.072365 0.035259 0.000000
0.114118 0.038150 0.000000
0.155870 0.041041 0.000000
0.197623 0.043933 0.003047
0.239375 0.046824 0.006194
0.281128 0.049715 0.009342
0.322881 0.052606 0.012489
0.364633 0.055497 0.015636
0.406386 0.058388 0.018784
0.448139 0.061279 0.021931
0.489891 0.064171 0.025078
0.531644 0.067062 0.028226
0.574467 0.070067 0.031407
0.618520 0.073194 0.034631
0.663192 0.076370 0.037879
0.000000 0.080417 0.000000
0.039984 0.083308 0.001133
0.081737 0.086199 0.004280
0.123489 0.089090 0.007427
0.165242 0.091981 0.010575
0.206995 0.094872 0.013722
0.248747 0.097763 0.016869
0.290500 0.100655 0.020017
0.332252 0.103546 0.023164
0.374005 0.106437 0.026311
0.415817 0.109342 0.029461
0.458977 0.112534 0.032667
0.502777 0.115820 0.035901
0.547115 0.119167 0.039157
0.591974 0.122566 0.042437
0.637355 0.126012 0.045739
0.683260 0.129504 0.049064
0.007603 0.131356 0.008661
0.049356 0.134247 0.011808
0.091108 0.137139 0.014955
0.132861 0.140030 0.018103
0.174614 0.142921 0.021250
0.216366 0.145812 0.024397
0.258119 0.148703 0.027545
0.300228 0.151752 0.030713
0.343212 0.155115 0.033931
0.386696 0.158570 0.037174
0.430663 0.162095 0.040440
0.475115 0.165680 0.043728
0.520062 0.169318 0.047039
0.565512 0.173008 0.050373
0.611473 0.176747 0.053731
0.657956 0.180534 0.057112
0.704968 0.184368 0.060517
0.016975 0.182296 0.019336
0.058728 0.185187 0.022483
0.100480 0.188078 0.025630
0.142233 0.190970 0.028778
0.184437 0.194277 0.031971
0.227131 0.197815 0.035199
0.270254 0.201450 0.038451
0.313819 0.205160 0.041725
0.357842 0.208935 0.045023
0.402336 0.212771 0.048343
0.447314 0.216664 0.051686
0.492787 0.220610 0.055053
0.538767 0.224608 0.058443
0.585263 0.228658 0.061858
0.632285 0.232757 0.065297
0.679842 0.236905 0.068760
0.727941 0.241101 0.072249
0.026362 0.233352 0.030021
0.068361 0.236921 0.033233
0.110704 0.240642 0.036470
0.153431 0.244463 0.039731
0.196570 0.248364 0.043014
0.240142 0.252336 0.046321
0.284166 0.256374 0.049650
0.328657 0.260473 0.053002
0.373630 0.264630 0.056378
0.419095 0.268844 0.059778
0.465065 0.273112 0.063202
0.511549 0.277433 0.066651
0.558558 0.281807 0.070124
0.606101 0.286232 0.073623
0.654184 0.290708 0.077146
0.702817 0.295235 0.080696
0.752007 0.299811 0.084271
0.036212 0.287613 0.041015
0.078902 0.291711 0.044307
0.122006 0.295885 0.047622
0.165544 0.300129 0.050961
0.209535 0.304438 0.054322
0.253994 0.308810 0.057707
0.298933 0.313242 0.061117
0.344367 0.317732 0.064550
0.390304 0.322278 0.068009
0.436757 0.326881 0.071492
0.483734 0.331538 0.075000
0.531244 0.336248 0.078534
0.579296 0.341012 0.082094
0.627897 0.345828 0.085679
0.677054 0.350696 0.089291
0.726775 0.355616 0.092929
0.777067 0.360587 0.096594
0.046461 0.344038 0.052275
0.089939 0.348562 0.055646
0.133872 0.353151 0.059040
0.178276 0.357805 0.062459
0.223163 0.362519 0.065903
0.268545 0.367294 0.069370
0.314433 0.372127 0.072864
0.360836 0.377018 0.076382
0.407766 0.381966 0.079926
0.455229 0.386969 0.083495
0.503234 0.392027 0.087091
0.551789 0.397139 0.090713
0.600902 0.402306 0.094362
0.650578 0.407526 0.098037
0.700825 0.412799 0.101739
0.751650 0.418125 0.105469
0.803058 0.423504 0.109225
0.057116 0.402534 0.063805
0.101447 0.407476 0.067258
0.146265 0.412482 0.070736
0.191580 0.417548 0.074239
0.237403 0.422676 0.077767
0.283744 0.427862 0.081321
0.330612 0.433106 0.084901
0.378015 0.438408 0.088507
0.425962 0.443767 0.092139
0.474459 0.449182 0.095798
0.523515 0.454653 0.099484
0.573136 0.460179 0.103197
0.623328 0.465760 0.106937
0.674098 0.471396 0.110705
0.725452 0.477086 0.114500
0.777396 0.482830 0.118323
0.829935 0.488628 0.122175
0.068194 0.463145 0.075618
0.113429 0.468511 0.079157
0.159175 0.473938 0.082721
0.205441 0.479426 0.086311
0.252236 0.484974 0.089927
0.299568 0.490581 0.093570
0.347445 0.496247 0.097239
0.395874 0.501970 0.100936
0.444863 0.507751 0.104659
0.494417 0.513588 0.108410
0.544545 0.519483 0.112189
0.595251 0.525433 0.115995
0.646542 0.531439 0.119829
0.698424 0.537501 0.123691
0.750902 0.543618 0.127582
0.803981 0.549790 0.131501
0.857666 0.556017 0.135448
0.079713 0.525929 0.087725
0.125893 0.531725 0.091351
0.172604 0.537582 0.095004
0.219855 0.543500 0.098684
0.267652 0.549477 0.102391
0.316003 0.555514 0.106126
0.364916 0.561610 0.109887
0.414396 0.567765 0.113677
0.464450 0.573977 0.117494
0.515084 0.580247 0.121339
0.566303 0.586574 0.125212
0.618115 0.592958 0.129114
0.670523 0.599399 0.133044
0.723533 0.605896 0.137003
0.777151 0.612450 0.140991
0.831381 0.619060 0.145008
0.886228 0.625725 0.149054
0.091685 0.590943 0.100134
0.138845 0.597176 0.103851
0.186554 0.603471 0.107596
0.234819 0.609827 0.111369
0.283647 0.616243 0.115169
0.333044 0.622718 0.118997
0.383016 0.629253 0.122853
0.433570 0.635847 0.126738
0.484711 0.642500 0.130650
0.536444 0.649211 0.134592
0.588776 0.655980 0.138562
0.641710 0.662807 0.142561
0.695253 0.669692 0.146590
0.749409 0.676634 0.150647
0.804183 0.683633 0.154734
0.859579 0.690689 0.158851
0.915602 0.697802 0.162997
0.104126 0.658239 0.112854
0.152296 0.664918 0.116665
0.201031 0.671658 0.120505
0.250338 0.678460 0.124372
0.300221 0.685322 0.128267
0.350687 0.692245 0.132191
0.401741 0.699227 0.136144
0.453390 0.706269 0.140126
0.505638 0.713371 0.144136
0.558490 0.720531 0.148176
0.611951 0.727751 0.152245
0.666027 0.735029 0.156344
0.720721 0.742365 0.160472
0.776039 0.749760 0.164630
0.831984 0.757212 0.168818
0.888561 0.764723 0.173036
0.945775 0.772291 0.177284
0.117045 0.727867 0.125895
0.166253 0.734999 0.129801
0.216041 0.742193 0.133737
0.266412 0.749448 0.137701
0.317374 0.756764 0.141694
0.368931 0.764142 0.145715
0.421089 0.771579 0.149767
0.473852 0.779077 0.153847
0.527226 0.786636 0.157957
0.581214 0.794253 0.162097
0.635823 0.801931 0.166267
0.691056 0.809667 0.170467
0.746918 0.817463 0.174696
0.803412 0.825318 0.178957
0.860544 0.833232 0.183247
0.918317 0.841205 0.187568
0.976734 0.849236 0.191920
0.130454 0.799874 0.139262
0.180725 0.807466 0.143266
0.231588 0.815120 0.147299
0.283047 0.822836 0.151362
0.335109 0.830614 0.155454
0.387777 0.838453 0.159576
0.441057 0.846354 0.163728
0.494954 0.854315 0.167909
0.549471 0.862337 0.172120
0.604614 0.870419 0.176362
0.660386 0.878562 0.180634
0.716793 0.886765 0.184936
0.773837 0.895027 0.189269
0.831523 0.903350 0.193633
0.888605 0.910578 0.197849
0.941971 0.914174 0.201508
0.995337 0.917770 0.205168
0.144364 0.874303 0.152962
0.195720 0.882362 0.157066
0.247680 0.890483 0.161199
0.300247 0.898667 0.165362
0.353428 0.906913 0.169555
0.407227 0.915222 0.173779
0.461647 0.923591 0.178032
0.516695 0.932023 0.182316
0.572372 0.940516 0.186630
0.628685 0.949069 0.190975
0.685637 0.957684 0.195351
0.740485 0.963144 0.199282
0.793851 0.966739 0.202942
0.847217 0.970335 0.206602
0.900583 0.973931 0.210262
0.953949 0.977526 0.213921
1.000000 0.981122 0.217581
0.158783 0.951194 0.167002
0.211245 0.959727 0.171207
0.264321 0.968322 0.175442
0.318017 0.976980 0.179707
0.372335 0.985701 0.184003
0.427282 0.994485 0.188329
0.482860 1.000000 0.192686
0.539000 1.000000 0.197057
0.592366 1.000000 0.200716
0.645732 1.000000 0.204376
0.699098 1.000000 0.208036
0.752464 1.000000 0.211695
0.805830 1.000000 0.215355
0.859196 1.000000 0.219015
0.912562 1.000000 0.222674
0.965928 1.000000 0.226334
1.000000 1.000000 0.229994
0.000000 0.000000 0.024069
0.022219 0.000000 0.027216
0.063972 0.000000 0.030363
0.105724 0.000000 0.033511
0.147477 0.000000 0.036658
0.189230 0.000000 0.039805
0.230982 0.000000 0.042953
0.272735 0.000000 0.046100
0.314488 0.002690 0.049247
0.356240 0.005581 0.052395
0.397993 0.008472 0.055542
0.439745 0.011364 0.058689
0.481498 0.014255 0.061837
0.523251 0.017146 0.064984
0.565003 0.020037 0.068131
0.606756 0.022928 0.071279
0.648509 0.025819 0.074426
0.000000 0.030501 0.034744
0.031591 0.033392 0.037891
0.073344 0.036283 0.041038
0.115096 0.039174 0.044186
0.156849 0.042065 0.047333
0.198601 0.044957 0.050480
0.240354 0.047848 0.053628
0.282107 0.050739 0.056775
0.323859 0.053630 0.059922
0.365612 0.056521 0.063070
0.407365 0.059412 0.066217
0.449117 0.062303 0.069364
0.490870 0.065195 0.072512
0.532658 0.068090 0.075662
0.576140 0.071168 0.078948
0.620371 0.074314 0.082284
0.665188 0.077506 0.085654
0.000000 0.081441 0.045419
0.040963 0.084332 0.048566
0.082715 0.087223 0.051714
0.124468 0.090114 0.054861
0.166221 0.093005 0.058008
0.207973 0.095896 0.061156
0.249726 0.098787 0.064303
0.291478 0.101679 0.067450
0.333231 0.104570 0.070598
0.374984 0.107461 0.073745
0.417184 0.110456 0.076941
0.460555 0.113690 0.080251
0.504494 0.116999 0.083601
0.548957 0.120365 0.086983
0.593937 0.123781 0.090396
0.639436 0.127244 0.093837
0.685460 0.130752 0.097306
0.008582 0.132380 0.056094
0.050334 0.135271 0.059241
0.092087 0.138163 0.062389
0.133840 0.141054 0.065536
0.175592 0.143945 0.068683
0.217345 0.146836 0.071831
0.259098 0.149727 0.074978
0.301550 0.152929 0.078232
0.344666 0.156330 0.081559
0.388263 0.159812 0.084922
0.432340 0.163358 0.088317
0.476901 0.166962 0.091741
0.521958 0.170619 0.095193
0.567517 0.174327 0.098672
0.613591 0.178083 0.102180
0.660186 0.181887 0.105715
0.707312 0.185736 0.109277
0.017954 0.183320 0.066769
0.059706 0.186211 0.069917
0.101459 0.189102 0.073064
0.143279 0.192073 0.076232
0.185649 0.195517 0.079531
0.228440 0.199093 0.082873
0.271659 0.202756 0.086249
0.315322 0.206490 0.089655
0.359444 0.210287 0.093090
0.404039 0.214144 0.096553
0.449120 0.218055 0.100043
0.494699 0.222020 0.103562
0.540786 0.226037 0.107107
0.587391 0.230104 0.110680
0.634524 0.234220 0.114281
0.682192 0.238385 0.117909
0.730405 0.242599 0.121564
0.027370 0.234591 0.077518
0.069436 0.238226 0.080836
0.111855 0.241985 0.084192
0.154664 0.245836 0.087580
0.197890 0.249763 0.090997
0.241553 0.253759 0.094443
0.285672 0.257819 0.097917
0.330260 0.261939 0.101419
0.375332 0.266116 0.104948
0.420899 0.270349 0.108504
0.466973 0.274636 0.112088
0.513564 0.278976 0.115699
0.560681 0.283368 0.119338
0.608333 0.287812 0.123004
0.656528 0.292306 0.126698
0.705274 0.296850 0.130420
0.754579 0.301444 0.134171
0.037264 0.289055 0.088915
0.080032 0.293181 0.092344
0.123220 0.297380 0.095801
0.166846 0.301648 0.099286
0.210928 0.305980 0.102798
0.255482 0.310373 0.106338
0.300519 0.314825 0.109905
0.346052 0.319336 0.113499
0.392092 0.323902 0.117121
0.438649 0.328524 0.120771
0.485733 0.333200 0.124448
0.533351 0.337929 0.128153
0.581512 0.342712 0.131887
0.630225 0.347546 0.135648
0.679495 0.352433 0.139437
0.729331 0.357371 0.143255
0.779738 0.362360 0.147102
0.047554 0.345633 0.100659
0.091118 0.350180 0.104182
0.135142 0.354792 0.107732
0.179639 0.359468 0.111310
0.224621 0.364204 0.114915
0.270102 0.368999 0.118548
0.316091 0.373853 0.122208
0.362598 0.378764 0.125897
0.409632 0.383731 0.129613
0.457202 0.388754 0.133357
0.505316 0.393831 0.137129
0.553981 0.398963 0.140930
0.603206 0.404149 0.144759
0.652996 0.409388 0.148617
0.703358 0.414680 0.152503
0.754298 0.420024 0.156419
0.805823 0.425422 0.160363
0.058253 0.404277 0.112719
0.102676 0.409242 0.116335
0.147589 0.414269 0.119979
0.193001 0.419358 0.123650
0.238925 0.424506 0.127349
0.285368 0.429713 0.131076
0.332339 0.434978 0.134832
0.379849 0.440300 0.138615
0.427903 0.445679 0.142427
0.476510 0.451114 0.146267
0.525676 0.456604 0.150136
0.575409 0.462150 0.154034
0.625716 0.467750 0.157961
0.676601 0.473405 0.161916
0.728071 0.479114 0.165901
0.780133 0.484877 0.169916
0.832791 0.490694 0.173960
0.069376 0.465038 0.125096
0.114708 0.470426 0.128806
0.160553 0.475875 0.132544
0.206921 0.481384 0.136311
0.253819 0.486953 0.140105
0.301256 0.492581 0.143928
0.349239 0.498267 0.147780
0.397777 0.504011 0.151660
0.446876 0.509812 0.155569
0.496543 0.515670 0.159507
0.546783 0.521584 0.163474
0.597604 0.527554 0.167471
0.649011 0.533580 0.171497
0.701010 0.539661 0.175552
0.753606 0.545798 0.179638
0.806804 0.551989 0.183753
0.860610 0.558236 0.187898
0.080941 0.527975 0.137794
0.127222 0.533793 0.141600
0.174036 0.539671 0.145434
0.221391 0.545610 0.149296
0.269295 0.551609 0.153188
0.317755 0.557667 0.157108
0.366776 0.563783 0.161058
0.416368 0.569958 0.165037
0.466534 0.576191 0.169045
0.517282 0.582481 0.173082
0.568617 0.588829 0.177150
0.620545 0.595233 0.181247
0.673071 0.601694 0.185373
0.726200 0.608211 0.189530
0.779937 0.614785 0.193718
0.834288 0.621414 0.197935
0.889257 0.628100 0.202183
0.092962 0.593144 0.150818
0.140227 0.599399 0.154721
0.188041 0.605715 0.158652
0.236414 0.612092 0.162613
0.285351 0.618529 0.166604
0.334858 0.625026 0.170623
0.384942 0.631582 0.174672
0.435609 0.638197 0.178751
0.486865 0.644870 0.182860
0.538714 0.651602 0.186999
0.591163 0.658392 0.191167
0.644216 0.665239 0.195366
0.697878 0.672144 0.199596
0.752155 0.679106 0.203855
0.807050 0.686125 0.208146
0.862569 0.693202 0.212467
0.918716 0.700335 0.216819
0.105452 0.660597 0.164173
0.153730 0.667298 0.168175
0.202574 0.674060 0.172206
0.251990 0.680883 0.176267
0.301985 0.687767 0.180358
0.352564 0.694711 0.184478
0.403733 0.701715 0.188628
0.455497 0.708778 0.192809
0.507861 0.715900 0.197020
0.560831 0.723082 0.201261
0.614412 0.730322 0.205533
0.668607 0.737621 0.209835
0.723423 0.744978 0.214169
0.778862 0.752393 0.218533
0.834931 0.759866 0.222928
0.891632 0.767397 0.227354
0.948971 0.774985 0.231812
0.118422 0.730386 0.177866
0.167740 0.737540 0.181968
0.217639 0.744755 0.186101
0.268123 0.752032 0.190263
0.319199 0.759370 0.194455
0.370871 0.766769 0.198678
0.423145 0.774228 0.202931
0.476026 0.781748 0.207215
0.529518 0.789327 0.211529
0.583626 0.796966 0.215875
0.638356 0.804664 0.220251
0.693711 0.812422 0.224658
0.749695 0.820239 0.229097
0.806313 0.828115 0.233567
0.863570 0.836049 0.238068
0.921468 0.844042 0.242601
0.980012 0.852094 0.247166
0.131883 0.802556 0.191902
0.182267 0.810170 0.196106
0.233243 0.817846 0.200341
0.284817 0.825584 0.204606
0.336994 0.833384 0.208902
0.389780 0.841245 0.213228
0.443178 0.849167 0.217586
0.497194 0.857149 0.221974
0.551832 0.865193 0.226394
0.607096 0.873296 0.230845
0.662991 0.881460 0.235327
0.719521 0.889684 0.239840
0.776689 0.897968 0.244386
0.834501 0.906312 0.248963
0.889856 0.911852 0.253004
0.943222 0.915447 0.256663
0.996588 0.919043 0.260323
0.145846 0.877150 0.206285
0.197316 0.885231 0.210593
0.249391 0.893375 0.214932
0.302076 0.901581 0.219302
0.355375 0.909849 0.223702
0.409293 0.918179 0.228134
0.463833 0.926571 0.232597
0.519002 0.935024 0.237092
0.574802 0.943538 0.241618
0.631238 0.952114 0.246175
0.688313 0.960750 0.250765
0.741736 0.964417 0.254438
0.795102 0.968013 0.258097
0.848468 0.971608 0.261757
0.901834 0.975204 0.265417
0.955200 0.978800 0.269076
1.000000 0.982395 0.272736
0.160318 0.954209 0.221022
0.212897 0.962764 0.225435
0.266091 0.971381 0.229879
0.319905 0.980062 0.234354
0.374344 0.988805 0.238861
0.429411 0.997611 0.243400
0.485111 1.000000 0.247970
0.540251 1.000000 0.252212
0.593617 1.000000 0.255872
0.646983 1.000000 0.259531
0.700349 1.000000 0.263191
0.753715 1.000000 0.266851
0.807081 1.000000 0.270510
0.860447 1.000000 0.274170
0.913813 1.000000 0.277830
0.967179 1.000000 0.281489
1.000000 1.000000 0.285149
0.000000 0.000000 0.071502
0.023198 0.000000 0.074649
0.064950 0.000000 0.077797
0.106703 0.000000 0.080944
0.148456 0.000000 0.084091
0.190208 0.000000 0.087239
0.231961 0.000000 0.090386
0.273714 0.000823 0.093533
0.315466 0.003714 0.096681
0.357219 0.006605 0.099828
0.398971 0.009496 0.102975
0.440724 0.012388 0.106123
0.482477 0.015279 0.109270
0.524229 0.018170 0.112417
0.565982 0.021061 0.115565
0.607735 0.023952 0.118712
0.649491 0.026844 0.121860
0.000000 0.031525 0.082177
0.032570 0.034416 0.085325
0.074322 0.037307 0.088472
0.116075 0.040198 0.091619
0.157827 0.043089 0.094767
0.199580 0.045981 0.097914
0.241333 0.048872 0.101061
0.283085 0.051763 0.104208
0.324838 0.054654 0.107356
0.366591 0.057545 0.110503
0.408343 0.060436 0.113650
0.450096 0.063327 0.116798
0.491849 0.066219 0.119945
0.534116 0.069168 0.123162
0.577865 0.072276 0.126562
0.622255 0.075439 0.130019
0.667212 0.078647 0.133518
0.000189 0.082465 0.092852
0.041941 0.085356 0.096000
0.083694 0.088247 0.099147
0.125447 0.091138 0.102294
0.167199 0.094029 0.105442
0.208952 0.096920 0.108589
0.250704 0.099811 0.111736
0.292457 0.102703 0.114884
0.334210 0.105594 0.118031
0.375962 0.108485 0.121178
0.418633 0.111590 0.124486
0.462166 0.114855 0.127911
0.506235 0.118185 0.131385
0.550820 0.121569 0.134899
0.595919 0.125002 0.138449
0.641536 0.128481 0.142033
0.687676 0.132004 0.145649
0.009560 0.133404 0.103527
0.051313 0.136295 0.106675
0.093066 0.139187 0.109822
0.134818 0.142078 0.112969
0.176571 0.144969 0.116117
0.218324 0.147860 0.119264
0.260174 0.150801 0.122438
0.302905 0.154122 0.125821
0.346140 0.157555 0.129267
0.389848 0.161061 0.132757
0.434033 0.164628 0.136286
0.478703 0.168252 0.139849
0.523867 0.171927 0.143446
0.569537 0.175652 0.147074
0.615722 0.179425 0.150734
0.662429 0.183245 0.154425
0.709669 0.187111 0.158147
0.018932 0.184344 0.114203
0.060685 0.187235 0.117350
0.102438 0.190126 0.120497
0.144406 0.193270 0.123753
0.186878 0.196772 0.127165
0.229763 0.200381 0.130630
0.273077 0.204071 0.134136
0.316836 0.207828 0.137678
0.361057 0.211647 0.141254
0.405754 0.215523 0.144863
0.450938 0.219454 0.148504
0.496622 0.223437 0.152177
0.542817 0.227472 0.155880
0.589531 0.231556 0.159613
0.636774 0.235690 0.163377
0.684554 0.239872 0.167171
0.732881 0.244102 0.170996
0.028383 0.235860 0.125082
0.070517 0.239546 0.128517
0.113013 0.243340 0.131999
0.155905 0.247218 0.135519
0.199218 0.251171 0.139075
0.242973 0.255190 0.142665
0.287186 0.259271 0.146286
0.331871 0.263412 0.149940
0.377043 0.267609 0.153624
0.422713 0.271861 0.157339
0.468892 0.276167 0.161084
0.515589 0.280526 0.164860
0.562814 0.284936 0.168666
0.610576 0.289398 0.172502
0.658883 0.293910 0.176369
0.707742 0.298471 0.180265
0.757161 0.303083 0.184192
0.038320 0.290508 0.136908
0.081168 0.294660 0.140478
0.124439 0.298884 0.144080
0.168154 0.303175 0.147714
0.212329 0.307529 0.151379
0.256977 0.311943 0.155076
0.302112 0.316416 0.158803
0.347746 0.320947 0.162560
0.393888 0.325533 0.166348
0.440550 0.330174 0.170166
0.487740 0.334869 0.174014
0.535467 0.339617 0.177892
0.583738 0.344418 0.181800
0.632562 0.349271 0.185739
0.681946 0.354176 0.189708
0.731896 0.359132 0.193707
0.782420 0.364139 0.197736
0.048652 0.347236 0.149146
0.092303 0.351806 0.152824
0.136417 0.356441 0.156533
0.181008 0.361138 0.160271
0.226087 0.365896 0.164041
0.271666 0.370712 0.167840
0.317757 0.375586 0.171670
0.364367 0.380517 0.175530
0.411506 0.385504 0.179420
0.459184 0.390546 0.183340
0.507406 0.395643 0.187290
0.556182 0.400794 0.191271
0.605519 0.405998 0.195282
0.655422 0.411256 0.199323
0.705899 0.416567 0.203395
0.756956 0.421930 0.207498
0.808599 0.427346 0.211631
0.059394 0.406028 0.161745
0.103910 0.411016 0.165526
0.148918 0.416065 0.169337
0.194429 0.421174 0.173179
0.240452 0.426343 0.177050
0.286998 0.431571 0.180952
0.334074 0.436856 0.184884
0.381689 0.442199 0.188846
0.429852 0.447597 0.192839
0.478568 0.453052 0.196862
0.527846 0.458562 0.200915
0.577692 0.464127 0.204999
0.628112 0.469747 0.209113
0.679113 0.475421 0.213258
0.730700 0.481149 0.217434
0.782879 0.486931 0.221641
0.835656 0.492767 0.225879
0.070563 0.466940 0.174692
0.115992 0.472349 0.178575
0.161937 0.477819 0.182489
0.208406 0.483350 0.186433
0.255408 0.488940 0.190407
0.302950 0.494588 0.194411
0.351041 0.500295 0.198446
0.399688 0.506059 0.202511
0.448897 0.511880 0.206607
0.498676 0.517758 0.210734
0.549030 0.523692 0.214891
0.599965 0.529682 0.219079
0.651488 0.535727 0.223298
0.703604 0.541828 0.227548
0.756318 0.547984 0.231829
0.809636 0.554195 0.236141
0.863563 0.560461 0.240485
0.082175 0.530028 0.187986
0.128557 0.535868 0.191972
0.175474 0.541768 0.195989
0.222934 0.547728 0.200035
0.270945 0.553748 0.204113
0.319512 0.559826 0.208220
0.368644 0.565964 0.212359
0.418347 0.572159 0.216528
0.468626 0.578412 0.220728
0.519488 0.584723 0.224959
0.570938 0.591090 0.229221
0.622982 0.597515 0.233515
0.675626 0.603996 0.237839
0.728875 0.610533 0.242195
0.782732 0.617126 0.246582
0.837205 0.623776 0.251001
0.892296 0.630481 0.255452
0.094244 0.595352 0.201629
0.141613 0.601629 0.205718
0.189534 0.607967 0.209838
0.238014 0.614365 0.213989
0.287061 0.620824 0.218170
0.336679 0.627341 0.222382
0.386875 0.633918 0.226626
0.437656 0.640554 0.230900
0.489026 0.647248 0.235205
0.540992 0.654000 0.239542
0.593558 0.660810 0.243910
0.646729 0.667678 0.248310
0.700511 0.674603 0.252741
0.754909 0.681586 0.257204
0.809926 0.688625 0.261699
0.865568 0.695722 0.266225
0.921838 0.702875 0.270784
0.106784 0.662964 0.215623
0.155169 0.669686 0.219817
0.204122 0.676470 0.224041
0.253649 0.683315 0.228297
0.303755 0.690220 0.232583
0.354447 0.697185 0.236901
0.405731 0.704210 0.241250
0.457610 0.711294 0.245630
0.510092 0.718437 0.250042
0.563180 0.725639 0.254486
0.616879 0.732900 0.258961
0.671195 0.740220 0.263468
0.726132 0.747597 0.268007
0.781694 0.755033 0.272579
0.837886 0.762527 0.277182
0.894712 0.770078 0.281817
0.952176 0.777687 0.286485
0.119805 0.732913 0.229972
0.169233 0.740089 0.234271
0.219243 0.747326 0.238601
0.269840 0.754624 0.242962
0.321030 0.761984 0.247355
0.372817 0.769404 0.251780
0.425208 0.776885 0.256236
0.478206 0.784425 0.260723
0.531817 0.792026 0.265243
0.586046 0.799686 0.269795
0.640896 0.807405 0.274378
0.696373 0.815184 0.278994
0.752480 0.823021 0.283642
0.809223 0.830918 0.288323
0.866604 0.838873 0.293035
0.924628 0.846887 0.297781
0.983299 0.854960 0.302559
0.133318 0.805246 0.244680
0.183814 0.812882 0.249085
0.234904 0.820580 0.253522
0.286593 0.828340 0.257990
0.338886 0.836161 0.262490
0.391789 0.844044 0.267023
0.445306 0.851987 0.271587
0.499441 0.859991 0.276183
0.554200 0.868056 0.280811
0.609586 0.876181 0.285472
0.665603 0.884366 0.290165
0.722256 0.892612 0.294891
0.779549 0.900917 0.299649
0.837486 0.909281 0.304440
0.891106 0.913125 0.308159
0.944472 0.916721 0.311819
0.997838 0.920317 0.315478
0.147333 0.880005 0.259750
0.198918 0.888108 0.264262
0.251109 0.896274 0.268807
0.303911 0.904502 0.273384
0.357328 0.912792 0.277993
0.411365 0.921144 0.282634
0.466026 0.929558 0.287307
0.521316 0.938032 0.292013
0.577238 0.946568 0.296751
0.633797 0.955166 0.301522
0.689621 0.962095 0.305933
0.742987 0.965691 0.309593
0.796353 0.969286 0.313252
0.849719 0.972882 0.316912
0.903085 0.976478 0.320572
0.956451 0.980073 0.324232
1.000000 0.983669 0.327891
0.161859 0.957232 0.275186
0.214554 0.965809 0.279807
0.267867 0.974449 0.284461
0.321800 0.983152 0.289147
0.376358 0.991917 0.293866
0.431547 1.000000 0.298617
0.487369 1.000000 0.303400
0.541502 1.000000 0.307367
0.594868 1.000000 0.311027
0.648234 1.000000 0.314686
0.701600 1.000000 0.318346
0.754966 1.000000 0.322006
0.808332 1.000000 0.325665
0.861698 1.000000 0.329325
0.915063 1.000000 0.332985
0.968429 1.000000 0.336644
1.000000 1.000000 0.340304
0.000000 0.000000 0.118935
0.024176 0.000000 0.122083
0.065929 0.000000 0.125230
0.107682 0.000000 0.128377
0.149434 0.000000 0.131525
0.191187 0.000000 0.134672
0.232940 0.000000 0.137819
0.274692 0.001847 0.140967
0.316445 0.004738 0.144114
0.358197 0.007629 0.147261
0.399950 0.010520 0.150409
0.441703 0.013412 0.153556
0.483455 0.016303 0.156703
0.525208 0.019194 0.159851
0.566961 0.022085 0.162998
