assets/lighting/cinematic/grade-noir-high-contrast/lut.cube
TITLE "Noir High Contrast"
# TKRS lighting-batch-001 original LUT
# Intended usage: near-monochrome crime/night interiors
# License: CC0-1.0
LUT_3D_SIZE 9
DOMAIN_MIN 0.0 0.0 0.0
DOMAIN_MAX 1.0 1.0 1.0
0.000000 0.000000 0.000000
0.000000 0.000000 0.000000
0.000000 0.000000 0.000000
0.000000 0.000000 0.000000
0.021373 0.000000 0.000000
0.060645 0.000000 0.000000
0.099916 0.000000 0.000000
0.139188 0.014718 0.015440
0.178460 0.036498 0.038289
0.000000 0.000000 0.000000
0.000000 0.000000 0.000000
0.015020 0.000000 0.000000
0.054292 0.018946 0.000909
0.093563 0.040726 0.023759
0.132835 0.062506 0.046608
0.172107 0.084286 0.069457
0.211379 0.106066 0.092306
0.252624 0.128800 0.115922
0.008667 0.044954 0.009228
0.047938 0.066734 0.032077
0.087210 0.088514 0.054926
0.126482 0.110294 0.077776
0.165754 0.132074 0.100625
0.207851 0.155864 0.124912
0.252141 0.180982 0.150294
0.298450 0.207238 0.176676
0.346823 0.234635 0.204078
0.080857 0.136302 0.086094
0.120597 0.158666 0.109302
0.162613 0.183299 0.134037
0.206486 0.209163 0.159782
0.252285 0.236191 0.186533
0.300091 0.264390 0.214314
0.349980 0.293776 0.243153
0.402018 0.324369 0.273079
0.456264 0.356191 0.304117
0.160207 0.237749 0.169404
0.205442 0.265570 0.196526
0.252641 0.294587 0.224689
0.301887 0.324815 0.253921
0.353255 0.356273 0.284249
0.406806 0.388981 0.315698
0.462598 0.422957 0.348290
0.520684 0.458221 0.382048
0.581110 0.494791 0.416991
0.253025 0.356318 0.264834
0.303695 0.388654 0.295568
0.356529 0.422258 0.327430
0.411584 0.457149 0.360444
0.468916 0.493345 0.394631
0.528572 0.530861 0.430011
0.590597 0.569716 0.466602
0.655035 0.609925 0.504421
0.721924 0.651503 0.543486
0.359719 0.491844 0.372754
0.416278 0.528980 0.407373
0.475147 0.567453 0.443191
0.536373 0.607277 0.480227
0.599999 0.648469 0.518499
0.666063 0.691043 0.558021
0.734604 0.735013 0.598810
0.800448 0.775536 0.637214
0.855372 0.805548 0.667761
0.481239 0.645371 0.494017
0.544038 0.687553 0.532742
0.609265 0.731130 0.572723
0.676958 0.776115 0.613977
0.736638 0.811374 0.648335
0.791563 0.841387 0.678883
0.846487 0.871399 0.709430
0.901412 0.901412 0.739977
0.956336 0.931424 0.770524
0.617904 0.817200 0.628910
0.672828 0.847213 0.659457
0.727753 0.877225 0.690004
0.782677 0.907238 0.720551
0.837602 0.937250 0.751098
0.892526 0.967263 0.781645
0.947451 0.997275 0.812192
1.000000 1.000000 0.842739
1.000000 1.000000 0.873286
0.000000 0.000000 0.000000
0.000000 0.000000 0.000000
0.000000 0.000000 0.000000
0.000000 0.000000 0.000000
0.028661 0.000000 0.000000
0.067932 0.000000 0.000000
0.107204 0.000334 0.019317
0.146476 0.022114 0.042166
0.185748 0.043894 0.065015
0.000000 0.000000 0.000000
0.000000 0.000000 0.000000
0.022307 0.004562 0.004786
0.061579 0.026342 0.027635
0.100851 0.048122 0.050484
0.140123 0.069902 0.073334
0.179394 0.091682 0.096183
0.218666 0.113462 0.119032
0.261386 0.136957 0.143484
0.015954 0.052350 0.035954
0.055226 0.074130 0.058803
0.094498 0.095910 0.081652
0.133770 0.117690 0.104501
0.173658 0.139942 0.127734
0.216498 0.164265 0.152702
0.261356 0.189771 0.178730
0.308232 0.216414 0.205790
0.357186 0.244202 0.233902
0.088145 0.143698 0.112820
0.128554 0.166880 0.136693
0.171093 0.191951 0.162059
0.215490 0.218211 0.188461
0.261832 0.245636 0.215902
0.310201 0.274235 0.244402
0.360670 0.304029 0.273986
0.413303 0.335037 0.304680
0.468159 0.367281 0.336505
0.168979 0.247064 0.198330
0.214738 0.275289 0.226153
0.262485 0.304716 0.255046
0.312299 0.335359 0.285031
0.364251 0.367240 0.316134
0.418404 0.400376 0.348377
0.474811 0.434788 0.381781
0.533525 0.470493 0.416367
0.594591 0.507511 0.452154
0.263148 0.367158 0.296224
0.314395 0.399923 0.327739
0.367821 0.433962 0.360402
0.423484 0.469294 0.394235
0.481437 0.505937 0.429256
0.541727 0.543906 0.465485
0.604399 0.583219 0.502938
0.669493 0.623891 0.541634
0.737048 0.665937 0.581587
0.371299 0.504307 0.406846
0.428474 0.541895 0.442305
0.487972 0.580825 0.478978
0.549838 0.621112 0.516881
0.614114 0.662772 0.556033
0.680841 0.705818 0.596448
0.750053 0.750266 0.638141
0.810640 0.785728 0.672944
0.865565 0.815741 0.703491
0.494362 0.659541 0.530990
0.557807 0.702195 0.570600
0.623691 0.746249 0.611478
0.691906 0.791554 0.653518
0.746830 0.821567 0.684065
0.801755 0.851579 0.714612
0.856679 0.881592 0.745159
0.911604 0.911604 0.775706
0.966529 0.941616 0.806253
0.628096 0.827393 0.664639
0.683021 0.857405 0.695186
0.737945 0.887418 0.725733
0.792870 0.917430 0.756280
0.847794 0.947443 0.786827
0.902719 0.977455 0.817374
0.957643 1.000000 0.847921
1.000000 1.000000 0.878468
1.000000 1.000000 0.909015
0.000000 0.000000 0.000000
0.000000 0.000000 0.000000
0.000000 0.000000 0.000000
0.000000 0.000000 0.000000
0.035948 0.000000 0.000344
0.075220 0.000000 0.023193
0.114492 0.007731 0.046043
0.153764 0.029511 0.068892
0.193035 0.051291 0.091741
0.000000 0.000000 0.000000
0.000000 0.000000 0.008663
0.029595 0.011959 0.031512
0.068867 0.033739 0.054361
0.108139 0.055519 0.077210
0.147410 0.077299 0.100059
0.186682 0.099079 0.122909
0.226685 0.121230 0.146156
0.270338 0.145246 0.171354
0.023242 0.059747 0.062680
0.062514 0.081527 0.085529
0.101786 0.103307 0.108378
0.141057 0.125087 0.131227
0.181870 0.148057 0.155189
0.225302 0.172799 0.180808
0.270720 0.198692 0.207503
0.318166 0.225721 0.235261
0.367702 0.253904 0.264097
0.095445 0.151114 0.139561
0.136660 0.175255 0.164388
0.179709 0.200738 0.190404
0.224634 0.227394 0.217485
0.271523 0.255216 0.245633
0.320458 0.284218 0.274867
0.371510 0.314422 0.305209
0.424743 0.345848 0.336681
0.480212 0.378516 0.369304
0.177883 0.256515 0.227608
0.224172 0.285147 0.256149
0.272471 0.314985 0.285784
0.322857 0.346046 0.316535
0.375399 0.378351 0.348423
0.430155 0.411918 0.381470
0.487181 0.446767 0.415696
0.546526 0.482917 0.451119
0.608235 0.520383 0.487757
0.273415 0.378143 0.328012
0.325242 0.411339 0.360319
0.379265 0.445815 0.393793
0.435539 0.481590 0.428453
0.494117 0.518681 0.464316
0.555044 0.557105 0.501401
0.618364 0.596878 0.539725
0.684117 0.638015 0.579303
0.752341 0.680531 0.620150
0.383032 0.516922 0.441369
0.440825 0.554964 0.477675
0.500955 0.594354 0.515209
0.563464 0.635105 0.553988
0.628395 0.677234 0.594026
0.695786 0.720755 0.635340
0.765672 0.765681 0.677942
0.820833 0.795921 0.708674
0.875757 0.825933 0.739221
0.507644 0.673870 0.568417
0.571739 0.716999 0.608918
0.638283 0.761530 0.650700
0.702098 0.801747 0.689248
0.757023 0.831759 0.719795
0.811947 0.861772 0.750342
0.866872 0.891784 0.780889
0.921796 0.921796 0.811436
0.976721 0.951809 0.841983
0.638288 0.837585 0.700369
0.693213 0.867598 0.730916
0.748137 0.897610 0.761463
0.803062 0.927623 0.792010
0.857987 0.957635 0.822557
0.912911 0.987647 0.853104
0.967836 1.000000 0.883651
1.000000 1.000000 0.914198
1.000000 1.000000 0.944745
0.000000 0.000000 0.000000
0.000000 0.000000 0.000000
0.000000 0.000000 0.000000
0.003964 0.000000 0.004221
0.043236 0.000000 0.027070
0.082508 0.000000 0.049919
0.121779 0.015127 0.072768
0.161051 0.036907 0.095618
0.200323 0.058687 0.118467
0.000000 0.000000 0.012540
0.000000 0.000000 0.035389
0.036883 0.019355 0.058238
0.076155 0.041135 0.081087
0.115426 0.062915 0.103936
0.154698 0.084695 0.126785
0.193970 0.106475 0.149635
0.235146 0.129249 0.173674
0.279463 0.153664 0.199544
0.030530 0.067143 0.089406
0.069801 0.088923 0.112255
0.109073 0.110703 0.135104
0.148345 0.132484 0.157953
0.190262 0.156326 0.182957
0.234257 0.181465 0.209242
0.280233 0.207743 0.236623
0.328250 0.235162 0.265095
0.378371 0.263742 0.294671
0.103147 0.159116 0.166856
0.144902 0.183775 0.192397
0.188461 0.209660 0.219085
0.233917 0.236711 0.246862
0.281358 0.264932 0.275734
0.330863 0.294340 0.305716
0.382502 0.324956 0.336827
0.436337 0.356802 0.369088
0.492422 0.389897 0.402519
0.186918 0.266105 0.257246
0.233743 0.295144 0.286520
0.282600 0.325395 0.316911
0.333563 0.356877 0.348438
0.386697 0.389608 0.381123
0.442062 0.423609 0.414983
0.499710 0.458897 0.450039
0.559689 0.495492 0.486306
0.622044 0.533410 0.523804
0.283825 0.389274 0.360203
0.336236 0.422903 0.393313
0.390860 0.457818 0.427607
0.447749 0.494038 0.463101
0.506955 0.531580 0.499815
0.568522 0.570460 0.537764
0.632493 0.610695 0.576964
0.698908 0.652298 0.617431
0.767804 0.695287 0.659179
0.394918 0.529692 0.476325
0.453333 0.568189 0.513487
0.514097 0.608040 0.551889
0.577253 0.649257 0.591549
0.642840 0.691857 0.632481
0.710898 0.735854 0.674699
0.776100 0.776100 0.713857
0.831025 0.806113 0.744404
0.885950 0.836125 0.774951
0.521087 0.688360 0.606303
0.585834 0.731964 0.647701
0.653041 0.776975 0.690391
0.712291 0.811939 0.724978
0.767215 0.841951 0.755525
0.822140 0.871964 0.786072
0.877064 0.901976 0.816619
0.931989 0.931989 0.847166
0.986913 0.962001 0.877713
0.648481 0.847778 0.736099
0.703405 0.877790 0.766646
0.758330 0.907802 0.797193
0.813254 0.937815 0.827740
0.868179 0.967827 0.858287
0.923103 0.997840 0.888834
0.978028 1.000000 0.919381
1.000000 1.000000 0.949928
1.000000 1.000000 0.980475
0.000000 0.000000 0.000000
0.000000 0.000000 0.000000
0.000000 0.000000 0.008098
0.011252 0.000000 0.030947
0.050524 0.000000 0.053796
0.089795 0.000744 0.076645
0.129067 0.022524 0.099494
0.168339 0.044304 0.122343
0.207611 0.066084 0.145193
0.000000 0.000000 0.039265
0.004899 0.004972 0.062115
0.044171 0.026752 0.084964
0.083442 0.048532 0.107813
0.122714 0.070312 0.130662
0.161986 0.092092 0.153511
0.201257 0.113872 0.176360
0.243821 0.137413 0.201514
0.288754 0.162210 0.228065
0.037817 0.074540 0.116131
0.077089 0.096320 0.138981
0.116361 0.118100 0.161830
0.156227 0.140387 0.185275
0.198813 0.164734 0.211045
0.243360 0.190262 0.238014
0.289895 0.216926 0.266100
0.338485 0.244736 0.295302
0.389194 0.273716 0.325630
0.111023 0.167340 0.194503
0.153277 0.192434 0.220732
0.197350 0.218716 0.248110
0.243340 0.246163 0.276602
0.291337 0.274785 0.306212
0.341416 0.304601 0.336954
0.393646 0.335632 0.368846
0.448087 0.367900 0.401907
0.504792 0.401425 0.436154
0.196087 0.275832 0.287252
0.243454 0.305281 0.317272
0.292873 0.335948 0.348431
0.344416 0.367852 0.380746
0.398148 0.401012 0.414237
0.454124 0.435448 0.448920
0.512397 0.471178 0.484813
0.573013 0.508220 0.521933
0.636017 0.546591 0.560297
0.294379 0.400551 0.392802
0.347380 0.434615 0.426725
0.402608 0.469971 0.461846
0.460116 0.506639 0.498184
0.519952 0.544633 0.535755
0.582162 0.583971 0.574575
0.646787 0.624669 0.614659
0.713867 0.666741 0.656021
0.783437 0.710203 0.698675
0.406958 0.542615 0.511719
0.465998 0.581570 0.549743
0.527400 0.621883 0.589021
0.591204 0.663569 0.629568
0.657452 0.706642 0.671399
0.726179 0.751115 0.714528
0.786293 0.786293 0.749586
0.841217 0.816305 0.780133
0.896142 0.846318 0.810680
0.534691 0.703011 0.644648
0.600093 0.747091 0.686950
0.667558 0.792119 0.730160
0.722483 0.822131 0.760707
0.777408 0.852144 0.791254
0.832332 0.882156 0.821801
0.887257 0.912169 0.852348
0.942181 0.942181 0.882896
0.997106 0.972194 0.913443
0.658673 0.857970 0.771829
0.713598 0.887982 0.802376
0.768522 0.917995 0.832923
0.823447 0.948007 0.863470
0.878371 0.978020 0.894017
0.933296 1.000000 0.924564
0.988220 1.000000 0.955111
1.000000 1.000000 0.985658
1.000000 1.000000 1.000000
0.000000 0.000000 0.000000
0.000000 0.000000 0.011974
0.000000 0.000000 0.034823
0.018540 0.000000 0.057673
0.057811 0.000000 0.080522
0.097083 0.008141 0.103371
0.136355 0.029921 0.126220
0.175627 0.051701 0.149069
0.214898 0.073481 0.171918
0.000000 0.000000 0.065991
0.012186 0.012369 0.088840
0.051458 0.034149 0.111690
0.090730 0.055929 0.134539
0.130002 0.077709 0.157388
0.169273 0.099489 0.180237
0.209272 0.121670 0.203685
0.252677 0.145709 0.229681
0.298206 0.170882 0.256928
0.045105 0.081937 0.142857
0.084377 0.103717 0.165706
0.123649 0.125497 0.188556
0.164361 0.148512 0.212985
0.207513 0.173276 0.239465
0.252609 0.199190 0.267133
0.299705 0.226241 0.295941
0.348870 0.254446 0.325886
0.400171 0.283827 0.356979
0.119036 0.175723 0.222479
0.161785 0.201229 0.249405
0.206374 0.227907 0.277490
0.252904 0.255751 0.306711
0.301461 0.284776 0.337072
0.352119 0.315002 0.368587
0.404943 0.346451 0.401271
0.459993 0.379143 0.435141
0.517320 0.413100 0.470213
0.205391 0.285698 0.317632
0.253304 0.315558 0.348411
0.303291 0.346643 0.380350
0.355419 0.378971 0.413464
0.409751 0.412562 0.447769
0.466343 0.447436 0.483284
0.525243 0.483609 0.520023
0.586500 0.521101 0.558003
0.650155 0.559928 0.597240
0.305080 0.411976 0.425814
0.358674 0.446476 0.460558
0.414510 0.482276 0.496516
0.472639 0.519392 0.533706
0.533110 0.557841 0.572142
0.595966 0.597639 0.611839
0.661247 0.638802 0.652812
0.728994 0.681345 0.695076
0.799240 0.725281 0.738643
0.419152 0.555693 0.547554
0.478821 0.595108 0.586447
0.540863 0.635885 0.626607
0.605320 0.678040 0.668049
0.672229 0.721587 0.710785
0.741561 0.766473 0.754769
0.796485 0.796485 0.785316
0.851410 0.826498 0.815863
0.906334 0.856510 0.846410
0.548457 0.717823 0.683457
0.614517 0.762382 0.726668
0.677751 0.802311 0.765890
0.732675 0.832324 0.796437
0.787600 0.862336 0.826984
0.842524 0.892349 0.857531
0.897449 0.922361 0.888078
0.952374 0.952374 0.918625
1.000000 0.982386 0.949172
0.668865 0.868162 0.807558
0.723790 0.898175 0.838105
0.778715 0.928187 0.868652
0.833639 0.958200 0.899199
0.888564 0.988212 0.929746
0.943488 1.000000 0.960293
0.998413 1.000000 0.990840
1.000000 1.000000 1.000000
1.000000 1.000000 1.000000
0.000000 0.000000 0.015851
0.000000 0.000000 0.038700
0.000000 0.000000 0.061549
0.025827 0.000000 0.084399
0.065099 0.000000 0.107248
0.104371 0.015537 0.130097
0.143642 0.037317 0.152946
0.182914 0.059097 0.175795
0.222186 0.080877 0.198644
0.000000 0.000000 0.092717
0.019474 0.019765 0.115566
0.058746 0.041545 0.138415
0.098018 0.063325 0.161265
0.137289 0.085105 0.184114
0.176561 0.106885 0.206963
0.217659 0.129697 0.231455
0.261701 0.154134 0.258183
0.307814 0.179681 0.286141
0.052393 0.089333 0.169583
0.091664 0.111113 0.192432
0.130948 0.132904 0.215298
0.172662 0.156788 0.241033
0.216360 0.181949 0.268225
0.262003 0.208248 0.296610
0.309662 0.235689 0.326153
0.359407 0.264291 0.356855
0.411302 0.294077 0.388725
0.127179 0.184251 0.250789
0.170424 0.210159 0.278424
0.215535 0.237231 0.307232
0.262609 0.265474 0.337196
0.311730 0.294905 0.368322
0.362971 0.325544 0.400620
0.416393 0.357413 0.434106
0.472055 0.390532 0.468794
0.530009 0.424923 0.504701
0.214830 0.295702 0.348393
0.263296 0.325976 0.379944
0.313854 0.357481 0.412673
0.366572 0.390236 0.446595
0.421509 0.424261 0.481725
0.478718 0.459574 0.518078
0.538250 0.496193 0.555672
0.600149 0.534136 0.594519
0.664458 0.573420 0.634635
0.315927 0.423548 0.459243
0.370118 0.458487 0.494817
0.426566 0.494732 0.531621
0.485320 0.532299 0.569669
0.546428 0.571205 0.608976
0.609933 0.611465 0.649558
0.675874 0.653094 0.691428
0.744289 0.696109 0.734598
0.815214 0.740522 0.779083
0.431501 0.568927 0.583833
0.491803 0.608802 0.623603
0.554488 0.650046 0.664652
0.619599 0.692672 0.706993
0.687173 0.736695 0.750641
0.751753 0.776665 0.790499
0.806678 0.806678 0.821046
0.861602 0.836690 0.851593
0.916527 0.866702 0.882140
0.562385 0.732798 0.722732
0.629106 0.777836 0.766858
0.687943 0.812504 0.801620
0.742868 0.842516 0.832167
0.797792 0.872529 0.862714
0.852717 0.902541 0.893261
0.907641 0.932553 0.923808
0.962566 0.962566 0.954355
1.000000 0.992578 0.984902
0.679058 0.878355 0.843288
0.733982 0.908367 0.873835
0.788907 0.938380 0.904382
0.843831 0.968392 0.934929
0.898756 0.998404 0.965476
0.953681 1.000000 0.996023
1.000000 1.000000 1.000000
1.000000 1.000000 1.000000
1.000000 1.000000 1.000000
0.000000 0.000000 0.042577
0.000000 0.000000 0.065426
0.000000 0.000000 0.088275
0.033115 0.000000 0.111124
0.072387 0.001154 0.133974
0.111658 0.022934 0.156823
0.150930 0.044714 0.179672
0.190202 0.066494 0.202521
0.229474 0.088274 0.225370
0.000000 0.005382 0.119443
0.026762 0.027162 0.142292
0.066034 0.048942 0.165141
0.105305 0.070722 0.187990
0.144577 0.092502 0.210840
0.183849 0.114282 0.233689
0.226245 0.137869 0.259574
0.270885 0.162687 0.287030
0.317578 0.188608 0.315713
0.059680 0.096730 0.196309
0.098952 0.118510 0.219158
0.138788 0.140832 0.242841
0.181115 0.165204 0.269421
0.225350 0.190753 0.297335
0.271543 0.217438 0.326450
0.319768 0.245271 0.356743
0.370095 0.274272 0.388214
0.422587 0.304466 0.420872
0.135449 0.192918 0.279441
0.179195 0.219222 0.307798
0.224833 0.246691 0.337343
0.272457 0.275335 0.368064
0.322147 0.305173 0.399966
0.373973 0.336228 0.433059
0.427998 0.368519 0.467356
0.484275 0.402068 0.502871
0.542857 0.436895 0.539620
0.224407 0.305847 0.379541
0.273430 0.336537 0.411875
0.324565 0.368464 0.445405
0.377875 0.401648 0.480144
0.433420 0.436108 0.516107
0.491251 0.471862 0.553308
0.551417 0.508929 0.591763
0.613963 0.547326 0.631485
0.678928 0.587069 0.672487
0.326922 0.435268 0.493094
0.381714 0.470649 0.529506
0.438777 0.507341 0.567162
0.498159 0.545361 0.606077
0.559908 0.584725 0.646263
0.624064 0.625448 0.687736
0.690667 0.667546 0.730507
0.759754 0.711034 0.774591
0.825755 0.751019 0.815108
0.444007 0.582316 0.620559
0.504943 0.622655 0.661212
0.568275 0.664366 0.703156
0.634043 0.707465 0.746404
0.702285 0.751966 0.790969
0.761945 0.786858 0.826229
0.816870 0.816870 0.856776
0.871794 0.846882 0.887323
0.926719 0.876895 0.917870
0.576476 0.747934 0.762476
0.643211 0.792684 0.806803
0.698136 0.822696 0.837350
0.753060 0.852708 0.867897
0.807985 0.882721 0.898444
0.862909 0.912733 0.928991
0.917834 0.942746 0.959538
0.972758 0.972758 0.990085
1.000000 1.000000 1.000000
0.689250 0.888547 0.879018
0.744175 0.918559 0.909565
0.799099 0.948572 0.940112
0.854024 0.978584 0.970659
0.908948 1.000000 1.000000
0.963873 1.000000 1.000000
1.000000 1.000000 1.000000
1.000000 1.000000 1.000000
1.000000 1.000000 1.000000
0.000000 0.000000 0.069303
0.000000 0.000000 0.092152
0.001131 0.000000 0.115001
0.040403 0.000000 0.137850
0.079674 0.008550 0.160699
0.118946 0.030330 0.183549
0.158218 0.052110 0.206398
0.197490 0.073890 0.229247
0.236761 0.095670 0.252096
0.000000 0.012778 0.146169
0.034049 0.034558 0.169018
0.073321 0.056338 0.191867
0.112593 0.078118 0.214716
0.151865 0.099898 0.237565
0.191852 0.122110 0.261238
0.235005 0.146173 0.288040
0.280225 0.171366 0.316230
0.327496 0.197664 0.345652
0.066968 0.104126 0.223035
0.106240 0.125906 0.245884
0.146841 0.148966 0.270809
0.189712 0.173753 0.298156
0.234484 0.199688 0.326802
0.281229 0.226761 0.356662
0.330023 0.254987 0.387718
0.380935 0.284391 0.419969
0.434028 0.314996 0.453425
0.143847 0.201720 0.308442
0.188100 0.228420 0.337534
0.234270 0.256286 0.367830
0.282447 0.285333 0.399321
0.332711 0.315582 0.432010
0.385127 0.347054 0.465907
0.439757 0.379770 0.501025
0.496654 0.413751 0.537376
0.555867 0.449016 0.574976
0.234122 0.316132 0.411082
0.283708 0.347239 0.444210
0.335423 0.379591 0.478550
0.389330 0.413207 0.514115
0.445487 0.448104 0.550920
0.503943 0.484302 0.588977
0.564746 0.521819 0.628300
0.627940 0.560671 0.668902
0.693565 0.600875 0.710798
0.338066 0.447138 0.527370
0.393463 0.482962 0.564629
0.451144 0.520103 0.603145
0.511158 0.558577 0.642933
0.573549 0.598401 0.684005
0.638359 0.639590 0.726374
0.705627 0.682158 0.770054
0.775388 0.726121 0.815057
0.835948 0.761211 0.850837
0.456669 0.595862 0.657736
0.518244 0.636666 0.699279
0.582225 0.678847 0.742124
0.648653 0.722420 0.786285
0.717213 0.767037 0.831411
0.772138 0.797050 0.861958
0.827062 0.827062 0.892505
0.881987 0.857075 0.923052
0.936911 0.887087 0.953599
0.590731 0.763234 0.802691
0.653403 0.802876 0.842532
0.708328 0.832888 0.873079
0.763252 0.862901 0.903626
0.818177 0.892913 0.934173
0.873102 0.922926 0.964720
0.928026 0.952938 0.995267
0.982951 0.982951 1.000000
1.000000 1.000000 1.000000
0.699443 0.898739 0.914747
0.754367 0.928752 0.945295
0.809292 0.958764 0.975842
0.864216 0.988777 1.000000
0.919141 1.000000 1.000000
0.974065 1.000000 1.000000
1.000000 1.000000 1.000000
1.000000 1.000000 1.000000
1.000000 1.000000 1.000000
