assets/lighting/cinematic/grade-noir-high-contrast/lut.cube
TITLE "Noir High Contrast"
# TKRS lighting-batch-001 original LUT
# Intended usage: near-monochrome crime/night interiors
# License: CC0-1.0
LUT_3D_SIZE 17
DOMAIN_MIN 0.0 0.0 0.0
DOMAIN_MAX 1.0 1.0 1.0
0.000000 0.000000 0.000000
0.000000 0.000000 0.000000
0.000000 0.000000 0.000000
0.000000 0.000000 0.000000
0.000000 0.000000 0.000000
0.000000 0.000000 0.000000
0.000000 0.000000 0.000000
0.001737 0.000000 0.000000
0.021373 0.000000 0.000000
0.041009 0.000000 0.000000
0.060645 0.000000 0.000000
0.080281 0.000000 0.000000
0.099916 0.000000 0.000000
0.119552 0.003828 0.004015
0.139188 0.014718 0.015440
0.158824 0.025608 0.026865
0.178460 0.036498 0.038289
0.000000 0.000000 0.000000
0.000000 0.000000 0.000000
0.000000 0.000000 0.000000
0.000000 0.000000 0.000000
0.000000 0.000000 0.000000
0.000000 0.000000 0.000000
0.018196 0.000000 0.000000
0.037832 0.000000 0.000000
0.057468 0.000000 0.000000
0.077104 0.005942 0.000000
0.096740 0.016832 0.008175
0.116376 0.027722 0.019599
0.136012 0.038612 0.031024
0.155647 0.049502 0.042449
0.175283 0.060392 0.053873
0.194919 0.071282 0.065298
0.214555 0.082172 0.076722
0.000000 0.000000 0.000000
0.000000 0.000000 0.000000
0.000000 0.000000 0.000000
0.000000 0.000000 0.000000
0.015020 0.000000 0.000000
0.034656 0.008056 0.000000
0.054292 0.018946 0.000909
0.073927 0.029836 0.012334
0.093563 0.040726 0.023759
0.113199 0.051616 0.035183
0.132835 0.062506 0.046608
0.152471 0.073396 0.058032
0.172107 0.084286 0.069457
0.191743 0.095176 0.080882
0.211379 0.106066 0.092306
0.231253 0.117070 0.103821
0.252624 0.128800 0.115922
0.000000 0.000000 0.000000
0.000000 0.010170 0.000000
0.011843 0.021060 0.000000
0.031479 0.031950 0.005069
0.051115 0.042840 0.016493
0.070751 0.053730 0.027918
0.090387 0.064620 0.039342
0.110023 0.075510 0.050767
0.129658 0.086400 0.062192
0.149294 0.097290 0.073616
0.168930 0.108180 0.085041
0.188566 0.119070 0.096465
0.208883 0.130363 0.108188
0.230289 0.142287 0.120400
0.252256 0.154521 0.132875
0.274748 0.167040 0.145600
0.297757 0.179839 0.158574
0.008667 0.044954 0.009228
0.028303 0.055844 0.020653
0.047938 0.066734 0.032077
0.067574 0.077624 0.043502
0.087210 0.088514 0.054926
0.106846 0.099404 0.066351
0.126482 0.110294 0.077776
0.146118 0.121184 0.089200
0.165754 0.132074 0.100625
0.186470 0.143754 0.112601
0.207851 0.155864 0.124912
0.229745 0.168279 0.137479
0.252141 0.180982 0.150294
0.275041 0.193968 0.163359
0.298450 0.207238 0.176676
0.322375 0.220793 0.190248
0.346823 0.234635 0.204078
0.044762 0.090628 0.047661
0.064398 0.101518 0.059086
0.084034 0.112408 0.070510
0.103670 0.123298 0.081935
0.123305 0.134188 0.093359
0.143164 0.145292 0.104922
0.163974 0.157238 0.117052
0.185295 0.169535 0.129458
0.207100 0.182133 0.142116
0.229389 0.195022 0.155022
0.252170 0.208199 0.168178
0.275450 0.221662 0.181587
0.299239 0.235415 0.195253
0.323546 0.249458 0.209178
0.348378 0.263795 0.223367
0.373743 0.278428 0.237823
0.399650 0.293360 0.252550
0.080857 0.136302 0.086094
0.100493 0.147192 0.097519
0.120597 0.158666 0.109302
0.141374 0.170817 0.121539
0.162613 0.183299 0.134037
0.184314 0.196084 0.146785
0.206486 0.209163 0.159782
0.229139 0.222532 0.173030
0.252285 0.236191 0.186533
0.275932 0.250144 0.200292
0.300091 0.264390 0.214314
0.324771 0.278933 0.228599
0.349980 0.293776 0.243153
0.375727 0.308920 0.257979
0.402018 0.324369 0.273079
0.428861 0.340125 0.288458
0.456264 0.356191 0.304117
0.118656 0.184489 0.126060
0.139795 0.197160 0.138650
0.161381 0.210134 0.151488
0.183427 0.223404 0.164576
0.205946 0.236968 0.177916
0.228950 0.250827 0.191512
0.252450 0.264981 0.205367
0.276457 0.279433 0.219484
0.300981 0.294184 0.233867
0.326029 0.309238 0.248519
0.351611 0.324596 0.263445
0.377735 0.340262 0.278646
0.404408 0.356237 0.294126
0.431637 0.372525 0.309889
0.459428 0.389128 0.325936
0.487790 0.406048 0.342271
0.516727 0.423288 0.358897
0.160207 0.237749 0.169404
0.182585 0.251511 0.182836
0.205442 0.265570 0.196526
0.228790 0.279928 0.210476
0.252641 0.294587 0.224689
0.277003 0.309548 0.239170
0.301887 0.324815 0.253921
0.327302 0.340389 0.268947
0.353255 0.356273 0.284249
0.379754 0.372470 0.299832
0.406806 0.388981 0.315698
0.434419 0.405809 0.331850
0.462598 0.422957 0.348290
0.491351 0.440427 0.365022
0.520684 0.458221 0.382048
0.550601 0.476342 0.399370
0.581110 0.494791 0.416991
0.204950 0.294986 0.215619
0.228639 0.309853 0.229930
0.252837 0.325027 0.244509
0.277553 0.340508 0.259360
0.302797 0.356300 0.274486
0.328575 0.372404 0.289890
0.354898 0.388822 0.305575
0.381771 0.405558 0.321545
0.409202 0.422613 0.337802
0.437197 0.439991 0.354348
0.465764 0.457692 0.371186
0.494908 0.475719 0.388320
0.524635 0.494075 0.405751
0.554951 0.512761 0.423481
0.585861 0.531781 0.441513
0.617371 0.551134 0.459850
0.649485 0.570825 0.478493
0.253025 0.356318 0.264834
0.278094 0.372328 0.280061
0.303695 0.388654 0.295568
0.329838 0.405296 0.311356
0.356529 0.422258 0.327430
0.383775 0.439542 0.343792
0.411584 0.457149 0.360444
0.439962 0.475083 0.377390
0.468916 0.493345 0.394631
0.498450 0.511937 0.412171
0.528572 0.530861 0.430011
0.559286 0.550121 0.448154
0.590597 0.569716 0.466602
0.622512 0.589650 0.485357
0.655035 0.609925 0.504421
0.688171 0.630542 0.523797
0.721924 0.651503 0.543486
0.304573 0.421892 0.317175
0.331079 0.439081 0.333353
0.358139 0.456594 0.349821
0.385759 0.474433 0.366579
0.413946 0.492601 0.383632
0.442706 0.511098 0.400982
0.472046 0.529928 0.418631
0.501971 0.549092 0.436581
0.532487 0.568592 0.454835
0.563599 0.588430 0.473394
0.595312 0.608609 0.492262
0.627632 0.629130 0.511439
0.660563 0.649994 0.530929
0.694110 0.671205 0.550733
0.728277 0.692763 0.570852
0.763070 0.714670 0.591290
0.798492 0.736928 0.612048
0.359719 0.491844 0.372754
0.387713 0.510246 0.389914
0.416278 0.528980 0.407373
0.445421 0.548048 0.425131
0.475147 0.567453 0.443191
0.505463 0.587195 0.461556
0.536373 0.607277 0.480227
0.567884 0.627701 0.499208
0.599999 0.648469 0.518499
0.632723 0.669582 0.538102
0.666063 0.691043 0.558021
0.700021 0.712853 0.578256
0.734604 0.735013 0.598810
0.769814 0.757526 0.619684
0.800448 0.775536 0.637214
0.827910 0.790542 0.652488
0.855372 0.805548 0.667761
0.418574 0.566299 0.431671
0.448100 0.585945 0.449842
0.478214 0.605930 0.468318
0.508921 0.626257 0.487102
0.540226 0.646928 0.506195
0.572134 0.667944 0.525599
0.604651 0.689306 0.545317
0.637781 0.711018 0.565351
0.671529 0.733080 0.585702
0.705900 0.755495 0.606372
0.740897 0.778263 0.627364
0.768543 0.793455 0.642775
0.796005 0.808461 0.658048
0.823468 0.823468 0.673322
0.850930 0.838474 0.688595
0.878392 0.853480 0.703869
0.905854 0.868486 0.719142
0.481239 0.645371 0.494017
0.512337 0.666289 0.513223
0.544038 0.687553 0.532742
0.576345 0.709167 0.552574
0.609265 0.731130 0.572723
0.642801 0.753446 0.593190
0.676958 0.776115 0.613977
0.709176 0.796368 0.633062
0.736638 0.811374 0.648335
0.764100 0.826381 0.663609
0.791563 0.841387 0.678883
0.819025 0.856393 0.694156
0.846487 0.871399 0.709430
0.873949 0.886405 0.724703
0.901412 0.901412 0.739977
0.928874 0.916418 0.755250
0.956336 0.931424 0.770524
0.547805 0.729164 0.559873
0.580512 0.751380 0.580138
0.613834 0.773950 0.600721
0.647776 0.796875 0.621625
0.677271 0.814287 0.638623
0.704733 0.829294 0.653896
0.732195 0.844300 0.669170
0.759658 0.859306 0.684443
0.787120 0.874312 0.699717
0.814582 0.889318 0.714990
0.842044 0.904325 0.730264
0.869507 0.919331 0.745537
0.896969 0.934337 0.760811
0.924431 0.949343 0.776084
0.951894 0.964350 0.791358
0.979356 0.979356 0.806631
1.000000 0.994362 0.821905
0.617904 0.817200 0.628910
0.645366 0.832207 0.644183
0.672828 0.847213 0.659457
0.700290 0.862219 0.674730
0.727753 0.877225 0.690004
0.755215 0.892232 0.705277
0.782677 0.907238 0.720551
0.810140 0.922244 0.735824
0.837602 0.937250 0.751098
0.865064 0.952256 0.766371
0.892526 0.967263 0.781645
0.919989 0.982269 0.796918
0.947451 0.997275 0.812192
0.974913 1.000000 0.827465
1.000000 1.000000 0.842739
1.000000 1.000000 0.858012
1.000000 1.000000 0.873286
0.000000 0.000000 0.000000
0.000000 0.000000 0.000000
0.000000 0.000000 0.000000
0.000000 0.000000 0.000000
0.000000 0.000000 0.000000
0.000000 0.000000 0.000000
0.000000 0.000000 0.000000
0.005381 0.000000 0.000000
0.025017 0.000000 0.000000
0.044653 0.000000 0.000000
0.064289 0.000000 0.000000
0.083924 0.000000 0.000000
0.103560 0.000000 0.005954
0.123196 0.007526 0.017378
0.142832 0.018416 0.028803
0.162468 0.029306 0.040228
0.182104 0.040196 0.051652
0.000000 0.000000 0.000000
0.000000 0.000000 0.000000
0.000000 0.000000 0.000000
0.000000 0.000000 0.000000
0.000000 0.000000 0.000000
0.002204 0.000000 0.000000
0.021840 0.000000 0.000000
0.041476 0.000000 0.000000
0.061112 0.000000 0.000000
0.080748 0.009640 0.010113
0.100384 0.020530 0.021538
0.120020 0.031420 0.032962
0.139655 0.042310 0.044387
0.159291 0.053200 0.055811
0.178927 0.064090 0.067236
0.198563 0.074980 0.078661
0.218199 0.085870 0.090085
0.000000 0.000000 0.000000
0.000000 0.000000 0.000000
0.000000 0.000000 0.000000
0.000000 0.000000 0.000000
0.018664 0.000864 0.000000
0.038300 0.011754 0.002848
0.057935 0.022644 0.014272
0.077571 0.033534 0.025697
0.097207 0.044424 0.037122
0.116843 0.055314 0.048546
0.136479 0.066204 0.059971
0.156115 0.077094 0.071395
0.175751 0.087984 0.082820
0.195387 0.098874 0.094244
0.215022 0.109764 0.105669
0.235388 0.121010 0.117402
0.256980 0.132862 0.129665
0.000000 0.002978 0.000000
0.000000 0.013868 0.000000
0.015487 0.024758 0.007007
0.035123 0.035648 0.018432
0.054759 0.046538 0.029856
0.074395 0.057428 0.041281
0.094031 0.068318 0.052705
0.113666 0.079208 0.064130
0.133302 0.090098 0.075555
0.152938 0.100988 0.086979
0.172574 0.111878 0.098404
0.192210 0.122768 0.109828
0.213043 0.134374 0.121832
0.234624 0.146409 0.134200
0.256744 0.158741 0.146831
0.279383 0.171355 0.159716
0.302538 0.184249 0.172855
0.012311 0.048652 0.022591
0.031946 0.059542 0.034016
0.051582 0.070432 0.045440
0.071218 0.081322 0.056865
0.090854 0.092212 0.068289
0.110490 0.103102 0.079714
0.130126 0.113992 0.091138
0.149762 0.124882 0.102563
0.169637 0.135954 0.114124
0.190621 0.147830 0.126303
0.212155 0.160048 0.138769
0.234192 0.172561 0.151493
0.256730 0.185360 0.164470
0.279771 0.198443 0.177702
0.303322 0.211809 0.191189
0.327391 0.225462 0.204935
0.351985 0.239402 0.218944
0.048406 0.094326 0.061024
0.068042 0.105216 0.072449
0.087677 0.116106 0.083873
0.107313 0.126996 0.095298
0.126949 0.137886 0.106722
0.147132 0.149302 0.118519
0.168101 0.161379 0.130810
0.189562 0.173780 0.143372
0.211502 0.186478 0.156188
0.233927 0.199465 0.169258
0.256846 0.212739 0.182582
0.280266 0.226300 0.196163
0.304196 0.240151 0.210005
0.328646 0.254294 0.224110
0.353624 0.268731 0.238481
0.379137 0.283465 0.253123
0.405193 0.298499 0.268038
0.084501 0.140000 0.099457
0.104143 0.150899 0.110887
0.124556 0.162751 0.122960
0.145467 0.175021 0.135353
0.166836 0.187608 0.148008
0.188667 0.200493 0.160917
0.210971 0.213670 0.174079
0.233759 0.227138 0.187497
0.257041 0.240897 0.201172
0.280827 0.254949 0.215109
0.305128 0.269296 0.229311
0.329951 0.283940 0.243781
0.355306 0.298885 0.258521
0.381200 0.314132 0.273537
0.407641 0.329685 0.288830
0.434636 0.345546 0.304403
0.462192 0.361718 0.320260
0.122708 0.188758 0.139931
0.143970 0.201533 0.152679
0.165681 0.214608 0.165680
0.187855 0.227978 0.178934
0.210506 0.241642 0.192445
0.233644 0.255601 0.206216
0.257282 0.269855 0.220249
0.281428 0.284409 0.234548
0.306094 0.299262 0.249116
0.331286 0.314419 0.263956
0.357015 0.329882 0.279072
0.383287 0.345652 0.294467
0.410110 0.361734 0.310143
0.437491 0.378128 0.326104
0.465436 0.394839 0.342352
0.493953 0.411867 0.358890
0.523047 0.429216 0.375720
0.164577 0.242389 0.183823
0.187084 0.256252 0.197428
0.210073 0.270412 0.211294
0.233557 0.284872 0.225423
0.257545 0.299634 0.239820
0.282048 0.314699 0.254487
0.307075 0.330069 0.269427
0.332634 0.345749 0.284644
0.358734 0.361738 0.300141
0.385382 0.378041 0.315921
0.412586 0.394660 0.331986
0.440351 0.411597 0.348339
0.468685 0.428854 0.364983
0.497594 0.446434 0.381920
0.527084 0.464338 0.399154
0.557161 0.482570 0.416686
0.587830 0.501132 0.434518
0.209649 0.300001 0.230634
0.233475 0.314972 0.245128
0.257812 0.330250 0.259894
0.282670 0.345836 0.274935
0.308057 0.361733 0.290254
0.333982 0.377944 0.305853
0.360452 0.394470 0.321736
0.387475 0.411314 0.337906
0.415057 0.428479 0.354365
0.443206 0.445966 0.371115
0.471928 0.463777 0.388160
0.501229 0.481916 0.405502
0.531114 0.500384 0.423143
0.561590 0.519183 0.441085
0.592662 0.538316 0.459331
0.624334 0.557784 0.477884
0.656612 0.577589 0.496744
0.258069 0.361720 0.280480
0.283280 0.377837 0.295900
0.309027 0.394270 0.311603
0.335316 0.411021 0.327590
0.362156 0.428091 0.343864
0.389553 0.445485 0.360429
0.417515 0.463203 0.377286
0.446047 0.481248 0.394439
0.475157 0.499621 0.411890
0.504849 0.518326 0.429640
0.535129 0.537364 0.447693
0.566004 0.556738 0.466050
0.597478 0.576448 0.484714
0.629556 0.596498 0.503687
0.662243 0.616888 0.522971
0.695545 0.637622 0.542567
0.729465 0.658700 0.562479
0.309975 0.427693 0.333481
0.336629 0.444992 0.349861
0.363838 0.462616 0.366532
0.391610 0.480566 0.383497
0.419951 0.498845 0.400758
0.448866 0.517455 0.418317
0.478363 0.536398 0.436177
0.508446 0.555676 0.454341
0.539122 0.575291 0.472809
0.570395 0.595245 0.491586
0.602271 0.615540 0.510671
0.634755 0.636177 0.530069
0.667851 0.657159 0.549780
0.701565 0.678487 0.569807
0.735900 0.700163 0.590151
0.770862 0.722190 0.610814
0.806454 0.744567 0.631799
0.365490 0.498056 0.389746
0.393637 0.516571 0.407116
0.422357 0.535418 0.424784
0.451656 0.554600 0.442755
0.481540 0.574119 0.461029
0.512015 0.593977 0.479609
0.543085 0.614175 0.498498
0.574758 0.634716 0.517697
0.607036 0.655601 0.537209
0.639925 0.676832 0.557034
0.673431 0.698411 0.577176
0.707557 0.720339 0.597637
0.742307 0.742619 0.618417
0.777687 0.765252 0.639519
0.805544 0.780632 0.655079
0.833006 0.795638 0.670353
0.860469 0.810644 0.685626
0.424726 0.572933 0.449372
0.454409 0.592694 0.467758
0.484681 0.612795 0.486450
0.515548 0.633238 0.505452
0.547014 0.654026 0.524764
0.579085 0.675159 0.544390
0.611766 0.696641 0.564331
0.645062 0.718471 0.584588
0.678977 0.740653 0.605165
0.713515 0.763187 0.626062
0.746177 0.783545 0.645366
0.773639 0.798551 0.660640
0.801101 0.813557 0.675913
0.828564 0.828564 0.691187
0.856026 0.843570 0.706460
0.883488 0.858576 0.721734
0.910950 0.873582 0.737007
0.487780 0.652436 0.512447
0.519040 0.673471 0.531873
0.550902 0.694854 0.551613
0.583373 0.716586 0.571669
0.616457 0.738669 0.592042
0.650159 0.761105 0.612736
0.684484 0.783895 0.633750
0.714272 0.801464 0.650927
0.741734 0.816471 0.666200
0.769196 0.831477 0.681474
0.796659 0.846483 0.696747
0.824121 0.861489 0.712021
0.851583 0.876495 0.727294
0.879046 0.891502 0.742568
0.906508 0.906508 0.757841
0.933970 0.921514 0.773115
0.961432 0.936520 0.788388
0.554745 0.736669 0.579049
0.587616 0.759005 0.599539
0.621104 0.781696 0.620349
0.654905 0.804377 0.641214
0.682367 0.819384 0.656487
0.709829 0.834390 0.671761
0.737292 0.849396 0.687034
0.764754 0.864402 0.702308
0.792216 0.879408 0.717581
0.819678 0.894415 0.732855
0.847141 0.909421 0.748128
0.874603 0.924427 0.763402
0.902065 0.939433 0.778675
0.929527 0.954440 0.793949
0.956990 0.969446 0.809222
0.984452 0.984452 0.824496
1.000000 0.999458 0.839769
0.623000 0.822297 0.646774
0.650462 0.837303 0.662048
0.677924 0.852309 0.677321
0.705387 0.867315 0.692595
0.732849 0.882322 0.707868
0.760311 0.897328 0.723142
0.787773 0.912334 0.738415
0.815236 0.927340 0.753689
0.842698 0.942346 0.768962
0.870160 0.957353 0.784236
0.897623 0.972359 0.799509
0.925085 0.987365 0.814783
0.952547 1.000000 0.830056
0.980009 1.000000 0.845330
1.000000 1.000000 0.860604
1.000000 1.000000 0.875877
1.000000 1.000000 0.891151
0.000000 0.000000 0.000000
0.000000 0.000000 0.000000
0.000000 0.000000 0.000000
0.000000 0.000000 0.000000
0.000000 0.000000 0.000000
0.000000 0.000000 0.000000
0.000000 0.000000 0.000000
0.009025 0.000000 0.000000
0.028661 0.000000 0.000000
0.048296 0.000000 0.000000
0.067932 0.000000 0.000000
0.087568 0.000000 0.007892
0.107204 0.000334 0.019317
0.126840 0.011224 0.030741
0.146476 0.022114 0.042166
0.166112 0.033004 0.053591
0.185748 0.043894 0.065015
0.000000 0.000000 0.000000
0.000000 0.000000 0.000000
0.000000 0.000000 0.000000
0.000000 0.000000 0.000000
0.000000 0.000000 0.000000
0.005848 0.000000 0.000000
0.025484 0.000000 0.000000
0.045120 0.000000 0.000627
0.064756 0.002448 0.012051
0.084392 0.013338 0.023476
0.104028 0.024228 0.034901
0.123663 0.035118 0.046325
0.143299 0.046008 0.057750
0.162935 0.056898 0.069174
0.182571 0.067788 0.080599
0.202207 0.078678 0.092024
0.221843 0.089568 0.103448
0.000000 0.000000 0.000000
0.000000 0.000000 0.000000
0.000000 0.000000 0.000000
0.002672 0.000000 0.000000
0.022307 0.004562 0.004786
0.041943 0.015452 0.016211
0.061579 0.026342 0.027635
0.081215 0.037232 0.039060
0.100851 0.048122 0.050484
0.120487 0.059012 0.061909
0.140123 0.069902 0.073334
0.159759 0.080792 0.084758
0.179394 0.091682 0.096183
0.199030 0.102572 0.107607
0.218666 0.113462 0.119032
0.239606 0.124998 0.131060
0.261386 0.136957 0.143484
0.000000 0.006676 0.000000
0.000000 0.017566 0.008945
0.019131 0.028456 0.020370
0.038767 0.039346 0.031795
0.058403 0.050236 0.043219
0.078039 0.061126 0.054644
0.097674 0.072016 0.066068
0.117310 0.082906 0.077493
0.136946 0.093796 0.088918
0.156582 0.104686 0.100342
0.176218 0.115576 0.111767
0.196104 0.126619 0.123324
0.217259 0.138426 0.135550
0.239003 0.150564 0.148076
0.261272 0.162993 0.160867
0.284057 0.175703 0.173915
0.307358 0.188692 0.187221
0.015954 0.052350 0.035954
0.035590 0.063240 0.047378
0.055226 0.074130 0.058803
0.074862 0.085020 0.070228
0.094498 0.095910 0.081652
0.114134 0.106800 0.093077
0.133770 0.117690 0.104501
0.153405 0.128580 0.115926
0.173658 0.139942 0.127734
0.194818 0.151945 0.140079
0.216498 0.164265 0.152702
0.238678 0.176876 0.165587
0.261356 0.189771 0.178730
0.284538 0.202950 0.192130
0.308232 0.216414 0.205790
0.332446 0.230163 0.219713
0.357186 0.244202 0.233902
0.052050 0.098024 0.074387
0.071685 0.108914 0.085811
0.091321 0.119804 0.097236
0.110957 0.130694 0.108661
0.130593 0.141584 0.120085
0.151152 0.153363 0.132193
0.172268 0.165556 0.144644
0.193864 0.178060 0.157363
0.215940 0.190856 0.170342
0.238502 0.203940 0.183578
0.261558 0.217312 0.197073
0.285118 0.230971 0.210828
0.309190 0.244921 0.224848
0.333784 0.259163 0.239134
0.358907 0.273701 0.253690
0.384568 0.288537 0.268519
0.410774 0.303673 0.283624
0.088145 0.143698 0.112820
0.107976 0.154855 0.124435
0.128554 0.166880 0.136693
0.149596 0.179261 0.149244
0.171093 0.191951 0.162059
0.193054 0.204935 0.175131
0.215490 0.218211 0.188461
0.238413 0.231778 0.202050
0.261832 0.245636 0.215902
0.285759 0.259788 0.230018
0.310201 0.274235 0.244402
0.335169 0.288982 0.259057
0.360670 0.304029 0.273986
0.386712 0.319380 0.289193
0.413303 0.335037 0.304680
0.440450 0.351003 0.320449
0.468159 0.367281 0.336505
0.126792 0.193062 0.153879
0.148177 0.205940 0.166788
0.170014 0.219115 0.179954
0.192317 0.232585 0.193378
0.215100 0.246349 0.207063
0.238374 0.260408 0.221010
0.262149 0.274764 0.235223
0.286436 0.289419 0.249706
0.311244 0.304376 0.264460
0.336581 0.319636 0.279490
0.362456 0.335203 0.294798
0.388877 0.351079 0.310388
0.415851 0.367266 0.326261
0.443384 0.383768 0.342422
0.471484 0.400586 0.358871
0.500156 0.417723 0.375613
0.529408 0.435181 0.392649
0.168979 0.247064 0.198330
0.191616 0.261027 0.212110
0.214738 0.275289 0.226153
0.238358 0.289852 0.240464
0.262485 0.304716 0.255046
0.287129 0.319884 0.269900
0.312299 0.335359 0.285031
0.338004 0.351144 0.300441
0.364251 0.367240 0.316134
0.391049 0.383650 0.332111
0.418404 0.400376 0.348377
0.446322 0.417421 0.364932
0.474811 0.434788 0.381781
0.503877 0.452478 0.398925
0.533525 0.470493 0.416367
0.563761 0.488837 0.434110
0.594591 0.507511 0.452154
0.214383 0.305051 0.245741
0.238346 0.320126 0.260422
0.262822 0.335508 0.275377
0.287822 0.351200 0.290609
0.313354 0.367203 0.306122
0.339425 0.383521 0.321917
0.366043 0.400155 0.338000
0.393217 0.417107 0.354370
0.420951 0.434381 0.371032
0.449254 0.451978 0.387988
0.478132 0.469901 0.405241
0.507590 0.488151 0.422792
0.537634 0.506731 0.440644
0.568270 0.525643 0.458799
0.599503 0.544889 0.477260
0.631338 0.564472 0.496029
0.663781 0.584392 0.515107
0.263148 0.367158 0.296224
0.288503 0.383382 0.311839
0.314395 0.399923 0.327739
0.340832 0.416782 0.343926
0.367821 0.433962 0.360402
0.395370 0.451465 0.377171
0.423484 0.469294 0.394235
0.452172 0.487451 0.411596
0.481437 0.505937 0.429256
0.511287 0.524754 0.447218
0.541727 0.543906 0.465485
0.572763 0.563393 0.484057
0.604399 0.583219 0.502938
0.636640 0.603384 0.522130
0.669493 0.623891 0.541634
0.702960 0.644741 0.561452
0.737048 0.665937 0.581587
0.315413 0.433532 0.349891
0.342216 0.450941 0.366473
0.369576 0.468675 0.383349
0.397500 0.486737 0.400521
0.425994 0.505128 0.417990
0.455066 0.523851 0.435760
0.484719 0.542908 0.453833
0.514962 0.562300 0.472211
0.545797 0.582029 0.490895
0.577232 0.602099 0.509889
0.609271 0.622510 0.529194
0.641919 0.643264 0.548813
0.675181 0.664363 0.568746
0.709062 0.685809 0.588996
0.743565 0.707604 0.609566
0.778696 0.729750 0.630456
0.814458 0.752247 0.651668
0.371299 0.504307 0.406846
0.399599 0.522934 0.424425
0.428474 0.541895 0.442305
0.457930 0.561191 0.460488
0.487972 0.580825 0.478978
0.518606 0.600798 0.497775
0.549838 0.621112 0.516881
0.581672 0.641769 0.536300
0.614114 0.662772 0.556033
0.647169 0.684121 0.576082
0.680841 0.705818 0.596448
0.715134 0.727866 0.617134
0.750053 0.750266 0.638141
0.783178 0.770722 0.657671
0.810640 0.785728 0.672944
0.838103 0.800734 0.688218
0.865565 0.815741 0.703491
0.430916 0.579606 0.467184
0.460757 0.599482 0.485785
0.491188 0.619699 0.504695
0.522215 0.640259 0.523915
0.553843 0.661164 0.543448
0.586077 0.682416 0.563295
0.618923 0.704015 0.583459
0.652384 0.725965 0.603942
0.686466 0.748266 0.624744
0.721172 0.770921 0.645869
0.751273 0.788641 0.663231
0.778735 0.803647 0.678505
0.806198 0.818654 0.693778
0.833660 0.833660 0.709052
0.861122 0.848666 0.724325
0.888584 0.863672 0.739599
0.916047 0.878679 0.754872
0.494362 0.659541 0.530990
0.525782 0.680694 0.550637
0.557807 0.702195 0.570600
0.590442 0.724046 0.590879
0.623691 0.746249 0.611478
0.657560 0.768805 0.632398
0.691906 0.791554 0.653518
0.719368 0.806560 0.668792
0.746830 0.821567 0.684065
0.774293 0.836573 0.699339
0.801755 0.851579 0.714612
0.829217 0.866585 0.729886
0.856679 0.881592 0.745159
0.884142 0.896598 0.760433
0.911604 0.911604 0.775706
0.939066 0.926610 0.790980
0.966529 0.941616 0.806253
0.561725 0.744215 0.598342
0.594761 0.766671 0.619057
0.628415 0.789482 0.640094
0.660001 0.809474 0.659079
0.687463 0.824480 0.674352
0.714925 0.839486 0.689626
0.742388 0.854492 0.704899
0.769850 0.869498 0.720173
0.797312 0.884505 0.735446
0.824775 0.899511 0.750720
0.852237 0.914517 0.765993
0.879699 0.929523 0.781267
0.907161 0.944530 0.796540
0.934624 0.959536 0.811814
0.962086 0.974542 0.827087
0.989548 0.989548 0.842361
1.000000 1.000000 0.857634
0.628096 0.827393 0.664639
0.655558 0.842399 0.679913
0.683021 0.857405 0.695186
0.710483 0.872411 0.710460
0.737945 0.887418 0.725733
0.765407 0.902424 0.741007
0.792870 0.917430 0.756280
0.820332 0.932436 0.771554
0.847794 0.947443 0.786827
0.875256 0.962449 0.802101
0.902719 0.977455 0.817374
0.930181 0.992461 0.832648
0.957643 1.000000 0.847921
0.985106 1.000000 0.863195
1.000000 1.000000 0.878468
1.000000 1.000000 0.893742
1.000000 1.000000 0.909015
0.000000 0.000000 0.000000
0.000000 0.000000 0.000000
0.000000 0.000000 0.000000
0.000000 0.000000 0.000000
0.000000 0.000000 0.000000
0.000000 0.000000 0.000000
0.000000 0.000000 0.000000
0.012669 0.000000 0.000000
0.032304 0.000000 0.000000
0.051940 0.000000 0.000000
0.071576 0.000000 0.009831
0.091212 0.000000 0.021255
0.110848 0.004032 0.032680
0.130484 0.014923 0.044104
