assets/lighting/cinematic/grade-noir-high-contrast/lut.cube
TITLE "Noir High Contrast"
# TKRS lighting-batch-001 original LUT
# Intended usage: near-monochrome crime/night interiors
# License: CC0-1.0
LUT_3D_SIZE 5
DOMAIN_MIN 0.0 0.0 0.0
DOMAIN_MAX 1.0 1.0 1.0
0.000000 0.000000 0.000000
0.000000 0.000000 0.000000
0.021373 0.000000 0.000000
0.099916 0.000000 0.000000
0.178460 0.036498 0.038289
0.008667 0.044954 0.009228
0.087210 0.088514 0.054926
0.165754 0.132074 0.100625
0.252141 0.180982 0.150294
0.346823 0.234635 0.204078
0.160207 0.237749 0.169404
0.252641 0.294587 0.224689
0.353255 0.356273 0.284249
0.462598 0.422957 0.348290
0.581110 0.494791 0.416991
0.359719 0.491844 0.372754
0.475147 0.567453 0.443191
0.599999 0.648469 0.518499
0.734604 0.735013 0.598810
0.855372 0.805548 0.667761
0.617904 0.817200 0.628910
0.727753 0.877225 0.690004
0.837602 0.937250 0.751098
0.947451 0.997275 0.812192
1.000000 1.000000 0.873286
0.000000 0.000000 0.000000
0.000000 0.000000 0.000000
0.035948 0.000000 0.000344
0.114492 0.007731 0.046043
0.193035 0.051291 0.091741
0.023242 0.059747 0.062680
0.101786 0.103307 0.108378
0.181870 0.148057 0.155189
0.270720 0.198692 0.207503
0.367702 0.253904 0.264097
0.177883 0.256515 0.227608
0.272471 0.314985 0.285784
0.375399 0.378351 0.348423
0.487181 0.446767 0.415696
0.608235 0.520383 0.487757
0.383032 0.516922 0.441369
0.500955 0.594354 0.515209
0.628395 0.677234 0.594026
0.765672 0.765681 0.677942
0.875757 0.825933 0.739221
0.638288 0.837585 0.700369
0.748137 0.897610 0.761463
0.857987 0.957635 0.822557
0.967836 1.000000 0.883651
1.000000 1.000000 0.944745
0.000000 0.000000 0.000000
0.000000 0.000000 0.008098
0.050524 0.000000 0.053796
0.129067 0.022524 0.099494
0.207611 0.066084 0.145193
0.037817 0.074540 0.116131
0.116361 0.118100 0.161830
0.198813 0.164734 0.211045
0.289895 0.216926 0.266100
0.389194 0.273716 0.325630
0.196087 0.275832 0.287252
0.292873 0.335948 0.348431
0.398148 0.401012 0.414237
0.512397 0.471178 0.484813
0.636017 0.546591 0.560297
0.406958 0.542615 0.511719
0.527400 0.621883 0.589021
0.657452 0.706642 0.671399
0.786293 0.786293 0.749586
0.896142 0.846318 0.810680
0.658673 0.857970 0.771829
0.768522 0.917995 0.832923
0.878371 0.978020 0.894017
0.988220 1.000000 0.955111
1.000000 1.000000 1.000000
0.000000 0.000000 0.015851
0.000000 0.000000 0.061549
0.065099 0.000000 0.107248
0.143642 0.037317 0.152946
0.222186 0.080877 0.198644
0.052393 0.089333 0.169583
0.130948 0.132904 0.215298
0.216360 0.181949 0.268225
0.309662 0.235689 0.326153
0.411302 0.294077 0.388725
0.214830 0.295702 0.348393
0.313854 0.357481 0.412673
0.421509 0.424261 0.481725
0.538250 0.496193 0.555672
0.664458 0.573420 0.634635
0.431501 0.568927 0.583833
0.554488 0.650046 0.664652
0.687173 0.736695 0.750641
0.806678 0.806678 0.821046
0.916527 0.866702 0.882140
0.679058 0.878355 0.843288
0.788907 0.938380 0.904382
0.898756 0.998404 0.965476
1.000000 1.000000 1.000000
1.000000 1.000000 1.000000
0.000000 0.000000 0.069303
0.001131 0.000000 0.115001
0.079674 0.008550 0.160699
0.158218 0.052110 0.206398
0.236761 0.095670 0.252096
0.066968 0.104126 0.223035
0.146841 0.148966 0.270809
0.234484 0.199688 0.326802
0.330023 0.254987 0.387718
0.434028 0.314996 0.453425
0.234122 0.316132 0.411082
0.335423 0.379591 0.478550
0.445487 0.448104 0.550920
0.564746 0.521819 0.628300
0.693565 0.600875 0.710798
0.456669 0.595862 0.657736
0.582225 0.678847 0.742124
0.717213 0.767037 0.831411
0.827062 0.827062 0.892505
0.936911 0.887087 0.953599
0.699443 0.898739 0.914747
0.809292 0.958764 0.975842
0.919141 1.000000 1.000000
1.000000 1.000000 1.000000
1.000000 1.000000 1.000000
