assets/lighting/day-night-palettes/grade-daylight-5600k/lut.cube
TITLE "Daylight 5600K"
# TKRS lighting-batch-001 original LUT
# Intended usage: neutral outdoor noon daylight balance
# License: CC0-1.0
LUT_3D_SIZE 5
DOMAIN_MIN 0.0 0.0 0.0
DOMAIN_MAX 1.0 1.0 1.0
0.000000 0.000000 0.000000
0.241634 0.000000 0.000000
0.508268 0.000000 0.000000
0.774902 0.000000 0.000000
1.000000 0.000000 0.000000
0.000000 0.235145 0.000000
0.237934 0.234029 0.000000
0.504568 0.232913 0.000000
0.771202 0.231796 0.000000
1.000000 0.230680 0.000000
0.000000 0.495290 0.000000
0.234234 0.494174 0.000000
0.500868 0.493057 0.000000
0.767501 0.491941 0.000000
1.000000 0.490825 0.000000
0.000000 0.755435 0.000000
0.230534 0.754318 0.000000
0.497168 0.753202 0.000000
0.763801 0.752086 0.000000
1.000000 0.750970 0.000000
0.000000 1.000000 0.000000
0.226834 1.000000 0.000000
0.493468 1.000000 0.000000
0.760101 1.000000 0.000000
1.000000 1.000000 0.000000
0.000000 0.000000 0.235754
0.241264 0.000000 0.234638
0.507898 0.000000 0.233522
0.774532 0.000000 0.232406
1.000000 0.000000 0.231289
0.000000 0.234775 0.232054
0.237564 0.233659 0.230938
0.504198 0.232543 0.229822
0.770832 0.231427 0.228706
1.000000 0.230311 0.227589
0.000000 0.494920 0.228354
0.233864 0.493804 0.227238
0.500498 0.492688 0.226122
0.767132 0.491572 0.225006
1.000000 0.490455 0.223889
0.000000 0.755065 0.224654
0.230164 0.753949 0.223538
0.496798 0.752833 0.222422
0.763432 0.751716 0.221306
1.000000 0.750600 0.220189
0.000000 1.000000 0.220954
0.226464 1.000000 0.219838
0.493098 1.000000 0.218722
0.759732 1.000000 0.217606
1.000000 1.000000 0.216489
0.000000 0.000000 0.496508
0.240895 0.000000 0.495392
0.507528 0.000000 0.494276
0.774162 0.000000 0.493160
1.000000 0.000000 0.492044
0.000000 0.234406 0.492808
0.237194 0.233289 0.491692
0.503828 0.232173 0.490576
0.770462 0.231057 0.489460
1.000000 0.229941 0.488344
0.000000 0.494550 0.489108
0.233494 0.493434 0.487992
0.500128 0.492318 0.486876
0.766762 0.491202 0.485760
1.000000 0.490086 0.484644
0.000000 0.754695 0.485408
0.229794 0.753579 0.484292
0.496428 0.752463 0.483176
0.763062 0.751347 0.482060
1.000000 0.750231 0.480943
0.000000 1.000000 0.481708
0.226094 1.000000 0.480592
0.492728 1.000000 0.479476
0.759362 1.000000 0.478360
1.000000 1.000000 0.477243
0.000000 0.000000 0.757262
0.240525 0.000000 0.756146
0.507159 0.000000 0.755030
0.773793 0.000000 0.753914
1.000000 0.000000 0.752798
0.000000 0.234036 0.753562
0.236825 0.232920 0.752446
0.503459 0.231804 0.751330
0.770093 0.230687 0.750214
1.000000 0.229571 0.749098
0.000000 0.494181 0.749862
0.233125 0.493065 0.748746
0.499759 0.491948 0.747630
0.766392 0.490832 0.746514
1.000000 0.489716 0.745398
0.000000 0.754326 0.746162
0.229425 0.753209 0.745046
0.496059 0.752093 0.743930
0.762692 0.750977 0.742814
1.000000 0.749861 0.741698
0.000000 1.000000 0.742462
0.225725 1.000000 0.741346
0.492359 1.000000 0.740230
0.758992 1.000000 0.739114
1.000000 1.000000 0.737998
0.000000 0.000000 1.000000
0.240155 0.000000 1.000000
0.506789 0.000000 1.000000
0.773423 0.000000 1.000000
1.000000 0.000000 1.000000
0.000000 0.233666 1.000000
0.236455 0.232550 1.000000
0.503089 0.231434 1.000000
0.769723 0.230318 1.000000
1.000000 0.229202 1.000000
0.000000 0.493811 1.000000
0.232755 0.492695 1.000000
0.499389 0.491579 1.000000
0.766023 0.490463 1.000000
1.000000 0.489346 1.000000
0.000000 0.753956 1.000000
0.229055 0.752840 1.000000
0.495689 0.751724 1.000000
0.762323 0.750607 1.000000
1.000000 0.749491 1.000000
0.000000 1.000000 1.000000
0.225355 1.000000 1.000000
0.491989 1.000000 1.000000
0.758623 1.000000 0.999868
1.000000 1.000000 0.998752
