assets/lighting/day-night-palettes/grade-daylight-5600k/lut.cube
TITLE "Daylight 5600K"
# TKRS lighting-batch-001 original LUT
# Intended usage: neutral outdoor noon daylight balance
# License: CC0-1.0
LUT_3D_SIZE 9
DOMAIN_MIN 0.0 0.0 0.0
DOMAIN_MAX 1.0 1.0 1.0
0.000000 0.000000 0.000000
0.108317 0.000000 0.000000
0.241634 0.000000 0.000000
0.374951 0.000000 0.000000
0.508268 0.000000 0.000000
0.641585 0.000000 0.000000
0.774902 0.000000 0.000000
0.908218 0.000000 0.000000
1.000000 0.000000 0.000000
0.000000 0.105072 0.000000
0.106467 0.104514 0.000000
0.239784 0.103956 0.000000
0.373101 0.103398 0.000000
0.506418 0.102840 0.000000
0.639735 0.102282 0.000000
0.773052 0.101724 0.000000
0.906368 0.101166 0.000000
1.000000 0.100608 0.000000
0.000000 0.235145 0.000000
0.104617 0.234587 0.000000
0.237934 0.234029 0.000000
0.371251 0.233471 0.000000
0.504568 0.232913 0.000000
0.637885 0.232354 0.000000
0.771202 0.231796 0.000000
0.904518 0.231238 0.000000
1.000000 0.230680 0.000000
0.000000 0.365217 0.000000
0.102767 0.364659 0.000000
0.236084 0.364101 0.000000
0.369401 0.363543 0.000000
0.502718 0.362985 0.000000
0.636035 0.362427 0.000000
0.769351 0.361869 0.000000
0.902668 0.361311 0.000000
1.000000 0.360753 0.000000
0.000000 0.495290 0.000000
0.100917 0.494732 0.000000
0.234234 0.494174 0.000000
0.367551 0.493615 0.000000
0.500868 0.493057 0.000000
0.634185 0.492499 0.000000
0.767501 0.491941 0.000000
0.900818 0.491383 0.000000
1.000000 0.490825 0.000000
0.000000 0.625362 0.000000
0.099067 0.624804 0.000000
0.232384 0.624246 0.000000
0.365701 0.623688 0.000000
0.499018 0.623130 0.000000
0.632335 0.622572 0.000000
0.765651 0.622014 0.000000
0.898968 0.621456 0.000000
1.000000 0.620898 0.000000
0.000000 0.755435 0.000000
0.097217 0.754876 0.000000
0.230534 0.754318 0.000000
0.363851 0.753760 0.000000
0.497168 0.753202 0.000000
0.630485 0.752644 0.000000
0.763801 0.752086 0.000000
0.897118 0.751528 0.000000
1.000000 0.750970 0.000000
0.000000 0.885507 0.000000
0.095367 0.884949 0.000000
0.228684 0.884391 0.000000
0.362001 0.883833 0.000000
0.495318 0.883275 0.000000
0.628634 0.882717 0.000000
0.761951 0.882159 0.000000
0.895268 0.881600 0.000000
1.000000 0.881042 0.000000
0.000000 1.000000 0.000000
0.093517 1.000000 0.000000
0.226834 1.000000 0.000000
0.360151 1.000000 0.000000
0.493468 1.000000 0.000000
0.626784 1.000000 0.000000
0.760101 1.000000 0.000000
0.893418 1.000000 0.000000
1.000000 1.000000 0.000000
0.000000 0.000000 0.105377
0.108132 0.000000 0.104819
0.241449 0.000000 0.104261
0.374766 0.000000 0.103703
0.508083 0.000000 0.103145
0.641400 0.000000 0.102587
0.774717 0.000000 0.102029
0.908034 0.000000 0.101471
1.000000 0.000000 0.100912
0.000000 0.104888 0.103527
0.106282 0.104330 0.102969
0.239599 0.103771 0.102411
0.372916 0.103213 0.101853
0.506233 0.102655 0.101295
0.639550 0.102097 0.100737
0.772867 0.101539 0.100179
0.906184 0.100981 0.099621
1.000000 0.100423 0.099062
0.000000 0.234960 0.101677
0.104432 0.234402 0.101119
0.237749 0.233844 0.100561
0.371066 0.233286 0.100003
0.504383 0.232728 0.099445
0.637700 0.232170 0.098887
0.771017 0.231612 0.098329
0.904334 0.231053 0.097770
1.000000 0.230495 0.097212
0.000000 0.365032 0.099827
0.102582 0.364474 0.099269
0.235899 0.363916 0.098711
0.369216 0.363358 0.098153
0.502533 0.362800 0.097595
0.635850 0.362242 0.097037
0.769167 0.361684 0.096479
0.902484 0.361126 0.095920
1.000000 0.360568 0.095362
0.000000 0.495105 0.097977
0.100732 0.494547 0.097419
0.234049 0.493989 0.096861
0.367366 0.493431 0.096303
0.500683 0.492873 0.095745
0.634000 0.492314 0.095187
0.767317 0.491756 0.094629
0.900634 0.491198 0.094070
1.000000 0.490640 0.093512
0.000000 0.625177 0.096127
0.098882 0.624619 0.095569
0.232199 0.624061 0.095011
0.365516 0.623503 0.094453
0.498833 0.622945 0.093895
0.632150 0.622387 0.093337
0.765467 0.621829 0.092779
0.898784 0.621271 0.092220
1.000000 0.620713 0.091662
0.000000 0.755250 0.094277
0.097032 0.754692 0.093719
0.230349 0.754134 0.093161
0.363666 0.753576 0.092603
0.496983 0.753017 0.092045
0.630300 0.752459 0.091487
0.763617 0.751901 0.090928
0.896934 0.751343 0.090370
1.000000 0.750785 0.089812
0.000000 0.885322 0.092427
0.095182 0.884764 0.091869
0.228499 0.884206 0.091311
0.361816 0.883648 0.090753
0.495133 0.883090 0.090195
0.628450 0.882532 0.089637
0.761767 0.881974 0.089078
0.895084 0.881416 0.088520
1.000000 0.880858 0.087962
0.000000 1.000000 0.090577
0.093332 1.000000 0.090019
0.226649 1.000000 0.089461
0.359966 1.000000 0.088903
0.493283 1.000000 0.088345
0.626600 1.000000 0.087787
0.759917 1.000000 0.087228
0.893233 1.000000 0.086670
1.000000 1.000000 0.086112
0.000000 0.000000 0.235754
0.107947 0.000000 0.235196
0.241264 0.000000 0.234638
0.374581 0.000000 0.234080
0.507898 0.000000 0.233522
0.641215 0.000000 0.232964
0.774532 0.000000 0.232406
0.907849 0.000000 0.231848
1.000000 0.000000 0.231289
0.000000 0.104703 0.233904
0.106097 0.104145 0.233346
0.239414 0.103587 0.232788
0.372731 0.103029 0.232230
0.506048 0.102470 0.231672
0.639365 0.101912 0.231114
0.772682 0.101354 0.230556
0.905999 0.100796 0.229998
1.000000 0.100238 0.229439
0.000000 0.234775 0.232054
0.104247 0.234217 0.231496
0.237564 0.233659 0.230938
0.370881 0.233101 0.230380
0.504198 0.232543 0.229822
0.637515 0.231985 0.229264
0.770832 0.231427 0.228706
0.904149 0.230869 0.228148
1.000000 0.230311 0.227589
0.000000 0.364848 0.230204
0.102397 0.364290 0.229646
0.235714 0.363731 0.229088
0.369031 0.363173 0.228530
0.502348 0.362615 0.227972
0.635665 0.362057 0.227414
0.768982 0.361499 0.226856
0.902299 0.360941 0.226298
1.000000 0.360383 0.225739
0.000000 0.494920 0.228354
0.100547 0.494362 0.227796
0.233864 0.493804 0.227238
0.367181 0.493246 0.226680
0.500498 0.492688 0.226122
0.633815 0.492130 0.225564
0.767132 0.491572 0.225006
0.900449 0.491014 0.224448
1.000000 0.490455 0.223889
0.000000 0.624992 0.226504
0.098697 0.624434 0.225946
0.232014 0.623876 0.225388
0.365331 0.623318 0.224830
0.498648 0.622760 0.224272
0.631965 0.622202 0.223714
0.765282 0.621644 0.223156
0.898599 0.621086 0.222597
1.000000 0.620528 0.222039
0.000000 0.755065 0.224654
0.096847 0.754507 0.224096
0.230164 0.753949 0.223538
0.363481 0.753391 0.222980
0.496798 0.752833 0.222422
0.630115 0.752275 0.221864
0.763432 0.751716 0.221306
0.896749 0.751158 0.220747
1.000000 0.750600 0.220189
0.000000 0.885137 0.222804
0.094997 0.884579 0.222246
0.228314 0.884021 0.221688
0.361631 0.883463 0.221130
0.494948 0.882905 0.220572
0.628265 0.882347 0.220014
0.761582 0.881789 0.219456
0.894899 0.881231 0.218897
1.000000 0.880673 0.218339
0.000000 1.000000 0.220954
0.093147 1.000000 0.220396
0.226464 1.000000 0.219838
0.359781 1.000000 0.219280
0.493098 1.000000 0.218722
0.626415 1.000000 0.218164
0.759732 1.000000 0.217606
0.893049 1.000000 0.217047
1.000000 1.000000 0.216489
0.000000 0.000000 0.366131
0.107762 0.000000 0.365573
0.241079 0.000000 0.365015
0.374396 0.000000 0.364457
0.507713 0.000000 0.363899
0.641030 0.000000 0.363341
0.774347 0.000000 0.362783
0.907664 0.000000 0.362225
1.000000 0.000000 0.361667
0.000000 0.104518 0.364281
0.105912 0.103960 0.363723
0.239229 0.103402 0.363165
0.372546 0.102844 0.362607
0.505863 0.102286 0.362049
0.639180 0.101728 0.361491
0.772497 0.101169 0.360933
0.905814 0.100611 0.360375
1.000000 0.100053 0.359817
0.000000 0.234590 0.362431
0.104062 0.234032 0.361873
0.237379 0.233474 0.361315
0.370696 0.232916 0.360757
0.504013 0.232358 0.360199
0.637330 0.231800 0.359641
0.770647 0.231242 0.359083
0.903964 0.230684 0.358525
1.000000 0.230126 0.357967
0.000000 0.364663 0.360581
0.102212 0.364105 0.360023
0.235529 0.363547 0.359465
0.368846 0.362989 0.358907
0.502163 0.362430 0.358349
0.635480 0.361872 0.357791
0.768797 0.361314 0.357233
0.902114 0.360756 0.356675
1.000000 0.360198 0.356116
0.000000 0.494735 0.358731
0.100362 0.494177 0.358173
0.233679 0.493619 0.357615
0.366996 0.493061 0.357057
0.500313 0.492503 0.356499
0.633630 0.491945 0.355941
0.766947 0.491387 0.355383
0.900264 0.490829 0.354825
1.000000 0.490271 0.354266
0.000000 0.624808 0.356881
0.098512 0.624250 0.356323
0.231829 0.623691 0.355765
0.365146 0.623133 0.355207
0.498463 0.622575 0.354649
0.631780 0.622017 0.354091
0.765097 0.621459 0.353533
0.898414 0.620901 0.352975
1.000000 0.620343 0.352416
0.000000 0.754880 0.355031
0.096662 0.754322 0.354473
0.229979 0.753764 0.353915
0.363296 0.753206 0.353357
0.496613 0.752648 0.352799
0.629930 0.752090 0.352241
0.763247 0.751532 0.351683
0.896564 0.750974 0.351125
1.000000 0.750415 0.350566
0.000000 0.884952 0.353181
0.094812 0.884394 0.352623
0.228129 0.883836 0.352065
0.361446 0.883278 0.351507
0.494763 0.882720 0.350949
0.628080 0.882162 0.350391
0.761397 0.881604 0.349833
0.894714 0.881046 0.349274
1.000000 0.880488 0.348716
0.000000 1.000000 0.351331
0.092962 1.000000 0.350773
0.226279 1.000000 0.350215
0.359596 1.000000 0.349657
0.492913 1.000000 0.349099
0.626230 1.000000 0.348541
0.759547 1.000000 0.347983
0.892864 1.000000 0.347424
1.000000 1.000000 0.346866
0.000000 0.000000 0.496508
0.107578 0.000000 0.495950
0.240895 0.000000 0.495392
0.374211 0.000000 0.494834
0.507528 0.000000 0.494276
0.640845 0.000000 0.493718
0.774162 0.000000 0.493160
0.907479 0.000000 0.492602
1.000000 0.000000 0.492044
0.000000 0.104333 0.494658
0.105728 0.103775 0.494100
0.239044 0.103217 0.493542
0.372361 0.102659 0.492984
0.505678 0.102101 0.492426
0.638995 0.101543 0.491868
0.772312 0.100985 0.491310
0.905629 0.100427 0.490752
1.000000 0.099868 0.490194
0.000000 0.234406 0.492808
0.103878 0.233847 0.492250
0.237194 0.233289 0.491692
0.370511 0.232731 0.491134
0.503828 0.232173 0.490576
0.637145 0.231615 0.490018
0.770462 0.231057 0.489460
0.903779 0.230499 0.488902
1.000000 0.229941 0.488344
0.000000 0.364478 0.490958
0.102028 0.363920 0.490400
0.235344 0.363362 0.489842
0.368661 0.362804 0.489284
0.501978 0.362246 0.488726
0.635295 0.361688 0.488168
0.768612 0.361129 0.487610
0.901929 0.360571 0.487052
1.000000 0.360013 0.486494
0.000000 0.494550 0.489108
0.100178 0.493992 0.488550
0.233494 0.493434 0.487992
0.366811 0.492876 0.487434
0.500128 0.492318 0.486876
0.633445 0.491760 0.486318
0.766762 0.491202 0.485760
0.900079 0.490644 0.485202
1.000000 0.490086 0.484644
0.000000 0.624623 0.487258
0.098327 0.624065 0.486700
0.231644 0.623507 0.486142
0.364961 0.622949 0.485584
0.498278 0.622390 0.485026
0.631595 0.621832 0.484468
0.764912 0.621274 0.483910
0.898229 0.620716 0.483352
1.000000 0.620158 0.482794
0.000000 0.754695 0.485408
0.096477 0.754137 0.484850
0.229794 0.753579 0.484292
0.363111 0.753021 0.483734
0.496428 0.752463 0.483176
0.629745 0.751905 0.482618
0.763062 0.751347 0.482060
0.896379 0.750789 0.481502
1.000000 0.750231 0.480943
0.000000 0.884768 0.483558
0.094627 0.884210 0.483000
0.227944 0.883652 0.482442
0.361261 0.883093 0.481884
0.494578 0.882535 0.481326
0.627895 0.881977 0.480768
0.761212 0.881419 0.480210
0.894529 0.880861 0.479652
1.000000 0.880303 0.479093
0.000000 1.000000 0.481708
0.092777 1.000000 0.481150
0.226094 1.000000 0.480592
0.359411 1.000000 0.480034
0.492728 1.000000 0.479476
0.626045 1.000000 0.478918
0.759362 1.000000 0.478360
0.892679 1.000000 0.477802
1.000000 1.000000 0.477243
0.000000 0.000000 0.626885
0.107393 0.000000 0.626327
0.240710 0.000000 0.625769
0.374027 0.000000 0.625211
0.507344 0.000000 0.624653
0.640660 0.000000 0.624095
0.773977 0.000000 0.623537
0.907294 0.000000 0.622979
1.000000 0.000000 0.622421
0.000000 0.104148 0.625035
0.105543 0.103590 0.624477
0.238860 0.103032 0.623919
0.372177 0.102474 0.623361
0.505494 0.101916 0.622803
0.638810 0.101358 0.622245
0.772127 0.100800 0.621687
0.905444 0.100242 0.621129
1.000000 0.099684 0.620571
0.000000 0.234221 0.623185
0.103693 0.233663 0.622627
0.237010 0.233105 0.622069
0.370327 0.232546 0.621511
0.503643 0.231988 0.620953
0.636960 0.231430 0.620395
0.770277 0.230872 0.619837
0.903594 0.230314 0.619279
1.000000 0.229756 0.618721
0.000000 0.364293 0.621335
0.101843 0.363735 0.620777
0.235160 0.363177 0.620219
0.368477 0.362619 0.619661
0.501793 0.362061 0.619103
0.635110 0.361503 0.618545
0.768427 0.360945 0.617987
0.901744 0.360387 0.617429
1.000000 0.359829 0.616871
0.000000 0.494366 0.619485
0.099993 0.493807 0.618927
0.233310 0.493249 0.618369
0.366627 0.492691 0.617811
0.499943 0.492133 0.617253
0.633260 0.491575 0.616695
0.766577 0.491017 0.616137
0.899894 0.490459 0.615579
1.000000 0.489901 0.615021
0.000000 0.624438 0.617635
0.098143 0.623880 0.617077
0.231460 0.623322 0.616519
0.364777 0.622764 0.615961
0.498093 0.622206 0.615403
0.631410 0.621648 0.614845
0.764727 0.621090 0.614287
0.898044 0.620531 0.613729
1.000000 0.619973 0.613171
0.000000 0.754510 0.615785
0.096293 0.753952 0.615227
0.229610 0.753394 0.614669
0.362926 0.752836 0.614111
0.496243 0.752278 0.613553
0.629560 0.751720 0.612995
0.762877 0.751162 0.612437
0.896194 0.750604 0.611879
1.000000 0.750046 0.611321
0.000000 0.884583 0.613935
0.094443 0.884025 0.613377
0.227760 0.883467 0.612819
0.361076 0.882909 0.612261
0.494393 0.882351 0.611703
0.627710 0.881792 0.611145
0.761027 0.881234 0.610587
0.894344 0.880676 0.610029
1.000000 0.880118 0.609471
0.000000 1.000000 0.612085
0.092593 1.000000 0.611527
0.225910 1.000000 0.610969
0.359226 1.000000 0.610411
0.492543 1.000000 0.609853
0.625860 1.000000 0.609295
0.759177 1.000000 0.608737
0.892494 1.000000 0.608179
1.000000 1.000000 0.607620
0.000000 0.000000 0.757262
0.107208 0.000000 0.756704
0.240525 0.000000 0.756146
0.373842 0.000000 0.755588
0.507159 0.000000 0.755030
0.640476 0.000000 0.754472
0.773793 0.000000 0.753914
0.907109 0.000000 0.753356
1.000000 0.000000 0.752798
0.000000 0.103963 0.755412
0.105358 0.103405 0.754854
0.238675 0.102847 0.754296
0.371992 0.102289 0.753738
0.505309 0.101731 0.753180
0.638626 0.101173 0.752622
0.771943 0.100615 0.752064
0.905259 0.100057 0.751506
1.000000 0.099499 0.750948
0.000000 0.234036 0.753562
0.103508 0.233478 0.753004
0.236825 0.232920 0.752446
0.370142 0.232362 0.751888
0.503459 0.231804 0.751330
0.636776 0.231245 0.750772
0.770093 0.230687 0.750214
0.903409 0.230129 0.749656
1.000000 0.229571 0.749098
0.000000 0.364108 0.751712
0.101658 0.363550 0.751154
0.234975 0.362992 0.750596
0.368292 0.362434 0.750038
0.501609 0.361876 0.749480
0.634926 0.361318 0.748922
0.768242 0.360760 0.748364
0.901559 0.360202 0.747806
1.000000 0.359644 0.747248
0.000000 0.494181 0.749862
0.099808 0.493623 0.749304
0.233125 0.493065 0.748746
0.366442 0.492506 0.748188
0.499759 0.491948 0.747630
0.633076 0.491390 0.747072
0.766392 0.490832 0.746514
0.899709 0.490274 0.745956
1.000000 0.489716 0.745398
0.000000 0.624253 0.748012
0.097958 0.623695 0.747454
0.231275 0.623137 0.746896
0.364592 0.622579 0.746338
0.497909 0.622021 0.745780
0.631226 0.621463 0.745222
0.764542 0.620905 0.744664
0.897859 0.620347 0.744106
1.000000 0.619789 0.743548
0.000000 0.754326 0.746162
0.096108 0.753767 0.745604
0.229425 0.753209 0.745046
0.362742 0.752651 0.744488
0.496059 0.752093 0.743930
0.629376 0.751535 0.743372
0.762692 0.750977 0.742814
0.896009 0.750419 0.742256
1.000000 0.749861 0.741698
0.000000 0.884398 0.744312
0.094258 0.883840 0.743754
0.227575 0.883282 0.743196
0.360892 0.882724 0.742638
0.494209 0.882166 0.742080
0.627525 0.881608 0.741522
0.760842 0.881050 0.740964
0.894159 0.880491 0.740406
1.000000 0.879933 0.739848
0.000000 1.000000 0.742462
0.092408 1.000000 0.741904
0.225725 1.000000 0.741346
0.359042 1.000000 0.740788
0.492359 1.000000 0.740230
0.625675 1.000000 0.739672
0.758992 1.000000 0.739114
0.892309 1.000000 0.738556
1.000000 1.000000 0.737998
0.000000 0.000000 0.887639
0.107023 0.000000 0.887081
0.240340 0.000000 0.886523
0.373657 0.000000 0.885965
0.506974 0.000000 0.885407
0.640291 0.000000 0.884849
0.773608 0.000000 0.884291
0.906925 0.000000 0.883733
1.000000 0.000000 0.883175
0.000000 0.103779 0.885789
0.105173 0.103221 0.885231
0.238490 0.102662 0.884673
0.371807 0.102104 0.884115
0.505124 0.101546 0.883557
0.638441 0.100988 0.882999
0.771758 0.100430 0.882441
0.905075 0.099872 0.881883
1.000000 0.099314 0.881325
0.000000 0.233851 0.883939
0.103323 0.233293 0.883381
0.236640 0.232735 0.882823
0.369957 0.232177 0.882265
0.503274 0.231619 0.881707
0.636591 0.231061 0.881149
0.769908 0.230503 0.880591
0.903225 0.229944 0.880033
1.000000 0.229386 0.879475
0.000000 0.363923 0.882089
0.101473 0.363365 0.881531
0.234790 0.362807 0.880973
0.368107 0.362249 0.880415
0.501424 0.361691 0.879857
0.634741 0.361133 0.879299
0.768058 0.360575 0.878741
0.901375 0.360017 0.878183
1.000000 0.359459 0.877625
0.000000 0.493996 0.880239
0.099623 0.493438 0.879681
0.232940 0.492880 0.879123
0.366257 0.492322 0.878565
0.499574 0.491764 0.878007
0.632891 0.491205 0.877449
0.766208 0.490647 0.876891
0.899525 0.490089 0.876333
1.000000 0.489531 0.875775
0.000000 0.624068 0.878389
0.097773 0.623510 0.877831
0.231090 0.622952 0.877273
0.364407 0.622394 0.876715
0.497724 0.621836 0.876157
0.631041 0.621278 0.875599
0.764358 0.620720 0.875041
0.897675 0.620162 0.874483
1.000000 0.619604 0.873925
0.000000 0.754141 0.876539
0.095923 0.753583 0.875981
0.229240 0.753025 0.875423
0.362557 0.752466 0.874865
0.495874 0.751908 0.874307
0.629191 0.751350 0.873749
0.762508 0.750792 0.873191
0.895825 0.750234 0.872633
1.000000 0.749676 0.872075
0.000000 0.884213 0.874689
0.094073 0.883655 0.874131
0.227390 0.883097 0.873573
0.360707 0.882539 0.873015
0.494024 0.881981 0.872457
0.627341 0.881423 0.871899
0.760658 0.880865 0.871341
0.893975 0.880307 0.870783
1.000000 0.879749 0.870225
0.000000 1.000000 0.872839
0.092223 1.000000 0.872281
0.225540 1.000000 0.871723
0.358857 1.000000 0.871165
0.492174 1.000000 0.870607
0.625491 1.000000 0.870049
0.758808 1.000000 0.869491
0.892124 1.000000 0.868933
1.000000 1.000000 0.868375
0.000000 0.000000 1.000000
0.106838 0.000000 1.000000
0.240155 0.000000 1.000000
0.373472 0.000000 1.000000
0.506789 0.000000 1.000000
0.640106 0.000000 1.000000
0.773423 0.000000 1.000000
0.906740 0.000000 1.000000
1.000000 0.000000 1.000000
0.000000 0.103594 1.000000
0.104988 0.103036 1.000000
0.238305 0.102478 1.000000
0.371622 0.101920 1.000000
0.504939 0.101361 1.000000
0.638256 0.100803 1.000000
0.771573 0.100245 1.000000
0.904890 0.099687 1.000000
1.000000 0.099129 1.000000
0.000000 0.233666 1.000000
0.103138 0.233108 1.000000
0.236455 0.232550 1.000000
0.369772 0.231992 1.000000
0.503089 0.231434 1.000000
0.636406 0.230876 1.000000
0.769723 0.230318 1.000000
0.903040 0.229760 1.000000
1.000000 0.229202 1.000000
0.000000 0.363739 1.000000
0.101288 0.363181 1.000000
0.234605 0.362622 1.000000
0.367922 0.362064 1.000000
0.501239 0.361506 1.000000
0.634556 0.360948 1.000000
0.767873 0.360390 1.000000
0.901190 0.359832 1.000000
1.000000 0.359274 1.000000
0.000000 0.493811 1.000000
0.099438 0.493253 1.000000
0.232755 0.492695 1.000000
0.366072 0.492137 1.000000
0.499389 0.491579 1.000000
0.632706 0.491021 1.000000
0.766023 0.490463 1.000000
0.899340 0.489905 1.000000
1.000000 0.489346 1.000000
0.000000 0.623883 1.000000
0.097588 0.623325 1.000000
0.230905 0.622767 1.000000
0.364222 0.622209 1.000000
0.497539 0.621651 1.000000
0.630856 0.621093 1.000000
0.764173 0.620535 1.000000
0.897490 0.619977 1.000000
1.000000 0.619419 1.000000
0.000000 0.753956 1.000000
0.095738 0.753398 1.000000
0.229055 0.752840 1.000000
0.362372 0.752282 1.000000
0.495689 0.751724 1.000000
0.629006 0.751166 1.000000
0.762323 0.750607 1.000000
0.895640 0.750049 1.000000
1.000000 0.749491 1.000000
0.000000 0.884028 1.000000
0.093888 0.883470 1.000000
0.227205 0.882912 1.000000
0.360522 0.882354 1.000000
0.493839 0.881796 1.000000
0.627156 0.881238 1.000000
0.760473 0.880680 1.000000
0.893790 0.880122 1.000000
1.000000 0.879564 1.000000
0.000000 1.000000 1.000000
0.092038 1.000000 1.000000
0.225355 1.000000 1.000000
0.358672 1.000000 1.000000
0.491989 1.000000 1.000000
0.625306 1.000000 1.000000
0.758623 1.000000 0.999868
0.891940 1.000000 0.999310
1.000000 1.000000 0.998752
