assets/lighting/day-night-palettes/grade-daylight-5600k/lut.cube
TITLE "Daylight 5600K"
# TKRS lighting-batch-001 original LUT
# Intended usage: neutral outdoor noon daylight balance
# License: CC0-1.0
LUT_3D_SIZE 17
DOMAIN_MIN 0.0 0.0 0.0
DOMAIN_MAX 1.0 1.0 1.0
0.000000 0.000000 0.000000
0.041658 0.000000 0.000000
0.108317 0.000000 0.000000
0.174975 0.000000 0.000000
0.241634 0.000000 0.000000
0.308292 0.000000 0.000000
0.374951 0.000000 0.000000
0.441609 0.000000 0.000000
0.508268 0.000000 0.000000
0.574926 0.000000 0.000000
0.641585 0.000000 0.000000
0.708243 0.000000 0.000000
0.774902 0.000000 0.000000
0.841560 0.000000 0.000000
0.908218 0.000000 0.000000
0.974877 0.000000 0.000000
1.000000 0.000000 0.000000
0.000000 0.040036 0.000000
0.040733 0.039757 0.000000
0.107392 0.039478 0.000000
0.174050 0.039199 0.000000
0.240709 0.038920 0.000000
0.307367 0.038641 0.000000
0.374026 0.038362 0.000000
0.440684 0.038083 0.000000
0.507343 0.037804 0.000000
0.574001 0.037525 0.000000
0.640660 0.037246 0.000000
0.707318 0.036967 0.000000
0.773977 0.036688 0.000000
0.840635 0.036409 0.000000
0.907293 0.036130 0.000000
0.973952 0.035851 0.000000
1.000000 0.035572 0.000000
0.000000 0.105072 0.000000
0.039808 0.104793 0.000000
0.106467 0.104514 0.000000
0.173125 0.104235 0.000000
0.239784 0.103956 0.000000
0.306442 0.103677 0.000000
0.373101 0.103398 0.000000
0.439759 0.103119 0.000000
0.506418 0.102840 0.000000
0.573076 0.102561 0.000000
0.639735 0.102282 0.000000
0.706393 0.102003 0.000000
0.773052 0.101724 0.000000
0.839710 0.101445 0.000000
0.906368 0.101166 0.000000
0.973027 0.100887 0.000000
1.000000 0.100608 0.000000
0.000000 0.170109 0.000000
0.038883 0.169830 0.000000
0.105542 0.169551 0.000000
0.172200 0.169272 0.000000
0.238859 0.168992 0.000000
0.305517 0.168713 0.000000
0.372176 0.168434 0.000000
0.438834 0.168155 0.000000
0.505493 0.167876 0.000000
0.572151 0.167597 0.000000
0.638810 0.167318 0.000000
0.705468 0.167039 0.000000
0.772127 0.166760 0.000000
0.838785 0.166481 0.000000
0.905443 0.166202 0.000000
0.972102 0.165923 0.000000
1.000000 0.165644 0.000000
0.000000 0.235145 0.000000
0.037958 0.234866 0.000000
0.104617 0.234587 0.000000
0.171275 0.234308 0.000000
0.237934 0.234029 0.000000
0.304592 0.233750 0.000000
0.371251 0.233471 0.000000
0.437909 0.233192 0.000000
0.504568 0.232913 0.000000
0.571226 0.232634 0.000000
0.637885 0.232354 0.000000
0.704543 0.232075 0.000000
0.771202 0.231796 0.000000
0.837860 0.231517 0.000000
0.904518 0.231238 0.000000
0.971177 0.230959 0.000000
1.000000 0.230680 0.000000
0.000000 0.300181 0.000000
0.037033 0.299902 0.000000
0.103692 0.299623 0.000000
0.170350 0.299344 0.000000
0.237009 0.299065 0.000000
0.303667 0.298786 0.000000
0.370326 0.298507 0.000000
0.436984 0.298228 0.000000
0.503643 0.297949 0.000000
0.570301 0.297670 0.000000
0.636960 0.297391 0.000000
0.703618 0.297112 0.000000
0.770277 0.296833 0.000000
0.836935 0.296554 0.000000
0.903593 0.296275 0.000000
0.970252 0.295996 0.000000
1.000000 0.295716 0.000000
0.000000 0.365217 0.000000
0.036108 0.364938 0.000000
0.102767 0.364659 0.000000
0.169425 0.364380 0.000000
0.236084 0.364101 0.000000
0.302742 0.363822 0.000000
0.369401 0.363543 0.000000
0.436059 0.363264 0.000000
0.502718 0.362985 0.000000
0.569376 0.362706 0.000000
0.636035 0.362427 0.000000
0.702693 0.362148 0.000000
0.769351 0.361869 0.000000
0.836010 0.361590 0.000000
0.902668 0.361311 0.000000
0.969327 0.361032 0.000000
1.000000 0.360753 0.000000
0.000000 0.430253 0.000000
0.035183 0.429974 0.000000
0.101842 0.429695 0.000000
0.168500 0.429416 0.000000
0.235159 0.429137 0.000000
0.301817 0.428858 0.000000
0.368476 0.428579 0.000000
0.435134 0.428300 0.000000
0.501793 0.428021 0.000000
0.568451 0.427742 0.000000
0.635110 0.427463 0.000000
0.701768 0.427184 0.000000
0.768426 0.426905 0.000000
0.835085 0.426626 0.000000
0.901743 0.426347 0.000000
0.968402 0.426068 0.000000
1.000000 0.425789 0.000000
0.000000 0.495290 0.000000
0.034258 0.495011 0.000000
0.100917 0.494732 0.000000
0.167575 0.494453 0.000000
0.234234 0.494174 0.000000
0.300892 0.493895 0.000000
0.367551 0.493615 0.000000
0.434209 0.493336 0.000000
0.500868 0.493057 0.000000
0.567526 0.492778 0.000000
0.634185 0.492499 0.000000
0.700843 0.492220 0.000000
0.767501 0.491941 0.000000
0.834160 0.491662 0.000000
0.900818 0.491383 0.000000
0.967477 0.491104 0.000000
1.000000 0.490825 0.000000
0.000000 0.560326 0.000000
0.033333 0.560047 0.000000
0.099992 0.559768 0.000000
0.166650 0.559489 0.000000
0.233309 0.559210 0.000000
0.299967 0.558931 0.000000
0.366626 0.558652 0.000000
0.433284 0.558373 0.000000
0.499943 0.558094 0.000000
0.566601 0.557815 0.000000
0.633260 0.557536 0.000000
0.699918 0.557257 0.000000
0.766576 0.556977 0.000000
0.833235 0.556698 0.000000
0.899893 0.556419 0.000000
0.966552 0.556140 0.000000
1.000000 0.555861 0.000000
0.000000 0.625362 0.000000
0.032408 0.625083 0.000000
0.099067 0.624804 0.000000
0.165725 0.624525 0.000000
0.232384 0.624246 0.000000
0.299042 0.623967 0.000000
0.365701 0.623688 0.000000
0.432359 0.623409 0.000000
0.499018 0.623130 0.000000
0.565676 0.622851 0.000000
0.632335 0.622572 0.000000
0.698993 0.622293 0.000000
0.765651 0.622014 0.000000
0.832310 0.621735 0.000000
0.898968 0.621456 0.000000
0.965627 0.621177 0.000000
1.000000 0.620898 0.000000
0.000000 0.690398 0.000000
0.031483 0.690119 0.000000
0.098142 0.689840 0.000000
0.164800 0.689561 0.000000
0.231459 0.689282 0.000000
0.298117 0.689003 0.000000
0.364776 0.688724 0.000000
0.431434 0.688445 0.000000
0.498093 0.688166 0.000000
0.564751 0.687887 0.000000
0.631410 0.687608 0.000000
0.698068 0.687329 0.000000
0.764726 0.687050 0.000000
0.831385 0.686771 0.000000
0.898043 0.686492 0.000000
0.964702 0.686213 0.000000
1.000000 0.685934 0.000000
0.000000 0.755435 0.000000
0.030558 0.755156 0.000000
0.097217 0.754876 0.000000
0.163875 0.754597 0.000000
0.230534 0.754318 0.000000
0.297192 0.754039 0.000000
0.363851 0.753760 0.000000
0.430509 0.753481 0.000000
0.497168 0.753202 0.000000
0.563826 0.752923 0.000000
0.630485 0.752644 0.000000
0.697143 0.752365 0.000000
0.763801 0.752086 0.000000
0.830460 0.751807 0.000000
0.897118 0.751528 0.000000
0.963777 0.751249 0.000000
1.000000 0.750970 0.000000
0.000000 0.820471 0.000000
0.029633 0.820192 0.000000
0.096292 0.819913 0.000000
0.162950 0.819634 0.000000
0.229609 0.819355 0.000000
0.296267 0.819076 0.000000
0.362926 0.818797 0.000000
0.429584 0.818518 0.000000
0.496243 0.818238 0.000000
0.562901 0.817959 0.000000
0.629560 0.817680 0.000000
0.696218 0.817401 0.000000
0.762876 0.817122 0.000000
0.829535 0.816843 0.000000
0.896193 0.816564 0.000000
0.962852 0.816285 0.000000
1.000000 0.816006 0.000000
0.000000 0.885507 0.000000
0.028708 0.885228 0.000000
0.095367 0.884949 0.000000
0.162025 0.884670 0.000000
0.228684 0.884391 0.000000
0.295342 0.884112 0.000000
0.362001 0.883833 0.000000
0.428659 0.883554 0.000000
0.495318 0.883275 0.000000
0.561976 0.882996 0.000000
0.628634 0.882717 0.000000
0.695293 0.882438 0.000000
0.761951 0.882159 0.000000
0.828610 0.881880 0.000000
0.895268 0.881600 0.000000
0.961927 0.881321 0.000000
1.000000 0.881042 0.000000
0.000000 0.950543 0.000000
0.027783 0.950264 0.000000
0.094442 0.949985 0.000000
0.161100 0.949706 0.000000
0.227759 0.949427 0.000000
0.294417 0.949148 0.000000
0.361076 0.948869 0.000000
0.427734 0.948590 0.000000
0.494393 0.948311 0.000000
0.561051 0.948032 0.000000
0.627709 0.947753 0.000000
0.694368 0.947474 0.000000
0.761026 0.947195 0.000000
0.827685 0.946916 0.000000
0.894343 0.946637 0.000000
0.961002 0.946358 0.000000
1.000000 0.946079 0.000000
0.000000 1.000000 0.000000
0.026858 1.000000 0.000000
0.093517 1.000000 0.000000
0.160175 1.000000 0.000000
0.226834 1.000000 0.000000
0.293492 1.000000 0.000000
0.360151 1.000000 0.000000
0.426809 1.000000 0.000000
0.493468 1.000000 0.000000
0.560126 1.000000 0.000000
0.626784 1.000000 0.000000
0.693443 1.000000 0.000000
0.760101 1.000000 0.000000
0.826760 1.000000 0.000000
0.893418 1.000000 0.000000
0.960077 1.000000 0.000000
1.000000 1.000000 0.000000
0.000000 0.000000 0.040189
0.041566 0.000000 0.039909
0.108225 0.000000 0.039630
0.174883 0.000000 0.039351
0.241541 0.000000 0.039072
0.308200 0.000000 0.038793
0.374858 0.000000 0.038514
0.441517 0.000000 0.038235
0.508175 0.000000 0.037956
0.574834 0.000000 0.037677
0.641492 0.000000 0.037398
0.708151 0.000000 0.037119
0.774809 0.000000 0.036840
0.841468 0.000000 0.036561
0.908126 0.000000 0.036282
0.974785 0.000000 0.036003
1.000000 0.000000 0.035724
0.000000 0.039944 0.039264
0.040641 0.039665 0.038984
0.107299 0.039386 0.038705
0.173958 0.039107 0.038426
0.240616 0.038828 0.038147
0.307275 0.038549 0.037868
0.373933 0.038270 0.037589
0.440592 0.037991 0.037310
0.507250 0.037711 0.037031
0.573909 0.037432 0.036752
0.640567 0.037153 0.036473
0.707226 0.036874 0.036194
0.773884 0.036595 0.035915
0.840543 0.036316 0.035636
0.907201 0.036037 0.035357
0.973860 0.035758 0.035078
1.000000 0.035479 0.034799
0.000000 0.104980 0.038339
0.039716 0.104701 0.038059
0.106374 0.104422 0.037780
0.173033 0.104143 0.037501
0.239691 0.103864 0.037222
0.306350 0.103585 0.036943
0.373008 0.103306 0.036664
0.439667 0.103027 0.036385
0.506325 0.102748 0.036106
0.572984 0.102469 0.035827
0.639642 0.102190 0.035548
0.706301 0.101911 0.035269
0.772959 0.101632 0.034990
0.839618 0.101353 0.034711
0.906276 0.101073 0.034432
0.972935 0.100794 0.034153
1.000000 0.100515 0.033874
0.000000 0.170016 0.037413
0.038791 0.169737 0.037134
0.105449 0.169458 0.036855
0.172108 0.169179 0.036576
0.238766 0.168900 0.036297
0.305425 0.168621 0.036018
0.372083 0.168342 0.035739
0.438742 0.168063 0.035460
0.505400 0.167784 0.035181
0.572059 0.167505 0.034902
0.638717 0.167226 0.034623
0.705376 0.166947 0.034344
0.772034 0.166668 0.034065
0.838693 0.166389 0.033786
0.905351 0.166110 0.033507
0.972009 0.165831 0.033228
1.000000 0.165552 0.032949
0.000000 0.235052 0.036488
0.037866 0.234773 0.036209
0.104524 0.234494 0.035930
0.171183 0.234215 0.035651
0.237841 0.233936 0.035372
0.304500 0.233657 0.035093
0.371158 0.233378 0.034814
0.437817 0.233099 0.034535
0.504475 0.232820 0.034256
0.571134 0.232541 0.033977
0.637792 0.232262 0.033698
0.704451 0.231983 0.033419
0.771109 0.231704 0.033140
0.837768 0.231425 0.032861
0.904426 0.231146 0.032582
0.971084 0.230867 0.032303
1.000000 0.230588 0.032024
0.000000 0.300089 0.035563
0.036941 0.299810 0.035284
0.103599 0.299531 0.035005
0.170258 0.299252 0.034726
0.236916 0.298973 0.034447
0.303575 0.298693 0.034168
0.370233 0.298414 0.033889
0.436892 0.298135 0.033610
0.503550 0.297856 0.033331
0.570209 0.297577 0.033052
0.636867 0.297298 0.032773
0.703526 0.297019 0.032494
0.770184 0.296740 0.032215
0.836843 0.296461 0.031936
0.903501 0.296182 0.031657
0.970159 0.295903 0.031378
1.000000 0.295624 0.031099
0.000000 0.365125 0.034638
0.036016 0.364846 0.034359
0.102674 0.364567 0.034080
0.169333 0.364288 0.033801
0.235991 0.364009 0.033522
0.302650 0.363730 0.033243
0.369308 0.363451 0.032964
0.435967 0.363172 0.032685
0.502625 0.362893 0.032406
0.569284 0.362614 0.032127
0.635942 0.362334 0.031848
0.702601 0.362055 0.031569
0.769259 0.361776 0.031290
0.835918 0.361497 0.031011
0.902576 0.361218 0.030732
0.969234 0.360939 0.030453
1.000000 0.360660 0.030174
0.000000 0.430161 0.033713
0.035091 0.429882 0.033434
0.101749 0.429603 0.033155
0.168408 0.429324 0.032876
0.235066 0.429045 0.032597
0.301725 0.428766 0.032318
0.368383 0.428487 0.032039
0.435042 0.428208 0.031760
0.501700 0.427929 0.031481
0.568359 0.427650 0.031202
0.635017 0.427371 0.030923
0.701676 0.427092 0.030644
0.768334 0.426813 0.030365
0.834993 0.426534 0.030086
0.901651 0.426255 0.029807
0.968309 0.425976 0.029528
1.000000 0.425696 0.029249
0.000000 0.495197 0.032788
0.034166 0.494918 0.032509
0.100824 0.494639 0.032230
0.167483 0.494360 0.031951
0.234141 0.494081 0.031672
0.300800 0.493802 0.031393
0.367458 0.493523 0.031114
0.434117 0.493244 0.030835
0.500775 0.492965 0.030556
0.567434 0.492686 0.030277
0.634092 0.492407 0.029998
0.700751 0.492128 0.029719
0.767409 0.491849 0.029440
0.834068 0.491570 0.029161
0.900726 0.491291 0.028882
0.967384 0.491012 0.028603
1.000000 0.490733 0.028324
0.000000 0.560234 0.031863
0.033241 0.559954 0.031584
0.099899 0.559675 0.031305
0.166558 0.559396 0.031026
0.233216 0.559117 0.030747
0.299875 0.558838 0.030468
0.366533 0.558559 0.030189
0.433192 0.558280 0.029910
0.499850 0.558001 0.029631
0.566509 0.557722 0.029352
0.633167 0.557443 0.029073
0.699826 0.557164 0.028794
0.766484 0.556885 0.028515
0.833143 0.556606 0.028236
0.899801 0.556327 0.027957
0.966459 0.556048 0.027678
1.000000 0.555769 0.027399
0.000000 0.625270 0.030938
0.032316 0.624991 0.030659
0.098974 0.624712 0.030380
0.165633 0.624433 0.030101
0.232291 0.624154 0.029822
0.298950 0.623875 0.029543
0.365608 0.623595 0.029264
0.432267 0.623316 0.028985
0.498925 0.623037 0.028706
0.565584 0.622758 0.028427
0.632242 0.622479 0.028148
0.698901 0.622200 0.027869
0.765559 0.621921 0.027590
0.832218 0.621642 0.027311
0.898876 0.621363 0.027032
0.965534 0.621084 0.026753
1.000000 0.620805 0.026474
0.000000 0.690306 0.030013
0.031391 0.690027 0.029734
0.098049 0.689748 0.029455
0.164708 0.689469 0.029176
0.231366 0.689190 0.028897
0.298025 0.688911 0.028618
0.364683 0.688632 0.028339
0.431342 0.688353 0.028060
0.498000 0.688074 0.027781
0.564659 0.687795 0.027502
0.631317 0.687516 0.027223
0.697976 0.687237 0.026944
0.764634 0.686957 0.026665
0.831292 0.686678 0.026386
0.897951 0.686399 0.026107
0.964609 0.686120 0.025828
1.000000 0.685841 0.025549
0.000000 0.755342 0.029088
0.030466 0.755063 0.028809
0.097124 0.754784 0.028530
0.163783 0.754505 0.028251
0.230441 0.754226 0.027972
0.297100 0.753947 0.027693
0.363758 0.753668 0.027414
0.430417 0.753389 0.027135
0.497075 0.753110 0.026856
0.563734 0.752831 0.026577
0.630392 0.752552 0.026298
0.697051 0.752273 0.026019
0.763709 0.751994 0.025740
0.830367 0.751715 0.025461
0.897026 0.751436 0.025182
0.963684 0.751157 0.024903
1.000000 0.750878 0.024624
0.000000 0.820378 0.028163
0.029541 0.820099 0.027884
0.096199 0.819820 0.027605
0.162858 0.819541 0.027326
0.229516 0.819262 0.027047
0.296175 0.818983 0.026768
0.362833 0.818704 0.026489
0.429492 0.818425 0.026210
0.496150 0.818146 0.025931
0.562809 0.817867 0.025652
0.629467 0.817588 0.025373
0.696126 0.817309 0.025094
0.762784 0.817030 0.024815
0.829442 0.816751 0.024536
0.896101 0.816472 0.024257
0.962759 0.816193 0.023978
1.000000 0.815914 0.023699
0.000000 0.885415 0.027238
0.028616 0.885136 0.026959
0.095274 0.884856 0.026680
0.161933 0.884577 0.026401
0.228591 0.884298 0.026122
0.295250 0.884019 0.025843
0.361908 0.883740 0.025564
0.428567 0.883461 0.025285
0.495225 0.883182 0.025006
0.561884 0.882903 0.024727
0.628542 0.882624 0.024448
0.695201 0.882345 0.024169
0.761859 0.882066 0.023890
0.828517 0.881787 0.023611
0.895176 0.881508 0.023332
0.961834 0.881229 0.023053
1.000000 0.880950 0.022774
0.000000 0.950451 0.026313
0.027691 0.950172 0.026034
0.094349 0.949893 0.025755
0.161008 0.949614 0.025476
0.227666 0.949335 0.025197
0.294325 0.949056 0.024918
0.360983 0.948777 0.024639
0.427642 0.948498 0.024360
0.494300 0.948218 0.024081
0.560959 0.947939 0.023802
0.627617 0.947660 0.023523
0.694276 0.947381 0.023244
0.760934 0.947102 0.022965
0.827592 0.946823 0.022686
0.894251 0.946544 0.022407
0.960909 0.946265 0.022128
1.000000 0.945986 0.021849
0.000000 1.000000 0.025388
0.026766 1.000000 0.025109
0.093424 1.000000 0.024830
0.160083 1.000000 0.024551
0.226741 1.000000 0.024272
0.293400 1.000000 0.023993
0.360058 1.000000 0.023714
0.426717 1.000000 0.023435
0.493375 1.000000 0.023156
0.560034 1.000000 0.022877
0.626692 1.000000 0.022598
0.693351 1.000000 0.022319
0.760009 1.000000 0.022040
0.826667 1.000000 0.021761
0.893326 1.000000 0.021482
0.959984 1.000000 0.021203
1.000000 1.000000 0.020924
0.000000 0.000000 0.105377
0.041474 0.000000 0.105098
0.108132 0.000000 0.104819
0.174791 0.000000 0.104540
0.241449 0.000000 0.104261
0.308107 0.000000 0.103982
0.374766 0.000000 0.103703
0.441424 0.000000 0.103424
0.508083 0.000000 0.103145
0.574741 0.000000 0.102866
0.641400 0.000000 0.102587
0.708058 0.000000 0.102308
0.774717 0.000000 0.102029
0.841375 0.000000 0.101750
0.908034 0.000000 0.101471
0.974692 0.000000 0.101191
1.000000 0.000000 0.100912
0.000000 0.039851 0.104452
0.040549 0.039572 0.104173
0.107207 0.039293 0.103894
0.173866 0.039014 0.103615
0.240524 0.038735 0.103336
0.307182 0.038456 0.103057
0.373841 0.038177 0.102778
0.440499 0.037898 0.102499
0.507158 0.037619 0.102220
0.573816 0.037340 0.101941
0.640475 0.037061 0.101662
0.707133 0.036782 0.101383
0.773792 0.036503 0.101104
0.840450 0.036224 0.100825
0.907109 0.035945 0.100546
0.973767 0.035666 0.100266
1.000000 0.035387 0.099987
0.000000 0.104888 0.103527
0.039624 0.104609 0.103248
0.106282 0.104330 0.102969
0.172941 0.104050 0.102690
0.239599 0.103771 0.102411
0.306257 0.103492 0.102132
0.372916 0.103213 0.101853
0.439574 0.102934 0.101574
0.506233 0.102655 0.101295
0.572891 0.102376 0.101016
0.639550 0.102097 0.100737
0.706208 0.101818 0.100458
0.772867 0.101539 0.100179
0.839525 0.101260 0.099900
0.906184 0.100981 0.099621
0.972842 0.100702 0.099341
1.000000 0.100423 0.099062
0.000000 0.169924 0.102602
0.038699 0.169645 0.102323
0.105357 0.169366 0.102044
0.172016 0.169087 0.101765
0.238674 0.168808 0.101486
0.305332 0.168529 0.101207
0.371991 0.168250 0.100928
0.438649 0.167971 0.100649
0.505308 0.167692 0.100370
0.571966 0.167412 0.100091
0.638625 0.167133 0.099812
0.705283 0.166854 0.099533
0.771942 0.166575 0.099254
0.838600 0.166296 0.098975
0.905259 0.166017 0.098695
0.971917 0.165738 0.098416
1.000000 0.165459 0.098137
0.000000 0.234960 0.101677
0.037774 0.234681 0.101398
0.104432 0.234402 0.101119
0.171091 0.234123 0.100840
0.237749 0.233844 0.100561
0.304407 0.233565 0.100282
0.371066 0.233286 0.100003
0.437724 0.233007 0.099724
0.504383 0.232728 0.099445
0.571041 0.232449 0.099166
0.637700 0.232170 0.098887
0.704358 0.231891 0.098608
0.771017 0.231612 0.098329
0.837675 0.231333 0.098050
0.904334 0.231053 0.097770
0.970992 0.230774 0.097491
1.000000 0.230495 0.097212
0.000000 0.299996 0.100752
0.036849 0.299717 0.100473
0.103507 0.299438 0.100194
0.170166 0.299159 0.099915
0.236824 0.298880 0.099636
0.303482 0.298601 0.099357
0.370141 0.298322 0.099078
0.436799 0.298043 0.098799
0.503458 0.297764 0.098520
0.570116 0.297485 0.098241
0.636775 0.297206 0.097962
0.703433 0.296927 0.097683
0.770092 0.296648 0.097404
0.836750 0.296369 0.097125
0.903409 0.296090 0.096845
0.970067 0.295811 0.096566
1.000000 0.295532 0.096287
0.000000 0.365032 0.099827
0.035924 0.364753 0.099548
0.102582 0.364474 0.099269
0.169240 0.364195 0.098990
0.235899 0.363916 0.098711
0.302557 0.363637 0.098432
0.369216 0.363358 0.098153
0.435874 0.363079 0.097874
0.502533 0.362800 0.097595
0.569191 0.362521 0.097316
0.635850 0.362242 0.097037
0.702508 0.361963 0.096758
0.769167 0.361684 0.096479
0.835825 0.361405 0.096200
0.902484 0.361126 0.095920
0.969142 0.360847 0.095641
1.000000 0.360568 0.095362
0.000000 0.430069 0.098902
0.034999 0.429790 0.098623
0.101657 0.429511 0.098344
0.168315 0.429232 0.098065
0.234974 0.428953 0.097786
0.301632 0.428673 0.097507
0.368291 0.428394 0.097228
0.434949 0.428115 0.096949
0.501608 0.427836 0.096670
0.568266 0.427557 0.096391
0.634925 0.427278 0.096112
0.701583 0.426999 0.095833
0.768242 0.426720 0.095554
0.834900 0.426441 0.095274
0.901559 0.426162 0.094995
0.968217 0.425883 0.094716
1.000000 0.425604 0.094437
0.000000 0.495105 0.097977
0.034074 0.494826 0.097698
0.100732 0.494547 0.097419
0.167390 0.494268 0.097140
0.234049 0.493989 0.096861
0.300707 0.493710 0.096582
0.367366 0.493431 0.096303
0.434024 0.493152 0.096024
0.500683 0.492873 0.095745
0.567341 0.492594 0.095466
0.634000 0.492314 0.095187
0.700658 0.492035 0.094908
0.767317 0.491756 0.094629
0.833975 0.491477 0.094349
0.900634 0.491198 0.094070
0.967292 0.490919 0.093791
1.000000 0.490640 0.093512
0.000000 0.560141 0.097052
0.033149 0.559862 0.096773
0.099807 0.559583 0.096494
0.166465 0.559304 0.096215
0.233124 0.559025 0.095936
0.299782 0.558746 0.095657
0.366441 0.558467 0.095378
0.433099 0.558188 0.095099
0.499758 0.557909 0.094820
0.566416 0.557630 0.094541
0.633075 0.557351 0.094262
0.699733 0.557072 0.093983
0.766392 0.556793 0.093704
0.833050 0.556514 0.093424
0.899709 0.556235 0.093145
0.966367 0.555956 0.092866
1.000000 0.555676 0.092587
0.000000 0.625177 0.096127
0.032224 0.624898 0.095848
0.098882 0.624619 0.095569
0.165540 0.624340 0.095290
0.232199 0.624061 0.095011
0.298857 0.623782 0.094732
0.365516 0.623503 0.094453
0.432174 0.623224 0.094174
0.498833 0.622945 0.093895
0.565491 0.622666 0.093616
0.632150 0.622387 0.093337
0.698808 0.622108 0.093058
0.765467 0.621829 0.092779
0.832125 0.621550 0.092499
0.898784 0.621271 0.092220
0.965442 0.620992 0.091941
1.000000 0.620713 0.091662
0.000000 0.690214 0.095202
0.031299 0.689934 0.094923
0.097957 0.689655 0.094644
0.164615 0.689376 0.094365
0.231274 0.689097 0.094086
0.297932 0.688818 0.093807
0.364591 0.688539 0.093528
0.431249 0.688260 0.093249
0.497908 0.687981 0.092970
0.564566 0.687702 0.092691
0.631225 0.687423 0.092412
0.697883 0.687144 0.092133
0.764542 0.686865 0.091853
0.831200 0.686586 0.091574
0.897859 0.686307 0.091295
0.964517 0.686028 0.091016
1.000000 0.685749 0.090737
0.000000 0.755250 0.094277
0.030374 0.754971 0.093998
0.097032 0.754692 0.093719
0.163690 0.754413 0.093440
0.230349 0.754134 0.093161
0.297007 0.753855 0.092882
0.363666 0.753576 0.092603
0.430324 0.753296 0.092324
0.496983 0.753017 0.092045
0.563641 0.752738 0.091766
0.630300 0.752459 0.091487
0.696958 0.752180 0.091208
0.763617 0.751901 0.090928
0.830275 0.751622 0.090649
0.896934 0.751343 0.090370
0.963592 0.751064 0.090091
1.000000 0.750785 0.089812
0.000000 0.820286 0.093352
0.029449 0.820007 0.093073
0.096107 0.819728 0.092794
0.162765 0.819449 0.092515
0.229424 0.819170 0.092236
0.296082 0.818891 0.091957
0.362741 0.818612 0.091678
0.429399 0.818333 0.091399
0.496058 0.818054 0.091120
0.562716 0.817775 0.090841
0.629375 0.817496 0.090562
0.696033 0.817217 0.090283
0.762692 0.816937 0.090003
0.829350 0.816658 0.089724
0.896009 0.816379 0.089445
0.962667 0.816100 0.089166
1.000000 0.815821 0.088887
0.000000 0.885322 0.092427
0.028523 0.885043 0.092148
0.095182 0.884764 0.091869
0.161840 0.884485 0.091590
0.228499 0.884206 0.091311
0.295157 0.883927 0.091032
0.361816 0.883648 0.090753
0.428474 0.883369 0.090474
0.495133 0.883090 0.090195
0.561791 0.882811 0.089916
0.628450 0.882532 0.089637
0.695108 0.882253 0.089358
0.761767 0.881974 0.089078
0.828425 0.881695 0.088799
0.895084 0.881416 0.088520
0.961742 0.881137 0.088241
1.000000 0.880858 0.087962
0.000000 0.950358 0.091502
0.027598 0.950079 0.091223
0.094257 0.949800 0.090944
0.160915 0.949521 0.090665
0.227574 0.949242 0.090386
0.294232 0.948963 0.090107
0.360891 0.948684 0.089828
0.427549 0.948405 0.089549
0.494208 0.948126 0.089270
0.560866 0.947847 0.088991
0.627525 0.947568 0.088712
0.694183 0.947289 0.088432
0.760842 0.947010 0.088153
0.827500 0.946731 0.087874
0.894159 0.946452 0.087595
0.960817 0.946173 0.087316
1.000000 0.945894 0.087037
0.000000 1.000000 0.090577
0.026673 1.000000 0.090298
0.093332 1.000000 0.090019
0.159990 1.000000 0.089740
0.226649 1.000000 0.089461
0.293307 1.000000 0.089182
0.359966 1.000000 0.088903
0.426624 1.000000 0.088624
0.493283 1.000000 0.088345
0.559941 1.000000 0.088066
0.626600 1.000000 0.087787
0.693258 1.000000 0.087507
0.759917 1.000000 0.087228
0.826575 1.000000 0.086949
0.893233 1.000000 0.086670
0.959892 1.000000 0.086391
1.000000 1.000000 0.086112
0.000000 0.000000 0.170566
0.041381 0.000000 0.170287
0.108040 0.000000 0.170007
0.174698 0.000000 0.169728
0.241357 0.000000 0.169449
0.308015 0.000000 0.169170
0.374674 0.000000 0.168891
0.441332 0.000000 0.168612
0.507990 0.000000 0.168333
0.574649 0.000000 0.168054
0.641307 0.000000 0.167775
0.707966 0.000000 0.167496
0.774624 0.000000 0.167217
0.841283 0.000000 0.166938
