assets/lighting/day-night-palettes/grade-led-cool-white/lut.cube
TITLE "LED Cool White 5000K"
# TKRS lighting-batch-001 original LUT
# Intended usage: modern LED panel interior
# License: CC0-1.0
LUT_3D_SIZE 17
DOMAIN_MIN 0.0 0.0 0.0
DOMAIN_MAX 1.0 1.0 1.0
0.000000 0.000000 0.000000
0.043976 0.000000 0.000000
0.107953 0.000000 0.000000
0.171929 0.000000 0.000000
0.235906 0.000000 0.000000
0.299882 0.000000 0.000000
0.363858 0.000000 0.000000
0.427835 0.000000 0.000000
0.491811 0.000000 0.000000
0.555787 0.000000 0.000000
0.619764 0.000000 0.000000
0.683740 0.000000 0.000000
0.747717 0.000000 0.000000
0.811693 0.000000 0.000000
0.875669 0.000000 0.000000
0.939646 0.000000 0.000000
1.000000 0.000000 0.000000
0.000000 0.043302 0.000000
0.044887 0.043579 0.000000
0.108863 0.043855 0.000000
0.172840 0.044131 0.000000
0.236816 0.044408 0.000000
0.300793 0.044684 0.000000
0.364769 0.044961 0.000000
0.428745 0.045237 0.000000
0.492722 0.045513 0.000000
0.556698 0.045790 0.000000
0.620674 0.046066 0.000000
0.684651 0.046342 0.000000
0.748627 0.046619 0.000000
0.812604 0.046895 0.000000
0.876580 0.047172 0.000000
0.940556 0.047448 0.000000
1.000000 0.047724 0.000000
0.000000 0.106604 0.000000
0.045798 0.106881 0.000000
0.109774 0.107157 0.000000
0.173750 0.107434 0.000000
0.237727 0.107710 0.000000
0.301703 0.107986 0.000000
0.365680 0.108263 0.000000
0.429656 0.108539 0.000000
0.493632 0.108816 0.000000
0.557609 0.109092 0.000000
0.621585 0.109368 0.000000
0.685562 0.109645 0.000000
0.749538 0.109921 0.000000
0.813514 0.110197 0.000000
0.877491 0.110474 0.000000
0.941467 0.110750 0.000000
1.000000 0.111027 0.000000
0.000000 0.169907 0.000000
0.046708 0.170183 0.000000
0.110685 0.170459 0.000000
0.174661 0.170736 0.000000
0.238638 0.171012 0.000000
0.302614 0.171289 0.000000
0.366590 0.171565 0.000000
0.430567 0.171841 0.000000
0.494543 0.172118 0.000000
0.558519 0.172394 0.000000
0.622496 0.172671 0.000000
0.686472 0.172947 0.000000
0.750449 0.173223 0.000000
0.814425 0.173500 0.000000
0.878401 0.173776 0.000000
0.942378 0.174052 0.000000
1.000000 0.174329 0.000000
0.000000 0.233209 0.000000
0.047619 0.233485 0.000000
0.111595 0.233762 0.000000
0.175572 0.234038 0.000000
0.239548 0.234314 0.000000
0.303525 0.234591 0.000000
0.367501 0.234867 0.000000
0.431477 0.235144 0.000000
0.495454 0.235420 0.000000
0.559430 0.235696 0.000000
0.623406 0.235973 0.000000
0.687383 0.236249 0.000000
0.751359 0.236526 0.000000
0.815336 0.236802 0.000000
0.879312 0.237078 0.000000
0.943288 0.237355 0.000000
1.000000 0.237631 0.000000
0.000000 0.296511 0.000000
0.048530 0.296788 0.000000
0.112506 0.297064 0.000000
0.176482 0.297340 0.000000
0.240459 0.297617 0.000000
0.304435 0.297893 0.000000
0.368412 0.298169 0.000000
0.432388 0.298446 0.000000
0.496364 0.298722 0.000000
0.560341 0.298999 0.000000
0.624317 0.299275 0.000000
0.688293 0.299551 0.000000
0.752270 0.299828 0.000000
0.816246 0.300104 0.000000
0.880223 0.300381 0.000000
0.944199 0.300657 0.000000
1.000000 0.300933 0.000000
0.000000 0.359813 0.000000
0.049440 0.360090 0.000000
0.113417 0.360366 0.000000
0.177393 0.360643 0.000000
0.241369 0.360919 0.000000
0.305346 0.361195 0.000000
0.369322 0.361472 0.000000
0.433299 0.361748 0.000000
0.497275 0.362024 0.000000
0.561251 0.362301 0.000000
0.625228 0.362577 0.000000
0.689204 0.362854 0.000000
0.753181 0.363130 0.000000
0.817157 0.363406 0.000000
0.881133 0.363683 0.000000
0.945110 0.363959 0.000000
1.000000 0.364236 0.000000
0.000000 0.423116 0.000000
0.050351 0.423392 0.000000
0.114327 0.423668 0.000000
0.178304 0.423945 0.000000
0.242280 0.424221 0.000000
0.306257 0.424498 0.000000
0.370233 0.424774 0.000000
0.434209 0.425050 0.000000
0.498186 0.425327 0.000000
0.562162 0.425603 0.000000
0.626138 0.425879 0.000000
0.690115 0.426156 0.000000
0.754091 0.426432 0.000000
0.818068 0.426709 0.000000
0.882044 0.426985 0.000000
0.946020 0.427261 0.000000
1.000000 0.427538 0.000000
0.000000 0.486418 0.000000
0.051262 0.486694 0.000000
0.115238 0.486971 0.000000
0.179214 0.487247 0.000000
0.243191 0.487523 0.000000
0.307167 0.487800 0.000000
0.371144 0.488076 0.000000
0.435120 0.488353 0.000000
0.499096 0.488629 0.000000
0.563073 0.488905 0.000000
0.627049 0.489182 0.000000
0.691025 0.489458 0.000000
0.755002 0.489734 0.000000
0.818978 0.490011 0.000000
0.882955 0.490287 0.000000
0.946931 0.490564 0.000000
1.000000 0.490840 0.000000
0.000000 0.549720 0.000000
0.052172 0.549997 0.000000
0.116149 0.550273 0.000000
0.180125 0.550549 0.000000
0.244101 0.550826 0.000000
0.308078 0.551102 0.000000
0.372054 0.551378 0.000000
0.436031 0.551655 0.000000
0.500007 0.551931 0.000000
0.563983 0.552208 0.000000
0.627960 0.552484 0.000000
0.691936 0.552760 0.000000
0.755913 0.553037 0.000000
0.819889 0.553313 0.000000
0.883865 0.553589 0.000000
0.947842 0.553866 0.000000
1.000000 0.554142 0.000000
0.000000 0.613022 0.000000
0.053083 0.613299 0.000000
0.117059 0.613575 0.000000
0.181036 0.613852 0.000000
0.245012 0.614128 0.000000
0.308989 0.614404 0.000000
0.372965 0.614681 0.000000
0.436941 0.614957 0.000000
0.500918 0.615233 0.000000
0.564894 0.615510 0.000000
0.628870 0.615786 0.000000
0.692847 0.616063 0.000000
0.756823 0.616339 0.000000
0.820800 0.616615 0.000000
0.884776 0.616892 0.000000
0.948752 0.617168 0.000000
1.000000 0.617444 0.000000
0.000000 0.676325 0.000000
0.053994 0.676601 0.000000
0.117970 0.676877 0.000000
0.181946 0.677154 0.000000
0.245923 0.677430 0.000000
0.309899 0.677707 0.000000
0.373876 0.677983 0.000000
0.437852 0.678259 0.000000
0.501828 0.678536 0.000000
0.565805 0.678812 0.000000
0.629781 0.679088 0.000000
0.693757 0.679365 0.000000
0.757734 0.679641 0.000000
0.821710 0.679918 0.000000
0.885687 0.680194 0.000000
0.949663 0.680470 0.000000
1.000000 0.680747 0.000000
0.000000 0.739627 0.000000
0.054904 0.739903 0.000000
0.118881 0.740180 0.000000
0.182857 0.740456 0.000000
0.246833 0.740732 0.000000
0.310810 0.741009 0.000000
0.374786 0.741285 0.000000
0.438763 0.741562 0.000000
0.502739 0.741838 0.000000
0.566715 0.742114 0.000000
0.630692 0.742391 0.000000
0.694668 0.742667 0.000000
0.758645 0.742943 0.000000
0.822621 0.743220 0.000000
0.886597 0.743496 0.000000
0.950574 0.743773 0.000000
1.000000 0.744049 0.000000
0.000000 0.802929 0.000000
0.055815 0.803206 0.000000
0.119791 0.803482 0.000000
0.183768 0.803758 0.000000
0.247744 0.804035 0.000000
0.311721 0.804311 0.000000
0.375697 0.804587 0.000000
0.439673 0.804864 0.000000
0.503650 0.805140 0.000000
0.567626 0.805417 0.000000
0.631602 0.805693 0.000000
0.695579 0.805969 0.000000
0.759555 0.806246 0.000000
0.823532 0.806522 0.000000
0.887508 0.806798 0.000000
0.951484 0.807075 0.000000
1.000000 0.807351 0.000000
0.000000 0.866231 0.000000
0.056726 0.866508 0.000000
0.120702 0.866784 0.000000
0.184678 0.867061 0.000000
0.248655 0.867337 0.000000
0.312631 0.867613 0.000000
0.376608 0.867890 0.000000
0.440584 0.868166 0.000000
0.504560 0.868442 0.000000
0.568537 0.868719 0.000000
0.632513 0.868995 0.000000
0.696489 0.869272 0.000000
0.760466 0.869548 0.000000
0.824442 0.869824 0.000000
0.888419 0.870101 0.000000
0.952395 0.870377 0.000000
1.000000 0.870653 0.000000
0.000000 0.929534 0.000000
0.057636 0.929810 0.000000
0.121613 0.930086 0.000000
0.185589 0.930363 0.000000
0.249565 0.930639 0.000000
0.313542 0.930916 0.000000
0.377518 0.931192 0.000000
0.441495 0.931468 0.000000
0.505471 0.931745 0.000000
0.569447 0.932021 0.000000
0.633424 0.932297 0.000000
0.697400 0.932574 0.000000
0.761376 0.932850 0.000000
0.825353 0.933127 0.000000
0.889329 0.933403 0.000000
0.953306 0.933679 0.000000
1.000000 0.933956 0.000000
0.000000 0.992836 0.000000
0.058547 0.993112 0.000000
0.122523 0.993389 0.000000
0.186500 0.993665 0.000000
0.250476 0.993941 0.000000
0.314452 0.994218 0.000000
0.378429 0.994494 0.000000
0.442405 0.994771 0.000000
0.506382 0.995047 0.000000
0.570358 0.995323 0.000000
0.634334 0.995600 0.000000
0.698311 0.995876 0.000000
0.762287 0.996152 0.000000
0.826264 0.996429 0.000000
0.890240 0.996705 0.000000
0.954216 0.996982 0.000000
1.000000 0.997258 0.000000
0.000000 0.000000 0.041543
0.044067 0.000000 0.041819
0.108043 0.000000 0.042096
0.172020 0.000000 0.042372
0.235996 0.000000 0.042649
0.299972 0.000000 0.042925
0.363949 0.000000 0.043201
0.427925 0.000000 0.043478
0.491902 0.000000 0.043754
0.555878 0.000000 0.044030
0.619854 0.000000 0.044307
0.683831 0.000000 0.044583
0.747807 0.000000 0.044860
0.811783 0.000000 0.045136
0.875760 0.000000 0.045412
0.939736 0.000000 0.045689
1.000000 0.000000 0.045965
0.000000 0.043393 0.042454
0.044978 0.043669 0.042730
0.108954 0.043946 0.043006
0.172930 0.044222 0.043283
0.236907 0.044498 0.043559
0.300883 0.044775 0.043836
0.364859 0.045051 0.044112
0.428836 0.045327 0.044388
0.492812 0.045604 0.044665
0.556789 0.045880 0.044941
0.620765 0.046157 0.045217
0.684741 0.046433 0.045494
0.748718 0.046709 0.045770
0.812694 0.046986 0.046047
0.876671 0.047262 0.046323
0.940647 0.047538 0.046599
1.000000 0.047815 0.046876
0.000000 0.106695 0.043364
0.045888 0.106971 0.043641
0.109865 0.107248 0.043917
0.173841 0.107524 0.044193
0.237817 0.107801 0.044470
0.301794 0.108077 0.044746
0.365770 0.108353 0.045023
0.429747 0.108630 0.045299
0.493723 0.108906 0.045575
0.557699 0.109182 0.045852
0.621676 0.109459 0.046128
0.685652 0.109735 0.046405
0.749628 0.110012 0.046681
0.813605 0.110288 0.046957
0.877581 0.110564 0.047234
0.941558 0.110841 0.047510
1.000000 0.111117 0.047786
0.000000 0.169997 0.044275
0.046799 0.170274 0.044551
0.110775 0.170550 0.044828
0.174752 0.170826 0.045104
0.238728 0.171103 0.045381
0.302704 0.171379 0.045657
0.366681 0.171656 0.045933
0.430657 0.171932 0.046210
0.494634 0.172208 0.046486
0.558610 0.172485 0.046762
0.622586 0.172761 0.047039
0.686563 0.173037 0.047315
0.750539 0.173314 0.047592
0.814515 0.173590 0.047868
0.878492 0.173867 0.048144
0.942468 0.174143 0.048421
1.000000 0.174419 0.048697
0.000000 0.233300 0.045186
0.047710 0.233576 0.045462
0.111686 0.233852 0.045738
0.175662 0.234129 0.046015
0.239639 0.234405 0.046291
0.303615 0.234681 0.046568
0.367591 0.234958 0.046844
0.431568 0.235234 0.047120
0.495544 0.235511 0.047397
0.559521 0.235787 0.047673
0.623497 0.236063 0.047949
0.687473 0.236340 0.048226
0.751450 0.236616 0.048502
0.815426 0.236892 0.048779
0.879403 0.237169 0.049055
0.943379 0.237445 0.049331
1.000000 0.237722 0.049608
0.000000 0.296602 0.046096
0.048620 0.296878 0.046373
0.112597 0.297155 0.046649
0.176573 0.297431 0.046925
0.240549 0.297707 0.047202
0.304526 0.297984 0.047478
0.368502 0.298260 0.047755
0.432479 0.298536 0.048031
0.496455 0.298813 0.048307
0.560431 0.299089 0.048584
0.624408 0.299366 0.048860
0.688384 0.299642 0.049136
0.752360 0.299918 0.049413
0.816337 0.300195 0.049689
0.880313 0.300471 0.049966
0.944290 0.300747 0.050242
1.000000 0.301024 0.050518
0.000000 0.359904 0.047007
0.049531 0.360180 0.047283
0.113507 0.360457 0.047560
0.177484 0.360733 0.047836
0.241460 0.361010 0.048112
0.305436 0.361286 0.048389
0.369413 0.361562 0.048665
0.433389 0.361839 0.048942
0.497366 0.362115 0.049218
0.561342 0.362391 0.049494
0.625318 0.362668 0.049771
0.689295 0.362944 0.050047
0.753271 0.363221 0.050324
0.817247 0.363497 0.050600
0.881224 0.363773 0.050876
0.945200 0.364050 0.051153
1.000000 0.364326 0.051429
0.000000 0.423206 0.047918
0.050442 0.423483 0.048194
0.114418 0.423759 0.048470
0.178394 0.424035 0.048747
0.242371 0.424312 0.049023
0.306347 0.424588 0.049300
0.370323 0.424865 0.049576
0.434300 0.425141 0.049852
0.498276 0.425417 0.050129
0.562253 0.425694 0.050405
0.626229 0.425970 0.050681
0.690205 0.426246 0.050958
0.754182 0.426523 0.051234
0.818158 0.426799 0.051511
0.882135 0.427076 0.051787
0.946111 0.427352 0.052063
1.000000 0.427628 0.052340
0.000000 0.486508 0.048828
0.051352 0.486785 0.049105
0.115329 0.487061 0.049381
0.179305 0.487338 0.049657
0.243281 0.487614 0.049934
0.307258 0.487890 0.050210
0.371234 0.488167 0.050487
0.435211 0.488443 0.050763
0.499187 0.488720 0.051039
0.563163 0.488996 0.051316
0.627140 0.489272 0.051592
0.691116 0.489549 0.051868
0.755092 0.489825 0.052145
0.819069 0.490101 0.052421
0.883045 0.490378 0.052698
0.947022 0.490654 0.052974
1.000000 0.490931 0.053250
0.000000 0.549811 0.049739
0.052263 0.550087 0.050015
0.116239 0.550363 0.050292
0.180216 0.550640 0.050568
0.244192 0.550916 0.050844
0.308168 0.551193 0.051121
0.372145 0.551469 0.051397
0.436121 0.551745 0.051674
0.500098 0.552022 0.051950
0.564074 0.552298 0.052226
0.628050 0.552575 0.052503
0.692027 0.552851 0.052779
0.756003 0.553127 0.053056
0.819979 0.553404 0.053332
0.883956 0.553680 0.053608
0.947932 0.553956 0.053885
1.000000 0.554233 0.054161
0.000000 0.613113 0.050650
0.053174 0.613389 0.050926
0.117150 0.613666 0.051202
0.181126 0.613942 0.051479
0.245103 0.614218 0.051755
0.309079 0.614495 0.052032
0.373055 0.614771 0.052308
0.437032 0.615048 0.052584
0.501008 0.615324 0.052861
0.564985 0.615600 0.053137
0.628961 0.615877 0.053413
0.692937 0.616153 0.053690
0.756914 0.616430 0.053966
0.820890 0.616706 0.054243
0.884866 0.616982 0.054519
0.948843 0.617259 0.054795
1.000000 0.617535 0.055072
0.000000 0.676415 0.051560
0.054084 0.676692 0.051837
0.118061 0.676968 0.052113
0.182037 0.677244 0.052389
0.246013 0.677521 0.052666
0.309990 0.677797 0.052942
0.373966 0.678073 0.053219
0.437942 0.678350 0.053495
0.501919 0.678626 0.053771
0.565895 0.678903 0.054048
0.629872 0.679179 0.054324
0.693848 0.679455 0.054600
0.757824 0.679732 0.054877
0.821801 0.680008 0.055153
0.885777 0.680285 0.055430
0.949754 0.680561 0.055706
1.000000 0.680837 0.055982
0.000000 0.739717 0.052471
0.054995 0.739994 0.052747
0.118971 0.740270 0.053024
0.182948 0.740547 0.053300
0.246924 0.740823 0.053576
0.310900 0.741099 0.053853
0.374877 0.741376 0.054129
0.438853 0.741652 0.054406
0.502830 0.741928 0.054682
0.566806 0.742205 0.054958
0.630782 0.742481 0.055235
0.694759 0.742758 0.055511
0.758735 0.743034 0.055788
0.822711 0.743310 0.056064
0.886688 0.743587 0.056340
0.950664 0.743863 0.056617
1.000000 0.744140 0.056893
0.000000 0.803020 0.053382
0.055906 0.803296 0.053658
0.119882 0.803572 0.053934
0.183858 0.803849 0.054211
0.247835 0.804125 0.054487
0.311811 0.804402 0.054764
0.375787 0.804678 0.055040
0.439764 0.804954 0.055316
0.503740 0.805231 0.055593
0.567717 0.805507 0.055869
0.631693 0.805783 0.056145
0.695669 0.806060 0.056422
0.759646 0.806336 0.056698
0.823622 0.806613 0.056975
0.887598 0.806889 0.057251
0.951575 0.807165 0.057527
1.000000 0.807442 0.057804
0.000000 0.866322 0.054292
0.056816 0.866598 0.054569
0.120793 0.866875 0.054845
0.184769 0.867151 0.055121
0.248745 0.867427 0.055398
0.312722 0.867704 0.055674
0.376698 0.867980 0.055951
0.440674 0.868257 0.056227
0.504651 0.868533 0.056503
0.568627 0.868809 0.056780
0.632604 0.869086 0.057056
0.696580 0.869362 0.057332
0.760556 0.869638 0.057609
0.824533 0.869915 0.057885
0.888509 0.870191 0.058162
0.952486 0.870468 0.058438
1.000000 0.870744 0.058714
0.000000 0.929624 0.055203
0.057727 0.929901 0.055479
0.121703 0.930177 0.055756
0.185680 0.930453 0.056032
0.249656 0.930730 0.056308
0.313632 0.931006 0.056585
0.377609 0.931282 0.056861
0.441585 0.931559 0.057138
0.505562 0.931835 0.057414
0.569538 0.932112 0.057690
0.633514 0.932388 0.057967
0.697491 0.932664 0.058243
0.761467 0.932941 0.058519
0.825443 0.933217 0.058796
0.889420 0.933493 0.059072
0.953396 0.933770 0.059349
1.000000 0.934046 0.059625
0.000000 0.992926 0.056114
0.058638 0.993203 0.056390
0.122614 0.993479 0.056666
0.186590 0.993756 0.056943
0.250567 0.994032 0.057219
0.314543 0.994308 0.057496
0.378519 0.994585 0.057772
0.442496 0.994861 0.058048
0.506472 0.995137 0.058325
0.570449 0.995414 0.058601
0.634425 0.995690 0.058877
0.698401 0.995967 0.059154
0.762378 0.996243 0.059430
0.826354 0.996519 0.059707
0.890330 0.996796 0.059983
0.954307 0.997072 0.060259
1.000000 0.997348 0.060536
0.000000 0.000000 0.103086
0.044157 0.000000 0.103362
0.108134 0.000000 0.103639
0.172110 0.000000 0.103915
0.236087 0.000000 0.104192
0.300063 0.000000 0.104468
0.364039 0.000000 0.104744
0.428016 0.000000 0.105021
0.491992 0.000000 0.105297
0.555969 0.000000 0.105573
0.619945 0.000000 0.105850
0.683921 0.000000 0.106126
0.747898 0.000000 0.106403
0.811874 0.000000 0.106679
0.875850 0.000000 0.106955
0.939827 0.000000 0.107232
1.000000 0.000000 0.107508
0.000000 0.043483 0.103997
0.045068 0.043760 0.104273
0.109045 0.044036 0.104549
0.173021 0.044312 0.104826
0.236997 0.044589 0.105102
0.300974 0.044865 0.105379
0.364950 0.045142 0.105655
0.428926 0.045418 0.105931
0.492903 0.045694 0.106208
0.556879 0.045971 0.106484
0.620856 0.046247 0.106760
0.684832 0.046524 0.107037
0.748808 0.046800 0.107313
0.812785 0.047076 0.107590
0.876761 0.047353 0.107866
0.940737 0.047629 0.108142
1.000000 0.047905 0.108419
0.000000 0.106786 0.104907
0.045979 0.107062 0.105184
0.109955 0.107338 0.105460
0.173932 0.107615 0.105736
0.237908 0.107891 0.106013
0.301884 0.108167 0.106289
0.365861 0.108444 0.106566
0.429837 0.108720 0.106842
0.493813 0.108997 0.107118
0.557790 0.109273 0.107395
0.621766 0.109549 0.107671
0.685743 0.109826 0.107948
0.749719 0.110102 0.108224
0.813695 0.110379 0.108500
0.877672 0.110655 0.108777
0.941648 0.110931 0.109053
1.000000 0.111208 0.109329
0.000000 0.170088 0.105818
0.046889 0.170364 0.106094
0.110866 0.170641 0.106371
0.174842 0.170917 0.106647
0.238819 0.171193 0.106924
0.302795 0.171470 0.107200
0.366771 0.171746 0.107476
0.430748 0.172022 0.107753
0.494724 0.172299 0.108029
0.558701 0.172575 0.108305
0.622677 0.172852 0.108582
0.686653 0.173128 0.108858
0.750630 0.173404 0.109135
0.814606 0.173681 0.109411
0.878582 0.173957 0.109687
0.942559 0.174234 0.109964
1.000000 0.174510 0.110240
0.000000 0.233390 0.106729
0.047800 0.233666 0.107005
0.111777 0.233943 0.107281
0.175753 0.234219 0.107558
0.239729 0.234496 0.107834
0.303706 0.234772 0.108111
0.367682 0.235048 0.108387
0.431658 0.235325 0.108663
0.495635 0.235601 0.108940
0.559611 0.235877 0.109216
0.623588 0.236154 0.109492
0.687564 0.236430 0.109769
0.751540 0.236707 0.110045
0.815517 0.236983 0.110322
0.879493 0.237259 0.110598
0.943469 0.237536 0.110874
1.000000 0.237812 0.111151
0.000000 0.296692 0.107639
0.048711 0.296969 0.107916
0.112687 0.297245 0.108192
0.176664 0.297521 0.108468
0.240640 0.297798 0.108745
0.304616 0.298074 0.109021
0.368593 0.298351 0.109298
0.432569 0.298627 0.109574
0.496545 0.298903 0.109850
0.560522 0.299180 0.110127
0.624498 0.299456 0.110403
0.688475 0.299732 0.110679
0.752451 0.300009 0.110956
0.816427 0.300285 0.111232
0.880404 0.300562 0.111509
0.944380 0.300838 0.111785
1.000000 0.301114 0.112061
0.000000 0.359995 0.108550
0.049621 0.360271 0.108826
0.113598 0.360547 0.109103
0.177574 0.360824 0.109379
0.241551 0.361100 0.109656
0.305527 0.361376 0.109932
0.369503 0.361653 0.110208
0.433480 0.361929 0.110485
0.497456 0.362206 0.110761
0.561432 0.362482 0.111037
0.625409 0.362758 0.111314
0.689385 0.363035 0.111590
0.753362 0.363311 0.111867
0.817338 0.363587 0.112143
0.881314 0.363864 0.112419
0.945291 0.364140 0.112696
1.000000 0.364417 0.112972
0.000000 0.423297 0.109461
0.050532 0.423573 0.109737
0.114508 0.423850 0.110013
0.178485 0.424126 0.110290
0.242461 0.424402 0.110566
0.306438 0.424679 0.110843
0.370414 0.424955 0.111119
0.434390 0.425231 0.111395
0.498367 0.425508 0.111672
0.562343 0.425784 0.111948
0.626320 0.426061 0.112224
0.690296 0.426337 0.112501
0.754272 0.426613 0.112777
0.818249 0.426890 0.113054
0.882225 0.427166 0.113330
0.946201 0.427442 0.113606
1.000000 0.427719 0.113883
0.000000 0.486599 0.110371
0.051443 0.486875 0.110648
0.115419 0.487152 0.110924
0.179396 0.487428 0.111200
0.243372 0.487705 0.111477
0.307348 0.487981 0.111753
0.371325 0.488257 0.112030
0.435301 0.488534 0.112306
0.499277 0.488810 0.112582
0.563254 0.489086 0.112859
0.627230 0.489363 0.113135
0.691207 0.489639 0.113411
0.755183 0.489916 0.113688
0.819159 0.490192 0.113964
0.883136 0.490468 0.114241
0.947112 0.490745 0.114517
1.000000 0.491021 0.114793
0.000000 0.549901 0.111282
0.052353 0.550178 0.111558
0.116330 0.550454 0.111835
0.180306 0.550730 0.112111
0.244283 0.551007 0.112387
0.308259 0.551283 0.112664
0.372235 0.551560 0.112940
0.436212 0.551836 0.113217
0.500188 0.552112 0.113493
0.564164 0.552389 0.113769
0.628141 0.552665 0.114046
0.692117 0.552941 0.114322
0.756094 0.553218 0.114599
0.820070 0.553494 0.114875
0.884046 0.553771 0.115151
0.948023 0.554047 0.115428
1.000000 0.554323 0.115704
0.000000 0.613204 0.112193
0.053264 0.613480 0.112469
0.117240 0.613756 0.112745
0.181217 0.614033 0.113022
0.245193 0.614309 0.113298
0.309170 0.614585 0.113575
0.373146 0.614862 0.113851
0.437122 0.615138 0.114127
0.501099 0.615415 0.114404
0.565075 0.615691 0.114680
0.629052 0.615967 0.114956
0.693028 0.616244 0.115233
0.757004 0.616520 0.115509
0.820981 0.616796 0.115786
0.884957 0.617073 0.116062
0.948933 0.617349 0.116338
1.000000 0.617626 0.116615
0.000000 0.676506 0.113103
0.054175 0.676782 0.113380
0.118151 0.677059 0.113656
0.182128 0.677335 0.113932
0.246104 0.677611 0.114209
0.310080 0.677888 0.114485
0.374057 0.678164 0.114762
0.438033 0.678440 0.115038
0.502009 0.678717 0.115314
0.565986 0.678993 0.115591
0.629962 0.679270 0.115867
0.693939 0.679546 0.116143
0.757915 0.679822 0.116420
0.821891 0.680099 0.116696
0.885868 0.680375 0.116973
0.949844 0.680651 0.117249
1.000000 0.680928 0.117525
0.000000 0.739808 0.114014
0.055085 0.740084 0.114290
0.119062 0.740361 0.114567
0.183038 0.740637 0.114843
0.247015 0.740914 0.115119
0.310991 0.741190 0.115396
0.374967 0.741466 0.115672
0.438944 0.741743 0.115949
0.502920 0.742019 0.116225
0.566896 0.742295 0.116501
0.630873 0.742572 0.116778
0.694849 0.742848 0.117054
0.758826 0.743125 0.117331
0.822802 0.743401 0.117607
0.886778 0.743677 0.117883
0.950755 0.743954 0.118160
1.000000 0.744230 0.118436
0.000000 0.803110 0.114925
0.055996 0.803387 0.115201
0.119972 0.803663 0.115477
0.183949 0.803939 0.115754
0.247925 0.804216 0.116030
0.311902 0.804492 0.116307
0.375878 0.804769 0.116583
0.439854 0.805045 0.116859
0.503831 0.805321 0.117136
0.567807 0.805598 0.117412
0.631784 0.805874 0.117688
0.695760 0.806150 0.117965
0.759736 0.806427 0.118241
0.823713 0.806703 0.118518
0.887689 0.806980 0.118794
0.951665 0.807256 0.119070
1.000000 0.807532 0.119347
0.000000 0.866412 0.115835
0.056907 0.866689 0.116112
0.120883 0.866965 0.116388
0.184860 0.867242 0.116664
0.248836 0.867518 0.116941
0.312812 0.867794 0.117217
0.376789 0.868071 0.117494
0.440765 0.868347 0.117770
0.504741 0.868624 0.118046
0.568718 0.868900 0.118323
0.632694 0.869176 0.118599
0.696671 0.869453 0.118875
0.760647 0.869729 0.119152
0.824623 0.870005 0.119428
0.888600 0.870282 0.119705
0.952576 0.870558 0.119981
1.000000 0.870835 0.120257
0.000000 0.929715 0.116746
0.057817 0.929991 0.117022
0.121794 0.930267 0.117299
0.185770 0.930544 0.117575
0.249747 0.930820 0.117851
0.313723 0.931097 0.118128
0.377699 0.931373 0.118404
0.441676 0.931649 0.118681
0.505652 0.931926 0.118957
0.569628 0.932202 0.119233
0.633605 0.932479 0.119510
0.697581 0.932755 0.119786
0.761558 0.933031 0.120063
0.825534 0.933308 0.120339
0.889510 0.933584 0.120615
0.953487 0.933860 0.120892
1.000000 0.934137 0.121168
0.000000 0.993017 0.117657
0.058728 0.993293 0.117933
0.122704 0.993570 0.118209
0.186681 0.993846 0.118486
0.250657 0.994122 0.118762
0.314634 0.994399 0.119039
0.378610 0.994675 0.119315
0.442586 0.994952 0.119591
0.506563 0.995228 0.119868
0.570539 0.995504 0.120144
0.634515 0.995781 0.120420
0.698492 0.996057 0.120697
0.762468 0.996334 0.120973
0.826445 0.996610 0.121250
0.890421 0.996886 0.121526
0.954397 0.997163 0.121802
1.000000 0.997439 0.122079
0.000000 0.000000 0.164629
0.044248 0.000000 0.164905
0.108224 0.000000 0.165182
0.172201 0.000000 0.165458
0.236177 0.000000 0.165735
0.300154 0.000000 0.166011
0.364130 0.000000 0.166287
0.428106 0.000000 0.166564
0.492083 0.000000 0.166840
0.556059 0.000000 0.167116
0.620035 0.000000 0.167393
0.684012 0.000000 0.167669
0.747988 0.000000 0.167946
0.811965 0.000000 0.168222
