assets/lighting/day-night-palettes/grade-led-cool-white/lut.cube
TITLE "LED Cool White 5000K"
# TKRS lighting-batch-001 original LUT
# Intended usage: modern LED panel interior
# License: CC0-1.0
LUT_3D_SIZE 5
DOMAIN_MIN 0.0 0.0 0.0
DOMAIN_MAX 1.0 1.0 1.0
0.000000 0.000000 0.000000
0.235906 0.000000 0.000000
0.491811 0.000000 0.000000
0.747717 0.000000 0.000000
1.000000 0.000000 0.000000
0.000000 0.233209 0.000000
0.239548 0.234314 0.000000
0.495454 0.235420 0.000000
0.751359 0.236526 0.000000
1.000000 0.237631 0.000000
0.000000 0.486418 0.000000
0.243191 0.487523 0.000000
0.499096 0.488629 0.000000
0.755002 0.489734 0.000000
1.000000 0.490840 0.000000
0.000000 0.739627 0.000000
0.246833 0.740732 0.000000
0.502739 0.741838 0.000000
0.758645 0.742943 0.000000
1.000000 0.744049 0.000000
0.000000 0.992836 0.000000
0.250476 0.993941 0.000000
0.506382 0.995047 0.000000
0.762287 0.996152 0.000000
1.000000 0.997258 0.000000
0.000000 0.000000 0.226172
0.236268 0.000000 0.227278
0.492173 0.000000 0.228383
0.748079 0.000000 0.229489
1.000000 0.000000 0.230594
0.000000 0.233571 0.229815
0.239910 0.234677 0.230920
0.495816 0.235782 0.232026
0.751721 0.236888 0.233131
1.000000 0.237993 0.234237
0.000000 0.486780 0.233457
0.243553 0.487886 0.234563
0.499459 0.488991 0.235668
0.755364 0.490097 0.236774
1.000000 0.491202 0.237879
0.000000 0.739989 0.237100
0.247196 0.741095 0.238205
0.503101 0.742200 0.239311
0.759007 0.743306 0.240417
1.000000 0.744411 0.241522
0.000000 0.993198 0.240743
0.250838 0.994304 0.241848
0.506744 0.995409 0.242954
0.762649 0.996515 0.244059
1.000000 0.997620 0.245165
0.000000 0.000000 0.472344
0.236630 0.000000 0.473450
0.492535 0.000000 0.474555
0.748441 0.000000 0.475661
1.000000 0.000000 0.476766
0.000000 0.233933 0.475987
0.240273 0.235039 0.477092
0.496178 0.236144 0.478198
0.752084 0.237250 0.479303
1.000000 0.238355 0.480409
0.000000 0.487142 0.479629
0.243915 0.488248 0.480735
0.499821 0.489353 0.481840
0.755726 0.490459 0.482946
1.000000 0.491564 0.484051
0.000000 0.740351 0.483272
0.247558 0.741457 0.484377
0.503463 0.742562 0.485483
0.759369 0.743668 0.486589
1.000000 0.744773 0.487694
0.000000 0.993560 0.486915
0.251201 0.994666 0.488020
0.507106 0.995771 0.489126
0.763012 0.996877 0.490231
1.000000 0.997982 0.491337
0.000000 0.000000 0.718516
0.236992 0.000000 0.719622
0.492898 0.000000 0.720727
0.748803 0.000000 0.721833
1.000000 0.000000 0.722938
0.000000 0.234296 0.722159
0.240635 0.235401 0.723264
0.496540 0.236507 0.724370
0.752446 0.237612 0.725475
1.000000 0.238718 0.726581
0.000000 0.487505 0.725801
0.244277 0.488610 0.726907
0.500183 0.489716 0.728012
0.756088 0.490821 0.729118
1.000000 0.491927 0.730223
0.000000 0.740713 0.729444
0.247920 0.741819 0.730550
0.503826 0.742925 0.731655
0.759731 0.744030 0.732761
1.000000 0.745136 0.733866
0.000000 0.993922 0.733087
0.251563 0.995028 0.734192
0.507468 0.996133 0.735298
0.763374 0.997239 0.736403
1.000000 0.998345 0.737509
0.000000 0.000000 0.964688
0.237354 0.000000 0.965794
0.493260 0.000000 0.966899
0.749165 0.000000 0.968005
1.000000 0.000000 0.969110
0.000000 0.234658 0.968331
0.240997 0.235763 0.969436
0.496902 0.236869 0.970542
0.752808 0.237974 0.971647
1.000000 0.239080 0.972753
0.000000 0.487867 0.971973
0.244640 0.488972 0.973079
0.500545 0.490078 0.974184
0.756451 0.491183 0.975290
1.000000 0.492289 0.976395
0.000000 0.741076 0.975616
0.248282 0.742181 0.976722
0.504188 0.743287 0.977827
0.760093 0.744392 0.978933
1.000000 0.745498 0.980038
0.000000 0.994285 0.979259
0.251925 0.995390 0.980364
0.507830 0.996496 0.981470
0.763736 0.997601 0.982575
1.000000 0.998707 0.983681
