assets/lighting/day-night-palettes/grade-led-cool-white/lut.cube
TITLE "LED Cool White 5000K"
# TKRS lighting-batch-001 original LUT
# Intended usage: modern LED panel interior
# License: CC0-1.0
LUT_3D_SIZE 9
DOMAIN_MIN 0.0 0.0 0.0
DOMAIN_MAX 1.0 1.0 1.0
0.000000 0.000000 0.000000
0.107953 0.000000 0.000000
0.235906 0.000000 0.000000
0.363858 0.000000 0.000000
0.491811 0.000000 0.000000
0.619764 0.000000 0.000000
0.747717 0.000000 0.000000
0.875669 0.000000 0.000000
1.000000 0.000000 0.000000
0.000000 0.106604 0.000000
0.109774 0.107157 0.000000
0.237727 0.107710 0.000000
0.365680 0.108263 0.000000
0.493632 0.108816 0.000000
0.621585 0.109368 0.000000
0.749538 0.109921 0.000000
0.877491 0.110474 0.000000
1.000000 0.111027 0.000000
0.000000 0.233209 0.000000
0.111595 0.233762 0.000000
0.239548 0.234314 0.000000
0.367501 0.234867 0.000000
0.495454 0.235420 0.000000
0.623406 0.235973 0.000000
0.751359 0.236526 0.000000
0.879312 0.237078 0.000000
1.000000 0.237631 0.000000
0.000000 0.359813 0.000000
0.113417 0.360366 0.000000
0.241369 0.360919 0.000000
0.369322 0.361472 0.000000
0.497275 0.362024 0.000000
0.625228 0.362577 0.000000
0.753181 0.363130 0.000000
0.881133 0.363683 0.000000
1.000000 0.364236 0.000000
0.000000 0.486418 0.000000
0.115238 0.486971 0.000000
0.243191 0.487523 0.000000
0.371144 0.488076 0.000000
0.499096 0.488629 0.000000
0.627049 0.489182 0.000000
0.755002 0.489734 0.000000
0.882955 0.490287 0.000000
1.000000 0.490840 0.000000
0.000000 0.613022 0.000000
0.117059 0.613575 0.000000
0.245012 0.614128 0.000000
0.372965 0.614681 0.000000
0.500918 0.615233 0.000000
0.628870 0.615786 0.000000
0.756823 0.616339 0.000000
0.884776 0.616892 0.000000
1.000000 0.617444 0.000000
0.000000 0.739627 0.000000
0.118881 0.740180 0.000000
0.246833 0.740732 0.000000
0.374786 0.741285 0.000000
0.502739 0.741838 0.000000
0.630692 0.742391 0.000000
0.758645 0.742943 0.000000
0.886597 0.743496 0.000000
1.000000 0.744049 0.000000
0.000000 0.866231 0.000000
0.120702 0.866784 0.000000
0.248655 0.867337 0.000000
0.376608 0.867890 0.000000
0.504560 0.868442 0.000000
0.632513 0.868995 0.000000
0.760466 0.869548 0.000000
0.888419 0.870101 0.000000
1.000000 0.870653 0.000000
0.000000 0.992836 0.000000
0.122523 0.993389 0.000000
0.250476 0.993941 0.000000
0.378429 0.994494 0.000000
0.506382 0.995047 0.000000
0.634334 0.995600 0.000000
0.762287 0.996152 0.000000
0.890240 0.996705 0.000000
1.000000 0.997258 0.000000
0.000000 0.000000 0.103086
0.108134 0.000000 0.103639
0.236087 0.000000 0.104192
0.364039 0.000000 0.104744
0.491992 0.000000 0.105297
0.619945 0.000000 0.105850
0.747898 0.000000 0.106403
0.875850 0.000000 0.106955
1.000000 0.000000 0.107508
0.000000 0.106786 0.104907
0.109955 0.107338 0.105460
0.237908 0.107891 0.106013
0.365861 0.108444 0.106566
0.493813 0.108997 0.107118
0.621766 0.109549 0.107671
0.749719 0.110102 0.108224
0.877672 0.110655 0.108777
1.000000 0.111208 0.109329
0.000000 0.233390 0.106729
0.111777 0.233943 0.107281
0.239729 0.234496 0.107834
0.367682 0.235048 0.108387
0.495635 0.235601 0.108940
0.623588 0.236154 0.109492
0.751540 0.236707 0.110045
0.879493 0.237259 0.110598
1.000000 0.237812 0.111151
0.000000 0.359995 0.108550
0.113598 0.360547 0.109103
0.241551 0.361100 0.109656
0.369503 0.361653 0.110208
0.497456 0.362206 0.110761
0.625409 0.362758 0.111314
0.753362 0.363311 0.111867
0.881314 0.363864 0.112419
1.000000 0.364417 0.112972
0.000000 0.486599 0.110371
0.115419 0.487152 0.110924
0.243372 0.487705 0.111477
0.371325 0.488257 0.112030
0.499277 0.488810 0.112582
0.627230 0.489363 0.113135
0.755183 0.489916 0.113688
0.883136 0.490468 0.114241
1.000000 0.491021 0.114793
0.000000 0.613204 0.112193
0.117240 0.613756 0.112745
0.245193 0.614309 0.113298
0.373146 0.614862 0.113851
0.501099 0.615415 0.114404
0.629052 0.615967 0.114956
0.757004 0.616520 0.115509
0.884957 0.617073 0.116062
1.000000 0.617626 0.116615
0.000000 0.739808 0.114014
0.119062 0.740361 0.114567
0.247015 0.740914 0.115119
0.374967 0.741466 0.115672
0.502920 0.742019 0.116225
0.630873 0.742572 0.116778
0.758826 0.743125 0.117331
0.886778 0.743677 0.117883
1.000000 0.744230 0.118436
0.000000 0.866412 0.115835
0.120883 0.866965 0.116388
0.248836 0.867518 0.116941
0.376789 0.868071 0.117494
0.504741 0.868624 0.118046
0.632694 0.869176 0.118599
0.760647 0.869729 0.119152
0.888600 0.870282 0.119705
1.000000 0.870835 0.120257
0.000000 0.993017 0.117657
0.122704 0.993570 0.118209
0.250657 0.994122 0.118762
0.378610 0.994675 0.119315
0.506563 0.995228 0.119868
0.634515 0.995781 0.120420
0.762468 0.996334 0.120973
0.890421 0.996886 0.121526
1.000000 0.997439 0.122079
0.000000 0.000000 0.226172
0.108315 0.000000 0.226725
0.236268 0.000000 0.227278
0.364220 0.000000 0.227830
0.492173 0.000000 0.228383
0.620126 0.000000 0.228936
0.748079 0.000000 0.229489
0.876032 0.000000 0.230041
1.000000 0.000000 0.230594
0.000000 0.106967 0.227993
0.110136 0.107519 0.228546
0.238089 0.108072 0.229099
0.366042 0.108625 0.229652
0.493995 0.109178 0.230204
0.621947 0.109730 0.230757
0.749900 0.110283 0.231310
0.877853 0.110836 0.231863
1.000000 0.111389 0.232415
0.000000 0.233571 0.229815
0.111958 0.234124 0.230367
0.239910 0.234677 0.230920
0.367863 0.235229 0.231473
0.495816 0.235782 0.232026
0.623769 0.236335 0.232578
0.751721 0.236888 0.233131
0.879674 0.237440 0.233684
1.000000 0.237993 0.234237
0.000000 0.360176 0.231636
0.113779 0.360728 0.232189
0.241732 0.361281 0.232742
0.369684 0.361834 0.233294
0.497637 0.362387 0.233847
0.625590 0.362939 0.234400
0.753543 0.363492 0.234953
0.881495 0.364045 0.235505
1.000000 0.364598 0.236058
0.000000 0.486780 0.233457
0.115600 0.487333 0.234010
0.243553 0.487886 0.234563
0.371506 0.488438 0.235116
0.499459 0.488991 0.235668
0.627411 0.489544 0.236221
0.755364 0.490097 0.236774
0.883317 0.490649 0.237327
1.000000 0.491202 0.237879
0.000000 0.613385 0.235279
0.117422 0.613937 0.235831
0.245374 0.614490 0.236384
0.373327 0.615043 0.236937
0.501280 0.615596 0.237490
0.629233 0.616148 0.238042
0.757185 0.616701 0.238595
0.885138 0.617254 0.239148
1.000000 0.617807 0.239701
0.000000 0.739989 0.237100
0.119243 0.740542 0.237653
0.247196 0.741095 0.238205
0.375148 0.741647 0.238758
0.503101 0.742200 0.239311
0.631054 0.742753 0.239864
0.759007 0.743306 0.240417
0.886959 0.743858 0.240969
1.000000 0.744411 0.241522
0.000000 0.866594 0.238921
0.121064 0.867146 0.239474
0.249017 0.867699 0.240027
0.376970 0.868252 0.240580
0.504923 0.868805 0.241132
0.632875 0.869357 0.241685
0.760828 0.869910 0.242238
0.888781 0.870463 0.242791
1.000000 0.871016 0.243343
0.000000 0.993198 0.240743
0.122886 0.993751 0.241295
0.250838 0.994304 0.241848
0.378791 0.994856 0.242401
0.506744 0.995409 0.242954
0.634697 0.995962 0.243506
0.762649 0.996515 0.244059
0.890602 0.997067 0.244612
1.000000 0.997620 0.245165
0.000000 0.000000 0.349258
0.108496 0.000000 0.349811
0.236449 0.000000 0.350364
0.364402 0.000000 0.350916
0.492354 0.000000 0.351469
0.620307 0.000000 0.352022
0.748260 0.000000 0.352575
0.876213 0.000000 0.353127
1.000000 0.000000 0.353680
0.000000 0.107148 0.351079
0.110317 0.107701 0.351632
0.238270 0.108253 0.352185
0.366223 0.108806 0.352738
0.494176 0.109359 0.353290
0.622128 0.109912 0.353843
0.750081 0.110464 0.354396
0.878034 0.111017 0.354949
1.000000 0.111570 0.355501
0.000000 0.233752 0.352901
0.112139 0.234305 0.353453
0.240091 0.234858 0.354006
0.368044 0.235411 0.354559
0.495997 0.235963 0.355112
0.623950 0.236516 0.355664
0.751902 0.237069 0.356217
0.879855 0.237622 0.356770
1.000000 0.238174 0.357323
0.000000 0.360357 0.354722
0.113960 0.360909 0.355275
0.241913 0.361462 0.355828
0.369866 0.362015 0.356380
0.497818 0.362568 0.356933
0.625771 0.363121 0.357486
0.753724 0.363673 0.358039
0.881677 0.364226 0.358591
1.000000 0.364779 0.359144
0.000000 0.486961 0.356543
0.115781 0.487514 0.357096
0.243734 0.488067 0.357649
0.371687 0.488619 0.358202
0.499640 0.489172 0.358754
0.627592 0.489725 0.359307
0.755545 0.490278 0.359860
0.883498 0.490831 0.360413
1.000000 0.491383 0.360965
0.000000 0.613566 0.358365
0.117603 0.614118 0.358917
0.245555 0.614671 0.359470
0.373508 0.615224 0.360023
0.501461 0.615777 0.360576
0.629414 0.616329 0.361128
0.757366 0.616882 0.361681
0.885319 0.617435 0.362234
1.000000 0.617988 0.362787
0.000000 0.740170 0.360186
0.119424 0.740723 0.360739
0.247377 0.741276 0.361291
0.375330 0.741828 0.361844
0.503282 0.742381 0.362397
0.631235 0.742934 0.362950
0.759188 0.743487 0.363503
0.887141 0.744039 0.364055
1.000000 0.744592 0.364608
0.000000 0.866775 0.362007
0.121245 0.867327 0.362560
0.249198 0.867880 0.363113
0.377151 0.868433 0.363666
0.505104 0.868986 0.364218
0.633056 0.869538 0.364771
0.761009 0.870091 0.365324
0.888962 0.870644 0.365877
1.000000 0.871197 0.366429
0.000000 0.993379 0.363829
0.123067 0.993932 0.364381
0.251019 0.994485 0.364934
0.378972 0.995037 0.365487
0.506925 0.995590 0.366040
0.634878 0.996143 0.366592
0.762830 0.996696 0.367145
0.890783 0.997248 0.367698
1.000000 0.997801 0.368251
0.000000 0.000000 0.472344
0.108677 0.000000 0.472897
0.236630 0.000000 0.473450
0.364583 0.000000 0.474002
0.492535 0.000000 0.474555
0.620488 0.000000 0.475108
0.748441 0.000000 0.475661
0.876394 0.000000 0.476213
1.000000 0.000000 0.476766
0.000000 0.107329 0.474165
0.110498 0.107882 0.474718
0.238451 0.108434 0.475271
0.366404 0.108987 0.475824
0.494357 0.109540 0.476376
0.622310 0.110093 0.476929
0.750262 0.110645 0.477482
0.878215 0.111198 0.478035
1.000000 0.111751 0.478587
0.000000 0.233933 0.475987
0.112320 0.234486 0.476539
0.240273 0.235039 0.477092
0.368225 0.235592 0.477645
0.496178 0.236144 0.478198
0.624131 0.236697 0.478750
0.752084 0.237250 0.479303
0.880036 0.237803 0.479856
1.000000 0.238355 0.480409
0.000000 0.360538 0.477808
0.114141 0.361091 0.478361
0.242094 0.361643 0.478914
0.370047 0.362196 0.479466
0.497999 0.362749 0.480019
0.625952 0.363302 0.480572
0.753905 0.363854 0.481125
0.881858 0.364407 0.481677
1.000000 0.364960 0.482230
0.000000 0.487142 0.479629
0.115962 0.487695 0.480182
0.243915 0.488248 0.480735
0.371868 0.488801 0.481288
0.499821 0.489353 0.481840
0.627773 0.489906 0.482393
0.755726 0.490459 0.482946
0.883679 0.491012 0.483499
1.000000 0.491564 0.484051
0.000000 0.613747 0.481451
0.117784 0.614300 0.482003
0.245737 0.614852 0.482556
0.373689 0.615405 0.483109
0.501642 0.615958 0.483662
0.629595 0.616511 0.484214
0.757548 0.617063 0.484767
0.885500 0.617616 0.485320
1.000000 0.618169 0.485873
0.000000 0.740351 0.483272
0.119605 0.740904 0.483825
0.247558 0.741457 0.484377
0.375511 0.742010 0.484930
0.503463 0.742562 0.485483
0.631416 0.743115 0.486036
0.759369 0.743668 0.486589
0.887322 0.744221 0.487141
1.000000 0.744773 0.487694
0.000000 0.866956 0.485093
0.121426 0.867509 0.485646
0.249379 0.868061 0.486199
0.377332 0.868614 0.486752
0.505285 0.869167 0.487304
0.633237 0.869720 0.487857
0.761190 0.870272 0.488410
0.889143 0.870825 0.488963
1.000000 0.871378 0.489515
0.000000 0.993560 0.486915
0.123248 0.994113 0.487467
0.251201 0.994666 0.488020
0.379153 0.995219 0.488573
0.507106 0.995771 0.489126
0.635059 0.996324 0.489678
0.763012 0.996877 0.490231
0.890964 0.997430 0.490784
1.000000 0.997982 0.491337
0.000000 0.000000 0.595430
0.108858 0.000000 0.595983
0.236811 0.000000 0.596536
0.364764 0.000000 0.597088
0.492717 0.000000 0.597641
0.620669 0.000000 0.598194
0.748622 0.000000 0.598747
0.876575 0.000000 0.599299
1.000000 0.000000 0.599852
0.000000 0.107510 0.597251
0.110680 0.108063 0.597804
0.238632 0.108615 0.598357
0.366585 0.109168 0.598910
0.494538 0.109721 0.599462
0.622491 0.110274 0.600015
0.750443 0.110827 0.600568
0.878396 0.111379 0.601121
1.000000 0.111932 0.601673
0.000000 0.234114 0.599073
0.112501 0.234667 0.599625
0.240454 0.235220 0.600178
0.368406 0.235773 0.600731
0.496359 0.236325 0.601284
0.624312 0.236878 0.601836
0.752265 0.237431 0.602389
0.880217 0.237984 0.602942
1.000000 0.238537 0.603495
0.000000 0.360719 0.600894
0.114322 0.361272 0.601447
0.242275 0.361824 0.602000
0.370228 0.362377 0.602552
0.498180 0.362930 0.603105
0.626133 0.363483 0.603658
0.754086 0.364035 0.604211
0.882039 0.364588 0.604763
1.000000 0.365141 0.605316
0.000000 0.487323 0.602715
0.116144 0.487876 0.603268
0.244096 0.488429 0.603821
0.372049 0.488982 0.604374
0.500002 0.489534 0.604926
0.627955 0.490087 0.605479
0.755907 0.490640 0.606032
0.883860 0.491193 0.606585
1.000000 0.491745 0.607137
0.000000 0.613928 0.604537
0.117965 0.614481 0.605089
0.245918 0.615033 0.605642
0.373870 0.615586 0.606195
0.501823 0.616139 0.606748
0.629776 0.616692 0.607300
0.757729 0.617244 0.607853
0.885681 0.617797 0.608406
1.000000 0.618350 0.608959
0.000000 0.740532 0.606358
0.119786 0.741085 0.606911
0.247739 0.741638 0.607464
0.375692 0.742191 0.608016
0.503644 0.742743 0.608569
0.631597 0.743296 0.609122
0.759550 0.743849 0.609675
0.887503 0.744402 0.610227
1.000000 0.744954 0.610780
0.000000 0.867137 0.608179
0.121608 0.867690 0.608732
0.249560 0.868242 0.609285
0.377513 0.868795 0.609838
0.505466 0.869348 0.610390
0.633419 0.869901 0.610943
0.761371 0.870453 0.611496
0.889324 0.871006 0.612049
1.000000 0.871559 0.612601
0.000000 0.993741 0.610001
0.123429 0.994294 0.610553
0.251382 0.994847 0.611106
0.379334 0.995400 0.611659
0.507287 0.995952 0.612212
0.635240 0.996505 0.612764
0.763193 0.997058 0.613317
0.891145 0.997611 0.613870
1.000000 0.998163 0.614423
0.000000 0.000000 0.718516
0.109039 0.000000 0.719069
0.236992 0.000000 0.719622
0.364945 0.000000 0.720174
0.492898 0.000000 0.720727
0.620850 0.000000 0.721280
0.748803 0.000000 0.721833
0.876756 0.000000 0.722385
1.000000 0.000000 0.722938
0.000000 0.107691 0.720337
0.110861 0.108244 0.720890
0.238813 0.108797 0.721443
0.366766 0.109349 0.721996
0.494719 0.109902 0.722548
0.622672 0.110455 0.723101
0.750624 0.111008 0.723654
0.878577 0.111560 0.724207
1.000000 0.112113 0.724759
0.000000 0.234296 0.722159
0.112682 0.234848 0.722711
0.240635 0.235401 0.723264
0.368588 0.235954 0.723817
0.496540 0.236507 0.724370
0.624493 0.237059 0.724922
0.752446 0.237612 0.725475
0.880399 0.238165 0.726028
1.000000 0.238718 0.726581
0.000000 0.360900 0.723980
0.114503 0.361453 0.724533
0.242456 0.362006 0.725086
0.370409 0.362558 0.725638
0.498362 0.363111 0.726191
0.626314 0.363664 0.726744
0.754267 0.364217 0.727297
0.882220 0.364769 0.727849
1.000000 0.365322 0.728402
0.000000 0.487505 0.725801
0.116325 0.488057 0.726354
0.244277 0.488610 0.726907
0.372230 0.489163 0.727460
0.500183 0.489716 0.728012
0.628136 0.490268 0.728565
0.756088 0.490821 0.729118
0.884041 0.491374 0.729671
1.000000 0.491927 0.730223
0.000000 0.614109 0.727623
0.118146 0.614662 0.728175
0.246099 0.615215 0.728728
0.374051 0.615767 0.729281
0.502004 0.616320 0.729834
0.629957 0.616873 0.730386
0.757910 0.617426 0.730939
0.885863 0.617978 0.731492
1.000000 0.618531 0.732045
0.000000 0.740713 0.729444
0.119967 0.741266 0.729997
0.247920 0.741819 0.730550
0.375873 0.742372 0.731102
0.503826 0.742925 0.731655
0.631778 0.743477 0.732208
0.759731 0.744030 0.732761
0.887684 0.744583 0.733313
1.000000 0.745136 0.733866
0.000000 0.867318 0.731265
0.121789 0.867871 0.731818
0.249741 0.868423 0.732371
0.377694 0.868976 0.732924
0.505647 0.869529 0.733476
0.633600 0.870082 0.734029
0.761552 0.870635 0.734582
0.889505 0.871187 0.735135
1.000000 0.871740 0.735687
0.000000 0.993922 0.733087
0.123610 0.994475 0.733639
0.251563 0.995028 0.734192
0.379515 0.995581 0.734745
0.507468 0.996133 0.735298
0.635421 0.996686 0.735850
0.763374 0.997239 0.736403
0.891326 0.997792 0.736956
1.000000 0.998345 0.737509
0.000000 0.000000 0.841602
0.109220 0.000000 0.842155
0.237173 0.000000 0.842708
0.365126 0.000000 0.843260
0.493079 0.000000 0.843813
0.621031 0.000000 0.844366
0.748984 0.000000 0.844919
0.876937 0.000000 0.845471
1.000000 0.000000 0.846024
0.000000 0.107872 0.843423
0.111042 0.108425 0.843976
0.238995 0.108978 0.844529
0.366947 0.109530 0.845082
0.494900 0.110083 0.845634
0.622853 0.110636 0.846187
0.750806 0.111189 0.846740
0.878758 0.111741 0.847293
1.000000 0.112294 0.847845
0.000000 0.234477 0.845245
0.112863 0.235029 0.845797
0.240816 0.235582 0.846350
0.368769 0.236135 0.846903
0.496721 0.236688 0.847456
0.624674 0.237240 0.848009
0.752627 0.237793 0.848561
0.880580 0.238346 0.849114
1.000000 0.238899 0.849667
0.000000 0.361081 0.847066
0.114684 0.361634 0.847619
0.242637 0.362187 0.848172
0.370590 0.362739 0.848724
0.498543 0.363292 0.849277
0.626495 0.363845 0.849830
0.754448 0.364398 0.850383
0.882401 0.364950 0.850935
1.000000 0.365503 0.851488
0.000000 0.487686 0.848887
0.116506 0.488238 0.849440
0.244458 0.488791 0.849993
0.372411 0.489344 0.850546
0.500364 0.489897 0.851098
0.628317 0.490449 0.851651
0.756270 0.491002 0.852204
0.884222 0.491555 0.852757
1.000000 0.492108 0.853309
0.000000 0.614290 0.850709
0.118327 0.614843 0.851261
0.246280 0.615396 0.851814
0.374233 0.615948 0.852367
0.502185 0.616501 0.852920
0.630138 0.617054 0.853472
0.758091 0.617607 0.854025
0.886044 0.618159 0.854578
1.000000 0.618712 0.855131
0.000000 0.740895 0.852530
0.120148 0.741447 0.853083
0.248101 0.742000 0.853636
0.376054 0.742553 0.854188
0.504007 0.743106 0.854741
0.631959 0.743658 0.855294
0.759912 0.744211 0.855847
0.887865 0.744764 0.856399
1.000000 0.745317 0.856952
0.000000 0.867499 0.854351
0.121970 0.868052 0.854904
0.249922 0.868605 0.855457
0.377875 0.869157 0.856010
0.505828 0.869710 0.856562
0.633781 0.870263 0.857115
0.761734 0.870816 0.857668
0.889686 0.871368 0.858221
1.000000 0.871921 0.858773
0.000000 0.994104 0.856173
0.123791 0.994656 0.856725
0.251744 0.995209 0.857278
0.379697 0.995762 0.857831
0.507649 0.996315 0.858384
0.635602 0.996867 0.858936
0.763555 0.997420 0.859489
0.891508 0.997973 0.860042
1.000000 0.998526 0.860595
0.000000 0.000000 0.964688
0.109402 0.000000 0.965241
0.237354 0.000000 0.965794
0.365307 0.000000 0.966346
0.493260 0.000000 0.966899
0.621213 0.000000 0.967452
0.749165 0.000000 0.968005
0.877118 0.000000 0.968557
1.000000 0.000000 0.969110
0.000000 0.108053 0.966509
0.111223 0.108606 0.967062
0.239176 0.109159 0.967615
0.367128 0.109712 0.968168
0.495081 0.110264 0.968720
0.623034 0.110817 0.969273
0.750987 0.111370 0.969826
0.878939 0.111923 0.970379
1.000000 0.112475 0.970931
0.000000 0.234658 0.968331
0.113044 0.235210 0.968883
0.240997 0.235763 0.969436
0.368950 0.236316 0.969989
0.496902 0.236869 0.970542
0.624855 0.237422 0.971095
0.752808 0.237974 0.971647
0.880761 0.238527 0.972200
1.000000 0.239080 0.972753
0.000000 0.361262 0.970152
0.114866 0.361815 0.970705
0.242818 0.362368 0.971258
0.370771 0.362920 0.971810
0.498724 0.363473 0.972363
0.626677 0.364026 0.972916
0.754629 0.364579 0.973469
0.882582 0.365132 0.974021
1.000000 0.365684 0.974574
0.000000 0.487867 0.971973
0.116687 0.488419 0.972526
0.244640 0.488972 0.973079
0.372592 0.489525 0.973632
0.500545 0.490078 0.974184
0.628498 0.490630 0.974737
0.756451 0.491183 0.975290
0.884403 0.491736 0.975843
1.000000 0.492289 0.976395
0.000000 0.614471 0.973795
0.118508 0.615024 0.974347
0.246461 0.615577 0.974900
0.374414 0.616129 0.975453
0.502366 0.616682 0.976006
0.630319 0.617235 0.976558
0.758272 0.617788 0.977111
0.886225 0.618340 0.977664
1.000000 0.618893 0.978217
0.000000 0.741076 0.975616
0.120329 0.741628 0.976169
0.248282 0.742181 0.976722
0.376235 0.742734 0.977274
0.504188 0.743287 0.977827
0.632141 0.743839 0.978380
0.760093 0.744392 0.978933
0.888046 0.744945 0.979485
1.000000 0.745498 0.980038
0.000000 0.867680 0.977437
0.122151 0.868233 0.977990
0.250104 0.868786 0.978543
0.378056 0.869338 0.979096
0.506009 0.869891 0.979648
0.633962 0.870444 0.980201
0.761915 0.870997 0.980754
0.889867 0.871549 0.981307
1.000000 0.872102 0.981859
0.000000 0.994285 0.979259
0.123972 0.994837 0.979811
0.251925 0.995390 0.980364
0.379878 0.995943 0.980917
0.507830 0.996496 0.981470
0.635783 0.997048 0.982022
0.763736 0.997601 0.982575
0.891689 0.998154 0.983128
1.000000 0.998707 0.983681
