assets/lighting/cinematic/grade-security-cam/lut.cube
TITLE "Security Camera"
# TKRS lighting-batch-001 original LUT
# Intended usage: cheap CCTV green-desat crushed
# License: CC0-1.0
LUT_3D_SIZE 17
DOMAIN_MIN 0.0 0.0 0.0
DOMAIN_MAX 1.0 1.0 1.0
0.000000 0.000000 0.000000
0.000000 0.000000 0.000000
0.000000 0.000000 0.000000
0.006572 0.000000 0.000000
0.031017 0.000000 0.000000
0.055463 0.000000 0.000000
0.079909 0.000000 0.000000
0.104354 0.000000 0.000000
0.128800 0.000000 0.000000
0.153246 0.000000 0.000000
0.177691 0.002829 0.002432
0.202137 0.010879 0.009352
0.226583 0.018929 0.016271
0.251029 0.026979 0.023191
0.275474 0.035029 0.030111
0.299920 0.043079 0.037031
0.324366 0.051129 0.043950
0.000000 0.000000 0.000000
0.000000 0.000000 0.000000
0.005404 0.000000 0.000000
0.029850 0.000000 0.000000
0.054296 0.001998 0.000000
0.078741 0.010048 0.000000
0.103187 0.018098 0.000000
0.127633 0.026149 0.004951
0.152078 0.034199 0.011871
0.176524 0.042249 0.018791
0.200970 0.050299 0.025710
0.225416 0.058349 0.032630
0.249861 0.066399 0.039550
0.274307 0.074449 0.046470
0.298753 0.082499 0.053389
0.323198 0.090549 0.060309
0.348227 0.098763 0.067331
0.000000 0.017268 0.000000
0.004237 0.025318 0.000000
0.028683 0.033368 0.000000
0.053128 0.041418 0.000551
0.077574 0.049468 0.007470
0.102020 0.057518 0.014390
0.126466 0.065568 0.021310
0.150911 0.073618 0.028230
0.175357 0.081668 0.035149
0.199803 0.089718 0.042069
0.224248 0.097768 0.048989
0.248694 0.105818 0.055909
0.273140 0.113868 0.062828
0.298504 0.122293 0.069944
0.324444 0.130939 0.077190
0.350776 0.139727 0.084531
0.377481 0.148645 0.091962
0.003070 0.064737 0.003070
0.027516 0.072787 0.009990
0.051961 0.080837 0.016909
0.076407 0.088887 0.023829
0.100853 0.096937 0.030749
0.125298 0.104987 0.037669
0.149744 0.113037 0.044588
0.174190 0.121087 0.051508
0.198635 0.129137 0.058428
0.223246 0.137288 0.065391
0.248669 0.145906 0.072570
0.274484 0.154699 0.079852
0.300655 0.163638 0.087226
0.327177 0.172712 0.094690
0.354051 0.181918 0.102246
0.381283 0.191256 0.109895
0.408875 0.200724 0.117637
0.026348 0.112207 0.026348
0.050794 0.120257 0.033268
0.075240 0.128307 0.040188
0.099685 0.136357 0.047108
0.124131 0.144407 0.054027
0.148577 0.152457 0.060947
0.173372 0.160830 0.067991
0.198699 0.169605 0.075210
0.224362 0.178550 0.082526
0.250355 0.187644 0.089933
0.276682 0.196878 0.097431
0.303348 0.206249 0.105020
0.330361 0.215755 0.112702
0.357726 0.225396 0.120478
0.385450 0.235171 0.128350
0.413539 0.245081 0.136317
0.441999 0.255127 0.144382
0.049627 0.159676 0.049627
0.074073 0.167726 0.056547
0.098519 0.175777 0.063467
0.123390 0.184461 0.070608
0.148578 0.193393 0.077863
0.174069 0.202495 0.085212
0.199870 0.211748 0.092652
0.225991 0.221146 0.100183
0.252441 0.230684 0.107806
0.279227 0.240361 0.115522
0.306359 0.250176 0.123333
0.333842 0.260130 0.131239
0.361683 0.270221 0.139242
0.389889 0.280451 0.147343
0.418466 0.290819 0.155544
0.447418 0.301328 0.163844
0.476752 0.311977 0.172247
0.073271 0.208182 0.073238
0.098294 0.217274 0.080528
0.123596 0.226536 0.087910
0.149194 0.235952 0.095383
0.175100 0.245517 0.102948
0.201324 0.255225 0.110605
0.227878 0.265076 0.118355
0.254769 0.275068 0.126200
0.282005 0.285201 0.134141
0.309594 0.295476 0.142180
0.337542 0.305891 0.150317
0.365856 0.316449 0.158554
0.394541 0.327148 0.166891
0.423603 0.337990 0.175331
0.453047 0.348976 0.183873
0.482878 0.360106 0.192520
0.513101 0.371380 0.201271
0.098321 0.260258 0.098127
0.124003 0.269992 0.105725
0.149995 0.279873 0.113415
0.176309 0.289900 0.121200
0.202954 0.300072 0.129080
0.229938 0.310387 0.137057
0.257270 0.320847 0.145131
0.284956 0.331450 0.153304
0.313003 0.342198 0.161578
0.341416 0.353090 0.169952
0.370203 0.364127 0.178429
0.399368 0.375310 0.187009
0.428916 0.386639 0.195694
0.458853 0.398114 0.204484
0.489182 0.409737 0.213380
0.519909 0.421509 0.222383
0.551037 0.433429 0.231495
0.124517 0.314836 0.124058
0.150911 0.325189 0.131973
0.177638 0.335689 0.139985
0.204708 0.346335 0.148095
0.232127 0.357128 0.156305
0.259903 0.368068 0.164615
0.288042 0.379154 0.173026
0.316550 0.390387 0.181541
0.345432 0.401769 0.190159
0.374694 0.413298 0.198882
0.404342 0.424977 0.207710
0.434379 0.436804 0.216645
0.464810 0.448782 0.225688
0.495639 0.460910 0.234839
0.526872 0.473189 0.244099
0.558511 0.485620 0.253470
0.590561 0.498204 0.262951
0.151905 0.371942 0.151072
0.179054 0.382926 0.159318
0.206555 0.394059 0.167665
0.234416 0.405341 0.176114
0.262641 0.416773 0.184666
0.291238 0.428354 0.193322
0.320211 0.440086 0.202083
0.349566 0.451968 0.210951
0.379308 0.464001 0.219925
0.409441 0.476186 0.229007
0.439969 0.488524 0.238198
0.470898 0.501014 0.247498
0.502231 0.513658 0.256908
0.533972 0.526455 0.266430
0.566125 0.539408 0.276064
0.598693 0.552515 0.285810
0.631681 0.565778 0.295670
0.180535 0.431653 0.179216
0.208475 0.443284 0.187805
0.236783 0.455066 0.196500
0.265464 0.467001 0.205299
0.294524 0.479088 0.214205
0.323968 0.491329 0.223219
0.353800 0.503723 0.232340
0.384025 0.516270 0.241571
0.414648 0.528973 0.250911
0.445672 0.541830 0.260362
0.477102 0.554843 0.269925
0.508941 0.568012 0.279599
0.541194 0.581337 0.289387
0.573863 0.594820 0.299288
0.606953 0.608461 0.309304
0.640467 0.622260 0.319435
0.674407 0.636218 0.329682
0.210453 0.494046 0.208529
0.239214 0.506339 0.217474
0.268357 0.518788 0.226527
0.297886 0.531391 0.235688
0.327805 0.544151 0.244958
0.358119 0.557066 0.254339
0.388832 0.570138 0.263830
0.419949 0.583367 0.273434
0.451473 0.596754 0.283149
0.483407 0.610298 0.292978
0.515757 0.624002 0.302921
0.548524 0.637864 0.312979
0.581713 0.651886 0.323152
0.615328 0.666069 0.333441
0.649370 0.680412 0.343847
0.683844 0.694916 0.354370
0.718752 0.709583 0.365011
0.241698 0.559194 0.239050
0.271308 0.572165 0.248361
0.301312 0.585295 0.257782
0.331711 0.598583 0.267314
0.362512 0.612029 0.276958
0.393718 0.625634 0.286715
0.425333 0.639399 0.296585
0.457360 0.653324 0.306570
0.489803 0.667409 0.316669
0.522666 0.681655 0.326884
0.555952 0.696063 0.337216
0.589664 0.710632 0.347664
0.623806 0.725365 0.358230
0.658380 0.740260 0.368914
0.693390 0.755319 0.379717
0.728838 0.770541 0.390639
0.764728 0.785929 0.401681
0.274307 0.627164 0.270812
0.304791 0.640828 0.280497
0.335676 0.654653 0.290295
0.366969 0.668639 0.300207
0.398672 0.682786 0.310233
0.430789 0.697095 0.320375
0.463324 0.711566 0.330632
0.496280 0.726200 0.341006
0.529660 0.740997 0.351497
0.563468 0.755958 0.362106
0.597707 0.771083 0.372833
0.632379 0.786373 0.383679
0.667488 0.801828 0.394645
0.701673 0.815865 0.405001
0.732654 0.826062 0.413603
0.763636 0.836259 0.422205
0.794617 0.846456 0.430806
0.308315 0.698020 0.303844
0.339692 0.712390 0.313912
0.371481 0.726923 0.324096
0.403686 0.741620 0.334395
0.436310 0.756481 0.344812
0.469356 0.771507 0.355346
0.502829 0.786697 0.365998
0.536730 0.802052 0.376768
0.571064 0.817574 0.387658
0.605832 0.833262 0.398667
0.638230 0.845404 0.408133
0.669212 0.855601 0.416735
0.700193 0.865798 0.425336
0.731175 0.875995 0.433938
0.762156 0.886192 0.442540
0.793138 0.896389 0.451141
0.824119 0.906586 0.459743
0.343750 0.771818 0.338174
0.376041 0.786907 0.348633
0.408752 0.802161 0.359210
0.441887 0.817581 0.369905
0.475449 0.833168 0.380719
0.509442 0.848922 0.391652
0.543806 0.864745 0.402663
0.574788 0.874942 0.411265
0.605769 0.885139 0.419866
0.636751 0.895336 0.428468
0.667733 0.905534 0.437069
0.698714 0.915731 0.445671
0.729696 0.925928 0.454273
0.760677 0.936125 0.462874
0.791659 0.946322 0.471476
0.822640 0.956519 0.480078
0.853622 0.966716 0.488679
0.380642 0.848612 0.373828
0.413864 0.864432 0.384685
0.447514 0.880419 0.395662
0.480364 0.894284 0.405794
0.511346 0.904481 0.414396
0.542327 0.914678 0.422998
0.573309 0.924875 0.431599
0.604290 0.935072 0.440201
0.635272 0.945269 0.448803
0.666253 0.955466 0.457404
0.697235 0.965664 0.466006
0.728216 0.975861 0.474607
0.759198 0.986058 0.483209
0.790179 0.996255 0.491811
0.821161 1.000000 0.500412
0.852142 1.000000 0.509014
0.883124 1.000000 0.517616
0.000000 0.000000 0.000000
0.000000 0.000000 0.000000
0.000000 0.000000 0.000000
0.008922 0.000000 0.000000
0.033367 0.000000 0.000000
0.057813 0.000000 0.000000
0.082259 0.000000 0.000000
0.106704 0.000000 0.001549
0.131150 0.000000 0.008468
0.155596 0.000000 0.015388
0.180041 0.005563 0.022308
0.204487 0.013613 0.029228
0.228933 0.021663 0.036147
0.253378 0.029713 0.043067
0.277824 0.037763 0.049987
0.302270 0.045813 0.056907
0.326716 0.053863 0.063826
0.000000 0.000000 0.000000
0.000000 0.000000 0.000000
0.007754 0.000000 0.000000
0.032200 0.000000 0.000000
0.056646 0.004732 0.004068
0.081091 0.012782 0.010988
0.105537 0.020832 0.017907
0.129983 0.028882 0.024827
0.154428 0.036932 0.031747
0.178874 0.044982 0.038667
0.203320 0.053032 0.045586
0.227766 0.061082 0.052506
0.252211 0.069132 0.059426
0.276657 0.077182 0.066346
0.301103 0.085232 0.073265
0.325548 0.093282 0.080185
0.351039 0.101634 0.087341
0.000000 0.020002 0.000000
0.006587 0.028052 0.006587
0.031033 0.036102 0.013507
0.055478 0.044152 0.020427
0.079924 0.052202 0.027346
0.104370 0.060252 0.034266
0.128816 0.068302 0.041186
0.153261 0.076352 0.048106
0.177707 0.084402 0.055025
0.202153 0.092452 0.061945
0.226598 0.100502 0.068865
0.251044 0.108552 0.075785
0.275672 0.116679 0.082754
0.301288 0.125212 0.089991
0.327338 0.133909 0.097344
0.353768 0.142741 0.104796
0.380566 0.151702 0.112344
0.005420 0.067471 0.022946
0.029866 0.075521 0.029866
0.054311 0.083571 0.036785
0.078757 0.091621 0.043705
0.103203 0.099671 0.050625
0.127648 0.107721 0.057545
0.152094 0.115771 0.064464
0.176540 0.123821 0.071384
0.200985 0.131871 0.078304
0.225866 0.140190 0.085373
0.251407 0.148875 0.092656
0.277316 0.157719 0.100046
0.303575 0.166704 0.107533
0.330183 0.175824 0.115116
0.357145 0.185075 0.122794
0.384463 0.194457 0.130568
0.412143 0.203970 0.138440
0.028698 0.114940 0.046224
0.053144 0.122990 0.053144
0.077590 0.131040 0.060064
0.102035 0.139090 0.066984
0.126481 0.147140 0.073903
0.150927 0.155190 0.080823
0.175962 0.163788 0.088011
0.201379 0.172625 0.095335
0.227125 0.181623 0.102760
0.253199 0.190765 0.110282
0.279607 0.200045 0.117900
0.306356 0.209462 0.125613
0.333452 0.219014 0.133423
0.360902 0.228700 0.141329
0.388711 0.238521 0.149334
0.416887 0.248478 0.157438
0.445434 0.258570 0.165642
0.051977 0.162410 0.069503
0.076422 0.170460 0.076422
0.100965 0.178681 0.083415
0.125929 0.187473 0.090665
0.151192 0.196467 0.098027
0.176757 0.205621 0.105488
0.202634 0.214924 0.113045
0.228831 0.224369 0.120697
0.255360 0.233955 0.128445
0.282226 0.243679 0.136290
0.309439 0.253541 0.144232
0.337005 0.263541 0.152273
0.364931 0.273679 0.160413
0.393223 0.283956 0.168653
0.421886 0.294373 0.176995
0.450926 0.304929 0.185440
0.480349 0.315625 0.193988
0.075748 0.211249 0.093333
0.100835 0.220402 0.100732
0.126205 0.229717 0.108228
0.151873 0.239184 0.115820
0.177852 0.248798 0.123507
0.204152 0.258555 0.131290
0.230783 0.268453 0.139170
0.257753 0.278494 0.147148
0.285069 0.288675 0.155225
0.312741 0.298997 0.163401
0.340772 0.309461 0.171679
0.369171 0.320066 0.180058
0.397943 0.330814 0.188540
0.427092 0.341705 0.197126
0.456625 0.352739 0.205817
0.486545 0.363918 0.214614
0.516859 0.375242 0.223518
0.100913 0.263547 0.118607
0.126664 0.273331 0.126329
0.152729 0.283262 0.134148
0.179117 0.293339 0.142063
0.205839 0.303559 0.150077
0.232902 0.313923 0.158190
0.260313 0.324432 0.166403
0.288081 0.335084 0.174717
0.316211 0.345880 0.183134
0.344710 0.356822 0.191654
0.373582 0.367908 0.200278
0.402834 0.379141 0.209008
0.432471 0.390519 0.217843
0.462497 0.402045 0.226786
0.492916 0.413718 0.235836
0.523734 0.425540 0.244995
0.554955 0.437511 0.254264
0.127227 0.318336 0.144969
0.153695 0.328739 0.153019
0.180499 0.339288 0.161168
0.207647 0.349984 0.169418
0.235146 0.360827 0.177770
0.263004 0.371816 0.186224
0.291226 0.382952 0.194782
0.319818 0.394236 0.203444
0.348786 0.405668 0.212212
0.378135 0.417248 0.221086
0.407870 0.428977 0.230068
0.437997 0.440855 0.239158
0.468518 0.452884 0.248357
0.499439 0.465063 0.257666
0.530763 0.477394 0.267085
0.562496 0.489877 0.276616
0.594640 0.502512 0.286260
0.154739 0.375656 0.172447
0.181966 0.386690 0.180836
0.209547 0.397874 0.189327
0.237489 0.409207 0.197923
0.265797 0.420689 0.206624
0.294478 0.432321 0.215430
0.323537 0.444104 0.224344
0.352979 0.456037 0.233365
0.382808 0.468122 0.242494
0.413030 0.480359 0.251733
0.443649 0.492748 0.261082
0.474669 0.505290 0.270542
0.506094 0.517986 0.280114
0.537928 0.530837 0.289798
0.570175 0.543842 0.299596
0.602838 0.557002 0.309507
0.635921 0.570318 0.319533
0.183496 0.435586 0.201079
0.211518 0.447268 0.209818
0.239909 0.459102 0.218663
0.268674 0.471089 0.227616
0.297820 0.483228 0.236676
0.327350 0.495520 0.245845
0.357270 0.507966 0.255124
0.387585 0.520567 0.264513
0.418297 0.533322 0.274014
0.449413 0.546232 0.283627
0.480935 0.559297 0.293352
0.512867 0.572520 0.303191
0.545213 0.585899 0.313144
0.577977 0.599435 0.323212
0.611163 0.613129 0.333395
0.644773 0.626982 0.343695
0.678810 0.640994 0.354111
0.213546 0.498203 0.230902
0.242392 0.510549 0.240002
0.271621 0.523051 0.249211
0.301237 0.535707 0.258530
0.331244 0.548519 0.267959
0.361647 0.561488 0.277501
0.392450 0.574613 0.287154
0.423658 0.587895 0.296921
0.455273 0.601336 0.306801
0.487301 0.614934 0.316796
0.519744 0.628692 0.326906
0.552606 0.642608 0.337131
0.585891 0.656685 0.347474
0.619601 0.670922 0.357933
0.653741 0.685320 0.368510
0.688312 0.699879 0.379205
0.723319 0.714600 0.390019
0.244927 0.563581 0.261950
0.274625 0.576607 0.271420
0.304716 0.589790 0.281002
0.335205 0.603131 0.290697
0.366096 0.616631 0.300505
0.397393 0.630291 0.310427
0.429100 0.644110 0.320463
0.461220 0.658089 0.330615
0.493757 0.672229 0.340883
0.526715 0.686530 0.351268
0.560096 0.700993 0.361770
0.593905 0.715617 0.372390
0.628143 0.730405 0.383128
0.662815 0.745356 0.393986
0.697924 0.760470 0.404964
0.733471 0.775748 0.416062
0.768093 0.789789 0.426577
0.277677 0.631787 0.294254
0.308249 0.645505 0.304104
0.339225 0.659385 0.314067
0.370609 0.673425 0.324146
0.402404 0.687627 0.334340
0.434614 0.701991 0.344650
0.467243 0.716518 0.355078
0.500294 0.731207 0.365623
0.533769 0.746060 0.376286
0.567674 0.761076 0.387068
0.602009 0.776257 0.397969
0.636779 0.791603 0.408990
0.671987 0.807114 0.420132
0.704651 0.819328 0.429708
0.735632 0.829525 0.438310
0.766614 0.839722 0.446912
0.797595 0.849919 0.455513
0.311827 0.702882 0.327844
0.343295 0.717307 0.338080
0.375177 0.731896 0.348433
0.407474 0.746649 0.358903
0.440192 0.761565 0.369491
0.473334 0.776647 0.380197
0.506902 0.791893 0.391022
0.540899 0.807305 0.401967
0.575330 0.822883 0.413032
0.610196 0.838627 0.424218
0.641209 0.848867 0.432840
0.672190 0.859064 0.441442
0.703172 0.869261 0.450043
0.734153 0.879458 0.458645
0.765135 0.889655 0.467246
0.796116 0.899852 0.475848
0.827098 0.910049 0.484450
0.347408 0.776923 0.362744
0.379792 0.792068 0.373375
0.412597 0.807379 0.384124
0.445827 0.822856 0.394993
0.479485 0.838500 0.405982
0.513574 0.854311 0.417091
0.546785 0.868208 0.427370
0.577766 0.878405 0.435971
0.608748 0.888602 0.444573
0.639729 0.898799 0.453175
0.670711 0.908996 0.461776
0.701692 0.919194 0.470378
0.732674 0.929391 0.478980
0.763655 0.939588 0.487581
0.794637 0.949785 0.496183
0.825618 0.959982 0.504784
0.856600 0.970179 0.513386
0.384448 0.853966 0.398980
0.417765 0.869842 0.410012
0.451511 0.885886 0.421165
0.483342 0.897747 0.430501
0.514324 0.907944 0.439103
0.545305 0.918141 0.447705
0.576287 0.928338 0.456306
0.607268 0.938535 0.464908
0.638250 0.948732 0.473509
0.669232 0.958929 0.482111
0.700213 0.969126 0.490713
0.731195 0.979324 0.499314
0.762176 0.989521 0.507916
0.793158 0.999718 0.516518
0.824139 1.000000 0.525119
0.855121 1.000000 0.533721
0.886102 1.000000 0.542323
0.000000 0.000000 0.000000
0.000000 0.000000 0.000000
0.000000 0.000000 0.000000
0.011272 0.000000 0.000000
0.035717 0.000000 0.000665
0.060163 0.000000 0.007585
0.084609 0.000000 0.014505
0.109054 0.000000 0.021425
0.133500 0.000000 0.028344
0.157946 0.000247 0.035264
0.182391 0.008297 0.042184
0.206837 0.016347 0.049104
0.231283 0.024397 0.056023
0.255728 0.032447 0.062943
0.280174 0.040497 0.069863
0.304620 0.048547 0.076783
0.329066 0.056597 0.083702
0.000000 0.000000 0.000000
0.000000 0.000000 0.003185
0.010104 0.000000 0.010104
0.034550 0.000000 0.017024
0.058996 0.007466 0.023944
0.083441 0.015516 0.030864
0.107887 0.023566 0.037783
0.132333 0.031616 0.044703
0.156778 0.039666 0.051623
0.181224 0.047716 0.058543
0.205670 0.055766 0.065462
0.230116 0.063816 0.072382
0.254561 0.071866 0.079302
0.279007 0.079916 0.086221
0.303453 0.087966 0.093141
0.328090 0.096072 0.100114
0.353895 0.104523 0.107409
0.000000 0.022735 0.019543
0.008937 0.030785 0.026463
0.033383 0.038835 0.033383
0.057828 0.046885 0.040303
0.082274 0.054935 0.047222
0.106720 0.062986 0.054142
0.131166 0.071036 0.061062
0.155611 0.079086 0.067981
0.180057 0.087136 0.074901
0.204503 0.095186 0.081821
0.228948 0.103236 0.088741
0.253394 0.111286 0.095660
0.278350 0.119554 0.102751
0.304103 0.128150 0.110098
0.330256 0.136893 0.117562
0.356781 0.145770 0.125129
0.383671 0.154775 0.132796
0.007770 0.070205 0.042822
0.032216 0.078255 0.049741
0.056661 0.086305 0.056661
0.081107 0.094355 0.063581
0.105553 0.102405 0.070501
0.129998 0.110455 0.077420
0.154444 0.118505 0.084340
0.178890 0.126555 0.091260
0.203335 0.134605 0.098180
0.228524 0.143119 0.105411
0.254168 0.151862 0.112803
0.280167 0.160755 0.120305
0.306513 0.169786 0.127909
0.333208 0.178951 0.135613
0.360256 0.188246 0.143416
0.387661 0.197673 0.151318
0.415429 0.207230 0.159321
0.031048 0.117674 0.066100
0.055494 0.125724 0.073020
0.079940 0.133774 0.079940
0.104385 0.141824 0.086859
0.128831 0.149874 0.093779
0.153411 0.158063 0.100779
0.178576 0.166769 0.108089
0.204078 0.175664 0.115522
0.229904 0.184712 0.123061
0.256059 0.193901 0.130702
0.282548 0.203228 0.138442
0.309379 0.212691 0.146281
0.336559 0.222288 0.154220
0.364093 0.232020 0.162259
0.391989 0.241887 0.170399
0.420251 0.251890 0.178640
0.448886 0.262028 0.186984
0.054327 0.165144 0.089379
0.078772 0.173194 0.096298
0.103444 0.181638 0.103423
0.128485 0.190508 0.110782
0.153821 0.199558 0.118255
0.179460 0.208764 0.125831
0.205412 0.218116 0.133508
0.231686 0.227609 0.141285
0.258293 0.237242 0.149160
0.285240 0.247013 0.157135
0.312535 0.256922 0.165211
0.340184 0.266969 0.173388
0.368194 0.277154 0.181666
0.396572 0.287478 0.190048
0.425322 0.297942 0.198533
0.454451 0.308545 0.207123
0.483963 0.319290 0.215818
0.078236 0.214338 0.113490
0.103388 0.223548 0.121001
0.128827 0.232915 0.128615
0.154566 0.242433 0.136328
0.180618 0.252095 0.144140
0.206993 0.261900 0.152052
0.233701 0.271847 0.160064
0.260751 0.281935 0.168176
0.288148 0.292164 0.176390
0.315902 0.302535 0.184706
0.344018 0.313046 0.193125
0.372502 0.323700 0.201648
0.401359 0.334497 0.210276
0.430596 0.345436 0.219010
0.460218 0.356520 0.227851
0.490228 0.367748 0.236799
0.520633 0.379121 0.245856
0.103516 0.266853 0.139161
0.129338 0.276688 0.147009
0.155475 0.286668 0.154957
0.181939 0.296793 0.163005
0.208737 0.307063 0.171155
0.235879 0.317476 0.179405
0.263371 0.328033 0.187759
0.291221 0.338734 0.196216
0.319434 0.349580 0.204777
0.348018 0.360570 0.213444
0.376976 0.371706 0.222216
0.406316 0.382988 0.231096
0.436041 0.394417 0.240084
0.466156 0.405993 0.249180
0.496666 0.417716 0.258385
0.527576 0.429589 0.267701
0.558889 0.441610 0.277128
0.129949 0.321852 0.165960
0.156492 0.332305 0.174147
0.183373 0.342904 0.182435
0.210599 0.353650 0.190826
0.238179 0.364542 0.199321
0.266118 0.375581 0.207920
0.294424 0.386768 0.216625
0.323101 0.398102 0.225437
0.352155 0.409584 0.234356
0.381591 0.421214 0.243383
0.411414 0.432994 0.252519
0.441630 0.444923 0.261764
0.472242 0.457003 0.271121
0.503254 0.469234 0.280588
0.534671 0.481616 0.290168
0.566496 0.494151 0.299860
0.598734 0.506838 0.309666
0.157584 0.379386 0.193906
0.184890 0.390472 0.202439
0.212552 0.401706 0.211077
0.240575 0.413089 0.219821
0.268967 0.424623 0.228671
0.297733 0.436306 0.237629
0.326877 0.448140 0.246696
0.356406 0.460124 0.255872
0.386324 0.472261 0.265158
0.416635 0.484549 0.274554
0.447345 0.496990 0.284063
0.478456 0.509585 0.293683
0.509973 0.522333 0.303417
0.541900 0.535236 0.313264
0.574241 0.548293 0.323226
0.606999 0.561507 0.333303
0.640178 0.574876 0.343496
0.186471 0.439536 0.223031
0.214574 0.451270 0.231920
0.243048 0.463156 0.240918
0.271899 0.475194 0.250024
0.301130 0.487385 0.259240
0.330748 0.499730 0.268566
0.360756 0.512228 0.278003
0.391159 0.524881 0.287552
0.421962 0.537688 0.297214
0.453169 0.550651 0.306989
0.484783 0.563770 0.316878
0.516808 0.577045 0.326881
0.549249 0.590478 0.337000
0.582108 0.604068 0.347236
0.615389 0.617816 0.357587
0.649095 0.631723 0.368056
0.683230 0.645789 0.378644
0.216653 0.502379 0.253366
0.245584 0.514778 0.262622
0.274899 0.527331 0.271989
0.304601 0.540041 0.281467
0.334697 0.552906 0.291057
0.365189 0.565928 0.300759
0.396083 0.579106 0.310576
0.427382 0.592442 0.320506
0.459090 0.605936 0.330552
0.491210 0.619589 0.340713
0.523747 0.633400 0.350991
0.556704 0.647371 0.361385
0.590085 0.661502 0.371897
0.623892 0.675793 0.382527
0.658128 0.690246 0.393276
0.692797 0.704860 0.404145
0.727902 0.719636 0.415133
0.248171 0.567987 0.284945
0.277956 0.581066 0.294576
0.308135 0.594303 0.304320
0.338714 0.607698 0.314178
0.369695 0.621252 0.324150
0.401083 0.634966 0.334238
0.432882 0.648839 0.344441
0.465096 0.662873 0.354761
0.497727 0.677067 0.365199
0.530779 0.691423 0.375754
0.564256 0.705941 0.386427
0.598161 0.720621 0.397219
0.632497 0.735464 0.408131
0.667267 0.750470 0.419163
0.702474 0.765640 0.430316
0.738120 0.780975 0.441590
0.771072 0.793252 0.451284
0.281060 0.636428 0.317795
0.311722 0.650201 0.327809
0.342789 0.664135 0.337939
0.374264 0.678230 0.348185
0.406151 0.692487 0.358548
0.438455 0.706906 0.369028
0.471178 0.721488 0.379626
0.504323 0.736233 0.390342
0.537894 0.751141 0.401178
0.571895 0.766213 0.412133
0.606328 0.781450 0.423209
0.641196 0.796852 0.434406
0.676502 0.812419 0.445725
0.707629 0.822791 0.454415
0.738611 0.832988 0.463017
0.769592 0.843185 0.471618
0.800574 0.853382 0.480220
0.315353 0.707762 0.351944
0.346913 0.722243 0.362349
0.378887 0.736888 0.372872
0.411278 0.751696 0.383513
0.444090 0.766669 0.394273
0.477327 0.781806 0.405153
0.510990 0.797109 0.416152
0.545085 0.812577 0.427272
0.579612 0.828211 0.438513
0.613205 0.842132 0.448945
0.644187 0.852329 0.457547
0.675168 0.862527 0.466148
0.706150 0.872724 0.474750
0.737131 0.882921 0.483352
0.768113 0.893118 0.491953
0.799094 0.903315 0.500555
0.830076 0.913512 0.509157
0.351081 0.782048 0.387417
0.383558 0.797249 0.398220
0.416457 0.812617 0.409143
0.449782 0.828150 0.420186
0.483536 0.843850 0.431350
0.517722 0.859718 0.442635
0.549763 0.871671 0.452077
0.580745 0.881868 0.460678
0.611726 0.892065 0.469280
0.642708 0.902262 0.477882
0.673689 0.912459 0.486483
0.704671 0.922656 0.495085
0.735652 0.932854 0.503686
0.766634 0.943051 0.512288
0.797615 0.953248 0.520890
0.828597 0.963445 0.529491
0.859578 0.973642 0.538093
0.388269 0.859339 0.424237
0.421681 0.875272 0.435445
0.455339 0.891013 0.446607
0.486321 0.901210 0.455208
0.517302 0.911407 0.463810
0.548284 0.921604 0.472411
0.579265 0.931801 0.481013
0.610247 0.941998 0.489615
0.641228 0.952195 0.498216
0.672210 0.962392 0.506818
0.703191 0.972589 0.515420
0.734173 0.982786 0.524021
0.765154 0.992984 0.532623
0.796136 1.000000 0.541224
0.827117 1.000000 0.549826
0.858099 1.000000 0.558428
0.889080 1.000000 0.567029
0.000000 0.000000 0.000000
0.000000 0.000000 0.000000
0.000000 0.000000 0.006702
0.013622 0.000000 0.013622
0.038067 0.000000 0.020541
0.062513 0.000000 0.027461
0.086959 0.000000 0.034381
0.111404 0.000000 0.041300
0.135850 0.000000 0.048220
0.160296 0.002981 0.055140
0.184741 0.011031 0.062060
0.209187 0.019081 0.068979
0.233633 0.027131 0.075899
0.258078 0.035181 0.082819
