assets/lighting/cinematic/grade-security-cam/lut.cube
TITLE "Security Camera"
# TKRS lighting-batch-001 original LUT
# Intended usage: cheap CCTV green-desat crushed
# License: CC0-1.0
LUT_3D_SIZE 5
DOMAIN_MIN 0.0 0.0 0.0
DOMAIN_MAX 1.0 1.0 1.0
0.000000 0.000000 0.000000
0.031017 0.000000 0.000000
0.128800 0.000000 0.000000
0.226583 0.018929 0.016271
0.324366 0.051129 0.043950
0.026348 0.112207 0.026348
0.124131 0.144407 0.054027
0.224362 0.178550 0.082526
0.330361 0.215755 0.112702
0.441999 0.255127 0.144382
0.124517 0.314836 0.124058
0.232127 0.357128 0.156305
0.345432 0.401769 0.190159
0.464810 0.448782 0.225688
0.590561 0.498204 0.262951
0.241698 0.559194 0.239050
0.362512 0.612029 0.276958
0.489803 0.667409 0.316669
0.623806 0.725365 0.358230
0.764728 0.785929 0.401681
0.380642 0.848612 0.373828
0.511346 0.904481 0.414396
0.635272 0.945269 0.448803
0.759198 0.986058 0.483209
0.883124 1.000000 0.517616
0.000000 0.000000 0.012738
0.040417 0.000000 0.040417
0.138200 0.000000 0.068096
0.235983 0.029864 0.095775
0.333766 0.062065 0.123454
0.035748 0.123142 0.105852
0.133531 0.155342 0.133531
0.235513 0.190938 0.163870
0.342821 0.228884 0.196050
0.455839 0.268992 0.229924
0.135430 0.328936 0.208186
0.244286 0.372024 0.242682
0.358936 0.417467 0.278916
0.479736 0.465294 0.316932
0.606973 0.515543 0.356773
0.254699 0.576853 0.331224
0.376937 0.630549 0.371739
0.505713 0.686800 0.414136
0.641253 0.745638 0.458450
0.777028 0.800178 0.500697
0.395958 0.870142 0.475066
0.523259 0.918333 0.513224
0.647185 0.959121 0.547630
0.771111 0.999909 0.582037
0.895037 1.000000 0.616443
0.000000 0.000000 0.092242
0.049817 0.000000 0.119921
0.147600 0.008600 0.147600
0.245383 0.040800 0.175279
0.343165 0.073000 0.202958
0.045148 0.134077 0.185356
0.143641 0.167101 0.213997
0.246920 0.203582 0.246356
0.355536 0.242261 0.280675
0.469941 0.283111 0.316839
0.146541 0.343306 0.293629
0.256665 0.387192 0.330461
0.372677 0.433440 0.369145
0.494912 0.482085 0.409707
0.623645 0.533167 0.452176
0.267926 0.594804 0.424946
0.391601 0.649364 0.468118
0.521873 0.706490 0.513242
0.658960 0.766214 0.560349
0.788941 0.814030 0.599525
0.411246 0.891397 0.577645
0.535172 0.932185 0.612051
0.659098 0.972973 0.646458
0.783024 1.000000 0.680864
0.906950 1.000000 0.715271
0.000000 0.000000 0.171746
0.059217 0.000000 0.199425
0.157000 0.019535 0.227104
0.254783 0.051735 0.254783
0.354166 0.084315 0.283628
0.054548 0.145012 0.264859
0.154069 0.179230 0.295573
0.258570 0.216476 0.330060
0.368503 0.255889 0.366629
0.484304 0.297485 0.405166
0.157853 0.357946 0.380433
0.269266 0.402631 0.419679
0.386656 0.449689 0.460876
0.510339 0.499157 0.504036
0.640579 0.551075 0.549183
0.281379 0.613047 0.520241
0.406505 0.668475 0.566116
0.538284 0.726480 0.614009
0.676928 0.787093 0.663946
0.800854 0.827881 0.698353
0.423159 0.905249 0.676472
0.547085 0.946037 0.710879
0.671011 0.986825 0.745285
0.794937 1.000000 0.779692
0.918863 1.000000 0.814098
0.000000 0.000000 0.251249
0.068617 0.000000 0.278928
0.166400 0.030470 0.306607
0.264182 0.062670 0.334286
0.365918 0.095904 0.365559
0.063958 0.155972 0.344411
0.164733 0.191632 0.378321
0.270459 0.229618 0.415047
0.381718 0.269768 0.453957
0.498926 0.312117 0.494940
0.169369 0.372857 0.468640
0.282092 0.418345 0.510368
0.400875 0.466217 0.554136
0.526018 0.516512 0.599946
0.657776 0.569272 0.647814
0.295062 0.631584 0.617134
0.421651 0.687883 0.665754
0.554948 0.746770 0.716456
0.688841 0.800945 0.762774
0.812767 0.841733 0.797180
0.435072 0.919101 0.775300
0.558998 0.959889 0.809706
0.682924 1.000000 0.844113
0.806850 1.000000 0.878519
0.930776 1.000000 0.912926
