assets/lighting/cinematic/grade-security-cam/lut.cube
TITLE "Security Camera"
# TKRS lighting-batch-001 original LUT
# Intended usage: cheap CCTV green-desat crushed
# License: CC0-1.0
LUT_3D_SIZE 9
DOMAIN_MIN 0.0 0.0 0.0
DOMAIN_MAX 1.0 1.0 1.0
0.000000 0.000000 0.000000
0.000000 0.000000 0.000000
0.031017 0.000000 0.000000
0.079909 0.000000 0.000000
0.128800 0.000000 0.000000
0.177691 0.002829 0.002432
0.226583 0.018929 0.016271
0.275474 0.035029 0.030111
0.324366 0.051129 0.043950
0.000000 0.017268 0.000000
0.028683 0.033368 0.000000
0.077574 0.049468 0.007470
0.126466 0.065568 0.021310
0.175357 0.081668 0.035149
0.224248 0.097768 0.048989
0.273140 0.113868 0.062828
0.324444 0.130939 0.077190
0.377481 0.148645 0.091962
0.026348 0.112207 0.026348
0.075240 0.128307 0.040188
0.124131 0.144407 0.054027
0.173372 0.160830 0.067991
0.224362 0.178550 0.082526
0.276682 0.196878 0.097431
0.330361 0.215755 0.112702
0.385450 0.235171 0.128350
0.441999 0.255127 0.144382
0.073271 0.208182 0.073238
0.123596 0.226536 0.087910
0.175100 0.245517 0.102948
0.227878 0.265076 0.118355
0.282005 0.285201 0.134141
0.337542 0.305891 0.150317
0.394541 0.327148 0.166891
0.453047 0.348976 0.183873
0.513101 0.371380 0.201271
0.124517 0.314836 0.124058
0.177638 0.335689 0.139985
0.232127 0.357128 0.156305
0.288042 0.379154 0.173026
0.345432 0.401769 0.190159
0.404342 0.424977 0.207710
0.464810 0.448782 0.225688
0.526872 0.473189 0.244099
0.590561 0.498204 0.262951
0.180535 0.431653 0.179216
0.236783 0.455066 0.196500
0.294524 0.479088 0.214205
0.353800 0.503723 0.232340
0.414648 0.528973 0.250911
0.477102 0.554843 0.269925
0.541194 0.581337 0.289387
0.606953 0.608461 0.309304
0.674407 0.636218 0.329682
0.241698 0.559194 0.239050
0.301312 0.585295 0.257782
0.362512 0.612029 0.276958
0.425333 0.639399 0.296585
0.489803 0.667409 0.316669
0.555952 0.696063 0.337216
0.623806 0.725365 0.358230
0.693390 0.755319 0.379717
0.764728 0.785929 0.401681
0.308315 0.698020 0.303844
0.371481 0.726923 0.324096
0.436310 0.756481 0.344812
0.502829 0.786697 0.365998
0.571064 0.817574 0.387658
0.638230 0.845404 0.408133
0.700193 0.865798 0.425336
0.762156 0.886192 0.442540
0.824119 0.906586 0.459743
0.380642 0.848612 0.373828
0.447514 0.880419 0.395662
0.511346 0.904481 0.414396
0.573309 0.924875 0.431599
0.635272 0.945269 0.448803
0.697235 0.965664 0.466006
0.759198 0.986058 0.483209
0.821161 1.000000 0.500412
0.883124 1.000000 0.517616
0.000000 0.000000 0.000000
0.000000 0.000000 0.000000
0.035717 0.000000 0.000665
0.084609 0.000000 0.014505
0.133500 0.000000 0.028344
0.182391 0.008297 0.042184
0.231283 0.024397 0.056023
0.280174 0.040497 0.069863
0.329066 0.056597 0.083702
0.000000 0.022735 0.019543
0.033383 0.038835 0.033383
0.082274 0.054935 0.047222
0.131166 0.071036 0.061062
0.180057 0.087136 0.074901
0.228948 0.103236 0.088741
0.278350 0.119554 0.102751
0.330256 0.136893 0.117562
0.383671 0.154775 0.132796
0.031048 0.117674 0.066100
0.079940 0.133774 0.079940
0.128831 0.149874 0.093779
0.178576 0.166769 0.108089
0.229904 0.184712 0.123061
0.282548 0.203228 0.138442
0.336559 0.222288 0.154220
0.391989 0.241887 0.170399
0.448886 0.262028 0.186984
0.078236 0.214338 0.113490
0.128827 0.232915 0.128615
0.180618 0.252095 0.144140
0.233701 0.271847 0.160064
0.288148 0.292164 0.176390
0.344018 0.313046 0.193125
0.401359 0.334497 0.210276
0.460218 0.356520 0.227851
0.520633 0.379121 0.245856
0.129949 0.321852 0.165960
0.183373 0.342904 0.182435
0.238179 0.364542 0.199321
0.294424 0.386768 0.216625
0.352155 0.409584 0.234356
0.411414 0.432994 0.252519
0.472242 0.457003 0.271121
0.534671 0.481616 0.290168
0.598734 0.506838 0.309666
0.186471 0.439536 0.223031
0.243048 0.463156 0.240918
0.301130 0.487385 0.259240
0.360756 0.512228 0.278003
0.421962 0.537688 0.297214
0.484783 0.563770 0.316878
0.549249 0.590478 0.337000
0.615389 0.617816 0.357587
0.683230 0.645789 0.378644
0.248171 0.567987 0.284945
0.308135 0.594303 0.304320
0.369695 0.621252 0.324150
0.432882 0.648839 0.344441
0.497727 0.677067 0.365199
0.564256 0.705941 0.386427
0.632497 0.735464 0.408131
0.702474 0.765640 0.430316
0.771072 0.793252 0.451284
0.315353 0.707762 0.351944
0.378887 0.736888 0.372872
0.444090 0.766669 0.394273
0.510990 0.797109 0.416152
0.579612 0.828211 0.438513
0.644187 0.852329 0.457547
0.706150 0.872724 0.474750
0.768113 0.893118 0.491953
0.830076 0.913512 0.509157
0.388269 0.859339 0.424237
0.455339 0.891013 0.446607
0.517302 0.911407 0.463810
0.579265 0.931801 0.481013
0.641228 0.952195 0.498216
0.703191 0.972589 0.515420
0.765154 0.992984 0.532623
0.827117 1.000000 0.549826
0.889080 1.000000 0.567029
0.000000 0.000000 0.012738
0.000000 0.000000 0.026578
0.040417 0.000000 0.040417
0.089309 0.000000 0.054257
0.138200 0.000000 0.068096
0.187091 0.013764 0.081936
0.235983 0.029864 0.095775
0.284874 0.045964 0.109615
0.333766 0.062065 0.123454
0.000000 0.028203 0.059295
0.038083 0.044303 0.073135
0.086974 0.060403 0.086974
0.135865 0.076503 0.100814
0.184757 0.092603 0.114653
0.233648 0.108703 0.128493
0.283836 0.125375 0.142926
0.336158 0.142908 0.158197
0.389938 0.160963 0.173919
0.035748 0.123142 0.105852
0.084640 0.139242 0.119692
0.133531 0.155342 0.133531
0.183864 0.172793 0.148429
0.235513 0.190938 0.163870
0.288479 0.209641 0.179749
0.342821 0.228884 0.196050
0.398592 0.248666 0.212774
0.455839 0.268992 0.229924
0.083249 0.220576 0.153998
0.134107 0.239364 0.169602
0.186189 0.258739 0.185635
0.239581 0.278684 0.202090
0.294350 0.299193 0.218969
0.350553 0.320267 0.236275
0.408239 0.341911 0.254013
0.467452 0.364130 0.272189
0.528229 0.386929 0.290809
0.135430 0.328936 0.208186
0.189160 0.350187 0.225219
0.244286 0.372024 0.242682
0.300862 0.394450 0.260579
0.358936 0.417467 0.278916
0.418548 0.441080 0.297699
0.479736 0.465294 0.316932
0.542534 0.490113 0.336622
0.606973 0.515543 0.356773
0.192459 0.447489 0.267204
0.249369 0.471316 0.285703
0.307793 0.495753 0.304649
0.367771 0.520805 0.324048
0.429338 0.546476 0.343905
0.492526 0.572770 0.364225
0.557367 0.599691 0.385014
0.623889 0.627244 0.406276
0.692118 0.655434 0.428016
0.254699 0.576853 0.331224
0.315017 0.603384 0.351249
0.376937 0.630549 0.371739
0.440493 0.658353 0.392700
0.505713 0.686800 0.414136
0.572624 0.715894 0.436051
0.641253 0.745638 0.458450
0.711623 0.776037 0.481337
0.777028 0.800178 0.500697
0.322450 0.717580 0.400449
0.386353 0.746928 0.422058
0.451932 0.776932 0.444149
0.519215 0.807597 0.466726
0.588180 0.838861 0.489757
0.650143 0.859255 0.506961
0.712106 0.879649 0.524164
0.774069 0.900044 0.541367
0.836033 0.920438 0.558570
0.395958 0.870142 0.475066
0.461296 0.897939 0.496020
0.523259 0.918333 0.513224
0.585222 0.938727 0.530427
0.647185 0.959121 0.547630
0.709148 0.979515 0.564833
0.771111 0.999909 0.582037
0.833074 1.000000 0.599240
0.895037 1.000000 0.616443
0.000000 0.000000 0.052490
0.000000 0.000000 0.066330
0.045117 0.000000 0.080169
0.094009 0.000000 0.094009
0.142900 0.003132 0.107848
0.191791 0.019232 0.121688
0.240683 0.035332 0.135527
0.289574 0.051432 0.149366
0.338465 0.067532 0.163206
0.000000 0.033671 0.099047
0.042783 0.049771 0.112886
0.091674 0.065871 0.126726
0.140565 0.081971 0.140565
0.189457 0.098071 0.154405
0.238348 0.114171 0.168244
0.289443 0.131268 0.183354
0.342143 0.148983 0.199109
0.396281 0.167210 0.215339
0.040448 0.128609 0.145604
0.089340 0.144710 0.159443
0.138530 0.161156 0.173623
0.189222 0.178890 0.189031
0.241185 0.197228 0.204965
0.294474 0.216115 0.221360
0.349147 0.235541 0.238200
0.405259 0.255508 0.255482
0.462857 0.276020 0.273207
0.088308 0.226888 0.194777
0.139439 0.245879 0.210881
0.191814 0.265449 0.227439
0.245516 0.285585 0.244440
0.300610 0.306286 0.261884
0.357149 0.327553 0.279771
0.415181 0.349392 0.298106
0.474749 0.371807 0.316892
0.535890 0.394805 0.336135
0.140961 0.336087 0.250740
0.194999 0.357537 0.268344
0.250448 0.379574 0.286394
0.307359 0.402200 0.304893
0.365777 0.425419 0.323845
0.425743 0.449235 0.343255
0.487293 0.473654 0.363127
0.550460 0.498681 0.383465
0.615276 0.524319 0.404276
0.198500 0.455513 0.311740
0.255745 0.479546 0.330858
0.314514 0.504192 0.350435
0.374845 0.529454 0.370477
0.436774 0.555335 0.390987
0.500332 0.581842 0.411970
0.565550 0.608977 0.433431
0.632455 0.636746 0.455374
0.701073 0.665153 0.477803
0.261284 0.585792 0.377889
0.321956 0.612538 0.398571
0.384239 0.639920 0.419728
0.448165 0.667942 0.441363
0.513761 0.696608 0.463483
0.581056 0.725922 0.486090
0.650074 0.755888 0.509188
0.720839 0.786511 0.532783
0.782985 0.807104 0.550111
0.329606 0.727473 0.449360
0.393879 0.757044 0.471656
0.459836 0.787272 0.494442
0.527502 0.818161 0.517721
0.594137 0.845787 0.539171
0.656100 0.866181 0.556374
0.718063 0.886575 0.573578
0.780026 0.906969 0.590781
0.841989 0.927364 0.607984
0.403706 0.881024 0.526319
0.467252 0.904865 0.545434
0.529215 0.925259 0.562637
0.591178 0.945653 0.579841
0.653141 0.966047 0.597044
0.715104 0.986441 0.614247
0.777067 1.000000 0.631450
0.839030 1.000000 0.648654
0.900994 1.000000 0.665857
0.000000 0.000000 0.092242
0.000926 0.000000 0.106081
0.049817 0.000000 0.119921
0.098708 0.000000 0.133760
0.147600 0.008600 0.147600
0.196491 0.024700 0.161439
0.245383 0.040800 0.175279
0.294274 0.056900 0.189118
0.343165 0.073000 0.202958
0.000000 0.039138 0.138799
0.047483 0.055238 0.152638
0.096374 0.071338 0.166478
0.145265 0.087438 0.180317
0.194157 0.103538 0.194157
0.243529 0.119874 0.208370
0.295144 0.137225 0.224049
0.348206 0.155116 0.240311
0.402696 0.173516 0.257066
0.045148 0.134077 0.185356
0.094040 0.150177 0.199195
0.143641 0.167101 0.213997
0.194645 0.185055 0.229910
0.246920 0.203582 0.246356
0.300530 0.222652 0.263283
0.355536 0.242261 0.280675
0.411991 0.262412 0.298527
0.469941 0.283111 0.316839
0.093413 0.233271 0.235839
0.144820 0.252461 0.252464
0.197493 0.272224 0.269561
0.251508 0.292552 0.287121
0.306928 0.313445 0.305141
0.363805 0.334906 0.323620
0.422185 0.356940 0.342560
0.482109 0.379552 0.361965
0.543615 0.402748 0.381837
0.146541 0.343306 0.293629
0.200891 0.364955 0.311815
0.256665 0.387192 0.330461
0.313912 0.410018 0.349571
0.372677 0.433440 0.369145
0.432998 0.457460 0.389189
0.494912 0.482085 0.409707
0.558451 0.507319 0.430701
0.623645 0.533167 0.452176
0.204595 0.463606 0.356643
0.262176 0.487847 0.376388
0.321292 0.512702 0.396604
0.381979 0.538173 0.417294
0.444271 0.564267 0.438463
0.508201 0.590986 0.460115
0.573796 0.618336 0.482253
0.641085 0.646321 0.504882
0.710094 0.674946 0.528004
0.267926 0.594804 0.424946
0.328954 0.621765 0.446290
0.391601 0.649364 0.468118
0.455898 0.677605 0.490434
0.521873 0.706490 0.513242
0.589551 0.736026 0.536546
0.658960 0.766214 0.560349
0.726978 0.793635 0.582322
0.788941 0.814030 0.599525
0.336820 0.737442 0.498681
0.401466 0.767235 0.521669
0.467801 0.797688 0.545154
0.535852 0.828803 0.569140
0.600093 0.852713 0.588585
0.662056 0.873107 0.605788
0.724020 0.893501 0.622991
0.785983 0.913895 0.640195
0.847946 0.934289 0.657398
0.411246 0.891397 0.577645
0.473209 0.911791 0.594848
0.535172 0.932185 0.612051
0.597135 0.952579 0.629254
0.659098 0.972973 0.646458
0.721061 0.993367 0.663661
0.783024 1.000000 0.680864
0.844987 1.000000 0.698067
0.906950 1.000000 0.715271
0.000000 0.000000 0.131994
0.005626 0.000000 0.145833
0.054517 0.000000 0.159673
0.103408 0.000000 0.173512
0.152300 0.014067 0.187352
0.201191 0.030167 0.201191
0.250083 0.046267 0.215031
0.298974 0.062367 0.228870
0.348489 0.078608 0.243106
0.003291 0.044606 0.178551
0.052183 0.060706 0.192390
0.101074 0.076806 0.206230
0.149965 0.092906 0.220069
0.198857 0.109006 0.233909
0.248926 0.125699 0.248819
0.300929 0.143243 0.265026
0.354342 0.161308 0.281812
0.409183 0.179880 0.299108
0.049848 0.139545 0.225108
0.098746 0.155655 0.238962
0.148824 0.173129 0.254643
0.200130 0.191285 0.271076
0.252715 0.209998 0.288051
0.306648 0.229251 0.305526
0.361988 0.249044 0.323483
0.418787 0.269380 0.341916
0.477090 0.290266 0.360823
0.098564 0.239723 0.277196
0.150252 0.259109 0.294357
0.203225 0.279064 0.312008
0.257556 0.299584 0.330139
0.313304 0.320669 0.348745
0.370521 0.342324 0.367824
0.429250 0.364554 0.387379
0.489533 0.387363 0.407410
0.551405 0.410760 0.427920
0.152172 0.350592 0.336858
0.206836 0.372441 0.355636
0.262938 0.394877 0.374888
0.320524 0.417906 0.394616
0.379637 0.441530 0.414821
0.440315 0.465755 0.435506
0.502594 0.490586 0.456675
0.566506 0.516028 0.478331
0.632080 0.542085 0.500478
0.210743 0.471770 0.401916
0.268664 0.496219 0.422296
0.328128 0.521282 0.443157
0.389173 0.546965 0.464503
0.451830 0.573271 0.486337
0.516132 0.600204 0.508663
0.582106 0.627769 0.531484
0.649781 0.655971 0.554803
0.719181 0.684813 0.578624
0.274624 0.603889 0.472395
0.336010 0.631066 0.494408
0.399023 0.658883 0.516914
0.463693 0.687342 0.539915
0.530047 0.716448 0.563417
0.598111 0.746204 0.587422
0.667911 0.776616 0.611934
0.732935 0.800561 0.631735
0.794898 0.820955 0.648939
0.344094 0.747486 0.548414
0.409113 0.777503 0.572098
0.475829 0.808180 0.596287
0.544087 0.839245 0.620795
0.606050 0.859639 0.637999
0.668013 0.880033 0.655202
0.729976 0.900427 0.672405
0.791939 0.920821 0.689608
0.853902 0.941215 0.706812
0.417202 0.898323 0.627058
0.479165 0.918717 0.644262
0.541128 0.939111 0.661465
0.603091 0.959505 0.678668
0.665054 0.979899 0.695871
0.727017 1.000000 0.713075
0.788981 1.000000 0.730278
0.850944 1.000000 0.747481
0.912907 1.000000 0.764684
0.000000 0.000000 0.171746
0.010326 0.000000 0.185585
0.059217 0.000000 0.199425
0.108108 0.003435 0.213264
0.157000 0.019535 0.227104
0.205891 0.035635 0.240943
0.254783 0.051735 0.254783
0.303674 0.067835 0.268622
0.354166 0.084315 0.283628
0.007991 0.050074 0.218303
0.056883 0.066174 0.232142
0.105774 0.082274 0.245982
0.154665 0.098374 0.259821
0.203557 0.114474 0.273661
0.254429 0.131596 0.289551
0.306791 0.149321 0.306295
0.360549 0.167558 0.323621
0.415739 0.186303 0.341471
0.054548 0.145012 0.264859
0.103678 0.161483 0.279283
0.154069 0.179230 0.295573
0.205674 0.197579 0.312540
0.258570 0.216476 0.330060
0.312827 0.235912 0.348096
0.368503 0.255889 0.366629
0.425647 0.276411 0.385654
0.484304 0.297485 0.405166
0.103762 0.246242 0.318857
0.155735 0.265823 0.336568
0.209011 0.285970 0.354786
0.263660 0.306681 0.373499
0.319739 0.327959 0.392701
0.377297 0.349809 0.412390
0.436378 0.372235 0.432566
0.497020 0.395243 0.453231
0.559260 0.418839 0.474385
0.157853 0.357946 0.380433
0.212835 0.379994 0.399813
0.269266 0.402631 0.419679
0.327193 0.425861 0.440033
0.386656 0.449689 0.460876
0.447693 0.474120 0.482209
0.510339 0.499157 0.504036
0.574625 0.524808 0.526360
0.640579 0.551075 0.549183
0.216946 0.480004 0.447564
0.275208 0.504661 0.468586
0.335023 0.529935 0.490099
0.396426 0.555828 0.512106
0.459450 0.582347 0.534611
0.524125 0.609494 0.557616
0.590481 0.637275 0.581125
0.658542 0.665694 0.605140
0.728335 0.694755 0.629665
0.281379 0.613047 0.520241
0.343125 0.640441 0.542928
0.406505 0.668475 0.566116
0.471549 0.697154 0.589809
0.538284 0.726480 0.614009
0.606735 0.756459 0.638721
0.676928 0.787093 0.663946
0.738891 0.807487 0.681149
0.800854 0.827881 0.698353
0.351427 0.757606 0.598561
0.416821 0.787847 0.622947
0.483918 0.818749 0.647845
0.550043 0.846171 0.670209
0.612007 0.866565 0.687412
0.673970 0.886959 0.704616
0.735933 0.907353 0.721819
0.797896 0.927747 0.739022
0.859859 0.948141 0.756225
0.423159 0.905249 0.676472
0.485122 0.925643 0.693675
0.547085 0.946037 0.710879
0.609048 0.966431 0.728082
0.671011 0.986825 0.745285
0.732974 1.000000 0.762488
0.794937 1.000000 0.779692
0.856900 1.000000 0.796895
0.918863 1.000000 0.814098
0.000000 0.000000 0.211497
0.015026 0.000000 0.225337
0.063917 0.000000 0.239176
0.112808 0.008903 0.253016
0.161700 0.025003 0.266855
0.210591 0.041103 0.280695
0.259483 0.057203 0.294534
0.308374 0.073303 0.308374
0.359987 0.090082 0.324445
0.012691 0.055541 0.258054
0.061583 0.071641 0.271894
0.110474 0.087741 0.285733
0.159365 0.103841 0.299573
0.208698 0.120195 0.314016
0.260019 0.137557 0.330574
0.312726 0.155457 0.347866
0.366827 0.173867 0.365745
0.422364 0.192785 0.384163
0.059248 0.150480 0.304611
0.108694 0.167433 0.319937
0.159373 0.185398 0.336796
0.211276 0.203936 0.354311
0.264485 0.223016 0.372390
0.319067 0.242635 0.390998
0.375079 0.262797 0.410119
0.432570 0.283505 0.429744
0.491583 0.304769 0.449870
0.109007 0.252828 0.360830
0.161268 0.272602 0.379104
0.214851 0.292940 0.397901
0.269820 0.313843 0.417206
0.326232 0.335315 0.437013
0.384133 0.357360 0.457321
0.443567 0.379983 0.478127
0.504571 0.403190 0.499432
0.567180 0.426988 0.521238
0.163585 0.365368 0.424359
0.218888 0.387616 0.444349
0.275651 0.410454 0.464838
0.333920 0.433886 0.485825
0.393735 0.457918 0.507313
0.455133 0.482554 0.529301
0.518147 0.507799 0.551792
0.582808 0.533659 0.574789
0.649145 0.560137 0.598294
0.223203 0.488309 0.493590
0.281809 0.513175 0.515260
0.341976 0.538659 0.537431
0.403739 0.564764 0.560106
0.467131 0.591495 0.583287
0.532182 0.618857 0.606978
0.598919 0.646854 0.631179
0.667369 0.675491 0.655895
0.737556 0.704771 0.681128
0.288192 0.622279 0.568487
0.350299 0.649890 0.591853
0.414048 0.678142 0.615729
0.479467 0.707040 0.640118
0.546584 0.736588 0.665021
0.615424 0.766788 0.690443
0.682885 0.794019 0.713360
0.744848 0.814413 0.730563
0.806811 0.834807 0.747766
0.358820 0.767802 0.649124
0.424591 0.798267 0.674217
0.492070 0.829394 0.699828
0.556000 0.853097 0.719623
0.617963 0.873491 0.736826
0.679926 0.893885 0.754029
0.741889 0.914279 0.771233
0.803852 0.934673 0.788436
0.865815 0.955067 0.805639
0.429115 0.912175 0.725886
0.491078 0.932569 0.743089
0.553041 0.952963 0.760292
0.615004 0.973357 0.777496
0.676968 0.993751 0.794699
0.738931 1.000000 0.811902
0.800894 1.000000 0.829105
0.862857 1.000000 0.846309
0.924820 1.000000 0.863512
0.000000 0.000000 0.251249
0.019726 0.000000 0.265089
0.068617 0.000000 0.278928
0.117508 0.014370 0.292768
0.166400 0.030470 0.306607
0.215291 0.046570 0.320447
0.264182 0.062670 0.334286
0.313679 0.078922 0.348738
0.365918 0.095904 0.365559
0.017391 0.061009 0.297806
0.066282 0.077109 0.311646
0.115174 0.093209 0.325485
0.164065 0.109309 0.339325
0.214004 0.126024 0.354743
0.265686 0.143578 0.371894
0.318731 0.161652 0.389747
0.373172 0.180234 0.408193
0.429057 0.199327 0.427190
0.063958 0.155972 0.344411
0.113771 0.173465 0.360892
0.164733 0.191632 0.378321
0.216935 0.210355 0.396397
0.270459 0.229618 0.415047
0.325368 0.249421 0.434239
0.381718 0.269768 0.453957
0.439557 0.290664 0.474193
0.498926 0.312117 0.494940
0.114299 0.259480 0.403122
0.166853 0.279445 0.421972
0.220744 0.299975 0.441358
0.276037 0.321071 0.461265
0.332783 0.342737 0.481687
0.391030 0.364977 0.502620
0.450818 0.387798 0.524064
0.512185 0.411205 0.546017
0.575164 0.435205 0.568480
0.169369 0.372857 0.468640
0.224994 0.395305 0.489249
0.282092 0.418345 0.510368
0.340706 0.441980 0.531997
0.400875 0.466217 0.554136
0.462634 0.491059 0.576785
0.526018 0.516512 0.599946
0.591056 0.542581 0.623622
0.657776 0.569272 0.647814
0.229515 0.496685 0.539998
0.288466 0.521760 0.562322
0.348987 0.547454 0.585158
0.411113 0.573771 0.608506
0.474875 0.600716 0.632369
0.540302 0.628294 0.656750
0.607422 0.656507 0.681649
0.676261 0.685362 0.707071
0.746843 0.714862 0.733016
0.295062 0.631584 0.617134
0.357532 0.659412 0.641185
0.421651 0.687883 0.665754
0.487447 0.717002 0.690844
0.554948 0.746770 0.716456
0.624177 0.777194 0.742593
0.688841 0.800945 0.762774
0.750804 0.821339 0.779977
0.812767 0.841733 0.797180
0.366272 0.778074 0.700107
0.432421 0.808763 0.725910
0.499994 0.839629 0.751833
0.561957 0.860023 0.769037
0.623920 0.880417 0.786240
0.685883 0.900811 0.803443
0.747846 0.921205 0.820646
0.809809 0.941599 0.837850
0.871772 0.961993 0.855053
0.435072 0.919101 0.775300
0.497035 0.939495 0.792503
0.558998 0.959889 0.809706
0.620961 0.980283 0.826909
0.682924 1.000000 0.844113
0.744887 1.000000 0.861316
0.806850 1.000000 0.878519
0.868813 1.000000 0.895722
0.930776 1.000000 0.912926
