assets/lighting/cinematic/grade-parking-garage/lut.cube
TITLE "Parking Garage"
# TKRS lighting-batch-001 original LUT
# Intended usage: concrete garage cool fluorescent
# License: CC0-1.0
LUT_3D_SIZE 17
DOMAIN_MIN 0.0 0.0 0.0
DOMAIN_MAX 1.0 1.0 1.0
0.000000 0.000000 0.000000
0.006059 0.000000 0.000000
0.039357 0.000000 0.000000
0.072655 0.000000 0.000000
0.105953 0.000000 0.000000
0.139251 0.000000 0.000000
0.172549 0.000000 0.000000
0.205847 0.000000 0.000000
0.239145 0.000134 0.000126
0.272443 0.003848 0.003628
0.305741 0.007563 0.007129
0.339039 0.011277 0.010631
0.372337 0.014991 0.014132
0.405635 0.018705 0.017634
0.438933 0.022420 0.021135
0.472231 0.026134 0.024637
0.505528 0.029848 0.028138
0.000000 0.014575 0.000000
0.017364 0.018290 0.000000
0.050662 0.022004 0.000000
0.083960 0.025718 0.000000
0.117258 0.029432 0.000000
0.150556 0.033147 0.001195
0.183854 0.036861 0.004697
0.217152 0.040575 0.008198
0.250450 0.044289 0.011700
0.283748 0.048004 0.015201
0.317046 0.051718 0.018703
0.350344 0.055432 0.022204
0.383642 0.059146 0.025706
0.416940 0.062861 0.029207
0.450932 0.066680 0.032753
0.486015 0.070657 0.036375
0.521605 0.074701 0.040037
0.000000 0.058731 0.000000
0.028669 0.062445 0.000000
0.061967 0.066159 0.002264
0.095265 0.069873 0.005766
0.128563 0.073588 0.009267
0.161861 0.077302 0.012769
0.195159 0.081016 0.016270
0.228457 0.084730 0.019772
0.261755 0.088445 0.023273
0.295053 0.092159 0.026775
0.328351 0.095873 0.030276
0.362575 0.099848 0.033854
0.397450 0.103970 0.037489
0.432766 0.108170 0.041163
0.468506 0.112437 0.044875
0.504667 0.116766 0.048626
0.541252 0.121156 0.052416
0.006676 0.102886 0.006835
0.039974 0.106600 0.010336
0.073272 0.110314 0.013838
0.106570 0.114029 0.017339
0.139868 0.117743 0.020841
0.173166 0.121457 0.024342
0.206464 0.125171 0.027844
0.239860 0.128939 0.031356
0.274057 0.133095 0.034960
0.308682 0.137371 0.038606
0.343702 0.141733 0.042292
0.379115 0.146169 0.046016
0.414928 0.150674 0.049779
0.451146 0.155246 0.053580
0.487778 0.159882 0.057421
0.524829 0.164582 0.061302
0.562308 0.169343 0.065224
0.017982 0.147041 0.018408
0.051279 0.150755 0.021910
0.084577 0.154470 0.025411
0.117875 0.158184 0.028913
0.151367 0.162110 0.032451
0.185357 0.166425 0.036069
0.219701 0.170862 0.039728
0.254404 0.175391 0.043425
0.289476 0.180001 0.047161
0.324928 0.184687 0.050935
0.360771 0.189444 0.054749
0.397012 0.194270 0.058602
0.433662 0.199164 0.062495
0.470728 0.204124 0.066430
0.508218 0.209150 0.070405
0.546139 0.214241 0.074422
0.584497 0.219397 0.078482
0.029287 0.191196 0.029982
0.062727 0.195363 0.033551
0.096458 0.199842 0.037182
0.130497 0.204446 0.040852
0.164866 0.209147 0.044561
0.199584 0.213936 0.048309
0.234665 0.218805 0.052095
0.270121 0.223751 0.055921
0.305965 0.228770 0.059786
0.342206 0.233860 0.063692
0.378853 0.239021 0.067639
0.415914 0.244252 0.071627
0.453398 0.249550 0.075657
0.491312 0.254917 0.079730
0.529662 0.260351 0.083845
0.568455 0.265852 0.088004
0.607697 0.271421 0.092207
0.041060 0.238126 0.041981
0.075081 0.243004 0.045701
0.109432 0.247975 0.049461
0.144132 0.253031 0.053259
0.179194 0.258168 0.057097
0.214631 0.263382 0.060974
0.250456 0.268673 0.064893
0.286678 0.274037 0.068852
0.323305 0.279473 0.072853
0.360347 0.284982 0.076896
0.397811 0.290561 0.080982
0.435705 0.296211 0.085110
0.474035 0.301930 0.089283
0.512807 0.307719 0.093499
0.552028 0.313577 0.097760
0.591703 0.319505 0.102065
0.631838 0.325501 0.106416
0.053325 0.287366 0.054427
0.087984 0.292697 0.058276
0.123009 0.298109 0.062166
0.158410 0.303602 0.066097
0.194200 0.309171 0.070069
0.230388 0.314816 0.074083
0.266983 0.320536 0.078139
0.303992 0.326330 0.082237
0.341425 0.332196 0.086379
0.379287 0.338136 0.090565
0.417586 0.344147 0.094795
0.456328 0.350230 0.099069
0.495518 0.356385 0.103389
0.535164 0.362610 0.107754
0.575269 0.368907 0.112164
0.615839 0.375274 0.116621
0.656880 0.381712 0.121124
0.066066 0.338648 0.067305
0.101418 0.344425 0.071290
0.137160 0.350281 0.075316
0.173302 0.356214 0.079385
0.209853 0.362224 0.083497
0.246819 0.368310 0.087653
0.284210 0.374470 0.091852
0.322031 0.380706 0.096095
0.360290 0.387015 0.100383
0.398992 0.393398 0.104717
0.438144 0.399854 0.109095
0.477751 0.406383 0.113520
0.517819 0.412985 0.117991
0.558352 0.419659 0.122508
0.599356 0.426407 0.127073
0.640835 0.433226 0.131684
0.682793 0.440118 0.136343
0.079304 0.392017 0.080636
0.115391 0.398244 0.084761
0.151887 0.404551 0.088930
0.188802 0.410934 0.093143
0.226141 0.417395 0.097400
0.263913 0.423932 0.101701
0.302124 0.430544 0.106049
0.340779 0.437232 0.110441
0.379884 0.443995 0.114880
0.419445 0.450833 0.119365
0.459468 0.457745 0.123897
0.499957 0.464732 0.128475
0.540917 0.471793 0.133102
0.582353 0.478928 0.137775
0.624269 0.486137 0.142497
0.666670 0.493420 0.147268
0.709560 0.500777 0.152087
0.093060 0.447528 0.094438
0.129914 0.454216 0.098708
0.167196 0.460981 0.103024
0.204910 0.467825 0.107385
0.243065 0.474746 0.111791
0.281665 0.481744 0.116244
0.320717 0.488819 0.120743
0.360226 0.495971 0.125289
0.400198 0.503198 0.129883
0.440636 0.510502 0.134523
0.481546 0.517881 0.139212
0.522933 0.525336 0.143949
0.564800 0.532866 0.148734
0.607153 0.540472 0.153567
0.649996 0.548154 0.158450
0.693332 0.555910 0.163383
0.737165 0.563742 0.168364
0.107351 0.505241 0.108725
0.145002 0.512396 0.113146
0.183094 0.519631 0.117613
0.221634 0.526944 0.122126
0.260626 0.534336 0.126687
0.300076 0.541805 0.131294
0.339990 0.549352 0.135950
0.380372 0.556977 0.140653
0.421226 0.564678 0.145404
0.462558 0.572457 0.150204
0.504372 0.580313 0.155053
0.546672 0.588246 0.159951
0.589462 0.596256 0.164898
0.632745 0.604342 0.169895
0.676527 0.612505 0.174942
0.720811 0.620744 0.180039
0.765600 0.629060 0.185187
0.122193 0.565208 0.123514
0.160665 0.572841 0.128088
0.199592 0.580553 0.132711
0.238978 0.588345 0.137380
0.278829 0.596215 0.142098
0.319149 0.604165 0.146864
0.359942 0.612194 0.151679
0.401214 0.620300 0.156543
0.442969 0.628486 0.161456
0.485210 0.636749 0.166418
0.527943 0.645091 0.171431
0.571170 0.653511 0.176493
0.614895 0.662008 0.181605
0.659123 0.670584 0.186769
0.703857 0.679237 0.191982
0.749101 0.687968 0.197247
0.794857 0.696777 0.202564
0.137599 0.627480 0.138816
0.176916 0.635598 0.143548
0.216699 0.643797 0.148329
0.256951 0.652076 0.153159
0.297679 0.660434 0.158038
0.338886 0.668873 0.162966
0.380577 0.677391 0.167943
0.422755 0.685989 0.172971
0.465426 0.694666 0.178048
0.508591 0.703423 0.183176
0.552256 0.712259 0.188355
0.596424 0.721174 0.193584
0.641099 0.730168 0.198865
0.686284 0.739241 0.204197
0.731982 0.748393 0.209581
0.778197 0.757624 0.215016
0.822807 0.764924 0.219987
0.153584 0.692104 0.154643
0.193765 0.700715 0.159537
0.234422 0.709408 0.164480
0.275560 0.718182 0.169473
0.317182 0.727037 0.174516
0.359293 0.735973 0.179609
0.401897 0.744989 0.184752
0.444997 0.754086 0.189946
0.488597 0.763263 0.195191
0.532701 0.772521 0.200487
0.577313 0.781859 0.205835
0.622435 0.791277 0.211235
0.668071 0.800775 0.216686
0.711095 0.806741 0.221304
0.753084 0.811446 0.225617
0.795074 0.816151 0.229930
0.837063 0.820856 0.234243
0.170159 0.759122 0.171007
0.211223 0.768235 0.176065
0.252772 0.777430 0.181173
0.294812 0.786707 0.186332
0.337345 0.796066 0.191542
0.380375 0.805506 0.196803
0.423907 0.815028 0.202115
0.467943 0.824631 0.207478
0.512487 0.834316 0.212893
0.557394 0.843854 0.218308
0.599383 0.848558 0.222621
0.641373 0.853263 0.226934
0.683362 0.857968 0.231247
0.725351 0.862673 0.235560
0.767340 0.867378 0.239873
0.809330 0.872083 0.244186
0.851319 0.876788 0.248499
0.187334 0.828577 0.187917
0.229298 0.838198 0.193143
0.271757 0.847903 0.198419
0.314714 0.857690 0.203747
0.358172 0.867559 0.209126
0.402137 0.877512 0.214557
0.445682 0.885671 0.219625
0.487671 0.890376 0.223938
0.529661 0.895081 0.228251
0.571650 0.899785 0.232564
0.613639 0.904490 0.236877
0.655628 0.909195 0.241190
0.697618 0.913900 0.245503
0.739607 0.918605 0.249816
0.781596 0.923310 0.254129
0.823586 0.928015 0.258442
0.865575 0.932720 0.262755
0.000000 0.000000 0.002941
0.007186 0.000000 0.006443
0.040484 0.000000 0.009944
0.073782 0.000000 0.013446
0.107080 0.000000 0.016947
0.140378 0.000000 0.020448
0.173676 0.000000 0.023950
0.206974 0.000000 0.027451
0.240272 0.001358 0.030953
0.273570 0.005072 0.034454
0.306868 0.008786 0.037956
0.340166 0.012501 0.041457
0.373463 0.016215 0.044959
0.406761 0.019929 0.048460
0.440059 0.023643 0.051962
0.473357 0.027358 0.055463
0.506655 0.031072 0.058965
0.000000 0.015799 0.014514
0.018491 0.019513 0.018016
0.051789 0.023228 0.021517
0.085087 0.026942 0.025019
0.118385 0.030656 0.028520
0.151683 0.034370 0.032022
0.184981 0.038085 0.035523
0.218279 0.041799 0.039025
0.251577 0.045513 0.042526
0.284875 0.049227 0.046028
0.318173 0.052942 0.049529
0.351471 0.056656 0.053031
0.384769 0.060370 0.056532
0.418067 0.064084 0.060033
0.452558 0.067982 0.063684
0.487781 0.071983 0.067419
0.523484 0.076047 0.071206
0.000000 0.059954 0.026088
0.029796 0.063669 0.029589
0.063094 0.067383 0.033091
0.096392 0.071097 0.036592
0.129690 0.074811 0.040094
0.162988 0.078526 0.043595
0.196286 0.082240 0.047097
0.229584 0.085954 0.050598
0.262882 0.089668 0.054100
0.296180 0.093383 0.057601
0.329633 0.097143 0.061128
0.364133 0.101196 0.064819
0.399119 0.105346 0.068570
0.434533 0.109569 0.072371
0.470366 0.113857 0.076218
0.506618 0.118206 0.080109
0.543294 0.122616 0.084044
0.007803 0.104110 0.037661
0.041101 0.107824 0.041163
0.074399 0.111538 0.044664
0.107697 0.115252 0.048166
0.140995 0.118967 0.051667
0.174293 0.122681 0.055169
0.207591 0.126395 0.058670
0.241215 0.130289 0.062246
0.275529 0.134493 0.065958
0.310245 0.138799 0.069726
0.345350 0.143186 0.073541
0.380848 0.147646 0.077401
0.416745 0.152173 0.081306
0.453049 0.156767 0.085254
0.489766 0.161424 0.089246
0.526905 0.166144 0.093283
0.564471 0.170926 0.097363
0.019108 0.148265 0.049235
0.052406 0.151979 0.052736
0.085704 0.155693 0.056237
0.119002 0.159407 0.059739
0.152659 0.163514 0.063373
0.186730 0.167875 0.067103
0.221150 0.172344 0.070886
0.255929 0.176901 0.074715
0.291078 0.181537 0.078588
0.326608 0.186246 0.082506
0.362531 0.191026 0.086468
0.398854 0.195875 0.090474
0.435587 0.200791 0.094524
0.472737 0.205772 0.098617
0.510312 0.210820 0.102756
0.548320 0.215932 0.106939
0.586766 0.221110 0.111167
0.030421 0.192471 0.060822
0.063930 0.196822 0.064505
0.097721 0.201347 0.068253
0.131825 0.205985 0.072050
0.166262 0.210716 0.075892
0.201050 0.215532 0.079780
0.236204 0.220426 0.083711
0.271736 0.225396 0.087686
0.307657 0.230439 0.091706
0.343977 0.235553 0.095769
0.380704 0.240737 0.099876
0.417848 0.245990 0.104028
0.455416 0.251311 0.108225
0.493415 0.256700 0.112467
0.531851 0.262156 0.116755
0.570731 0.267679 0.121088
0.610062 0.273270 0.125468
0.042262 0.239722 0.073218
0.076343 0.244632 0.077075
0.110759 0.249631 0.080975
0.145527 0.254714 0.084920
0.180660 0.259877 0.088909
0.216171 0.265117 0.092941
0.252071 0.270432 0.097018
0.288370 0.275820 0.101139
0.325077 0.281280 0.105305
0.362200 0.286812 0.109515
0.399746 0.292415 0.113771
0.437724 0.298087 0.118073
0.476139 0.303830 0.122420
0.514997 0.309642 0.126814
0.554306 0.315523 0.131254
0.594070 0.321473 0.135741
0.634295 0.327492 0.140276
0.054573 0.289113 0.086133
0.089299 0.294471 0.090135
0.124394 0.299910 0.094181
0.159868 0.305428 0.098271
0.195732 0.311022 0.102406
0.231996 0.316692 0.106585
0.268669 0.322437 0.110810
0.305758 0.328255 0.115080
0.343272 0.334145 0.119395
0.381217 0.340108 0.123757
0.419600 0.346143 0.128165
0.458427 0.352250 0.132619
0.497705 0.358428 0.137121
0.537438 0.364677 0.141669
0.577632 0.370997 0.146266
0.618293 0.377387 0.150910
0.659424 0.383849 0.155603
0.067363 0.340543 0.099529
0.102786 0.346346 0.103677
0.138602 0.352227 0.107870
0.174820 0.358186 0.112109
0.211448 0.364221 0.116392
0.248494 0.370331 0.120722
0.285965 0.376516 0.125097
0.323868 0.382776 0.129520
0.362211 0.389109 0.133988
0.400998 0.395516 0.138504
0.440236 0.401997 0.143068
0.479930 0.408550 0.147679
0.520086 0.415176 0.152338
0.560708 0.421874 0.157045
0.601802 0.428645 0.161801
0.643372 0.435489 0.166606
0.685423 0.442404 0.171460
0.080652 0.394060 0.113412
0.116813 0.400313 0.117709
0.153387 0.406645 0.122053
0.190380 0.413054 0.126443
0.227800 0.419540 0.130879
0.265653 0.426102 0.135362
0.303946 0.432739 0.139892
0.342686 0.439452 0.144470
0.381877 0.446240 0.149096
0.421525 0.453102 0.153770
0.461635 0.460039 0.158492
0.502213 0.467050 0.163263
0.543262 0.474136 0.168082
0.584789 0.481295 0.172951
0.626797 0.488529 0.177870
0.669290 0.495836 0.182838
0.712274 0.503217 0.187856
0.094460 0.449723 0.127792
0.131393 0.456436 0.132243
0.168754 0.463228 0.136740
0.206550 0.470097 0.141285
0.244787 0.477043 0.145877
0.283471 0.484067 0.150518
0.322608 0.491167 0.155206
0.362203 0.498343 0.159943
0.402262 0.505596 0.164729
0.442788 0.512925 0.169564
0.483788 0.520329 0.174448
0.525265 0.527809 0.179381
0.567224 0.535364 0.184365
0.609669 0.542995 0.189398
0.652604 0.550701 0.194482
0.696034 0.558482 0.199617
0.739962 0.566339 0.204803
0.108805 0.507590 0.142682
0.146537 0.514771 0.147289
0.184712 0.522032 0.151944
0.223335 0.529371 0.156647
0.262412 0.536788 0.161399
0.301948 0.544283 0.166200
0.341948 0.551855 0.171049
0.382418 0.559505 0.175949
0.423362 0.567233 0.180897
0.464784 0.575037 0.185896
0.506688 0.582918 0.190945
0.549080 0.590876 0.196045
0.591962 0.598911 0.201195
0.635340 0.607023 0.206396
0.679216 0.615211 0.211648
0.723594 0.623476 0.216952
0.768479 0.631817 0.222307
0.123703 0.567714 0.158093
0.162259 0.575373 0.162859
0.201270 0.583111 0.167675
0.240742 0.590929 0.172540
0.280679 0.598826 0.177454
0.321086 0.606801 0.182418
0.361969 0.614856 0.187432
0.403330 0.622989 0.192497
0.445175 0.631200 0.197612
0.487508 0.639489 0.202777
0.530333 0.647856 0.207994
0.573653 0.656302 0.213262
0.617473 0.664825 0.218581
0.661796 0.673426 0.223952
0.706625 0.682105 0.229375
0.751965 0.690862 0.234851
0.797818 0.699696 0.240379
0.139167 0.630146 0.174035
0.178569 0.638290 0.178964
0.218437 0.646515 0.183944
0.258778 0.654821 0.188973
0.299594 0.663206 0.194053
0.340890 0.671671 0.199183
0.382671 0.680215 0.204364
0.424941 0.688839 0.209597
0.467703 0.697543 0.214880
0.510962 0.706325 0.220215
0.554721 0.715187 0.225602
0.598983 0.724128 0.231042
0.643753 0.733148 0.236533
0.689034 0.742247 0.242077
0.734829 0.751425 0.247673
0.781141 0.760682 0.253322
0.824228 0.766474 0.257959
0.155210 0.694932 0.190519
0.195478 0.703570 0.195614
0.236223 0.712290 0.200760
0.277450 0.721091 0.205956
0.319162 0.729972 0.211204
0.361364 0.738934 0.216504
0.404060 0.747977 0.221855
0.447253 0.757101 0.227257
0.490946 0.766304 0.232712
0.535145 0.775588 0.238220
0.579851 0.784953 0.243780
0.625069 0.794397 0.249392
0.670527 0.803586 0.254963
0.712516 0.808291 0.259276
0.754505 0.812996 0.263589
0.796495 0.817701 0.267902
0.838484 0.822406 0.272215
0.171844 0.762116 0.207553
0.212997 0.771255 0.212817
0.254636 0.780477 0.218132
0.296766 0.789781 0.223499
0.339391 0.799167 0.228917
0.382514 0.808634 0.234388
0.426138 0.818183 0.239912
0.470268 0.827813 0.245487
0.514907 0.837525 0.251116
0.558815 0.845404 0.256279
0.600804 0.850108 0.260592
0.642793 0.854813 0.264905
0.684783 0.859518 0.269219
0.726772 0.864223 0.273532
0.768761 0.868928 0.277845
0.810751 0.873633 0.282158
0.852740 0.878338 0.286471
0.189080 0.831738 0.225147
0.231134 0.841386 0.230582
0.273684 0.851118 0.236069
0.316733 0.860932 0.241608
0.360285 0.870829 0.247200
0.404343 0.880809 0.252845
0.447103 0.887221 0.257596
0.489092 0.891926 0.261909
0.531082 0.896631 0.266222
0.573071 0.901335 0.270535
0.615060 0.906040 0.274848
0.657049 0.910745 0.279161
0.699039 0.915450 0.283474
0.741028 0.920155 0.287788
0.783017 0.924860 0.292101
0.825007 0.929565 0.296414
0.866996 0.934270 0.300727
0.000000 0.000000 0.033767
0.008313 0.000000 0.037269
0.041611 0.000000 0.040770
0.074909 0.000000 0.044272
0.108207 0.000000 0.047773
0.141505 0.000000 0.051275
0.174803 0.000000 0.054776
0.208101 0.000000 0.058278
0.241398 0.002582 0.061779
0.274696 0.006296 0.065281
0.307994 0.010010 0.068782
0.341292 0.013724 0.072284
0.374590 0.017439 0.075785
0.407888 0.021153 0.079286
0.441186 0.024867 0.082788
0.474484 0.028581 0.086289
0.507782 0.032295 0.089791
0.000000 0.017023 0.045341
0.019618 0.020737 0.048842
0.052916 0.024451 0.052344
0.086214 0.028166 0.055845
0.119512 0.031880 0.059347
0.152810 0.035594 0.062848
0.186108 0.039308 0.066350
0.219406 0.043022 0.069851
0.252704 0.046737 0.073353
0.286002 0.050451 0.076854
0.319300 0.054165 0.080355
0.352597 0.057879 0.083857
0.385895 0.061594 0.087358
0.419417 0.065344 0.090903
0.454225 0.069292 0.094682
0.489573 0.073315 0.098540
0.525383 0.077398 0.102456
0.000000 0.061178 0.056914
0.030923 0.064892 0.060416
0.064221 0.068606 0.063917
0.097519 0.072321 0.067419
0.130817 0.076035 0.070920
0.164115 0.079749 0.074422
0.197413 0.083463 0.077923
0.230711 0.087178 0.081424
0.264009 0.090892 0.084926
0.297307 0.094606 0.088427
0.331077 0.098464 0.092046
0.365718 0.102555 0.095853
0.400807 0.106730 0.099729
0.436315 0.110975 0.103662
0.472240 0.115283 0.107647
0.508583 0.119652 0.111682
0.545349 0.124081 0.115766
0.008930 0.105333 0.068488
0.042228 0.109047 0.071989
0.075526 0.112762 0.075490
0.108824 0.116476 0.078992
0.142122 0.120190 0.082493
0.175420 0.123904 0.085995
0.208718 0.127619 0.089496
0.242606 0.131660 0.093199
0.277019 0.135902 0.097030
0.311822 0.140236 0.100924
0.347011 0.144648 0.104874
0.382593 0.149130 0.108874
0.418574 0.153680 0.112924
0.454963 0.158294 0.117022
0.491766 0.162972 0.121168
0.528992 0.167712 0.125362
0.566646 0.172515 0.129603
0.020235 0.149488 0.080061
0.053533 0.153203 0.083562
0.086831 0.156917 0.087064
0.120167 0.160683 0.090591
0.153967 0.164937 0.094361
0.188114 0.169337 0.098213
0.222609 0.173837 0.102124
0.257463 0.178420 0.106089
0.292689 0.183080 0.110105
0.328298 0.187813 0.114170
0.364301 0.192616 0.118283
0.400705 0.197487 0.122444
0.437521 0.202425 0.126652
0.474756 0.207428 0.130908
0.512416 0.212497 0.135211
0.550510 0.217631 0.139562
0.589044 0.222829 0.143960
0.031577 0.193875 0.091729
0.065141 0.198299 0.095530
0.098992 0.202864 0.099401
0.133160 0.207534 0.103329
0.167665 0.212293 0.107310
0.202524 0.217136 0.111341
0.237751 0.222055 0.115420
0.273358 0.227050 0.119548
0.309357 0.232116 0.123723
0.345756 0.237253 0.127946
0.382565 0.242460 0.132216
0.419791 0.247735 0.136534
0.457442 0.253079 0.140900
0.495526 0.258490 0.145313
0.534049 0.263968 0.149774
0.573017 0.269514 0.154283
0.612436 0.275126 0.158841
0.043468 0.241329 0.104539
0.077611 0.246270 0.108536
0.112092 0.251297 0.112581
0.146928 0.256407 0.116675
0.182133 0.261595 0.120818
0.217718 0.266860 0.125007
0.253693 0.272199 0.129245
0.290070 0.277611 0.133529
0.326856 0.283095 0.137862
0.364060 0.288650 0.142242
0.401689 0.294276 0.146670
0.439751 0.299971 0.151145
0.478251 0.305737 0.155669
0.517196 0.311571 0.160242
0.556592 0.317475 0.164863
0.596445 0.323448 0.169533
0.636760 0.329490 0.174252
0.055826 0.290869 0.117935
0.090620 0.296254 0.122092
0.125784 0.301720 0.126296
0.161331 0.307263 0.130548
0.197270 0.312882 0.134847
0.233610 0.318577 0.139194
0.270362 0.324345 0.143588
0.307531 0.330187 0.148031
0.345127 0.336102 0.152521
0.383155 0.342089 0.157060
0.421622 0.348147 0.161647
0.460535 0.354277 0.166283
0.499900 0.360479 0.170968
0.539721 0.366751 0.175702
0.580004 0.373094 0.180486
0.620754 0.379508 0.185319
0.661977 0.385993 0.190202
0.068665 0.342446 0.131855
0.104160 0.348275 0.136169
0.140050 0.354182 0.140530
0.176344 0.360165 0.144940
0.213049 0.366225 0.149397
0.250174 0.372361 0.153902
0.287727 0.378570 0.158456
0.325712 0.384854 0.163058
0.364138 0.391212 0.167708
0.403010 0.397643 0.172408
0.442334 0.404148 0.177158
0.482116 0.410725 0.181956
0.522360 0.417375 0.186804
0.563072 0.424097 0.191703
0.604257 0.430892 0.196651
0.645918 0.437759 0.201650
0.688062 0.444699 0.206700
0.082005 0.396111 0.146295
0.118242 0.402391 0.150767
0.154892 0.408748 0.155287
0.191964 0.415183 0.159855
0.229464 0.421693 0.164472
0.267400 0.428280 0.169138
0.305776 0.434943 0.173853
0.344600 0.441680 0.178617
0.383876 0.448492 0.183431
0.423611 0.455379 0.188295
0.463809 0.462341 0.193208
0.504476 0.469377 0.198172
0.545616 0.476486 0.203186
0.587233 0.483670 0.208251
0.629333 0.490928 0.213367
0.671919 0.498260 0.218534
0.714996 0.505665 0.223753
0.095866 0.451926 0.161260
0.132877 0.458665 0.165892
0.170318 0.465482 0.170572
0.208195 0.472377 0.175302
0.246515 0.479349 0.180082
0.285283 0.486398 0.184911
0.324505 0.493523 0.189789
0.364187 0.500724 0.194718
0.404333 0.508002 0.199697
0.444948 0.515356 0.204727
0.486037 0.522785 0.209808
0.527604 0.530289 0.214939
0.569655 0.537870 0.220122
0.612192 0.545525 0.225356
0.655221 0.553256 0.230642
0.698745 0.561062 0.235980
0.742767 0.568944 0.241370
0.110265 0.509947 0.176756
0.148078 0.517155 0.181551
0.186335 0.524441 0.186395
0.225042 0.531806 0.191289
0.264203 0.539249 0.196233
0.303826 0.546769 0.201228
0.343913 0.554367 0.206273
0.384471 0.562043 0.211369
0.425504 0.569795 0.216516
0.467016 0.577625 0.221715
0.509012 0.585532 0.226965
0.551495 0.593515 0.232266
0.594470 0.601575 0.237620
0.637941 0.609712 0.243026
0.681912 0.617925 0.248484
0.726386 0.626215 0.253995
0.771367 0.634582 0.259559
0.125219 0.570228 0.192793
0.163858 0.577914 0.197752
0.202954 0.585678 0.202762
0.242511 0.593522 0.207823
0.282535 0.601445 0.212935
0.323030 0.609446 0.218098
0.364001 0.617527 0.223312
0.405453 0.625685 0.228578
0.447389 0.633922 0.233895
0.489813 0.642237 0.239265
0.532730 0.650630 0.244687
0.576144 0.659101 0.250161
0.620058 0.667650 0.255688
0.664476 0.676277 0.261268
0.709401 0.684981 0.266901
0.754837 0.693764 0.272588
0.800787 0.702624 0.278327
0.140739 0.632820 0.209378
0.180227 0.640991 0.214506
0.220182 0.649243 0.219684
0.260610 0.657574 0.224914
0.301515 0.665986 0.230196
0.342901 0.674477 0.235529
0.384772 0.683048 0.240915
0.427133 0.691698 0.246353
0.469988 0.700427 0.251843
0.513339 0.709236 0.257386
0.557192 0.718124 0.262982
0.601549 0.727091 0.268632
0.646415 0.736137 0.274334
0.691792 0.745262 0.280090
0.737684 0.754466 0.285900
0.783660 0.763319 0.291617
0.825649 0.768024 0.295930
0.156841 0.697769 0.226521
0.197197 0.706434 0.231818
0.238030 0.715180 0.237168
0.279346 0.724008 0.242569
0.321149 0.732916 0.248023
0.363442 0.741905 0.253530
0.406230 0.750974 0.259089
0.449515 0.760124 0.264701
0.493302 0.769354 0.270367
0.537595 0.778665 0.276086
0.582397 0.788055 0.281858
0.627711 0.797526 0.287685
0.671948 0.805136 0.292934
0.713937 0.809841 0.297247
0.755926 0.814546 0.301560
0.797916 0.819251 0.305873
0.839905 0.823956 0.310186
0.173534 0.765118 0.244229
0.214776 0.774285 0.249699
0.256506 0.783534 0.255221
0.298727 0.792864 0.260797
0.341443 0.802277 0.266425
0.384659 0.811771 0.272107
0.428377 0.821347 0.277843
0.472601 0.831004 0.283631
0.517335 0.840742 0.289474
0.560236 0.846954 0.294251
0.602225 0.851659 0.298564
0.644214 0.856363 0.302877
0.686204 0.861068 0.307190
0.728193 0.865773 0.311503
0.770182 0.870478 0.315816
0.812172 0.875183 0.320129
0.854161 0.879888 0.324442
0.190831 0.834907 0.262510
0.232976 0.844583 0.268154
0.275618 0.854342 0.273853
0.318759 0.864184 0.279604
0.362404 0.874108 0.285410
0.406535 0.884066 0.291255
0.448524 0.888771 0.295568
0.490513 0.893476 0.299881
0.532502 0.898181 0.304194
0.574492 0.902886 0.308507
0.616481 0.907590 0.312820
0.658470 0.912295 0.317133
0.700460 0.917000 0.321446
0.742449 0.921705 0.325759
0.784438 0.926410 0.330072
0.826428 0.931115 0.334385
0.868417 0.935820 0.338698
0.000000 0.000000 0.064594
0.009440 0.000000 0.068095
0.042738 0.000000 0.071597
0.076036 0.000000 0.075098
0.109333 0.000000 0.078600
0.142631 0.000000 0.082101
0.175929 0.000000 0.085603
0.209227 0.000091 0.089104
0.242525 0.003805 0.092606
0.275823 0.007519 0.096107
0.309121 0.011234 0.099608
0.342419 0.014948 0.103110
0.375717 0.018662 0.106611
0.409015 0.022376 0.110113
