assets/lighting/cinematic/grade-parking-garage/lut.cube
TITLE "Parking Garage"
# TKRS lighting-batch-001 original LUT
# Intended usage: concrete garage cool fluorescent
# License: CC0-1.0
LUT_3D_SIZE 5
DOMAIN_MIN 0.0 0.0 0.0
DOMAIN_MAX 1.0 1.0 1.0
0.000000 0.000000 0.000000
0.105953 0.000000 0.000000
0.239145 0.000134 0.000126
0.372337 0.014991 0.014132
0.505528 0.029848 0.028138
0.017982 0.147041 0.018408
0.151367 0.162110 0.032451
0.289476 0.180001 0.047161
0.433662 0.199164 0.062495
0.584497 0.219397 0.078482
0.066066 0.338648 0.067305
0.209853 0.362224 0.083497
0.360290 0.387015 0.100383
0.517819 0.412985 0.117991
0.682793 0.440118 0.136343
0.122193 0.565208 0.123514
0.278829 0.596215 0.142098
0.442969 0.628486 0.161456
0.614895 0.662008 0.181605
0.794857 0.696777 0.202564
0.187334 0.828577 0.187917
0.358172 0.867559 0.209126
0.529661 0.895081 0.228251
0.697618 0.913900 0.245503
0.865575 0.932720 0.262755
0.000000 0.000000 0.095420
0.110460 0.000000 0.109426
0.243652 0.005029 0.123432
0.376844 0.019886 0.137438
0.510843 0.034799 0.151656
0.022489 0.151936 0.141714
0.156623 0.167824 0.156556
0.295940 0.186191 0.173413
0.441418 0.205714 0.191213
0.593630 0.226290 0.209872
0.071283 0.346278 0.196820
0.216271 0.370260 0.215737
0.368015 0.395442 0.235496
0.526933 0.421796 0.256099
0.693364 0.449311 0.277552
0.128267 0.575283 0.262558
0.286267 0.606708 0.284272
0.451837 0.639392 0.306849
0.625251 0.673326 0.330298
0.806750 0.708505 0.354629
0.194352 0.841274 0.337632
0.366663 0.880692 0.362234
0.535344 0.901281 0.380137
0.703302 0.920100 0.397389
0.871259 0.938920 0.414641
0.000000 0.000000 0.218726
0.114968 0.000000 0.232731
0.248160 0.009924 0.246737
0.381351 0.024781 0.260743
0.517856 0.039898 0.276320
0.026996 0.156831 0.265019
0.162054 0.173731 0.281911
0.302552 0.192504 0.301166
0.449325 0.212379 0.321580
0.602919 0.233295 0.343022
0.076581 0.354043 0.328020
0.222790 0.378425 0.349764
0.375856 0.403996 0.372479
0.536174 0.430733 0.396147
0.704069 0.458629 0.420761
0.134432 0.585497 0.403561
0.293808 0.617338 0.428464
0.460818 0.650434 0.454313
0.635728 0.684778 0.481109
0.818773 0.720367 0.508856
0.201468 0.854114 0.489479
0.373071 0.888662 0.514771
0.541028 0.907481 0.532023
0.708986 0.926301 0.549275
0.876943 0.945120 0.566527
0.000000 0.000000 0.342031
0.119475 0.000000 0.356037
0.252667 0.014818 0.370043
0.385859 0.029675 0.384049
0.525321 0.045082 0.402324
0.031540 0.161913 0.388716
0.167619 0.179785 0.408672
0.309301 0.198935 0.430502
0.457376 0.219156 0.453655
0.612358 0.240411 0.477975
0.081961 0.361943 0.460960
0.229410 0.386720 0.485621
0.383811 0.412676 0.511366
0.545539 0.439796 0.538165
0.714907 0.468073 0.565999
0.140688 0.595848 0.546553
0.301452 0.628103 0.574701
0.469913 0.661611 0.603871
0.646328 0.696366 0.634060
0.825603 0.727593 0.661390
0.208682 0.867099 0.643480
0.378755 0.894862 0.666657
0.546712 0.913681 0.683909
0.714669 0.932501 0.701161
0.882627 0.951320 0.718414
0.000000 0.000000 0.465336
0.123983 0.004856 0.479342
0.257174 0.019713 0.493348
0.390926 0.034621 0.508001
0.533094 0.050347 0.529793
0.036222 0.167619 0.514294
0.173303 0.185971 0.536947
0.316182 0.205481 0.561491
0.465569 0.226045 0.587488
0.621946 0.247639 0.614774
0.087423 0.369974 0.595687
0.236131 0.395142 0.623346
0.391880 0.421483 0.652193
0.555029 0.448984 0.682183
0.725879 0.477642 0.713290
0.147037 0.606336 0.691562
0.309201 0.639005 0.723007
0.479122 0.672924 0.755547
0.657050 0.708088 0.789173
0.831287 0.733793 0.813276
0.215995 0.880226 0.799654
0.384439 0.901062 0.818543
0.552396 0.919882 0.835795
0.720353 0.938701 0.853047
0.888310 0.957521 0.870300
