assets/lighting/cinematic/grade-parking-garage/lut.cube
TITLE "Parking Garage"
# TKRS lighting-batch-001 original LUT
# Intended usage: concrete garage cool fluorescent
# License: CC0-1.0
LUT_3D_SIZE 9
DOMAIN_MIN 0.0 0.0 0.0
DOMAIN_MAX 1.0 1.0 1.0
0.000000 0.000000 0.000000
0.039357 0.000000 0.000000
0.105953 0.000000 0.000000
0.172549 0.000000 0.000000
0.239145 0.000134 0.000126
0.305741 0.007563 0.007129
0.372337 0.014991 0.014132
0.438933 0.022420 0.021135
0.505528 0.029848 0.028138
0.000000 0.058731 0.000000
0.061967 0.066159 0.002264
0.128563 0.073588 0.009267
0.195159 0.081016 0.016270
0.261755 0.088445 0.023273
0.328351 0.095873 0.030276
0.397450 0.103970 0.037489
0.468506 0.112437 0.044875
0.541252 0.121156 0.052416
0.017982 0.147041 0.018408
0.084577 0.154470 0.025411
0.151367 0.162110 0.032451
0.219701 0.170862 0.039728
0.289476 0.180001 0.047161
0.360771 0.189444 0.054749
0.433662 0.199164 0.062495
0.508218 0.209150 0.070405
0.584497 0.219397 0.078482
0.041060 0.238126 0.041981
0.109432 0.247975 0.049461
0.179194 0.258168 0.057097
0.250456 0.268673 0.064893
0.323305 0.279473 0.072853
0.397811 0.290561 0.080982
0.474035 0.301930 0.089283
0.552028 0.313577 0.097760
0.631838 0.325501 0.106416
0.066066 0.338648 0.067305
0.137160 0.350281 0.075316
0.209853 0.362224 0.083497
0.284210 0.374470 0.091852
0.360290 0.387015 0.100383
0.438144 0.399854 0.109095
0.517819 0.412985 0.117991
0.599356 0.426407 0.127073
0.682793 0.440118 0.136343
0.093060 0.447528 0.094438
0.167196 0.460981 0.103024
0.243065 0.474746 0.111791
0.320717 0.488819 0.120743
0.400198 0.503198 0.129883
0.481546 0.517881 0.139212
0.564800 0.532866 0.148734
0.649996 0.548154 0.158450
0.737165 0.563742 0.168364
0.122193 0.565208 0.123514
0.199592 0.580553 0.132711
0.278829 0.596215 0.142098
0.359942 0.612194 0.151679
0.442969 0.628486 0.161456
0.527943 0.645091 0.171431
0.614895 0.662008 0.181605
0.703857 0.679237 0.191982
0.794857 0.696777 0.202564
0.153584 0.692104 0.154643
0.234422 0.709408 0.164480
0.317182 0.727037 0.174516
0.401897 0.744989 0.184752
0.488597 0.763263 0.195191
0.577313 0.781859 0.205835
0.668071 0.800775 0.216686
0.753084 0.811446 0.225617
0.837063 0.820856 0.234243
0.187334 0.828577 0.187917
0.271757 0.847903 0.198419
0.358172 0.867559 0.209126
0.445682 0.885671 0.219625
0.529661 0.895081 0.228251
0.613639 0.904490 0.236877
0.697618 0.913900 0.245503
0.781596 0.923310 0.254129
0.865575 0.932720 0.262755
0.000000 0.000000 0.033767
0.041611 0.000000 0.040770
0.108207 0.000000 0.047773
0.174803 0.000000 0.054776
0.241398 0.002582 0.061779
0.307994 0.010010 0.068782
0.374590 0.017439 0.075785
0.441186 0.024867 0.082788
0.507782 0.032295 0.089791
0.000000 0.061178 0.056914
0.064221 0.068606 0.063917
0.130817 0.076035 0.070920
0.197413 0.083463 0.077923
0.264009 0.090892 0.084926
0.331077 0.098464 0.092046
0.400807 0.106730 0.099729
0.472240 0.115283 0.107647
0.545349 0.124081 0.115766
0.020235 0.149488 0.080061
0.086831 0.156917 0.087064
0.153967 0.164937 0.094361
0.222609 0.173837 0.102124
0.292689 0.183080 0.110105
0.364301 0.192616 0.118283
0.437521 0.202425 0.126652
0.512416 0.212497 0.135211
0.589044 0.222829 0.143960
0.043468 0.241329 0.104539
0.112092 0.251297 0.112581
0.182133 0.261595 0.120818
0.253693 0.272199 0.129245
0.326856 0.283095 0.137862
0.401689 0.294276 0.146670
0.478251 0.305737 0.155669
0.556592 0.317475 0.164863
0.636760 0.329490 0.174252
0.068665 0.342446 0.131855
0.140050 0.354182 0.140530
0.213049 0.366225 0.149397
0.287727 0.378570 0.158456
0.364138 0.391212 0.167708
0.442334 0.404148 0.177158
0.522360 0.417375 0.186804
0.604257 0.430892 0.196651
0.688062 0.444699 0.206700
0.095866 0.451926 0.161260
0.170318 0.465482 0.170572
0.246515 0.479349 0.180082
0.324505 0.493523 0.189789
0.404333 0.508002 0.199697
0.486037 0.522785 0.209808
0.569655 0.537870 0.220122
0.655221 0.553256 0.230642
0.742767 0.568944 0.241370
0.125219 0.570228 0.192793
0.202954 0.585678 0.202762
0.282535 0.601445 0.212935
0.364001 0.617527 0.223312
0.447389 0.633922 0.233895
0.532730 0.650630 0.244687
0.620058 0.667650 0.255688
0.709401 0.684981 0.266901
0.800787 0.702624 0.278327
0.156841 0.697769 0.226521
0.238030 0.715180 0.237168
0.321149 0.732916 0.248023
0.406230 0.750974 0.259089
0.493302 0.769354 0.270367
0.582397 0.788055 0.281858
0.671948 0.805136 0.292934
0.755926 0.814546 0.301560
0.839905 0.823956 0.310186
0.190831 0.834907 0.262510
0.275618 0.854342 0.273853
0.362404 0.874108 0.285410
0.448524 0.888771 0.295568
0.532502 0.898181 0.304194
0.616481 0.907590 0.312820
0.700460 0.917000 0.321446
0.784438 0.926410 0.330072
0.868417 0.935820 0.338698
0.000000 0.000000 0.095420
0.043864 0.000000 0.102423
0.110460 0.000000 0.109426
0.177056 0.000000 0.116429
0.243652 0.005029 0.123432
0.310248 0.012457 0.130435
0.376844 0.019886 0.137438
0.443440 0.027314 0.144441
0.510843 0.034799 0.151656
0.000000 0.063625 0.118567
0.066475 0.071054 0.125570
0.133071 0.078482 0.132573
0.199666 0.085911 0.139576
0.266262 0.093339 0.146579
0.334089 0.101149 0.154086
0.404235 0.109519 0.162291
0.476032 0.118155 0.170775
0.549499 0.127032 0.179496
0.022489 0.151936 0.141714
0.089085 0.159364 0.148717
0.156623 0.167824 0.156556
0.225556 0.176848 0.164854
0.295940 0.186191 0.173413
0.367869 0.195818 0.182203
0.441418 0.205714 0.191213
0.516653 0.215873 0.200437
0.593630 0.226290 0.209872
0.045894 0.244574 0.167442
0.114776 0.254655 0.176073
0.185098 0.265056 0.184931
0.256960 0.275757 0.194006
0.330438 0.286747 0.203295
0.405600 0.298021 0.212795
0.482501 0.309574 0.222505
0.561191 0.321403 0.232426
0.641717 0.333508 0.242557
0.071283 0.346278 0.196820
0.142963 0.358116 0.206173
0.216271 0.370260 0.215737
0.291270 0.382703 0.225512
0.368015 0.395442 0.235496
0.446555 0.408473 0.245692
0.526933 0.421796 0.256099
0.609190 0.435409 0.266719
0.693364 0.449311 0.277552
0.098693 0.456358 0.228538
0.173463 0.470016 0.238587
0.249990 0.483985 0.248847
0.328320 0.498260 0.259319
0.408496 0.512839 0.270003
0.490557 0.527721 0.280902
0.574540 0.542906 0.292016
0.660478 0.558391 0.303347
0.748403 0.574178 0.314895
0.128267 0.575283 0.262558
0.206339 0.590838 0.273308
0.286267 0.606708 0.284272
0.368088 0.622894 0.295452
0.451837 0.639392 0.306849
0.537548 0.656203 0.318464
0.625251 0.673326 0.330298
0.714976 0.690759 0.342353
0.806750 0.708505 0.354629
0.160121 0.703469 0.298909
0.241663 0.720988 0.310372
0.325142 0.738830 0.322054
0.410589 0.756994 0.333955
0.498036 0.775480 0.346077
0.587510 0.794287 0.358421
0.674790 0.808236 0.368877
0.758768 0.817646 0.377503
0.842747 0.827056 0.386129
0.194352 0.841274 0.337632
0.279505 0.860818 0.349822
0.366663 0.880692 0.362234
0.451366 0.891871 0.371511
0.535344 0.901281 0.380137
0.619323 0.910691 0.388763
0.703302 0.920100 0.397389
0.787280 0.929510 0.406015
0.871259 0.938920 0.414641
0.000000 0.000000 0.157073
0.046118 0.000000 0.164076
0.112714 0.000000 0.171079
0.179310 0.000048 0.178082
0.245906 0.007476 0.185085
0.312502 0.014905 0.192088
0.379098 0.022333 0.199090
0.445694 0.029762 0.206093
0.514276 0.037338 0.213830
0.002132 0.066073 0.180220
0.068728 0.073501 0.187223
0.135324 0.080930 0.194225
0.201920 0.088358 0.201228
0.268516 0.095787 0.208231
0.337204 0.103874 0.216428
0.407725 0.112337 0.225193
0.479876 0.121054 0.234270
0.553698 0.130007 0.243616
0.024743 0.154383 0.203366
0.091449 0.162011 0.210595
0.159320 0.170757 0.219066
0.228541 0.179893 0.227934
0.299228 0.189332 0.237096
0.371474 0.199049 0.246519
0.445353 0.209032 0.256186
0.520929 0.219276 0.266090
0.598255 0.229778 0.276224
0.048339 0.247858 0.230702
0.117482 0.258047 0.239946
0.188090 0.268549 0.249445
0.260254 0.279346 0.259185
0.334051 0.290430 0.269159
0.409542 0.301796 0.279364
0.486783 0.313440 0.289795
0.565824 0.325361 0.300453
0.646709 0.337557 0.311335
0.073922 0.350144 0.262206
0.145898 0.362083 0.272251
0.219518 0.374326 0.282525
0.294841 0.386867 0.293025
0.371921 0.399703 0.303751
0.450806 0.412830 0.314703
0.531538 0.426249 0.325878
0.614157 0.439957 0.337279
0.698700 0.453954 0.348905
0.101542 0.460823 0.296276
0.176632 0.474584 0.307071
0.253491 0.488654 0.318091
0.332162 0.503029 0.329335
0.412688 0.517709 0.340804
0.495108 0.532690 0.352499
0.579456 0.547974 0.364420
0.665767 0.563559 0.376567
0.754071 0.579445 0.388942
0.131338 0.580373 0.332813
0.209749 0.596032 0.344351
0.290024 0.612006 0.356115
0.372201 0.628295 0.368104
0.456313 0.644896 0.380321
0.542394 0.661810 0.392765
0.630474 0.679035 0.405437
0.720582 0.696571 0.418339
0.812746 0.714419 0.431471
0.163425 0.709205 0.371810
0.245321 0.726830 0.384096
0.329161 0.744779 0.396609
0.414977 0.763049 0.409352
0.502798 0.781641 0.422324
0.592653 0.800553 0.435526
0.677632 0.811337 0.444820
0.761610 0.820746 0.453446
0.845589 0.830156 0.462072
0.197898 0.847676 0.413288
0.283417 0.867329 0.426330
0.370229 0.885561 0.438828
0.454208 0.894971 0.447454
0.538186 0.904381 0.456080
0.622165 0.913791 0.464706
0.706144 0.923200 0.473332
0.790122 0.932610 0.481958
0.874101 0.942020 0.490584
0.000000 0.000000 0.218726
0.048372 0.000000 0.225729
0.114968 0.000000 0.232731
0.181564 0.002495 0.239734
0.248160 0.009924 0.246737
0.314756 0.017352 0.253740
0.381351 0.024781 0.260743
0.447947 0.032209 0.267746
0.517856 0.039898 0.276320
0.004386 0.068520 0.241872
0.070982 0.075949 0.248875
0.137578 0.083377 0.255878
0.204174 0.090806 0.262881
0.271137 0.098370 0.270209
0.340395 0.106632 0.279095
0.411271 0.115182 0.288451
0.483771 0.123978 0.298146
0.557945 0.133009 0.308135
0.026996 0.156831 0.265019
0.093914 0.164836 0.272852
0.162054 0.173731 0.281911
0.231561 0.182971 0.291378
0.302552 0.192504 0.301166
0.375116 0.202309 0.311239
0.449325 0.212379 0.321580
0.525241 0.222708 0.332176
0.602919 0.233295 0.343022
0.050802 0.251179 0.294334
0.120212 0.261474 0.304212
0.191107 0.272074 0.314369
0.263577 0.282967 0.324788
0.337693 0.294144 0.335461
0.413516 0.305602 0.346382
0.491099 0.317337 0.357545
0.570491 0.329349 0.368949
0.651736 0.341635 0.380592
0.076581 0.354043 0.328020
0.148857 0.366084 0.338769
0.222790 0.378425 0.349764
0.298439 0.391064 0.361001
0.375856 0.403996 0.372479
0.455087 0.417219 0.384194
0.536174 0.430733 0.396147
0.619156 0.444537 0.408336
0.704069 0.458629 0.420761
0.104412 0.465323 0.364480
0.179825 0.479186 0.376030
0.257017 0.493356 0.387818
0.336031 0.507832 0.399843
0.416908 0.522611 0.412104
0.499687 0.537693 0.424602
0.584403 0.553075 0.437336
0.671088 0.568759 0.450306
0.759772 0.584744 0.463513
0.134432 0.585497 0.403561
0.213183 0.601260 0.415895
0.293808 0.617338 0.428464
0.376341 0.633729 0.441270
0.460818 0.650434 0.454313
0.547271 0.667450 0.467592
0.635728 0.684778 0.481109
0.726220 0.702417 0.494864
0.818773 0.720367 0.508856
0.166753 0.714976 0.445227
0.249004 0.732708 0.458342
0.333206 0.750762 0.471694
0.419392 0.769139 0.485283
0.507589 0.787836 0.499110
0.596495 0.805027 0.512137
0.680474 0.814437 0.520763
0.764452 0.823846 0.529389
0.848431 0.833256 0.538016
0.201468 0.854114 0.489479
0.287355 0.873876 0.503379
0.373071 0.888662 0.514771
0.457050 0.898071 0.523397
0.541028 0.907481 0.532023
0.625007 0.916891 0.540649
0.708986 0.926301 0.549275
0.792964 0.935710 0.557901
0.876943 0.945120 0.566527
0.000000 0.000000 0.280378
0.050626 0.000000 0.287381
0.117221 0.000000 0.294384
0.183817 0.004943 0.301387
0.250413 0.012371 0.308390
0.317009 0.019800 0.315393
0.383605 0.027228 0.322396
0.450880 0.034710 0.329840
0.521544 0.042480 0.339146
0.006640 0.070968 0.303525
0.073236 0.078396 0.310528
0.139832 0.085824 0.317531
0.206428 0.093253 0.324534
0.274010 0.101053 0.332600
0.343648 0.109420 0.342106
0.414869 0.118053 0.352079
0.487713 0.126927 0.362413
0.562238 0.136035 0.373062
0.029250 0.159278 0.326672
0.096417 0.167721 0.335440
0.164821 0.176741 0.345108
0.234615 0.186081 0.355198
0.305910 0.195705 0.365632
0.378793 0.205598 0.376372
0.453333 0.215753 0.387400
0.529591 0.226167 0.398702
0.607620 0.236839 0.410270
0.053284 0.254536 0.358349
0.122964 0.264933 0.368879
0.194151 0.275631 0.379709
0.266928 0.286618 0.390822
0.341365 0.297888 0.402206
0.417520 0.309438 0.413854
0.495447 0.321264 0.425759
0.575192 0.333366 0.437919
0.656797 0.345743 0.450331
0.079261 0.357976 0.394269
0.151839 0.370117 0.405734
0.226088 0.382556 0.417461
0.302064 0.395292 0.429445
0.379819 0.408320 0.441682
0.459398 0.421639 0.454170
0.540841 0.435249 0.466908
0.624187 0.449148 0.479893
0.709471 0.463335 0.493125
0.107304 0.469856 0.433154
0.183042 0.483821 0.445468
0.260568 0.498092 0.458032
0.339927 0.512668 0.470846
0.421157 0.527546 0.483906
0.504297 0.542727 0.497214
0.589380 0.558209 0.510767
0.676440 0.573993 0.524567
0.765506 0.590076 0.538612
0.137549 0.590655 0.474807
0.216642 0.606522 0.487943
0.297617 0.622704 0.501325
0.380509 0.639198 0.514954
0.465352 0.656006 0.528829
0.552176 0.673125 0.542949
0.641013 0.690555 0.557316
0.731890 0.708296 0.571928
0.822761 0.724493 0.585447
0.170104 0.720782 0.519164
0.252712 0.738620 0.533114
0.337278 0.756781 0.547309
0.423834 0.775263 0.561751
0.512408 0.794066 0.576439
0.599337 0.808127 0.588080
0.683316 0.817537 0.596706
0.767294 0.826947 0.605333
0.851273 0.836356 0.613959
0.205063 0.860589 0.566209
0.291319 0.880459 0.580972
0.375913 0.891762 0.590714
0.459892 0.901171 0.599340
0.543870 0.910581 0.607966
0.627849 0.919991 0.616592
0.711827 0.929401 0.625218
0.795806 0.938810 0.633844
0.879785 0.948220 0.642470
0.000000 0.000000 0.342031
0.052879 0.000000 0.349034
0.119475 0.000000 0.356037
0.186071 0.007390 0.363040
0.252667 0.014818 0.370043
0.319263 0.022247 0.377046
0.385859 0.029675 0.384049
0.454170 0.037248 0.392368
0.525321 0.045082 0.402324
0.008893 0.073415 0.365178
0.075489 0.080843 0.372181
0.142085 0.088272 0.379184
0.208681 0.095700 0.386187
0.276970 0.103777 0.395337
0.346957 0.112237 0.405477
0.418515 0.120951 0.416088
0.491701 0.129902 0.427079
0.566575 0.139086 0.438405
0.031540 0.161913 0.388716
0.098951 0.170653 0.398373
0.167619 0.179785 0.408672
0.237701 0.189221 0.419406
0.309301 0.198935 0.430502
0.382504 0.208915 0.441926
0.457376 0.219156 0.453655
0.533977 0.229655 0.465674
0.612358 0.240411 0.477975
0.055785 0.257927 0.422757
0.125739 0.268425 0.433956
0.197219 0.279219 0.445475
0.270306 0.290300 0.457294
0.345066 0.301663 0.469400
0.421556 0.313303 0.481785
0.499828 0.325221 0.494443
0.579927 0.337413 0.507368
0.661894 0.349881 0.520556
0.081961 0.361943 0.460960
0.154843 0.374182 0.473152
0.229410 0.386720 0.485621
0.305717 0.399552 0.498360
0.383811 0.412676 0.511366
0.463738 0.426091 0.524635
0.545539 0.439796 0.538165
0.629250 0.453790 0.551953
0.714907 0.468073 0.565999
0.110218 0.474423 0.502303
0.186282 0.488489 0.515389
0.264145 0.502860 0.528738
0.343849 0.517536 0.542347
0.425434 0.532515 0.556214
0.508936 0.547795 0.570338
0.594389 0.563376 0.584717
0.681824 0.579258 0.599352
0.771273 0.595441 0.614242
0.140688 0.595848 0.546553
0.220126 0.611818 0.560499
0.301452 0.628103 0.574701
0.384704 0.644701 0.589158
0.469913 0.661611 0.603871
0.557112 0.678833 0.618839
0.646328 0.696366 0.634060
0.737591 0.714210 0.649536
0.825603 0.727593 0.661390
0.173479 0.726624 0.593623
0.256445 0.744568 0.608414
0.341377 0.762835 0.623459
0.428304 0.781423 0.638758
0.517256 0.800331 0.654312
0.602179 0.811227 0.664023
0.686158 0.820637 0.672649
0.770136 0.830047 0.681276
0.854115 0.839456 0.689902
0.208682 0.867099 0.643480
0.294776 0.885452 0.658031
0.378755 0.894862 0.666657
0.462734 0.904272 0.675283
0.546712 0.913681 0.683909
0.630691 0.923091 0.692535
0.714669 0.932501 0.701161
0.798648 0.941911 0.709787
0.882627 0.951320 0.718414
0.000000 0.000000 0.403684
0.055133 0.000000 0.410687
0.121729 0.002409 0.417690
0.188325 0.009837 0.424692
0.254921 0.017266 0.431695
0.321517 0.024694 0.438698
0.388113 0.032123 0.445701
0.457593 0.039808 0.455255
0.529173 0.047704 0.465869
0.011147 0.075862 0.426830
0.077743 0.083291 0.433833
0.144339 0.090719 0.440836
0.211206 0.098277 0.448350
0.279995 0.106534 0.458429
0.350315 0.115081 0.469220
0.422206 0.123874 0.480489
0.495734 0.132902 0.492153
0.570956 0.142163 0.504171
0.033871 0.164735 0.451316
0.101512 0.173625 0.461665
0.170447 0.182862 0.472615
0.240818 0.192391 0.484010
0.312726 0.202194 0.495786
0.386250 0.212260 0.507907
0.461455 0.222586 0.520349
0.538400 0.233170 0.533097
0.617134 0.244011 0.546141
0.058305 0.261352 0.487567
0.128537 0.271949 0.499451
0.200314 0.282838 0.511672
0.273713 0.294013 0.524209
0.348797 0.305467 0.537048
0.425623 0.317199 0.550181
0.504241 0.329207 0.563599
0.584694 0.341491 0.577298
0.667025 0.354049 0.591272
0.084681 0.365942 0.528097
0.157871 0.378280 0.541027
0.232758 0.390915 0.554248
0.309396 0.403844 0.567752
0.387832 0.417064 0.581535
0.468109 0.430574 0.595593
0.550269 0.444374 0.609922
0.634346 0.458464 0.624520
0.720377 0.472842 0.639386
0.113154 0.479023 0.571931
0.189546 0.493190 0.585798
0.267748 0.507662 0.599939
0.347799 0.522438 0.614350
0.429740 0.537515 0.629030
0.513605 0.552895 0.643977
0.599428 0.568575 0.659189
0.687240 0.584557 0.674666
0.777072 0.600839 0.690405
0.143851 0.601075 0.618804
0.223633 0.617149 0.633565
0.305314 0.633537 0.648593
0.388926 0.650238 0.663886
0.474504 0.667251 0.679443
0.562076 0.684575 0.695263
0.651674 0.702210 0.711345
0.743323 0.720157 0.727690
0.828445 0.730693 0.737333
0.176879 0.732500 0.668608
0.260204 0.750551 0.684245
0.345501 0.768923 0.700145
0.432802 0.787617 0.716307
0.521042 0.804918 0.731340
0.605021 0.814327 0.739966
0.688999 0.823737 0.748593
0.772978 0.833147 0.757219
0.856957 0.842557 0.765845
0.212326 0.873645 0.721294
0.297618 0.888552 0.733974
0.381597 0.897962 0.742600
0.465576 0.907372 0.751226
0.549554 0.916781 0.759852
0.633533 0.926191 0.768478
0.717511 0.935601 0.777104
0.801490 0.945011 0.785731
0.885469 0.954420 0.794357
0.000000 0.000000 0.465336
0.057387 0.000000 0.472339
0.123983 0.004856 0.479342
0.190578 0.012285 0.486345
0.257174 0.019713 0.493348
0.323770 0.027142 0.500351
0.390926 0.034621 0.508001
0.461114 0.042389 0.518507
0.533094 0.050347 0.529793
0.013401 0.078310 0.488483
0.079997 0.085738 0.495486
0.146593 0.093167 0.502489
0.213941 0.100958 0.511088
0.283075 0.109322 0.521888
0.353719 0.117952 0.533347
0.425942 0.126823 0.545291
0.499809 0.135928 0.557645
0.575379 0.145265 0.570368
0.036222 0.167619 0.514294
0.104099 0.176634 0.525328
0.173303 0.185971 0.536947
0.243966 0.195591 0.549021
0.316182 0.205481 0.561491
0.390029 0.215633 0.574321
0.465569 0.226045 0.587488
0.542858 0.236713 0.600976
0.621946 0.247639 0.614774
0.060845 0.264810 0.552788
0.131357 0.275505 0.565371
0.203434 0.286489 0.578306
0.277146 0.297756 0.591573
0.352557 0.309302 0.605156
0.429721 0.321125 0.619046
0.508686 0.333224 0.633234
0.589496 0.345598 0.647715
0.672190 0.358246 0.662482
0.087423 0.369974 0.595687
0.160922 0.382410 0.609365
0.236131 0.395142 0.623346
0.313102 0.408167 0.637624
0.391880 0.421483 0.652193
0.472510 0.435089 0.667047
0.555029 0.448984 0.682183
0.639474 0.463169 0.697598
0.725879 0.477642 0.713290
0.116112 0.483657 0.642041
0.192835 0.497924 0.656697
0.271376 0.512496 0.671638
0.351776 0.527372 0.686859
0.434073 0.542549 0.702359
0.518303 0.558028 0.718136
0.604497 0.573807 0.734186
0.692688 0.589888 0.750509
0.782903 0.606269 0.767105
0.147037 0.606336 0.691562
0.227166 0.622514 0.707147
0.309201 0.639005 0.723007
0.393176 0.655808 0.739141
0.479122 0.672924 0.755547
0.567071 0.690351 0.772225
0.657050 0.708088 0.789173
0.747308 0.724383 0.804650
0.831287 0.733793 0.813276
0.180302 0.738411 0.744121
0.263988 0.756568 0.760610
0.349653 0.775047 0.777370
0.437327 0.793846 0.794401
0.523884 0.808018 0.807283
0.607863 0.817427 0.815909
0.691841 0.826837 0.824536
0.775820 0.836247 0.833162
0.859799 0.845657 0.841788
0.215995 0.880226 0.799654
0.300460 0.891652 0.809917
0.384439 0.901062 0.818543
0.468418 0.910472 0.827169
0.552396 0.919882 0.835795
0.636375 0.929291 0.844421
0.720353 0.938701 0.853047
0.804332 0.948111 0.861674
0.888310 0.957521 0.870300
