assets/lighting/cinematic/grade-blue-hour/lut.cube
TITLE "Blue Hour"
# TKRS lighting-batch-001 original LUT
# Intended usage: post-sunset cool ambient, city/liminal exteriors
# License: CC0-1.0
LUT_3D_SIZE 17
DOMAIN_MIN 0.0 0.0 0.0
DOMAIN_MAX 1.0 1.0 1.0
0.000000 0.000000 0.000000
0.010802 0.000000 0.000000
0.047561 0.000000 0.000000
0.084320 0.000000 0.000000
0.121078 0.000000 0.000000
0.157837 0.000000 0.000000
0.194595 0.000000 0.000000
0.231354 0.000000 0.000000
0.268112 0.000000 0.000000
0.304871 0.000000 0.000000
0.341629 0.000000 0.000000
0.378388 0.000000 0.000000
0.415146 0.000000 0.000000
0.451905 0.000000 0.000000
0.488663 0.000000 0.000000
0.525422 0.000000 0.000000
0.562180 0.000000 0.000000
0.000000 0.014660 0.000000
0.013743 0.015550 0.000000
0.050501 0.016439 0.000000
0.087260 0.017329 0.000000
0.124018 0.018218 0.000000
0.160777 0.019108 0.000000
0.197535 0.019997 0.000000
0.234294 0.020887 0.000000
0.271052 0.021776 0.000000
0.307811 0.022666 0.000000
0.344569 0.023556 0.000000
0.381328 0.024445 0.000000
0.418086 0.025335 0.000000
0.454845 0.026224 0.000000
0.491603 0.027114 0.000000
0.528424 0.028007 0.000000
0.566221 0.028954 0.000000
0.000000 0.056538 0.000000
0.016683 0.057428 0.000000
0.053441 0.058318 0.000000
0.090200 0.059207 0.000000
0.126958 0.060097 0.000000
0.163717 0.060986 0.000000
0.200475 0.061876 0.000000
0.237234 0.062765 0.000000
0.273992 0.063655 0.000000
0.310751 0.064544 0.000000
0.347509 0.065434 0.000000
0.384268 0.066323 0.000000
0.421398 0.067277 0.000000
0.459144 0.068323 0.000000
0.497194 0.069395 0.000000
0.535524 0.070487 0.000000
0.574131 0.071595 0.000000
0.000000 0.098417 0.000000
0.019623 0.099306 0.000000
0.056381 0.100196 0.000000
0.093140 0.101085 0.000000
0.129898 0.101975 0.000000
0.166657 0.102864 0.000000
0.203415 0.103754 0.000000
0.240174 0.104643 0.000000
0.276942 0.105537 0.000000
0.314257 0.106632 0.000000
0.351870 0.107786 0.000000
0.389741 0.108973 0.000000
0.427870 0.110185 0.000000
0.466256 0.111419 0.000000
0.504906 0.112673 0.000000
0.543822 0.113944 0.000000
0.583009 0.115231 0.000000
0.000000 0.140295 0.000000
0.022563 0.141184 0.000000
0.059321 0.142074 0.000000
0.096080 0.142963 0.000000
0.132838 0.143853 0.000000
0.169725 0.144862 0.000000
0.206936 0.146079 0.000000
0.244375 0.147350 0.000000
0.282045 0.148658 0.000000
0.319954 0.149997 0.000000
0.358107 0.151361 0.000000
0.396512 0.152747 0.000000
0.435173 0.154155 0.000000
0.474098 0.155583 0.000000
0.513291 0.157029 0.000000
0.552756 0.158492 0.000000
0.592499 0.159973 0.000000
0.000000 0.182173 0.000000
0.025503 0.183062 0.000000
0.062365 0.184285 0.000000
0.099405 0.185625 0.000000
0.136643 0.187020 0.000000
0.174093 0.188455 0.000000
0.211767 0.189924 0.000000
0.249675 0.191421 0.000000
0.287824 0.192945 0.000000
0.326223 0.194493 0.000000
0.364877 0.196064 0.000000
0.403793 0.197655 0.000000
0.442975 0.199267 0.000000
0.482429 0.200897 0.000000
0.522159 0.202547 0.000826
0.562171 0.204214 0.001958
0.602467 0.205899 0.003092
0.000000 0.225277 0.000000
0.028658 0.226800 0.000000
0.065873 0.228366 0.000000
0.103301 0.229969 0.000000
0.140952 0.231604 0.000000
0.178838 0.233269 0.000000
0.216965 0.234960 0.000000
0.255341 0.236675 0.000000
0.293972 0.238415 0.000000
0.332865 0.240177 0.000000
0.372024 0.241960 0.000222
0.411455 0.243764 0.001353
0.451163 0.245588 0.002486
0.491151 0.247431 0.003622
0.531423 0.249293 0.004760
0.571985 0.251173 0.005902
0.612838 0.253072 0.007046
0.000000 0.270136 0.000000
0.031932 0.271912 0.000000
0.069545 0.273719 0.000000
0.107393 0.275556 0.000000
0.145484 0.277420 0.000000
0.183825 0.279310 0.000000
0.222423 0.281224 0.000000
0.261282 0.283162 0.000749
0.300408 0.285122 0.001880
0.339806 0.287104 0.003015
0.379482 0.289107 0.004152
0.419437 0.291131 0.005292
0.459678 0.293175 0.006434
0.500208 0.295238 0.007580
0.541030 0.297321 0.008728
0.582149 0.299422 0.009879
0.623566 0.301542 0.011032
0.000000 0.316285 0.000000
0.035302 0.318299 0.000000
0.073347 0.320342 0.000000
0.111643 0.322410 0.000145
0.150197 0.324505 0.001275
0.189014 0.326623 0.002409
0.228098 0.328765 0.003544
0.267456 0.330930 0.004683
0.307091 0.333117 0.005824
0.347008 0.335326 0.006967
0.387210 0.337556 0.008114
0.427701 0.339806 0.009263
0.468486 0.342077 0.010416
0.509566 0.344367 0.011571
0.550946 0.346677 0.012729
0.592629 0.349006 0.013890
0.634618 0.351354 0.015054
0.000523 0.363737 0.000671
0.038766 0.365990 0.001803
0.077268 0.368268 0.002937
0.116035 0.370572 0.004074
0.155071 0.372900 0.005214
0.194381 0.375252 0.006356
0.233970 0.377628 0.007501
0.273840 0.380025 0.008649
0.313997 0.382445 0.009800
0.354444 0.384886 0.010953
0.395185 0.387348 0.012110
0.436222 0.389831 0.013269
0.477559 0.392335 0.014432
0.519200 0.394858 0.015597
0.561147 0.397402 0.016766
0.603403 0.399965 0.017937
0.645970 0.402547 0.019112
0.003613 0.412526 0.004605
0.042324 0.415019 0.005746
0.081305 0.417538 0.006889
0.120561 0.420081 0.008036
0.160097 0.422648 0.009185
0.199916 0.425238 0.010337
0.240022 0.427851 0.011492
0.280419 0.430487 0.012650
0.321110 0.433144 0.013811
0.362099 0.435823 0.014974
0.403388 0.438524 0.016141
0.444982 0.441245 0.017311
0.486882 0.443987 0.018484
0.529091 0.446749 0.019660
0.571613 0.449532 0.020839
0.614450 0.452334 0.022022
0.657604 0.455156 0.023207
0.006779 0.462686 0.008571
0.045976 0.465424 0.009721
0.085454 0.468186 0.010875
0.125216 0.470972 0.012031
0.165267 0.473782 0.013190
0.205609 0.476616 0.014352
0.246246 0.479472 0.015518
0.287181 0.482350 0.016686
0.328418 0.485251 0.017857
0.369960 0.488173 0.019032
0.411808 0.491116 0.020209
0.453967 0.494081 0.021390
0.496439 0.497067 0.022574
0.539226 0.500073 0.023761
0.582331 0.503099 0.024951
0.625757 0.506146 0.026144
0.669505 0.509213 0.027341
0.010025 0.514251 0.012571
0.049725 0.517237 0.013731
0.089715 0.520247 0.014895
0.129998 0.523281 0.016061
0.170577 0.526339 0.017231
0.211454 0.529419 0.018404
0.252635 0.532523 0.019580
0.294120 0.535649 0.020759
0.335913 0.538797 0.021941
0.378017 0.541967 0.023126
0.420435 0.545158 0.024315
0.463168 0.548371 0.025506
0.506221 0.551605 0.026701
0.549594 0.554859 0.027900
0.593290 0.558135 0.029101
0.637312 0.561431 0.030306
0.681662 0.564747 0.031514
0.013353 0.567252 0.016606
0.053572 0.570490 0.017777
0.094088 0.573752 0.018951
0.134904 0.577038 0.020129
0.176024 0.580347 0.021309
0.217449 0.583679 0.022493
0.259183 0.587035 0.023679
0.301229 0.590412 0.024869
0.343588 0.593812 0.026063
0.386265 0.597234 0.027259
0.429260 0.600678 0.028459
0.472577 0.604143 0.029662
0.516218 0.607630 0.030868
0.560185 0.611138 0.032078
0.604480 0.614666 0.033291
0.649106 0.618216 0.034508
0.694064 0.621786 0.035728
0.016767 0.621719 0.020678
0.057518 0.625212 0.021860
0.098573 0.628730 0.023045
0.139934 0.632271 0.024233
0.181606 0.635836 0.025425
0.223589 0.639424 0.026620
0.265887 0.643035 0.027818
0.308503 0.646669 0.029019
0.351438 0.650325 0.030224
0.394696 0.654003 0.031432
0.438278 0.657703 0.032643
0.482186 0.661425 0.033858
0.526424 0.665169 0.035076
0.570992 0.668934 0.036297
0.615894 0.672720 0.037522
0.661130 0.676527 0.038750
0.705992 0.679617 0.039967
0.020270 0.677677 0.024788
0.061564 0.681430 0.025981
0.103169 0.685207 0.027177
0.145087 0.689008 0.028377
0.187321 0.692832 0.029580
0.229873 0.696680 0.030786
0.272745 0.700551 0.031995
0.315939 0.704444 0.033208
0.359459 0.708360 0.034425
0.403306 0.712299 0.035644
0.447483 0.716259 0.036867
0.491991 0.720241 0.038094
0.536833 0.724246 0.039324
0.580394 0.726097 0.040516
0.623407 0.727152 0.041694
0.666419 0.728206 0.042873
0.709432 0.729261 0.044051
0.023862 0.735154 0.028937
0.065712 0.739169 0.030141
0.107878 0.743210 0.031349
0.150363 0.747273 0.032560
0.193168 0.751361 0.033774
0.236298 0.755472 0.034992
0.279752 0.759606 0.036213
0.323535 0.763763 0.037438
0.367648 0.767942 0.038666
0.411784 0.771523 0.039887
0.454797 0.772577 0.041065
0.497809 0.773632 0.042243
0.540822 0.774686 0.043421
0.583835 0.775741 0.044600
0.626847 0.776795 0.045778
0.669860 0.777850 0.046956
0.712872 0.778904 0.048134
0.000000 0.000000 0.018654
0.011122 0.000000 0.019770
0.047880 0.000000 0.020886
0.084639 0.000000 0.022003
0.121397 0.000000 0.023119
0.158156 0.000000 0.024235
0.194914 0.000000 0.025352
0.231673 0.000000 0.026468
0.268431 0.000000 0.027584
0.305190 0.000000 0.028701
0.341948 0.000000 0.029817
0.378707 0.000000 0.030933
0.415465 0.000000 0.032050
0.452224 0.000000 0.033166
0.488982 0.000000 0.034282
0.525741 0.000000 0.035398
0.562499 0.000000 0.036515
0.000000 0.014995 0.022523
0.014062 0.015885 0.023639
0.050820 0.016774 0.024755
0.087579 0.017664 0.025872
0.124337 0.018553 0.026988
0.161096 0.019443 0.028104
0.197854 0.020332 0.029221
0.234613 0.021222 0.030337
0.271371 0.022111 0.031453
0.308130 0.023001 0.032570
0.344888 0.023890 0.033686
0.381647 0.024780 0.034802
0.418405 0.025669 0.035918
0.455164 0.026559 0.037035
0.491922 0.027448 0.038151
0.529062 0.028360 0.039277
0.567004 0.029316 0.040420
0.000000 0.056873 0.026392
0.017002 0.057763 0.027508
0.053760 0.058652 0.028624
0.090519 0.059542 0.029741
0.127277 0.060431 0.030857
0.164036 0.061321 0.031973
0.200794 0.062210 0.033090
0.237553 0.063100 0.034206
0.274311 0.063990 0.035322
0.311070 0.064879 0.036439
0.347828 0.065769 0.037555
0.384587 0.066658 0.038671
0.422028 0.067667 0.039808
0.459864 0.068724 0.040955
0.497987 0.069804 0.042106
0.536386 0.070902 0.043262
0.575059 0.072016 0.044422
0.000000 0.098752 0.030261
0.019942 0.099641 0.031377
0.056700 0.100531 0.032493
0.093459 0.101420 0.033610
0.130217 0.102310 0.034726
0.166976 0.103199 0.035842
0.203734 0.104089 0.036959
0.240493 0.104978 0.038075
0.277418 0.105937 0.039199
0.314831 0.107061 0.040342
0.352511 0.108229 0.041491
0.390445 0.109427 0.042644
0.428633 0.110648 0.043802
0.467079 0.111889 0.044964
0.505789 0.113149 0.046129
0.544765 0.114426 0.047298
0.584013 0.115720 0.048470
0.000000 0.140630 0.034130
0.022882 0.141519 0.035246
0.059640 0.142409 0.036362
0.096399 0.143298 0.037479
0.133157 0.144188 0.038595
0.170168 0.145311 0.039730
0.207435 0.146552 0.040876
0.244927 0.147839 0.042028
0.282651 0.149159 0.043183
0.320613 0.150507 0.044343
0.358821 0.151880 0.045506
0.397281 0.153275 0.046673
0.436000 0.154690 0.047843
0.474982 0.156125 0.049017
0.514233 0.157578 0.050195
0.553758 0.159048 0.051375
0.593561 0.160535 0.052560
0.000000 0.182508 0.037999
0.025834 0.183494 0.039121
0.062735 0.184782 0.040264
0.099816 0.186145 0.041412
0.137098 0.187556 0.042565
0.174594 0.189004 0.043723
0.212317 0.190484 0.044884
0.250275 0.191992 0.046049
0.288477 0.193525 0.047218
0.326928 0.195082 0.048390
0.365637 0.196660 0.049565
0.404608 0.198259 0.050744
0.443847 0.199878 0.051927
0.483359 0.201516 0.053113
0.523148 0.203173 0.054302
0.563218 0.204847 0.055495
0.603575 0.206538 0.056691
0.000000 0.225845 0.041949
0.029009 0.227385 0.043104
0.066265 0.228966 0.044263
0.103737 0.230581 0.045426
0.141435 0.232228 0.046593
0.179369 0.233902 0.047763
0.217546 0.235603 0.048937
0.255974 0.237328 0.050114
0.294658 0.239076 0.051295
0.333606 0.240846 0.052479
0.372820 0.242637 0.053666
0.412308 0.244448 0.054857
0.452073 0.246279 0.056052
0.492119 0.248130 0.057249
0.532451 0.249999 0.058451
0.573072 0.251886 0.059655
0.613987 0.253791 0.060863
0.000000 0.270801 0.045969
0.032294 0.272589 0.047138
0.069952 0.274408 0.048310
0.107847 0.276255 0.049485
0.145988 0.278129 0.050664
0.184380 0.280028 0.051846
0.223029 0.281951 0.053031
0.261942 0.283897 0.054221
0.301123 0.285866 0.055413
0.340577 0.287856 0.056609
0.380308 0.289867 0.057808
0.420322 0.291898 0.059011
0.460622 0.293950 0.060218
0.501211 0.296020 0.061427
0.542093 0.298110 0.062641
0.583272 0.300218 0.063858
0.624751 0.302345 0.065078
0.000000 0.317040 0.050034
0.035674 0.319065 0.051214
0.073767 0.321117 0.052398
0.112113 0.323196 0.053585
0.150719 0.325299 0.054776
0.189588 0.327427 0.055970
0.228727 0.329578 0.057167
0.268140 0.331751 0.058368
0.307831 0.333946 0.059573
0.347805 0.336163 0.060781
0.388065 0.338401 0.061992
0.428615 0.340659 0.063207
0.469459 0.342937 0.064426
0.510600 0.345235 0.065647
0.552041 0.347552 0.066873
0.593786 0.349888 0.068102
0.635837 0.352243 0.069334
0.000855 0.364582 0.054139
0.039148 0.366844 0.055332
0.077701 0.369133 0.056527
0.116520 0.371446 0.057726
0.155610 0.373783 0.058929
0.194975 0.376144 0.060135
0.234618 0.378528 0.061345
0.274546 0.380934 0.062558
0.314760 0.383361 0.063774
0.355265 0.385811 0.064994
0.396065 0.388281 0.066218
0.437162 0.390772 0.067445
0.478560 0.393283 0.068676
0.520262 0.395814 0.069910
0.562271 0.398364 0.071147
0.604590 0.400934 0.072389
0.647221 0.403524 0.073634
0.003953 0.413462 0.058286
0.042716 0.415964 0.059491
0.081750 0.418492 0.060698
0.121060 0.421044 0.061909
0.160651 0.423620 0.063124
0.200527 0.426219 0.064342
0.240690 0.428841 0.065564
0.281145 0.431485 0.066789
0.321895 0.434150 0.068018
0.362943 0.436837 0.069250
0.404293 0.439546 0.070486
0.445947 0.442275 0.071725
0.487909 0.445025 0.072968
0.530181 0.447794 0.074215
0.572765 0.450584 0.075465
0.615666 0.453394 0.076719
0.658884 0.456223 0.077976
0.007128 0.463714 0.062475
0.046379 0.466461 0.063691
0.085912 0.469232 0.064911
0.125730 0.472028 0.066134
0.165837 0.474846 0.067361
0.206236 0.477688 0.068591
0.246932 0.480553 0.069825
0.287927 0.483440 0.071063
0.329224 0.486348 0.072304
0.370826 0.489278 0.073548
0.412736 0.492230 0.074797
0.454957 0.495203 0.076049
0.497491 0.498196 0.077304
0.540341 0.501210 0.078563
0.583510 0.504244 0.079826
0.627000 0.507298 0.081092
0.670814 0.510372 0.082362
0.010382 0.515373 0.066705
0.050139 0.518368 0.067934
0.090185 0.521387 0.069166
0.130525 0.524430 0.070401
0.171162 0.527496 0.071640
0.212099 0.530585 0.072883
0.253338 0.533697 0.074130
0.294884 0.536831 0.075379
0.336738 0.539988 0.076633
0.378904 0.543166 0.077890
0.421384 0.546365 0.079151
0.464181 0.549586 0.080415
0.507296 0.552828 0.081684
0.550733 0.556090 0.082955
0.594495 0.559373 0.084231
0.638582 0.562677 0.085510
0.682997 0.566001 0.086793
0.013720 0.568469 0.070978
0.053996 0.571715 0.072219
0.094570 0.574986 0.073463
0.135445 0.578281 0.074711
0.176624 0.581599 0.075963
0.218109 0.584940 0.077218
0.259904 0.588304 0.078477
0.302011 0.591690 0.079740
0.344433 0.595098 0.081006
0.387172 0.598528 0.082276
0.430230 0.601980 0.083549
0.473611 0.605454 0.084826
0.517317 0.608948 0.086107
0.561348 0.612464 0.087392
0.605709 0.616000 0.088680
0.650401 0.619557 0.089973
0.695426 0.623135 0.091269
0.017143 0.623031 0.075294
0.057953 0.626534 0.076547
0.099067 0.630060 0.077804
0.140488 0.633611 0.079065
0.182220 0.637184 0.080329
0.224265 0.640781 0.081597
0.266625 0.644401 0.082868
0.309303 0.648043 0.084144
0.352301 0.651707 0.085423
0.395623 0.655394 0.086705
0.439269 0.659102 0.087992
0.483242 0.662832 0.089282
0.527545 0.666584 0.090576
0.572179 0.670356 0.091874
0.617147 0.674150 0.093175
0.662450 0.677965 0.094480
0.706366 0.680014 0.095705
0.020655 0.679087 0.079653
0.062010 0.682849 0.080919
0.103675 0.686635 0.082189
0.145654 0.690445 0.083462
0.187950 0.694278 0.084739
0.230564 0.698135 0.086020
0.273499 0.702014 0.087304
0.316757 0.705916 0.088592
0.360341 0.709840 0.089884
0.404253 0.713787 0.091180
0.448494 0.717756 0.092479
0.493068 0.721747 0.093783
0.537756 0.725440 0.095076
0.580768 0.726494 0.096254
0.623781 0.727549 0.097432
0.666793 0.728603 0.098610
0.709806 0.729658 0.099788
0.024258 0.736663 0.084056
0.066169 0.740688 0.085335
0.108396 0.744737 0.086618
0.150943 0.748810 0.087904
0.193811 0.752906 0.089194
0.237004 0.757026 0.090487
0.280523 0.761168 0.091785
0.324370 0.765334 0.093086
0.368547 0.769522 0.094391
0.412158 0.771920 0.095624
0.455171 0.772974 0.096803
0.498183 0.774029 0.097981
0.541196 0.775083 0.099159
0.584208 0.776138 0.100337
0.627221 0.777192 0.101515
0.670233 0.778247 0.102693
0.713246 0.779301 0.103872
0.000000 0.000000 0.071465
0.011441 0.000000 0.072581
0.048200 0.000000 0.073698
0.084958 0.000000 0.074814
0.121717 0.000000 0.075930
0.158475 0.000000 0.077046
0.195234 0.000000 0.078163
0.231992 0.000000 0.079279
0.268751 0.000000 0.080395
0.305509 0.000000 0.081512
0.342268 0.000000 0.082628
0.379026 0.000000 0.083744
0.415785 0.000000 0.084861
0.452543 0.000000 0.085977
0.489302 0.000000 0.087093
0.526060 0.000000 0.088210
0.562819 0.000000 0.089326
0.000000 0.015330 0.075334
0.014381 0.016220 0.076450
0.051140 0.017109 0.077567
0.087898 0.017999 0.078683
0.124657 0.018888 0.079799
0.161415 0.019778 0.080915
0.198174 0.020667 0.082032
0.234932 0.021557 0.083148
0.271691 0.022446 0.084264
0.308449 0.023336 0.085381
0.345208 0.024225 0.086497
0.381966 0.025115 0.087613
0.418725 0.026004 0.088730
0.455483 0.026894 0.089846
0.492242 0.027783 0.090962
0.529761 0.028718 0.092122
0.567813 0.029679 0.093305
0.000000 0.057208 0.079203
0.017321 0.058098 0.080319
0.054080 0.058987 0.081435
0.090838 0.059877 0.082552
0.127597 0.060766 0.083668
0.164355 0.061656 0.084784
0.201114 0.062545 0.085901
0.237872 0.063435 0.087017
0.274631 0.064324 0.088133
0.311389 0.065214 0.089250
0.348148 0.066103 0.090366
0.385079 0.067026 0.091496
0.422685 0.068061 0.092672
0.460600 0.069128 0.093860
0.498793 0.070215 0.095056
0.537259 0.071320 0.096260
0.575997 0.072440 0.097469
0.000000 0.099086 0.083072
0.020261 0.099976 0.084188
0.057020 0.100865 0.085304
0.093778 0.101755 0.086421
0.130537 0.102644 0.087537
0.167295 0.103534 0.088653
0.204054 0.104423 0.089770
0.240812 0.105313 0.090886
0.277932 0.106353 0.092041
0.315421 0.107497 0.093224
0.353163 0.108677 0.094416
0.391157 0.109884 0.095616
0.429404 0.111113 0.096823
0.467910 0.112361 0.098035
0.506679 0.113628 0.099252
0.545716 0.114911 0.100475
0.585025 0.116211 0.101703
0.000000 0.140965 0.086941
0.023201 0.141854 0.088057
0.059960 0.142744 0.089173
0.096718 0.143633 0.090290
0.133522 0.144576 0.091416
0.170622 0.145772 0.092591
0.207942 0.147032 0.093778
0.245486 0.148332 0.094975
0.283262 0.149664 0.096178
0.321278 0.151022 0.097387
0.359540 0.152403 0.098601
0.398056 0.153806 0.099821
0.436831 0.155228 0.101046
0.475871 0.156670 0.102276
0.515180 0.158129 0.103510
0.554764 0.159606 0.104749
0.594627 0.161099 0.105993
0.000000 0.182843 0.090810
0.026172 0.183966 0.091961
0.063108 0.185288 0.093143
0.100230 0.186671 0.094335
0.137556 0.188097 0.095534
0.175099 0.189558 0.096740
0.212871 0.191049 0.097952
0.250879 0.192567 0.099169
0.289133 0.194109 0.100391
0.327638 0.195674 0.101619
0.366401 0.197260 0.102850
0.405428 0.198867 0.104087
0.444723 0.200493 0.105328
0.484293 0.202138 0.106573
0.524141 0.203801 0.107823
0.564271 0.205481 0.109077
0.604688 0.207179 0.110336
0.000000 0.226419 0.094893
0.029361 0.227976 0.096095
0.066659 0.229570 0.097304
0.104175 0.231198 0.098518
0.141920 0.232855 0.099738
0.179903 0.234539 0.100962
0.218130 0.236249 0.102192
0.256610 0.237983 0.103426
0.295348 0.239739 0.104665
0.334349 0.241517 0.105908
0.373620 0.243316 0.107155
0.413164 0.245135 0.108407
0.452987 0.246974 0.109663
0.493091 0.248831 0.110923
0.533483 0.250707 0.112188
0.574164 0.252601 0.113457
0.615140 0.254513 0.114730
0.000000 0.271470 0.099086
0.032656 0.273270 0.100308
0.070360 0.275100 0.101535
0.108304 0.276957 0.102766
0.146494 0.278841 0.104002
0.184936 0.280749 0.105243
0.223638 0.282681 0.106488
0.262604 0.284636 0.107738
0.301840 0.286613 0.108992
0.341350 0.288611 0.110250
0.381139 0.290629 0.111512
0.421210 0.292668 0.112778
0.461568 0.294727 0.114049
0.502217 0.296805 0.115324
0.543159 0.298901 0.116603
0.584400 0.301017 0.117886
0.625941 0.303150 0.119173
0.000000 0.317799 0.103342
0.036047 0.319835 0.104580
0.074189 0.321897 0.105823
0.112586 0.323985 0.107070
0.151242 0.326098 0.108321
0.190165 0.328234 0.109577
0.229358 0.330393 0.110837
0.268826 0.332575 0.112101
0.308573 0.334779 0.113370
0.348604 0.337003 0.114642
0.388922 0.339248 0.115919
0.429531 0.341514 0.117200
0.470435 0.343800 0.118485
0.511637 0.346105 0.119774
0.553139 0.348429 0.121067
0.594946 0.350772 0.122365
0.637060 0.353134 0.123666
0.001188 0.365431 0.107652
0.039531 0.367703 0.108906
0.078136 0.370001 0.110164
0.117007 0.372323 0.111426
0.156150 0.374669 0.112692
0.195570 0.377039 0.113962
0.235269 0.379431 0.115237
0.275253 0.381845 0.116515
0.315525 0.384281 0.117798
0.356089 0.386738 0.119085
0.396948 0.389216 0.120376
0.438105 0.391715 0.121671
0.479564 0.394233 0.122970
0.521328 0.396772 0.124274
0.563399 0.399330 0.125581
0.605780 0.401907 0.126893
0.648475 0.404503 0.128208
0.004295 0.414401 0.112015
0.043109 0.416913 0.113283
0.082197 0.419450 0.114555
0.121562 0.422011 0.115832
0.161208 0.424596 0.117112
0.201139 0.427203 0.118397
0.241360 0.429833 0.119686
0.281873 0.432486 0.120979
0.322682 0.435159 0.122276
0.363790 0.437855 0.123577
0.405200 0.440571 0.124882
0.446915 0.443308 0.126192
0.488939 0.446065 0.127505
0.531273 0.448842 0.128822
0.573921 0.451640 0.130144
0.616885 0.454457 0.131469
0.660168 0.457293 0.132799
0.007478 0.464745 0.116428
0.046783 0.467502 0.117710
0.086370 0.470282 0.118997
0.126244 0.473086 0.120288
0.166408 0.475914 0.121583
0.206866 0.478764 0.122882
0.247620 0.481637 0.124185
0.288674 0.484532 0.125492
0.330031 0.487449 0.126803
0.371694 0.490387 0.128118
0.413665 0.493347 0.129437
0.455948 0.496327 0.130761
0.498545 0.499328 0.132088
0.541459 0.502350 0.133420
0.584692 0.505391 0.134755
0.628247 0.508453 0.136095
0.672125 0.511535 0.137439
0.010741 0.516497 0.120891
0.050553 0.519501 0.122187
0.090656 0.522530 0.123488
0.131053 0.525581 0.124793
0.171749 0.528656 0.126102
0.212744 0.531754 0.127415
0.254044 0.534874 0.128732
0.295650 0.538017 0.130053
0.337566 0.541182 0.131379
0.379793 0.544368 0.132708
0.422336 0.547575 0.134042
0.465195 0.550804 0.135379
0.508375 0.554054 0.136721
0.551876 0.557324 0.138066
0.595702 0.560615 0.139416
0.639854 0.563926 0.140770
0.684336 0.567257 0.142128
0.014087 0.569688 0.125402
0.054421 0.572944 0.126713
0.095053 0.576224 0.128028
0.135987 0.579527 0.129347
0.177225 0.582854 0.130670
0.218771 0.586204 0.131997
0.260626 0.589576 0.133329
0.302795 0.592970 0.134664
0.345279 0.596387 0.136004
0.388081 0.599825 0.137347
0.431203 0.603285 0.138695
0.474648 0.606767 0.140046
0.518418 0.610269 0.141402
0.562515 0.613793 0.142762
0.606941 0.617337 0.144126
0.651699 0.620902 0.145494
0.696790 0.624487 0.146866
0.017521 0.624347 0.129963
0.058388 0.627859 0.131288
0.099562 0.631394 0.132617
0.141043 0.634953 0.133950
0.182836 0.638536 0.135288
0.224942 0.642141 0.136629
0.267364 0.645769 0.137974
0.310105 0.649420 0.139324
0.353167 0.653092 0.140677
0.396552 0.656787 0.142035
0.440262 0.660504 0.143397
0.484300 0.664242 0.144763
0.528668 0.668002 0.146133
0.573368 0.671782 0.147507
0.618402 0.675584 0.148885
0.663727 0.679357 0.150264
0.706739 0.680411 0.151442
0.021042 0.680501 0.134573
0.062457 0.684272 0.135912
0.104183 0.688067 0.137255
0.146223 0.691886 0.138603
0.188580 0.695728 0.139954
0.231256 0.699593 0.141309
0.274254 0.703480 0.142669
0.317576 0.707391 0.144033
0.361224 0.711324 0.145401
0.405201 0.715279 0.146773
0.449507 0.719256 0.148149
0.494147 0.723255 0.149529
0.538129 0.725837 0.150813
0.581142 0.726891 0.151991
0.624154 0.727946 0.153169
0.667167 0.729000 0.154347
0.710179 0.730055 0.155526
0.024655 0.738175 0.139232
0.066627 0.742209 0.140585
0.108916 0.746267 0.141942
0.151525 0.750349 0.143304
0.194456 0.754454 0.144670
0.237712 0.758583 0.146039
0.281295 0.762734 0.147413
0.325206 0.766908 0.148791
0.369449 0.771104 0.150173
0.412532 0.772317 0.151362
0.455544 0.773371 0.152540
0.498557 0.774426 0.153718
0.541569 0.775480 0.154896
0.584582 0.776535 0.156074
0.627595 0.777589 0.157253
0.670607 0.778644 0.158431
0.713620 0.779698 0.159609
0.000000 0.000000 0.124276
0.011761 0.000000 0.125392
0.048519 0.000000 0.126509
0.085278 0.000000 0.127625
0.122036 0.000000 0.128741
0.158795 0.000000 0.129858
0.195553 0.000000 0.130974
0.232312 0.000000 0.132090
0.269070 0.000000 0.133207
0.305829 0.000000 0.134323
0.342587 0.000000 0.135439
0.379346 0.000000 0.136556
0.416104 0.000000 0.137672
0.452863 0.000000 0.138788
