assets/lighting/cinematic/grade-blue-hour/lut.cube
TITLE "Blue Hour"
# TKRS lighting-batch-001 original LUT
# Intended usage: post-sunset cool ambient, city/liminal exteriors
# License: CC0-1.0
LUT_3D_SIZE 9
DOMAIN_MIN 0.0 0.0 0.0
DOMAIN_MAX 1.0 1.0 1.0
0.000000 0.000000 0.000000
0.047561 0.000000 0.000000
0.121078 0.000000 0.000000
0.194595 0.000000 0.000000
0.268112 0.000000 0.000000
0.341629 0.000000 0.000000
0.415146 0.000000 0.000000
0.488663 0.000000 0.000000
0.562180 0.000000 0.000000
0.000000 0.056538 0.000000
0.053441 0.058318 0.000000
0.126958 0.060097 0.000000
0.200475 0.061876 0.000000
0.273992 0.063655 0.000000
0.347509 0.065434 0.000000
0.421398 0.067277 0.000000
0.497194 0.069395 0.000000
0.574131 0.071595 0.000000
0.000000 0.140295 0.000000
0.059321 0.142074 0.000000
0.132838 0.143853 0.000000
0.206936 0.146079 0.000000
0.282045 0.148658 0.000000
0.358107 0.151361 0.000000
0.435173 0.154155 0.000000
0.513291 0.157029 0.000000
0.592499 0.159973 0.000000
0.000000 0.225277 0.000000
0.065873 0.228366 0.000000
0.140952 0.231604 0.000000
0.216965 0.234960 0.000000
0.293972 0.238415 0.000000
0.372024 0.241960 0.000222
0.451163 0.245588 0.002486
0.531423 0.249293 0.004760
0.612838 0.253072 0.007046
0.000000 0.316285 0.000000
0.073347 0.320342 0.000000
0.150197 0.324505 0.001275
0.228098 0.328765 0.003544
0.307091 0.333117 0.005824
0.387210 0.337556 0.008114
0.468486 0.342077 0.010416
0.550946 0.346677 0.012729
0.634618 0.351354 0.015054
0.003613 0.412526 0.004605
0.081305 0.417538 0.006889
0.160097 0.422648 0.009185
0.240022 0.427851 0.011492
0.321110 0.433144 0.013811
0.403388 0.438524 0.016141
0.486882 0.443987 0.018484
0.571613 0.449532 0.020839
0.657604 0.455156 0.023207
0.010025 0.514251 0.012571
0.089715 0.520247 0.014895
0.170577 0.526339 0.017231
0.252635 0.532523 0.019580
0.335913 0.538797 0.021941
0.420435 0.545158 0.024315
0.506221 0.551605 0.026701
0.593290 0.558135 0.029101
0.681662 0.564747 0.031514
0.016767 0.621719 0.020678
0.098573 0.628730 0.023045
0.181606 0.635836 0.025425
0.265887 0.643035 0.027818
0.351438 0.650325 0.030224
0.438278 0.657703 0.032643
0.526424 0.665169 0.035076
0.615894 0.672720 0.037522
0.705992 0.679617 0.039967
0.023862 0.735154 0.028937
0.107878 0.743210 0.031349
0.193168 0.751361 0.033774
0.279752 0.759606 0.036213
0.367648 0.767942 0.038666
0.454797 0.772577 0.041065
0.540822 0.774686 0.043421
0.626847 0.776795 0.045778
0.712872 0.778904 0.048134
0.000000 0.000000 0.071465
0.048200 0.000000 0.073698
0.121717 0.000000 0.075930
0.195234 0.000000 0.078163
0.268751 0.000000 0.080395
0.342268 0.000000 0.082628
0.415785 0.000000 0.084861
0.489302 0.000000 0.087093
0.562819 0.000000 0.089326
0.000000 0.057208 0.079203
0.054080 0.058987 0.081435
0.127597 0.060766 0.083668
0.201114 0.062545 0.085901
0.274631 0.064324 0.088133
0.348148 0.066103 0.090366
0.422685 0.068061 0.092672
0.498793 0.070215 0.095056
0.575997 0.072440 0.097469
0.000000 0.140965 0.086941
0.059960 0.142744 0.089173
0.133522 0.144576 0.091416
0.207942 0.147032 0.093778
0.283262 0.149664 0.096178
0.359540 0.152403 0.098601
0.436831 0.155228 0.101046
0.515180 0.158129 0.103510
0.594627 0.161099 0.105993
0.000000 0.226419 0.094893
0.066659 0.229570 0.097304
0.141920 0.232855 0.099738
0.218130 0.236249 0.102192
0.295348 0.239739 0.104665
0.373620 0.243316 0.107155
0.452987 0.246974 0.109663
0.533483 0.250707 0.112188
0.615140 0.254513 0.114730
0.000000 0.317799 0.103342
0.074189 0.321897 0.105823
0.151242 0.326098 0.108321
0.229358 0.330393 0.110837
0.308573 0.334779 0.113370
0.388922 0.339248 0.115919
0.470435 0.343800 0.118485
0.553139 0.348429 0.121067
0.637060 0.353134 0.123666
0.004295 0.414401 0.112015
0.082197 0.419450 0.114555
0.161208 0.424596 0.117112
0.241360 0.429833 0.119686
0.322682 0.435159 0.122276
0.405200 0.440571 0.124882
0.488939 0.446065 0.127505
0.573921 0.451640 0.130144
0.660168 0.457293 0.132799
0.010741 0.516497 0.120891
0.090656 0.522530 0.123488
0.171749 0.528656 0.126102
0.254044 0.534874 0.128732
0.337566 0.541182 0.131379
0.422336 0.547575 0.134042
0.508375 0.554054 0.136721
0.595702 0.560615 0.139416
0.684336 0.567257 0.142128
0.017521 0.624347 0.129963
0.099562 0.631394 0.132617
0.182836 0.638536 0.135288
0.267364 0.645769 0.137974
0.353167 0.653092 0.140677
0.440262 0.660504 0.143397
0.528668 0.668002 0.146133
0.618402 0.675584 0.148885
0.706739 0.680411 0.151442
0.024655 0.738175 0.139232
0.108916 0.746267 0.141942
0.194456 0.754454 0.144670
0.281295 0.762734 0.147413
0.369449 0.771104 0.150173
0.455544 0.773371 0.152540
0.541569 0.775480 0.154896
0.627595 0.777589 0.157253
0.713620 0.779698 0.159609
0.000000 0.000000 0.177087
0.048839 0.000000 0.179320
0.122356 0.000000 0.181553
0.195873 0.000000 0.183785
0.269390 0.000000 0.186018
0.342907 0.000000 0.188250
0.416424 0.000000 0.190483
0.489941 0.000000 0.192716
0.563458 0.000000 0.194948
0.000000 0.057878 0.184825
0.054719 0.059657 0.187058
0.128236 0.061436 0.189290
0.201753 0.063215 0.191523
0.275270 0.064994 0.193756
0.348815 0.066779 0.195994
0.424056 0.068862 0.198489
0.500440 0.071045 0.201062
0.577900 0.073292 0.203679
0.000000 0.141634 0.192563
0.060599 0.143413 0.194796
0.134350 0.145469 0.197140
0.208976 0.148008 0.199681
0.284503 0.150684 0.202276
0.360996 0.153457 0.204910
0.438511 0.156312 0.207577
0.517091 0.159239 0.210271
0.596777 0.162234 0.212993
0.000000 0.227588 0.200884
0.067451 0.230793 0.203499
0.142898 0.234121 0.206149
0.219308 0.237553 0.208829
0.296736 0.241076 0.211536
0.375229 0.244684 0.214269
0.454825 0.248371 0.217026
0.535558 0.252132 0.219805
0.617458 0.255964 0.222608
0.000000 0.319329 0.210087
0.075036 0.323467 0.212806
0.152296 0.327704 0.215550
0.230626 0.332034 0.218318
0.310066 0.336452 0.221108
0.390646 0.340953 0.223921
0.472397 0.345533 0.226754
0.555345 0.350192 0.229609
0.639515 0.354925 0.232485
0.004979 0.416290 0.219615
0.083094 0.421377 0.222416
0.162326 0.426557 0.225238
0.242706 0.431829 0.228082
0.324262 0.437187 0.230946
0.407021 0.442630 0.233831
0.491006 0.448155 0.236737
0.576240 0.453759 0.239662
0.662744 0.459442 0.242607
0.011461 0.518757 0.229414
0.091602 0.524825 0.232288
0.172927 0.530987 0.235182
0.255461 0.537239 0.238097
0.339226 0.543579 0.241032
0.424246 0.550005 0.243986
0.510539 0.556514 0.246960
0.598124 0.563106 0.249954
0.687021 0.569779 0.252967
0.018278 0.626989 0.239462
0.100556 0.634072 0.242405
0.184073 0.641248 0.245369
0.268848 0.648516 0.248352
0.354903 0.655873 0.251355
0.442255 0.663317 0.254377
0.530922 0.670847 0.257418
0.620921 0.678461 0.260479
0.707487 0.681205 0.262917
0.025452 0.741211 0.249749
0.109959 0.749339 0.252760
0.195750 0.757561 0.255791
0.282844 0.765875 0.258842
0.370267 0.772057 0.261658
0.456292 0.774165 0.264015
0.542317 0.776274 0.266371
0.628342 0.778383 0.268727
0.714367 0.780492 0.271084
0.000000 0.000000 0.282710
0.049477 0.000000 0.284942
0.122994 0.000000 0.287175
0.196511 0.000000 0.289407
0.270028 0.000000 0.291640
0.343545 0.000000 0.293873
0.417062 0.000000 0.296105
0.490579 0.000000 0.298338
0.564096 0.000000 0.300571
0.000000 0.058548 0.290448
0.055357 0.060327 0.292680
0.128874 0.062106 0.294913
0.202391 0.063885 0.297145
0.275908 0.065664 0.299378
0.349908 0.067545 0.301746
0.425486 0.069676 0.304438
0.502128 0.071885 0.307214
0.579838 0.074153 0.310046
0.000000 0.142304 0.298185
0.061237 0.144083 0.300418
0.135213 0.146404 0.302986
0.210033 0.149002 0.305723
0.285764 0.151718 0.308527
0.362472 0.154523 0.311381
0.440210 0.157406 0.314276
0.519023 0.160359 0.317208
0.598947 0.163377 0.320174
0.000000 0.228778 0.307022
0.068251 0.232033 0.309851
0.143884 0.235402 0.312725
0.220496 0.238869 0.315638
0.298137 0.242425 0.318586
0.376853 0.246063 0.321566
0.456679 0.249778 0.324576
0.537649 0.253566 0.327616
0.619792 0.257425 0.330682
0.000000 0.320875 0.317007
0.075890 0.325051 0.319970
0.153356 0.329324 0.322965
0.231904 0.333687 0.325989
0.311568 0.338137 0.329041
0.392381 0.342668 0.332120
0.474371 0.347278 0.335226
0.557564 0.351965 0.338356
0.641985 0.356726 0.341512
0.005668 0.418194 0.327407
0.083996 0.423316 0.330472
0.163450 0.428531 0.333564
0.244060 0.433836 0.336681
0.325852 0.439226 0.339823
0.408853 0.444700 0.342990
0.493085 0.450255 0.346181
0.578571 0.455890 0.349395
0.665332 0.461601 0.352633
0.012185 0.521031 0.338142
0.092553 0.527134 0.341295
0.174112 0.533330 0.344474
0.256885 0.539616 0.347675
0.340896 0.545988 0.350901
0.426165 0.552446 0.354149
0.512713 0.558987 0.357421
0.600558 0.565609 0.360715
0.689718 0.572312 0.364031
0.019040 0.629645 0.349175
0.101556 0.636763 0.352411
0.185316 0.643974 0.355671
0.270340 0.651275 0.358953
0.356647 0.658665 0.362257
0.444257 0.666142 0.365584
0.533185 0.673704 0.368933
0.622209 0.679890 0.372035
0.708234 0.681999 0.374392
0.026254 0.744260 0.360489
0.111008 0.752423 0.363804
0.197050 0.760680 0.367141
0.284400 0.769029 0.370500
0.371014 0.772851 0.373133
0.457039 0.774959 0.375489
0.543064 0.777068 0.377846
0.629089 0.779177 0.380202
0.715115 0.781286 0.382558
0.000000 0.000000 0.388332
0.050116 0.000000 0.390565
0.123633 0.000000 0.392797
0.197150 0.000000 0.395030
0.270667 0.000000 0.397262
0.344184 0.000000 0.399495
0.417701 0.000000 0.401728
0.491218 0.000000 0.403960
0.565319 0.000000 0.406330
0.000000 0.059218 0.396070
0.055996 0.060997 0.398302
0.129513 0.062776 0.400535
0.203030 0.064555 0.402768
0.276547 0.066334 0.405000
0.351113 0.068335 0.407630
0.426961 0.070500 0.410530
0.503851 0.072732 0.413520
0.581807 0.075020 0.416575
0.000000 0.142974 0.403808
0.061924 0.144876 0.406144
0.136100 0.147365 0.408967
0.211110 0.150013 0.411913
0.287044 0.152764 0.414936
0.363967 0.155600 0.418017
0.441930 0.158510 0.421148
0.520974 0.161488 0.424323
0.601137 0.164530 0.427539
0.000000 0.229989 0.413313
0.069056 0.233289 0.416364
0.144880 0.236696 0.419470
0.221695 0.240198 0.422622
0.299551 0.243786 0.425816
0.378489 0.247453 0.429049
0.458546 0.251196 0.432318
0.539754 0.255011 0.435621
0.622142 0.258895 0.438956
0.000123 0.322435 0.424105
0.076748 0.326649 0.427318
0.154424 0.330956 0.430568
0.233190 0.335353 0.433853
0.313081 0.339833 0.437170
0.394127 0.344395 0.440520
0.476357 0.349034 0.443900
0.559796 0.353749 0.447310
0.644467 0.358537 0.450749
0.006360 0.420111 0.435394
0.084904 0.425269 0.438727
0.164582 0.430518 0.442091
0.245421 0.435855 0.445485
0.327451 0.441278 0.448908
0.410694 0.446782 0.452360
0.495175 0.452367 0.455839
0.580914 0.458031 0.459346
0.667932 0.463771 0.462879
0.012912 0.523318 0.447076
0.093509 0.529456 0.450513
0.175303 0.535686 0.453977
0.258317 0.542005 0.457469
0.342573 0.548409 0.460988
0.428093 0.554899 0.464533
0.514897 0.561470 0.468104
0.603002 0.568123 0.471701
0.692426 0.574856 0.475323
0.019806 0.632314 0.459105
0.102561 0.639467 0.462636
0.186565 0.646712 0.466194
0.271838 0.654047 0.469777
0.358399 0.661470 0.473385
0.446267 0.668979 0.477019
0.535458 0.676572 0.480677
0.622956 0.680684 0.483510
0.708982 0.682793 0.485866
0.027060 0.747322 0.471455
0.112062 0.755521 0.475075
0.198357 0.763813 0.478720
0.285736 0.771536 0.482251
0.371762 0.773645 0.484608
0.457787 0.775753 0.486964
0.543812 0.777862 0.489320
0.629837 0.779971 0.491677
0.715862 0.782080 0.494033
0.000000 0.000000 0.493954
0.050755 0.000000 0.496187
0.124272 0.000000 0.498419
0.197789 0.000000 0.500652
0.271306 0.000000 0.502885
0.344823 0.000000 0.505117
0.418340 0.000000 0.507350
0.491857 0.000000 0.509583
0.566841 0.000000 0.512248
0.000000 0.059888 0.501692
0.056635 0.061667 0.503925
0.130152 0.063446 0.506157
0.203669 0.065225 0.508390
0.277316 0.067038 0.510701
0.352378 0.069141 0.513653
0.428475 0.071333 0.516771
0.505607 0.073587 0.519984
0.583807 0.075895 0.523271
0.000000 0.143644 0.509430
0.062658 0.145787 0.512045
0.137004 0.148348 0.515091
0.212204 0.151038 0.518258
0.288342 0.153823 0.521507
0.365480 0.156687 0.524824
0.443667 0.159623 0.528197
0.522944 0.162626 0.531621
0.603347 0.165691 0.535091
0.000000 0.231217 0.519762
0.069868 0.234560 0.523045
0.145884 0.238004 0.526389
0.222904 0.241539 0.529786
0.300976 0.245157 0.533232
0.380138 0.248854 0.536722
0.460428 0.252624 0.540253
0.541875 0.256465 0.543823
0.624508 0.260375 0.547430
0.000787 0.324010 0.531385
0.077612 0.328260 0.534852
0.155499 0.332601 0.538362
0.234485 0.337030 0.541911
0.314603 0.341541 0.545499
0.395884 0.346132 0.549123
0.478354 0.350800 0.552781
0.562040 0.355543 0.556473
0.646964 0.360358 0.560197
0.007056 0.422042 0.543578
0.085817 0.427235 0.547183
0.165719 0.432518 0.550823
0.246791 0.437887 0.554497
0.329058 0.443341 0.558204
0.412545 0.448876 0.561943
0.497275 0.454491 0.565713
0.583268 0.460183 0.569514
0.670545 0.465952 0.573344
0.013644 0.525618 0.556220
0.094471 0.531791 0.559942
0.176500 0.538055 0.563696
0.259756 0.544406 0.567480
0.344259 0.550843 0.571295
0.430031 0.557363 0.575139
0.517091 0.563966 0.579012
0.605456 0.570649 0.582914
0.695146 0.577411 0.586843
0.020576 0.634996 0.569253
0.103571 0.642184 0.573082
0.187820 0.649464 0.576940
0.273344 0.656832 0.580826
0.360160 0.664287 0.584741
0.448286 0.671828 0.588683
0.537679 0.679369 0.592629
0.623704 0.681478 0.594985
0.709729 0.683587 0.597341
0.027871 0.750398 0.582646
0.113121 0.758632 0.586574
0.199669 0.766958 0.590529
0.286484 0.772330 0.593726
0.372509 0.774439 0.596083
0.458534 0.776547 0.598439
0.544559 0.778656 0.600795
0.630584 0.780765 0.603152
0.716609 0.782874 0.605508
0.000000 0.000000 0.599577
0.051394 0.000000 0.601809
0.124911 0.000000 0.604042
0.198428 0.000000 0.606274
0.271945 0.000000 0.608507
0.345462 0.000000 0.610740
0.418979 0.000000 0.612972
0.492589 0.000000 0.615243
0.568471 0.000000 0.618311
0.000000 0.060557 0.607314
0.057274 0.062336 0.609547
0.130791 0.064115 0.611780
0.204308 0.065894 0.614012
0.278356 0.067815 0.616629
0.353688 0.069958 0.619823
0.430023 0.072175 0.623167
0.507392 0.074450 0.626613
0.585833 0.076776 0.630139
0.000000 0.144316 0.615056
0.063407 0.146732 0.618092
0.137923 0.149348 0.621366
0.213314 0.152076 0.624762
0.289657 0.154892 0.628246
0.367011 0.157785 0.631804
0.445423 0.160746 0.635425
0.524933 0.163773 0.639103
0.605575 0.166861 0.642832
0.000000 0.232463 0.626375
0.070686 0.235845 0.629895
0.146897 0.239325 0.633484
0.224124 0.242892 0.637132
0.302412 0.246540 0.640834
0.381800 0.250265 0.644586
0.462323 0.254062 0.648383
0.544009 0.257929 0.652224
0.626888 0.261864 0.656107
0.001453 0.325599 0.638850
0.078482 0.329884 0.642576
0.156581 0.334259 0.646349
0.235788 0.338719 0.650167
0.316135 0.343261 0.654028
0.397652 0.347881 0.657929
0.480364 0.352577 0.661869
0.564297 0.357347 0.665846
0.649473 0.362190 0.669859
0.007756 0.423986 0.651961
0.086736 0.429213 0.655840
0.166864 0.434529 0.659760
0.248168 0.439931 0.663717
0.330674 0.445415 0.667711
0.414406 0.450981 0.671740
0.499385 0.456625 0.675804
0.585633 0.462346 0.679902
0.673169 0.468143 0.684032
0.014380 0.527932 0.665573
0.095438 0.534139 0.669584
0.177704 0.540436 0.673629
0.261202 0.546820 0.677709
0.345953 0.553288 0.681822
0.431978 0.559840 0.685968
0.519294 0.566473 0.690145
0.607922 0.573185 0.694353
0.697877 0.579977 0.698593
0.021351 0.637692 0.679621
0.104587 0.644915 0.683749
0.189082 0.652227 0.687910
0.274856 0.659628 0.692102
0.361928 0.667116 0.696325
0.450314 0.674689 0.700578
0.538426 0.680163 0.704103
0.624451 0.682272 0.706460
0.710476 0.684381 0.708816
0.028686 0.753487 0.694065
0.114186 0.761756 0.698302
0.200988 0.770116 0.702570
0.287231 0.773124 0.705201
0.373256 0.775233 0.707557
0.459282 0.777341 0.709914
0.545307 0.779450 0.712270
0.631332 0.781559 0.714626
0.717357 0.783668 0.716983
0.000000 0.000000 0.705199
0.052032 0.000000 0.707432
0.125549 0.000000 0.709664
0.199066 0.000000 0.711897
0.272583 0.000000 0.714129
0.346100 0.000000 0.716362
0.419617 0.000000 0.718595
0.493896 0.000000 0.721190
0.570175 0.000000 0.724524
0.000000 0.061227 0.712937
0.057912 0.063006 0.715169
0.131429 0.064785 0.717402
0.204946 0.066564 0.719635
0.279464 0.068611 0.722712
0.355034 0.070785 0.726146
0.431601 0.073025 0.729726
0.509205 0.075320 0.733410
0.587886 0.077665 0.737181
0.000000 0.145184 0.720973
0.064167 0.147701 0.724289
0.138855 0.150364 0.727799
0.214438 0.153127 0.731431
0.290987 0.155973 0.735157
0.368558 0.158892 0.738963
0.447196 0.161878 0.742837
0.526939 0.164928 0.746773
0.607822 0.168039 0.750765
0.000000 0.233724 0.733156
0.071510 0.237144 0.736921
0.147918 0.240658 0.740759
0.225353 0.244256 0.744663
0.303860 0.247934 0.748626
0.383475 0.251686 0.752643
0.464231 0.255510 0.756711
0.546158 0.259403 0.760827
0.629284 0.263363 0.764988
0.002123 0.327201 0.746502
0.079356 0.331521 0.750491
0.157670 0.335928 0.754532
0.237100 0.340420 0.758623
0.317677 0.344991 0.762760
0.399430 0.349640 0.766942
0.482385 0.354365 0.771166
0.566566 0.359162 0.775431
0.651996 0.364031 0.779735
0.008460 0.425944 0.760545
0.087660 0.431205 0.764703
0.168015 0.436553 0.768904
0.249553 0.441986 0.773148
0.332299 0.447501 0.777431
0.416276 0.453097 0.781754
0.501506 0.458770 0.786114
0.588010 0.464520 0.790511
0.675806 0.470345 0.794944
0.015120 0.530258 0.775138
0.096410 0.536500 0.779440
0.178914 0.542829 0.783780
0.262656 0.549245 0.788158
0.347655 0.555745 0.792571
0.433933 0.562327 0.797021
0.521508 0.568991 0.801504
0.610397 0.575733 0.806022
0.700618 0.582554 0.810573
0.022129 0.640400 0.790209
0.105608 0.647657 0.794640
0.190350 0.655004 0.799105
0.276376 0.662438 0.803605
0.363704 0.669957 0.808138
0.452350 0.677562 0.812704
0.539174 0.680957 0.815578
0.625199 0.683066 0.817934
0.711224 0.685175 0.820291
0.029505 0.756590 0.805712
0.115256 0.764893 0.810261
0.201954 0.771809 0.814319
0.287979 0.773918 0.816676
0.374004 0.776027 0.819032
0.460029 0.778135 0.821388
0.546054 0.780244 0.823745
0.632079 0.782353 0.826101
0.718104 0.784462 0.828457
0.000000 0.000000 0.810821
0.052671 0.000000 0.813054
0.126188 0.000000 0.815286
0.199705 0.000000 0.817519
0.273222 0.000000 0.819752
0.346739 0.000000 0.821984
0.420256 0.000000 0.824217
0.495343 0.000000 0.827305
0.571939 0.000000 0.830894
0.000000 0.061897 0.818559
0.058551 0.063676 0.820792
0.132068 0.065455 0.823024
0.205776 0.067302 0.825506
0.280615 0.069421 0.828950
0.356411 0.071622 0.832628
0.433206 0.073883 0.836450
0.511043 0.076197 0.840380
0.589964 0.078560 0.844401
0.000000 0.146109 0.827069
0.064936 0.148690 0.830642
0.139799 0.151394 0.834393
0.215576 0.154189 0.838269
0.292332 0.157064 0.842243
0.370121 0.160009 0.846301
0.448985 0.163019 0.850434
0.528962 0.166092 0.854633
0.610086 0.169225 0.858893
0.000000 0.235000 0.840109
0.072339 0.238457 0.844124
0.148946 0.242003 0.848218
0.226592 0.245632 0.852382
0.305318 0.249338 0.856610
0.385161 0.253118 0.860897
0.466152 0.256968 0.865239
0.548321 0.260886 0.869633
0.631694 0.264871 0.874076
0.002797 0.328817 0.854344
0.080237 0.333170 0.858600
0.158766 0.337610 0.862913
0.238420 0.342131 0.867280
0.319228 0.346733 0.871697
0.401218 0.351410 0.876162
0.484417 0.356162 0.880674
0.568847 0.360987 0.885230
0.654531 0.365882 0.889828
0.009167 0.427914 0.869331
0.088589 0.433208 0.873771
0.169173 0.438589 0.878258
0.250946 0.444053 0.882791
0.333933 0.449599 0.887367
0.418156 0.455224 0.891985
0.503638 0.460926 0.896643
0.590397 0.466705 0.901342
0.678454 0.472558 0.906079
0.015865 0.532598 0.884917
0.097387 0.538872 0.889513
0.180131 0.545235 0.894150
0.264117 0.551683 0.898827
0.349366 0.558214 0.903544
0.435898 0.564827 0.908299
0.523731 0.571520 0.913091
0.612883 0.578292 0.917920
0.703371 0.585142 0.922785
0.022913 0.643122 0.901020
0.106634 0.650413 0.905755
0.191624 0.657792 0.910527
0.277903 0.665259 0.915337
0.365487 0.672811 0.920182
0.453896 0.679642 0.924696
0.539921 0.681751 0.927053
0.625946 0.683860 0.929409
0.711971 0.685969 0.931765
0.030329 0.759705 0.917589
0.116331 0.768043 0.922452
0.202701 0.772603 0.925794
0.288726 0.774712 0.928150
0.374751 0.776821 0.930507
0.460776 0.778929 0.932863
0.546801 0.781038 0.935219
0.632827 0.783147 0.937576
0.718852 0.785256 0.939932
