assets/lighting/cinematic/grade-blue-hour/lut.cube
TITLE "Blue Hour"
# TKRS lighting-batch-001 original LUT
# Intended usage: post-sunset cool ambient, city/liminal exteriors
# License: CC0-1.0
LUT_3D_SIZE 5
DOMAIN_MIN 0.0 0.0 0.0
DOMAIN_MAX 1.0 1.0 1.0
0.000000 0.000000 0.000000
0.121078 0.000000 0.000000
0.268112 0.000000 0.000000
0.415146 0.000000 0.000000
0.562180 0.000000 0.000000
0.000000 0.140295 0.000000
0.132838 0.143853 0.000000
0.282045 0.148658 0.000000
0.435173 0.154155 0.000000
0.592499 0.159973 0.000000
0.000000 0.316285 0.000000
0.150197 0.324505 0.001275
0.307091 0.333117 0.005824
0.468486 0.342077 0.010416
0.634618 0.351354 0.015054
0.010025 0.514251 0.012571
0.170577 0.526339 0.017231
0.335913 0.538797 0.021941
0.506221 0.551605 0.026701
0.681662 0.564747 0.031514
0.023862 0.735154 0.028937
0.193168 0.751361 0.033774
0.367648 0.767942 0.038666
0.540822 0.774686 0.043421
0.712872 0.778904 0.048134
0.000000 0.000000 0.177087
0.122356 0.000000 0.181553
0.269390 0.000000 0.186018
0.416424 0.000000 0.190483
0.563458 0.000000 0.194948
0.000000 0.141634 0.192563
0.134350 0.145469 0.197140
0.284503 0.150684 0.202276
0.438511 0.156312 0.207577
0.596777 0.162234 0.212993
0.000000 0.319329 0.210087
0.152296 0.327704 0.215550
0.310066 0.336452 0.221108
0.472397 0.345533 0.226754
0.639515 0.354925 0.232485
0.011461 0.518757 0.229414
0.172927 0.530987 0.235182
0.339226 0.543579 0.241032
0.510539 0.556514 0.246960
0.687021 0.569779 0.252967
0.025452 0.741211 0.249749
0.195750 0.757561 0.255791
0.370267 0.772057 0.261658
0.542317 0.776274 0.266371
0.714367 0.780492 0.271084
0.000000 0.000000 0.388332
0.123633 0.000000 0.392797
0.270667 0.000000 0.397262
0.417701 0.000000 0.401728
0.565319 0.000000 0.406330
0.000000 0.142974 0.403808
0.136100 0.147365 0.408967
0.287044 0.152764 0.414936
0.441930 0.158510 0.421148
0.601137 0.164530 0.427539
0.000123 0.322435 0.424105
0.154424 0.330956 0.430568
0.313081 0.339833 0.437170
0.476357 0.349034 0.443900
0.644467 0.358537 0.450749
0.012912 0.523318 0.447076
0.175303 0.535686 0.453977
0.342573 0.548409 0.460988
0.514897 0.561470 0.468104
0.692426 0.574856 0.475323
0.027060 0.747322 0.471455
0.198357 0.763813 0.478720
0.371762 0.773645 0.484608
0.543812 0.777862 0.489320
0.715862 0.782080 0.494033
0.000000 0.000000 0.599577
0.124911 0.000000 0.604042
0.271945 0.000000 0.608507
0.418979 0.000000 0.612972
0.568471 0.000000 0.618311
0.000000 0.144316 0.615056
0.137923 0.149348 0.621366
0.289657 0.154892 0.628246
0.445423 0.160746 0.635425
0.605575 0.166861 0.642832
0.001453 0.325599 0.638850
0.156581 0.334259 0.646349
0.316135 0.343261 0.654028
0.480364 0.352577 0.661869
0.649473 0.362190 0.669859
0.014380 0.527932 0.665573
0.177704 0.540436 0.673629
0.345953 0.553288 0.681822
0.519294 0.566473 0.690145
0.697877 0.579977 0.698593
0.028686 0.753487 0.694065
0.200988 0.770116 0.702570
0.373256 0.775233 0.707557
0.545307 0.779450 0.712270
0.717357 0.783668 0.716983
0.000000 0.000000 0.810821
0.126188 0.000000 0.815286
0.273222 0.000000 0.819752
0.420256 0.000000 0.824217
0.571939 0.000000 0.830894
0.000000 0.146109 0.827069
0.139799 0.151394 0.834393
0.292332 0.157064 0.842243
0.448985 0.163019 0.850434
0.610086 0.169225 0.858893
0.002797 0.328817 0.854344
0.158766 0.337610 0.862913
0.319228 0.346733 0.871697
0.484417 0.356162 0.880674
0.654531 0.365882 0.889828
0.015865 0.532598 0.884917
0.180131 0.545235 0.894150
0.349366 0.558214 0.903544
0.523731 0.571520 0.913091
0.703371 0.585142 0.922785
0.030329 0.759705 0.917589
0.202701 0.772603 0.925794
0.374751 0.776821 0.930507
0.546801 0.781038 0.935219
0.718852 0.785256 0.939932
