assets/lighting/cinematic/grade-sci-fi-cool/lut.cube
TITLE "Sci-Fi Cool"
# TKRS lighting-batch-001 original LUT
# Intended usage: spaceship / lab cool cyan grade
# License: CC0-1.0
LUT_3D_SIZE 5
DOMAIN_MIN 0.0 0.0 0.0
DOMAIN_MAX 1.0 1.0 1.0
0.000000 0.000000 0.000000
0.120016 0.000000 0.000000
0.291407 0.000000 0.000000
0.462798 0.000000 0.000000
0.634189 0.000000 0.000000
0.000000 0.143691 0.000000
0.126609 0.145781 0.000000
0.299945 0.148922 0.000000
0.480660 0.153881 0.000000
0.669088 0.159365 0.000000
0.000000 0.356500 0.000000
0.140450 0.366600 0.000000
0.328033 0.377359 0.000000
0.523899 0.388667 0.000000
0.728525 0.400457 0.000000
0.000000 0.610880 0.000000
0.159005 0.628159 0.000000
0.362005 0.646026 0.000000
0.574223 0.664433 0.000000
0.795974 0.683346 0.000000
0.000000 0.909055 0.000000
0.180105 0.933981 0.000000
0.398964 0.957098 0.000000
0.614141 0.959770 0.000000
0.829318 0.962442 0.000000
0.000000 0.000000 0.180440
0.120733 0.000000 0.182918
0.292124 0.000000 0.185396
0.463516 0.000000 0.187874
0.634907 0.000000 0.190352
0.000000 0.144481 0.189055
0.127326 0.146571 0.191532
0.302511 0.150717 0.195142
0.484866 0.155904 0.199321
0.675034 0.161542 0.203743
0.000000 0.360232 0.201401
0.142327 0.370599 0.205917
0.331505 0.381575 0.210608
0.529088 0.393072 0.215453
0.735529 0.405032 0.220441
0.000000 0.617342 0.217812
0.161184 0.634850 0.222865
0.365953 0.652926 0.228049
0.580020 0.671528 0.233359
0.803693 0.690624 0.238791
0.000000 0.918412 0.235931
0.182541 0.943562 0.241421
0.399864 0.958109 0.245646
0.615041 0.960781 0.248415
0.830219 0.963452 0.251183
0.000000 0.000000 0.428006
0.121451 0.000000 0.430484
0.292842 0.000000 0.432962
0.464233 0.000000 0.435439
0.635624 0.000000 0.437917
0.000000 0.145272 0.436620
0.128427 0.147843 0.439702
0.305255 0.152615 0.445517
0.489226 0.157991 0.452023
0.681131 0.163768 0.458957
0.000000 0.364073 0.455280
0.144242 0.374684 0.462381
0.335037 0.385866 0.469787
0.534354 0.397543 0.477458
0.742622 0.409668 0.485367
0.000000 0.623894 0.481197
0.163393 0.641623 0.489212
0.369945 0.659902 0.497438
0.585875 0.678694 0.505863
0.811479 0.697968 0.514476
0.000000 0.927855 0.509942
0.185003 0.953224 0.518642
0.400765 0.959119 0.522255
0.615942 0.961791 0.525024
0.831119 0.964463 0.527793
0.000000 0.000000 0.675571
0.122168 0.000000 0.678049
0.293559 0.000000 0.680527
0.464950 0.000000 0.683005
0.637440 0.000000 0.686026
0.000000 0.146062 0.684185
0.129874 0.149547 0.689389
0.308135 0.154594 0.697558
0.493720 0.160134 0.706556
0.687366 0.166043 0.716124
0.000000 0.368013 0.711051
0.146193 0.378851 0.720846
0.338626 0.390227 0.731058
0.539692 0.402078 0.741631
0.749799 0.414362 0.752528
0.000000 0.630531 0.746783
0.165631 0.648473 0.757824
0.373981 0.666951 0.769149
0.591785 0.685928 0.780740
0.819332 0.705379 0.792581
0.000000 0.937382 0.786350
0.186488 0.957458 0.796096
0.401665 0.960130 0.798865
0.616843 0.962802 0.801633
0.832020 0.965473 0.804402
0.000000 0.000000 0.923136
0.122885 0.000000 0.925614
0.294276 0.000000 0.928092
0.465667 0.000000 0.930570
0.641576 0.000000 0.936086
0.000000 0.146878 0.931818
0.131426 0.151383 0.940682
0.311128 0.156640 0.951373
0.498335 0.162329 0.962997
0.693727 0.168362 0.975305
0.000000 0.372043 0.968784
0.148179 0.383094 0.981369
0.342271 0.394656 0.994467
0.545101 0.406675 1.000000
0.757058 0.419114 1.000000
0.000000 0.637252 1.000000
0.167897 0.655401 1.000000
0.378060 0.674071 1.000000
0.597751 0.693230 1.000000
0.824643 0.710451 1.000000
0.000000 0.946992 1.000000
0.187389 0.958468 1.000000
0.402566 0.961140 1.000000
0.617743 0.963812 1.000000
0.832920 0.966484 1.000000
