assets/lighting/cinematic/grade-sci-fi-cool/lut.cube
TITLE "Sci-Fi Cool"
# TKRS lighting-batch-001 original LUT
# Intended usage: spaceship / lab cool cyan grade
# License: CC0-1.0
LUT_3D_SIZE 9
DOMAIN_MIN 0.0 0.0 0.0
DOMAIN_MAX 1.0 1.0 1.0
0.000000 0.000000 0.000000
0.034321 0.000000 0.000000
0.120016 0.000000 0.000000
0.205712 0.000000 0.000000
0.291407 0.000000 0.000000
0.377103 0.000000 0.000000
0.462798 0.000000 0.000000
0.548494 0.000000 0.000000
0.634189 0.000000 0.000000
0.000000 0.043533 0.000000
0.037617 0.044578 0.000000
0.123313 0.045623 0.000000
0.209008 0.046668 0.000000
0.294704 0.047713 0.000000
0.380399 0.048759 0.000000
0.466095 0.049804 0.000000
0.553483 0.051019 0.000000
0.644326 0.052500 0.000000
0.000000 0.143691 0.000000
0.040914 0.144736 0.000000
0.126609 0.145781 0.000000
0.212317 0.146835 0.000000
0.299945 0.148922 0.000000
0.389381 0.151319 0.000000
0.480660 0.153881 0.000000
0.573869 0.156570 0.000000
0.669088 0.159365 0.000000
0.000000 0.244578 0.000000
0.044667 0.247649 0.000000
0.132387 0.251054 0.000000
0.221771 0.254679 0.000000
0.312958 0.258480 0.000000
0.406051 0.262429 0.000000
0.501138 0.266509 0.000000
0.598291 0.270708 0.000000
0.697575 0.275017 0.000000
0.000000 0.356500 0.000000
0.049581 0.361458 0.000000
0.140450 0.366600 0.000000
0.233240 0.371905 0.000000
0.328033 0.377359 0.000000
0.424898 0.382949 0.000000
0.523899 0.388667 0.000000
0.625091 0.394505 0.000000
0.728525 0.400457 0.000000
0.000000 0.478463 0.000000
0.054994 0.485199 0.000000
0.149378 0.492097 0.000000
0.245849 0.499145 0.000000
0.344467 0.506335 0.000000
0.445286 0.513660 0.000000
0.548355 0.521113 0.000000
0.653719 0.528689 0.000000
0.761421 0.536384 0.000000
0.000000 0.610880 0.000000
0.060849 0.619443 0.000000
0.159005 0.628159 0.000000
0.259375 0.637023 0.000000
0.362005 0.646026 0.000000
0.466941 0.655165 0.000000
0.574223 0.664433 0.000000
0.683888 0.673828 0.000000
0.795974 0.683346 0.000000
0.000000 0.754260 0.000000
0.067129 0.764708 0.000000
0.169260 0.775307 0.000000
0.273707 0.786051 0.000000
0.380510 0.796935 0.000000
0.489706 0.807956 0.000000
0.601331 0.819109 0.000000
0.715417 0.830391 0.000000
0.825179 0.834426 0.000000
0.000000 0.909055 0.000000
0.073832 0.921443 0.000000
0.180105 0.933981 0.000000
0.288782 0.946665 0.000000
0.398964 0.957098 0.000000
0.506552 0.958434 0.000000
0.614141 0.959770 0.000000
0.721729 0.961106 0.000000
0.829318 0.962442 0.000000
0.000000 0.000000 0.056658
0.034679 0.000000 0.057897
0.120375 0.000000 0.059136
0.206070 0.000000 0.060375
0.291766 0.000000 0.061614
0.377461 0.000000 0.062853
0.463157 0.000000 0.064092
0.548852 0.000000 0.065331
0.634548 0.000000 0.066570
0.000000 0.043928 0.060965
0.037976 0.044973 0.062204
0.123671 0.046018 0.063443
0.209367 0.047064 0.064682
0.295062 0.048109 0.065921
0.380758 0.049154 0.067160
0.466453 0.050199 0.068399
0.555341 0.051567 0.069823
0.646747 0.053084 0.071331
0.000000 0.144086 0.065272
0.041272 0.145131 0.066511
0.126968 0.146176 0.067750
0.213112 0.147560 0.069056
0.301202 0.149805 0.070535
0.391046 0.152271 0.072064
0.482742 0.154884 0.073629
0.576381 0.157615 0.075225
0.672041 0.160447 0.076848
0.000000 0.245687 0.069752
0.045172 0.248906 0.071259
0.133212 0.252402 0.072806
0.222951 0.256098 0.074386
0.314518 0.259957 0.075994
0.408013 0.263958 0.077630
0.503518 0.268084 0.079291
0.601105 0.272325 0.080976
0.700835 0.276673 0.082686
0.000000 0.358352 0.075148
0.050148 0.363382 0.076770
0.141384 0.368588 0.078418
0.234562 0.373951 0.080091
0.329761 0.379457 0.081788
0.427048 0.385097 0.083508
0.526484 0.390861 0.085251
0.628123 0.396743 0.087017
0.732016 0.402737 0.088805
0.000000 0.480991 0.080896
0.055610 0.487790 0.082604
0.150393 0.494745 0.084335
0.247279 0.501848 0.086089
0.346325 0.509090 0.087866
0.447584 0.516464 0.089665
0.551105 0.523964 0.091486
0.656931 0.531586 0.093329
0.765104 0.539324 0.095194
0.000000 0.614100 0.086933
0.061512 0.622722 0.088720
0.160091 0.631495 0.090530
0.260896 0.640412 0.092361
0.363974 0.649467 0.094215
0.469366 0.658655 0.096091
0.577114 0.667972 0.097988
0.687255 0.677414 0.099908
0.799825 0.686976 0.101849
0.000000 0.758194 0.093241
0.067838 0.768699 0.095106
0.170412 0.779353 0.096992
0.275312 0.790151 0.098900
0.382578 0.801087 0.100829
0.492245 0.812159 0.102781
0.604350 0.823361 0.104754
0.718041 0.833595 0.106682
0.825630 0.834931 0.108066
0.000000 0.913722 0.099816
0.074587 0.926168 0.101756
0.181320 0.938761 0.103718
0.290465 0.951499 0.105702
0.399414 0.957604 0.107341
0.507003 0.958939 0.108726
0.614591 0.960275 0.110110
0.722180 0.961611 0.111494
0.829768 0.962947 0.112879
0.000000 0.000000 0.180440
0.035038 0.000000 0.181679
0.120733 0.000000 0.182918
0.206429 0.000000 0.184157
0.292124 0.000000 0.185396
0.377820 0.000000 0.186635
0.463516 0.000000 0.187874
0.549211 0.000000 0.189113
0.634907 0.000000 0.190352
0.000000 0.044323 0.184747
0.038334 0.045369 0.185986
0.124030 0.046414 0.187225
0.209725 0.047459 0.188464
0.295421 0.048504 0.189703
0.381117 0.049549 0.190942
0.467514 0.050677 0.192314
0.557332 0.052131 0.194196
0.649254 0.053678 0.196207
0.000000 0.144481 0.189055
0.041631 0.145526 0.190294
0.127326 0.146571 0.191532
0.214024 0.148373 0.193188
0.302511 0.150717 0.195142
0.392756 0.153244 0.197195
0.484866 0.155904 0.199321
0.578933 0.158675 0.201506
0.675034 0.161542 0.203743
0.000000 0.246863 0.194103
0.045686 0.250201 0.196110
0.134051 0.253779 0.198200
0.224149 0.257540 0.200355
0.316100 0.261455 0.202565
0.409999 0.265504 0.204825
0.505924 0.269675 0.207130
0.603945 0.273958 0.209476
0.704123 0.278344 0.211862
0.000000 0.360232 0.201401
0.050720 0.365332 0.203636
0.142327 0.370599 0.205917
0.235897 0.376017 0.208242
0.331505 0.381575 0.210608
0.429216 0.387262 0.213012
0.529088 0.393072 0.215453
0.631177 0.398997 0.217930
0.735529 0.405032 0.220441
0.000000 0.483543 0.209364
0.056232 0.490403 0.211748
0.151416 0.497415 0.214170
0.248719 0.504571 0.216629
0.348195 0.511864 0.219122
0.449897 0.519286 0.221649
0.553871 0.526833 0.224210
0.660160 0.534499 0.226803
0.768806 0.542280 0.229427
0.000000 0.617342 0.217812
0.062179 0.626022 0.220322
0.161184 0.634850 0.222865
0.262427 0.643820 0.225441
0.365953 0.652926 0.228049
0.471804 0.662164 0.230688
0.580020 0.671528 0.233359
0.690638 0.681016 0.236060
0.803693 0.690624 0.238791
0.000000 0.762149 0.226679
0.068552 0.772711 0.229302
0.171571 0.783420 0.231957
0.276926 0.794271 0.234642
0.384655 0.805259 0.237357
0.494796 0.816380 0.240103
0.607382 0.827631 0.242878
0.718491 0.834100 0.244987
0.826080 0.835436 0.246371
0.000000 0.918412 0.235931
0.075347 0.930914 0.238661
0.182541 0.943562 0.241421
0.292156 0.956353 0.244210
0.399864 0.958109 0.245646
0.507453 0.959445 0.247030
0.615041 0.960781 0.248415
0.722630 0.962116 0.249799
0.830219 0.963452 0.251183
0.000000 0.000000 0.304223
0.035396 0.000000 0.305462
0.121092 0.000000 0.306701
0.206788 0.000000 0.307940
0.292483 0.000000 0.309179
0.378179 0.000000 0.310418
0.463874 0.000000 0.311657
0.549570 0.000000 0.312896
0.635265 0.000000 0.314135
0.000000 0.044719 0.308530
0.038693 0.045764 0.309769
0.124389 0.046809 0.311008
0.210084 0.047854 0.312247
0.295780 0.048899 0.313486
0.381475 0.049945 0.314725
0.469040 0.051212 0.316544
0.559425 0.052707 0.318931
0.651834 0.054281 0.321481
0.000000 0.144876 0.312837
0.041989 0.145922 0.314076
0.127772 0.147075 0.315413
0.214997 0.149232 0.317655
0.303864 0.151655 0.320129
0.394505 0.154236 0.322738
0.487028 0.156940 0.325448
0.581523 0.159748 0.328242
0.678065 0.162649 0.331110
0.000000 0.248092 0.318814
0.046207 0.251530 0.321358
0.134904 0.255182 0.324018
0.225365 0.259004 0.326769
0.317703 0.262971 0.329599
0.412007 0.267068 0.332499
0.508355 0.271282 0.335461
0.606812 0.275605 0.338481
0.707438 0.280029 0.341555
0.000000 0.362140 0.328108
0.051298 0.367305 0.330972
0.143280 0.372631 0.333902
0.237245 0.378103 0.336892
0.333264 0.383711 0.339939
0.431400 0.389446 0.343038
0.531712 0.395299 0.346187
0.634251 0.401267 0.349384
0.739065 0.407343 0.352627
0.000000 0.486119 0.338337
0.056858 0.493037 0.341409
0.152448 0.500105 0.344532
0.250170 0.507313 0.347704
0.350078 0.514656 0.350923
0.452224 0.522126 0.354187
0.556653 0.529718 0.357495
0.663407 0.537428 0.360845
0.772527 0.545253 0.364236
0.000000 0.620607 0.349232
0.062852 0.629344 0.352472
0.162285 0.638226 0.355757
0.263968 0.647249 0.359085
0.367944 0.656405 0.362455
0.474255 0.665691 0.365866
0.582940 0.675102 0.369316
0.694036 0.684636 0.372805
0.807578 0.694288 0.376332
0.000000 0.766126 0.360685
0.069271 0.776745 0.364075
0.172736 0.787508 0.367504
0.278548 0.798411 0.370973
0.386744 0.809450 0.374480
0.497359 0.820620 0.378026
0.610427 0.831920 0.381608
0.718942 0.834605 0.383291
0.826530 0.835941 0.384676
0.000000 0.923123 0.372639
0.076111 0.935680 0.376164
0.183769 0.948383 0.379728
0.292726 0.957278 0.382566
0.400315 0.958614 0.383951
0.507903 0.959950 0.385335
0.615492 0.961286 0.386719
0.723080 0.962622 0.388104
0.830669 0.963958 0.389488
0.000000 0.000000 0.428006
0.035755 0.000000 0.429245
0.121451 0.000000 0.430484
0.207146 0.000000 0.431723
0.292842 0.000000 0.432962
0.378537 0.000000 0.434201
0.464233 0.000000 0.435439
0.549928 0.000000 0.436678
0.635624 0.000000 0.437917
0.000000 0.045114 0.432313
0.039052 0.046159 0.433552
0.124747 0.047204 0.434791
0.210443 0.048249 0.436030
0.296138 0.049295 0.437269
0.381911 0.050351 0.438549
0.470712 0.051766 0.441121
0.561600 0.053294 0.444051
0.654481 0.054893 0.447171
0.000000 0.145272 0.436620
0.042348 0.146317 0.437859
0.128427 0.147843 0.439702
0.216013 0.150126 0.442488
0.305255 0.152615 0.445517
0.396291 0.155246 0.448707
0.489226 0.157991 0.452023
0.584148 0.160835 0.455444
0.681131 0.163768 0.458957
0.000000 0.249363 0.443908
0.046736 0.252889 0.447019
0.135770 0.256609 0.450272
0.226598 0.260488 0.453640
0.319325 0.264506 0.457106
0.414037 0.268648 0.460660
0.510808 0.272905 0.464292
0.609703 0.277266 0.467998
0.710779 0.281728 0.471771
0.000000 0.364073 0.455280
0.051881 0.369301 0.458788
0.144242 0.374684 0.462381
0.238605 0.380209 0.466049
0.335037 0.385866 0.469787
0.433601 0.391646 0.473591
0.534354 0.397543 0.477458
0.637345 0.403552 0.481384
0.742622 0.409668 0.485367
0.000000 0.488717 0.467821
0.057489 0.495693 0.471591
0.153487 0.502815 0.475426
0.251630 0.510075 0.479321
0.351974 0.517466 0.483274
0.454565 0.524983 0.487283
0.559451 0.532621 0.491346
0.666671 0.540374 0.495461
0.776267 0.548241 0.499625
0.000000 0.623894 0.481197
0.063530 0.632687 0.485177
0.163393 0.641623 0.489212
0.265517 0.650696 0.493299
0.369945 0.659902 0.497438
0.476718 0.669236 0.501626
0.585875 0.678694 0.505863
0.697450 0.688273 0.510146
0.811479 0.697968 0.514476
0.000000 0.770125 0.495265
0.069995 0.780799 0.499427
0.173909 0.791615 0.503638
0.280179 0.802570 0.507897
0.388842 0.813659 0.512203
0.499933 0.824879 0.516554
0.611803 0.833775 0.520212
0.719392 0.835111 0.521596
0.826980 0.836447 0.522980
0.000000 0.927855 0.509942
0.076881 0.940468 0.514270
0.185003 0.953224 0.518642
0.293176 0.957783 0.520871
0.400765 0.959119 0.522255
0.508353 0.960455 0.523640
0.615942 0.961791 0.525024
0.723531 0.963127 0.526408
0.831119 0.964463 0.527793
0.000000 0.000000 0.551788
0.036114 0.000000 0.553027
0.121809 0.000000 0.554266
0.207505 0.000000 0.555505
0.293200 0.000000 0.556744
0.378896 0.000000 0.557983
0.464591 0.000000 0.559222
0.550287 0.000000 0.560461
0.635983 0.000000 0.561700
0.000000 0.045509 0.556095
0.039410 0.046554 0.557334
0.125106 0.047600 0.558573
0.210801 0.048645 0.559812
0.296497 0.049690 0.561051
0.383089 0.050865 0.562896
0.472486 0.052334 0.566073
0.563846 0.053892 0.569576
0.657188 0.055514 0.573289
0.000000 0.145667 0.560402
0.042707 0.146712 0.561641
0.129134 0.148674 0.564354
0.217066 0.151048 0.567711
0.306680 0.153595 0.571322
0.398109 0.156271 0.575116
0.491457 0.159055 0.579056
0.586807 0.161934 0.583119
0.684232 0.164900 0.587293
0.000000 0.250671 0.569405
0.047271 0.254275 0.573109
0.136648 0.258059 0.576976
0.227847 0.261992 0.580977
0.320966 0.266059 0.585094
0.416088 0.270245 0.589315
0.513285 0.274542 0.593631
0.612619 0.278942 0.598033
0.714146 0.283440 0.602515
0.000000 0.366031 0.582924
0.052470 0.371320 0.587093
0.145214 0.376758 0.591360
0.239976 0.382333 0.595717
0.336825 0.388038 0.600158
0.435819 0.393863 0.604678
0.537014 0.399803 0.609271
0.640459 0.405853 0.613935
0.746200 0.412008 0.618666
0.000000 0.491338 0.597822
0.058126 0.498370 0.602301
0.154534 0.505545 0.606857
0.253101 0.512855 0.611484
0.353881 0.520295 0.616180
0.456921 0.527858 0.620942
0.562264 0.535540 0.625767
0.669953 0.543336 0.630653
0.780025 0.551245 0.635598
0.000000 0.627202 0.613713
0.064213 0.636050 0.618440
0.164508 0.645038 0.623233
0.267076 0.654162 0.628087
0.371958 0.663417 0.633001
0.479194 0.672799 0.637974
0.588823 0.682303 0.643003
0.700879 0.691926 0.648087
0.815397 0.701665 0.653224
0.000000 0.774145 0.630420
0.070723 0.784873 0.635363
0.175088 0.795742 0.640362
0.281818 0.806748 0.645418
0.390950 0.817887 0.650527
0.502519 0.829156 0.655690
0.612254 0.834280 0.658516
0.719842 0.835616 0.659901
0.827431 0.836952 0.661285
0.000000 0.932608 0.647845
0.077656 0.945276 0.652980
0.186038 0.956953 0.657791
0.293627 0.958289 0.659176
0.401215 0.959624 0.660560
0.508804 0.960960 0.661944
0.616392 0.962296 0.663329
0.723981 0.963632 0.664713
0.831569 0.964968 0.666097
0.000000 0.000000 0.675571
0.036472 0.000000 0.676810
0.122168 0.000000 0.678049
0.207864 0.000000 0.679288
0.293559 0.000000 0.680527
0.379255 0.000000 0.681766
0.464950 0.000000 0.683005
0.550646 0.000000 0.684244
0.637440 0.000000 0.686026
0.000000 0.045905 0.679878
0.039769 0.046950 0.681117
0.125464 0.047995 0.682356
0.211160 0.049040 0.683595
0.296856 0.050085 0.684834
0.384453 0.051407 0.687639
0.474340 0.052915 0.691419
0.566154 0.054498 0.695521
0.659950 0.056142 0.699849
0.000000 0.146062 0.684185
0.043127 0.147338 0.685877
0.129874 0.149547 0.689389
0.218149 0.151995 0.693341
0.308135 0.154594 0.697558
0.399960 0.157312 0.701975
0.493720 0.160134 0.706556
0.589499 0.163046 0.711278
0.687366 0.166043 0.716124
0.000000 0.252010 0.695322
0.047812 0.255687 0.699640
0.137538 0.259530 0.704138
0.229111 0.263516 0.708789
0.322624 0.267629 0.713572
0.418159 0.271858 0.718473
0.515783 0.276195 0.723482
0.615558 0.280632 0.728591
0.717538 0.285166 0.733793
0.000000 0.368013 0.711051
0.053063 0.373359 0.715892
0.146193 0.378851 0.720846
0.241359 0.384476 0.725904
0.338626 0.390227 0.731058
0.438053 0.396096 0.736302
0.539692 0.402078 0.741631
0.643593 0.408169 0.747041
0.749799 0.414362 0.752528
0.000000 0.493980 0.728347
0.058767 0.501067 0.733545
0.155588 0.508294 0.738830
0.254582 0.515654 0.744198
0.355801 0.523141 0.749645
0.459290 0.530749 0.755168
0.565093 0.538475 0.760763
0.673251 0.546314 0.766427
0.783802 0.554264 0.772159
0.000000 0.630531 0.746783
0.064901 0.639433 0.752267
0.165631 0.648473 0.757824
0.268644 0.657648 0.763452
0.373981 0.666951 0.769149
0.481683 0.676379 0.774912
0.591785 0.685928 0.780740
0.704324 0.695596 0.786630
0.819332 0.705379 0.792581
0.000000 0.778185 0.766157
0.071457 0.788967 0.771886
0.176274 0.799889 0.777680
0.283466 0.810946 0.783538
0.393069 0.822134 0.789457
0.505115 0.833449 0.795436
0.612704 0.834785 0.796821
0.720292 0.836121 0.798205
0.827881 0.837457 0.799589
0.000000 0.937382 0.786350
0.078435 0.950104 0.792298
0.186488 0.957458 0.796096
0.294077 0.958794 0.797480
0.401665 0.960130 0.798865
0.509254 0.961466 0.800249
0.616843 0.962802 0.801633
0.724431 0.964137 0.803018
0.832020 0.965473 0.804402
0.000000 0.000000 0.799353
0.036831 0.000000 0.800592
0.122527 0.000000 0.801831
0.208222 0.000000 0.803070
0.293918 0.000000 0.804309
0.379613 0.000000 0.805548
0.465309 0.000000 0.806787
0.551004 0.000000 0.808026
0.639412 0.000000 0.810849
0.000000 0.046300 0.803661
0.040128 0.047345 0.804900
0.125823 0.048390 0.806139
0.211519 0.049435 0.807378
0.297474 0.050529 0.808942
0.385920 0.051967 0.812779
0.476260 0.053506 0.817179
0.568518 0.055113 0.821901
0.662762 0.056778 0.826863
0.000000 0.146458 0.807968
0.043594 0.148133 0.810665
0.130639 0.150452 0.814826
0.219258 0.152962 0.819395
0.309618 0.155609 0.824238
0.401839 0.158368 0.829296
0.496013 0.161225 0.834534
0.592221 0.164170 0.839927
0.690531 0.167197 0.845460
0.000000 0.253379 0.821672
0.048360 0.257122 0.826623
0.138439 0.261021 0.831770
0.230389 0.265057 0.837085
0.324301 0.269215 0.842546
0.420250 0.273486 0.848140
0.518303 0.277861 0.853854
0.618520 0.282336 0.859680
0.720954 0.286904 0.865611
0.000000 0.370017 0.839669
0.053663 0.375420 0.845195
0.147182 0.380963 0.850847
0.242754 0.386637 0.856616
0.340442 0.392433 0.862492
0.440303 0.398346 0.868470
0.542388 0.404369 0.874544
0.646745 0.410499 0.880708
0.753419 0.416731 0.886958
0.000000 0.496644 0.859402
0.059414 0.503785 0.865328
0.156651 0.511062 0.871352
0.256073 0.518471 0.877469
0.357732 0.526004 0.883674
0.461672 0.533658 0.889965
0.567937 0.541427 0.896336
0.676566 0.549308 0.902786
0.787596 0.557298 0.909311
0.000000 0.633881 0.880414
0.065594 0.642836 0.886660
0.166760 0.651928 0.892990
0.270220 0.661151 0.899399
0.376015 0.670502 0.905885
0.484183 0.679976 0.912445
0.594761 0.689571 0.919077
0.707783 0.699282 0.925780
0.823283 0.709108 0.932550
0.000000 0.782246 0.902479
0.072196 0.793082 0.909000
0.177467 0.804055 0.915595
0.285123 0.815162 0.922261
0.395197 0.826399 0.928996
0.505566 0.833955 0.933741
0.613154 0.835291 0.935125
0.720743 0.836626 0.936510
0.828331 0.837962 0.937894
0.000000 0.942177 0.925461
0.079220 0.954952 0.932228
0.186938 0.957963 0.934400
0.294527 0.959299 0.935785
0.402116 0.960635 0.937169
0.509704 0.961971 0.938554
0.617293 0.963307 0.939938
0.724881 0.964643 0.941322
0.832470 0.965979 0.942707
0.000000 0.000000 0.923136
0.037190 0.000000 0.924375
0.122885 0.000000 0.925614
0.208581 0.000000 0.926853
0.294276 0.000000 0.928092
0.379972 0.000000 0.929331
0.465667 0.000000 0.930570
0.551567 0.000000 0.931967
0.641576 0.000000 0.936086
0.000000 0.046695 0.927443
0.040486 0.047740 0.928682
0.126182 0.048785 0.929921
0.211877 0.049831 0.931160
0.298538 0.051055 0.933788
0.387463 0.052540 0.938331
0.478238 0.054107 0.943367
0.570932 0.055737 0.948728
0.665622 0.057422 0.954340
0.000000 0.146878 0.931818
0.044077 0.148981 0.935870
0.131426 0.151383 0.940682
0.220392 0.153949 0.945885
0.311128 0.156640 0.951373
0.403745 0.159438 0.957088
0.498335 0.162329 0.962997
0.594974 0.165305 0.969075
0.693727 0.168362 0.975305
0.000000 0.254775 0.948468
0.048914 0.258580 0.954069
0.139350 0.262532 0.959880
0.231682 0.266616 0.965872
0.325994 0.270817 0.972025
0.422360 0.275129 0.978322
0.520844 0.279542 0.984752
0.621505 0.284053 0.991305
0.724395 0.288656 0.997973
0.000000 0.372043 0.968784
0.054267 0.377500 0.975007
0.148179 0.383094 0.981369
0.244160 0.388815 0.987858
0.342271 0.394656 0.994467
0.442568 0.400611 1.000000
0.545101 0.406675 1.000000
0.649916 0.412844 1.000000
0.757058 0.419114 1.000000
0.000000 0.499328 0.990992
0.060066 0.506521 0.997654
0.157720 0.513849 1.000000
0.257574 0.521306 1.000000
0.359675 0.528885 1.000000
0.464068 0.536583 1.000000
0.570796 0.544395 1.000000
0.679897 0.552317 1.000000
0.791409 0.560348 1.000000
0.000000 0.637252 1.000000
0.066291 0.646259 1.000000
0.167897 0.655401 1.000000
0.271806 0.664673 1.000000
0.378060 0.674071 1.000000
0.486696 0.683591 1.000000
0.597751 0.693230 1.000000
0.711258 0.702985 1.000000
0.824643 0.710451 1.000000
0.000000 0.786328 1.000000
0.072939 0.797216 1.000000
0.178667 0.808240 1.000000
0.286787 0.819397 1.000000
0.397335 0.830682 1.000000
0.506016 0.834460 1.000000
0.613604 0.835796 1.000000
0.721193 0.837132 1.000000
0.828781 0.838468 1.000000
0.000000 0.946992 1.000000
0.079800 0.957133 1.000000
0.187389 0.958468 1.000000
0.294977 0.959804 1.000000
0.402566 0.961140 1.000000
0.510154 0.962476 1.000000
0.617743 0.963812 1.000000
0.725332 0.965148 1.000000
0.832920 0.966484 1.000000
