assets/lighting/cinematic/grade-sci-fi-cool/lut.cube
TITLE "Sci-Fi Cool"
# TKRS lighting-batch-001 original LUT
# Intended usage: spaceship / lab cool cyan grade
# License: CC0-1.0
LUT_3D_SIZE 17
DOMAIN_MIN 0.0 0.0 0.0
DOMAIN_MAX 1.0 1.0 1.0
0.000000 0.000000 0.000000
0.000000 0.000000 0.000000
0.034321 0.000000 0.000000
0.077168 0.000000 0.000000
0.120016 0.000000 0.000000
0.162864 0.000000 0.000000
0.205712 0.000000 0.000000
0.248559 0.000000 0.000000
0.291407 0.000000 0.000000
0.334255 0.000000 0.000000
0.377103 0.000000 0.000000
0.419950 0.000000 0.000000
0.462798 0.000000 0.000000
0.505646 0.000000 0.000000
0.548494 0.000000 0.000000
0.591342 0.000000 0.000000
0.634189 0.000000 0.000000
0.000000 0.000000 0.000000
0.000000 0.000000 0.000000
0.035969 0.000000 0.000000
0.078817 0.000000 0.000000
0.121664 0.000000 0.000000
0.164512 0.000000 0.000000
0.207360 0.000000 0.000000
0.250208 0.000000 0.000000
0.293055 0.000000 0.000000
0.335903 0.000000 0.000000
0.378751 0.000000 0.000000
0.421599 0.000000 0.000000
0.464447 0.000000 0.000000
0.507294 0.000248 0.000000
0.550142 0.000770 0.000000
0.592990 0.001293 0.000000
0.635838 0.001815 0.000000
0.000000 0.043533 0.000000
0.000000 0.044055 0.000000
0.037617 0.044578 0.000000
0.080465 0.045101 0.000000
0.123313 0.045623 0.000000
0.166160 0.046146 0.000000
0.209008 0.046668 0.000000
0.251856 0.047191 0.000000
0.294704 0.047713 0.000000
0.337551 0.048236 0.000000
0.380399 0.048759 0.000000
0.423247 0.049281 0.000000
0.466095 0.049804 0.000000
0.509019 0.050335 0.000000
0.553483 0.051019 0.000000
0.598627 0.051747 0.000000
0.644326 0.052500 0.000000
0.000000 0.093612 0.000000
0.000000 0.094134 0.000000
0.039265 0.094657 0.000000
0.082113 0.095179 0.000000
0.124961 0.095702 0.000000
0.167809 0.096225 0.000000
0.210656 0.096747 0.000000
0.253504 0.097270 0.000000
0.296352 0.097792 0.000000
0.339200 0.098315 0.000000
0.382580 0.098988 0.000000
0.426911 0.099873 0.000000
0.471759 0.100816 0.000000
0.517099 0.101799 0.000000
0.562930 0.102812 0.000000
0.609257 0.103853 0.000000
0.656087 0.104918 0.000000
0.000000 0.143691 0.000000
0.000000 0.144213 0.000000
0.040914 0.144736 0.000000
0.083761 0.145258 0.000000
0.126609 0.145781 0.000000
0.169457 0.146303 0.000000
0.212317 0.146835 0.000000
0.255895 0.147815 0.000000
0.299945 0.148922 0.000000
0.344438 0.150096 0.000000
0.389381 0.151319 0.000000
0.434784 0.152582 0.000000
0.480660 0.153881 0.000000
0.527018 0.155211 0.000000
0.573869 0.156570 0.000000
0.621223 0.157955 0.000000
0.669088 0.159365 0.000000
0.000000 0.193769 0.000000
0.000000 0.194292 0.000000
0.042562 0.194815 0.000000
0.085517 0.195604 0.000000
0.128844 0.196835 0.000000
0.172542 0.198177 0.000000
0.216637 0.199594 0.000000
0.261150 0.201068 0.000000
0.306100 0.202590 0.000000
0.351502 0.204155 0.000000
0.397370 0.205757 0.000000
0.443716 0.207394 0.000000
0.490551 0.209062 0.000000
0.537886 0.210760 0.000000
0.585728 0.212487 0.000000
0.634089 0.214240 0.000000
0.682975 0.216019 0.000000
0.000000 0.244578 0.000000
0.001371 0.246059 0.000000
0.044667 0.247649 0.000000
0.088330 0.249319 0.000000
0.132387 0.251054 0.000000
0.176862 0.252842 0.000000
0.221771 0.254679 0.000000
0.267132 0.256560 0.000000
0.312958 0.258480 0.000000
0.359260 0.260438 0.000000
0.406051 0.262429 0.000000
0.453341 0.264454 0.000000
0.501138 0.266509 0.000000
0.549452 0.268595 0.000000
0.598291 0.270708 0.000000
0.647663 0.272849 0.000000
0.697575 0.275017 0.000000
0.000000 0.299279 0.000000
0.003075 0.301281 0.000000
0.047054 0.303344 0.000000
0.091454 0.305460 0.000000
0.136292 0.307624 0.000000
0.181583 0.309834 0.000000
0.227340 0.312085 0.000000
0.273576 0.314375 0.000000
0.320300 0.316702 0.000000
0.367524 0.319063 0.000000
0.415257 0.321459 0.000000
0.463506 0.323886 0.000000
0.512281 0.326344 0.000000
0.561589 0.328832 0.000000
0.611437 0.331349 0.000000
0.661833 0.333893 0.000000
0.712782 0.336465 0.000000
0.000000 0.356500 0.000000
0.004838 0.358954 0.000000
0.049581 0.361458 0.000000
0.094781 0.364007 0.000000
0.140450 0.366600 0.000000
0.186600 0.369233 0.000000
0.233240 0.371905 0.000000
0.280381 0.374614 0.000000
0.328033 0.377359 0.000000
0.376202 0.380137 0.000000
0.424898 0.382949 0.000000
0.474128 0.385792 0.000000
0.523899 0.388667 0.000000
0.574218 0.391571 0.000000
0.625091 0.394505 0.000000
0.676525 0.397467 0.000000
0.728525 0.400457 0.000000
0.000000 0.416209 0.000000
0.006667 0.419108 0.000000
0.052231 0.422052 0.000000
0.098279 0.425038 0.000000
0.144820 0.428064 0.000000
0.191864 0.431129 0.000000
0.239420 0.434231 0.000000
0.287496 0.437370 0.000000
0.336100 0.440543 0.000000
0.385239 0.443750 0.000000
0.434921 0.446990 0.000000
0.485151 0.450261 0.000000
0.535937 0.453564 0.000000
0.587284 0.456897 0.000000
0.639198 0.460260 0.000000
0.691685 0.463652 0.000000
0.744751 0.467073 0.000000
0.000000 0.478463 0.000000
0.008565 0.481810 0.000000
0.054994 0.485199 0.000000
0.101929 0.488629 0.000000
0.149378 0.492097 0.000000
0.197349 0.495603 0.000000
0.245849 0.499145 0.000000
0.294886 0.502723 0.000000
0.344467 0.506335 0.000000
0.394599 0.509981 0.000000
0.445286 0.513660 0.000000
0.496537 0.517371 0.000000
0.548355 0.521113 0.000000
0.600748 0.524886 0.000000
0.653719 0.528689 0.000000
0.707276 0.532522 0.000000
0.761421 0.536384 0.000000
0.000000 0.543332 0.000000
0.010537 0.547133 0.000000
0.057868 0.550974 0.000000
0.105723 0.554854 0.000000
0.154110 0.558773 0.000000
0.203035 0.562728 0.000000
0.252506 0.566720 0.000000
0.302528 0.570747 0.000000
0.353109 0.574808 0.000000
0.404253 0.578902 0.000000
0.455967 0.583030 0.000000
0.508256 0.587190 0.000000
0.561125 0.591382 0.000000
0.614579 0.595605 0.000000
0.668624 0.599858 0.000000
0.723264 0.604142 0.000000
0.778504 0.608455 0.000000
0.000000 0.610880 0.000000
0.012585 0.615142 0.000000
0.060849 0.619443 0.000000
0.109653 0.623782 0.000000
0.159005 0.628159 0.000000
0.208910 0.632573 0.000000
0.259375 0.637023 0.000000
0.310405 0.641507 0.000000
0.362005 0.646026 0.000000
0.414183 0.650579 0.000000
0.466941 0.655165 0.000000
0.520286 0.659783 0.000000
0.574223 0.664433 0.000000
0.628755 0.669115 0.000000
0.683888 0.673828 0.000000
0.739627 0.678572 0.000000
0.795974 0.683346 0.000000
0.000000 0.681170 0.000000
0.014712 0.685900 0.000000
0.063936 0.690668 0.000000
0.113716 0.695475 0.000000
0.164057 0.700318 0.000000
0.214965 0.705198 0.000000
0.266445 0.710114 0.000000
0.318502 0.715065 0.000000
0.371143 0.720050 0.000000
0.424371 0.725069 0.000000
0.478192 0.730122 0.000000
0.532610 0.735207 0.000000
0.587630 0.740325 0.000000
0.643255 0.745474 0.000000
0.699491 0.750655 0.000000
0.756342 0.755867 0.000000
0.813811 0.761110 0.000000
0.000000 0.754260 0.000000
0.016920 0.759465 0.000000
0.067129 0.764708 0.000000
0.117908 0.769989 0.000000
0.169260 0.775307 0.000000
0.221191 0.780661 0.000000
0.273707 0.786051 0.000000
0.326812 0.791476 0.000000
0.380510 0.796935 0.000000
0.434807 0.802429 0.000000
0.489706 0.807956 0.000000
0.545213 0.813516 0.000000
0.601331 0.819109 0.000000
0.658064 0.824734 0.000000
0.715417 0.830391 0.000000
0.771385 0.833758 0.000000
0.825179 0.834426 0.000000
0.000000 0.830205 0.000000
0.019210 0.835892 0.000000
0.070428 0.841616 0.000000
0.122227 0.847379 0.000000
0.174611 0.853178 0.000000
0.227585 0.859013 0.000000
0.281155 0.864885 0.000000
0.335324 0.870791 0.000000
0.390097 0.876732 0.000000
0.445478 0.882708 0.000000
0.501472 0.888717 0.000000
0.558082 0.894760 0.000000
0.612072 0.895762 0.000000
0.665866 0.896430 0.000000
0.719660 0.897098 0.000000
0.773454 0.897766 0.000000
0.827249 0.898434 0.000000
0.000000 0.909055 0.000000
0.021586 0.915230 0.000000
0.073832 0.921443 0.000000
0.126671 0.927694 0.000000
0.180105 0.933981 0.000000
0.234141 0.940305 0.000000
0.288782 0.946665 0.000000
0.344032 0.953060 0.000000
0.398964 0.957098 0.000000
0.452758 0.957766 0.000000
0.506552 0.958434 0.000000
0.560347 0.959102 0.000000
0.614141 0.959770 0.000000
0.667935 0.960438 0.000000
0.721729 0.961106 0.000000
0.775524 0.961774 0.000000
0.829318 0.962442 0.000000
0.000000 0.000000 0.000000
0.000000 0.000000 0.000000
0.034500 0.000000 0.000000
0.077348 0.000000 0.000000
0.120195 0.000000 0.000000
0.163043 0.000000 0.000000
0.205891 0.000000 0.000000
0.248739 0.000000 0.000000
0.291587 0.000000 0.000000
0.334434 0.000000 0.000342
0.377282 0.000000 0.000961
0.420130 0.000000 0.001581
0.462978 0.000000 0.002200
0.505825 0.000000 0.002820
0.548673 0.000000 0.003439
0.591521 0.000000 0.004059
0.634369 0.000000 0.004678
0.000000 0.000000 0.000000
0.000000 0.000000 0.000000
0.036148 0.000000 0.000000
0.078996 0.000000 0.000000
0.121844 0.000000 0.000000
0.164691 0.000000 0.000017
0.207539 0.000000 0.000637
0.250387 0.000000 0.001256
0.293235 0.000000 0.001876
0.336083 0.000000 0.002495
0.378930 0.000000 0.003115
0.421778 0.000000 0.003734
0.464626 0.000000 0.004354
0.507474 0.000445 0.004973
0.550321 0.000968 0.005593
0.593169 0.001490 0.006212
0.636017 0.002013 0.006832
0.000000 0.043730 0.000000
0.000000 0.044253 0.000000
0.037796 0.044776 0.000312
0.080644 0.045298 0.000932
0.123492 0.045821 0.001551
0.166340 0.046343 0.002171
0.209187 0.046866 0.002790
0.252035 0.047389 0.003410
0.294883 0.047911 0.004029
0.337731 0.048434 0.004649
0.380579 0.048956 0.005268
0.423426 0.049479 0.005888
0.466274 0.050001 0.006507
0.509687 0.050585 0.007131
0.554392 0.051291 0.007762
0.599691 0.052029 0.008397
0.645525 0.052791 0.009036
0.000000 0.093809 0.001227
0.000000 0.094332 0.001846
0.039445 0.094854 0.002466
0.082292 0.095377 0.003085
0.125140 0.095900 0.003705
0.167988 0.096422 0.004324
0.210836 0.096945 0.004944
0.253683 0.097467 0.005563
0.296531 0.097990 0.006183
0.339379 0.098513 0.006802
0.383214 0.099314 0.007431
0.427690 0.100225 0.008064
0.472661 0.101184 0.008701
0.518118 0.102179 0.009342
0.564064 0.103203 0.009986
0.610506 0.104253 0.010633
0.657451 0.105327 0.011284
0.000000 0.143888 0.003381
0.000000 0.144411 0.004000
0.041093 0.144933 0.004620
0.083941 0.145456 0.005239
0.126788 0.145979 0.005859
0.169636 0.146501 0.006478
0.212691 0.147180 0.007101
0.256409 0.148224 0.007732
0.300566 0.149359 0.008367
0.345162 0.150553 0.009006
0.390208 0.151792 0.009648
0.435715 0.153070 0.010294
0.481696 0.154381 0.010943
0.528161 0.155722 0.011595
0.575120 0.157091 0.012251
0.622583 0.158485 0.012911
0.670559 0.159904 0.013574
0.000000 0.193967 0.005534
0.000000 0.194490 0.006154
0.042741 0.195012 0.006773
0.085797 0.196052 0.007401
0.129204 0.197332 0.008034
0.172986 0.198706 0.008671
0.217168 0.200145 0.009311
0.261773 0.201639 0.009955
0.306818 0.203177 0.010602
0.352318 0.204757 0.011253
0.398285 0.206372 0.011907
0.444733 0.208021 0.012565
0.491673 0.209701 0.013227
0.539113 0.211410 0.013892
0.587064 0.213147 0.014560
0.635534 0.214910 0.015233
0.684531 0.216699 0.015909
0.000000 0.245122 0.007702
0.001554 0.246650 0.008337
0.044919 0.248273 0.008976
0.088658 0.249968 0.009618
0.132797 0.251724 0.010263
0.177359 0.253532 0.010912
0.222359 0.255386 0.011564
0.267813 0.257282 0.012220
0.313735 0.259216 0.012880
0.360137 0.261187 0.013543
0.407029 0.263191 0.014210
0.454422 0.265228 0.014880
0.502325 0.267295 0.015554
0.550746 0.269391 0.016232
0.599695 0.271515 0.016914
0.649177 0.273666 0.017599
0.699201 0.275843 0.018289
0.000000 0.300029 0.009925
0.003264 0.302054 0.010572
0.047322 0.304138 0.011222
0.091807 0.306273 0.011876
0.136733 0.308455 0.012534
0.182115 0.310680 0.013195
0.227967 0.312946 0.013860
0.274300 0.315251 0.014528
0.321124 0.317591 0.015201
0.368449 0.319965 0.015877
0.416286 0.322373 0.016556
0.464641 0.324812 0.017240
0.513523 0.327281 0.017927
0.562940 0.329780 0.018619
0.612899 0.332308 0.019314
0.663407 0.334863 0.020013
0.714470 0.337445 0.020716
0.000000 0.357422 0.012189
0.005034 0.359896 0.012848
0.049864 0.362417 0.013511
0.095154 0.364983 0.014178
0.140916 0.367591 0.014848
0.187161 0.370239 0.015522
0.233900 0.372926 0.016200
0.281141 0.375648 0.016881
0.328895 0.378406 0.017567
0.377169 0.381197 0.018256
0.425971 0.384020 0.018949
0.475309 0.386876 0.019646
0.525189 0.389762 0.020347
0.575619 0.392677 0.021052
0.626604 0.395622 0.021761
0.678152 0.398595 0.022475
0.730268 0.401595 0.023192
0.000000 0.417300 0.014497
0.006870 0.420216 0.015169
0.052526 0.423176 0.015845
0.098669 0.426178 0.016524
0.145307 0.429219 0.017207
0.192451 0.432298 0.017895
0.240108 0.435414 0.018586
0.288288 0.438566 0.019281
0.336997 0.441752 0.019980
0.386243 0.444971 0.020683
0.436033 0.448223 0.021390
0.486373 0.451507 0.022101
0.537270 0.454821 0.022816
0.588730 0.458166 0.023535
0.640759 0.461540 0.024258
0.693361 0.464942 0.024985
0.746544 0.468374 0.025717
0.000000 0.479724 0.016849
0.008776 0.483087 0.017534
0.055302 0.486492 0.018223
0.102335 0.489936 0.018916
0.149885 0.493419 0.019613
0.197958 0.496938 0.020314
0.246563 0.500494 0.021019
0.295706 0.504085 0.021728
0.345395 0.507710 0.022441
0.395635 0.511369 0.023158
0.446434 0.515060 0.023879
0.497796 0.518782 0.024604
0.549728 0.522536 0.025333
0.602235 0.526321 0.026067
0.655323 0.530135 0.026805
0.708996 0.533979 0.027547
0.763260 0.537852 0.028293
0.000000 0.544764 0.019248
0.010756 0.548581 0.019947
0.058187 0.552437 0.020649
0.106144 0.556332 0.021356
0.154634 0.560265 0.022067
0.203665 0.564234 0.022782
0.253243 0.568239 0.023501
0.303374 0.572279 0.024224
0.354065 0.576352 0.024951
0.405320 0.580460 0.025682
0.457147 0.584600 0.026418
0.509550 0.588772 0.027158
0.562534 0.592975 0.027902
0.616105 0.597210 0.028650
0.670268 0.601475 0.029402
0.725027 0.605770 0.030159
0.780386 0.610094 0.030921
0.000000 0.612487 0.021694
0.012813 0.616764 0.022407
0.061180 0.621079 0.023124
0.110089 0.625433 0.023844
0.159547 0.629824 0.024569
0.209560 0.634252 0.025299
0.260134 0.638715 0.026032
0.311275 0.643212 0.026770
0.362988 0.647744 0.027511
0.415279 0.652309 0.028257
0.468152 0.656908 0.029008
0.521613 0.661538 0.029762
0.575666 0.666201 0.030521
0.630317 0.670894 0.031285
0.685570 0.675619 0.032052
0.741428 0.680374 0.032824
0.797898 0.685159 0.033601
0.000000 0.682954 0.024189
0.014948 0.687699 0.024916
0.064279 0.692482 0.025647
0.114166 0.697302 0.026383
0.164616 0.702160 0.027122
0.215634 0.707053 0.027866
0.267226 0.711982 0.028614
0.319396 0.716946 0.029367
0.372151 0.721944 0.030123
0.425495 0.726976 0.030884
0.479432 0.732041 0.031650
0.533968 0.737139 0.032420
0.589106 0.742269 0.033194
0.644852 0.747430 0.033972
0.701209 0.752623 0.034755
0.758181 0.757847 0.035543
0.815773 0.763101 0.036335
0.000000 0.756224 0.026735
0.017165 0.761444 0.027476
0.067483 0.766701 0.028222
0.118372 0.771996 0.028972
0.169835 0.777327 0.029727
0.221879 0.782695 0.030485
0.274508 0.788098 0.031248
0.327728 0.793536 0.032016
0.381542 0.799009 0.032788
0.435956 0.804515 0.033564
0.490974 0.810055 0.034345
0.546600 0.815628 0.035130
0.602838 0.821233 0.035920
0.659693 0.826870 0.036714
0.717169 0.832539 0.037512
0.771610 0.834010 0.038222
0.825404 0.834678 0.038914
0.000000 0.832351 0.029331
0.019465 0.838052 0.030087
0.070793 0.843791 0.030848
0.122704 0.849568 0.031613
0.175201 0.855381 0.032383
0.228291 0.861230 0.033157
0.281976 0.867114 0.033935
0.336262 0.873034 0.034718
0.391153 0.878988 0.035505
0.446653 0.884977 0.036297
0.502767 0.890999 0.037093
0.558502 0.895347 0.037859
0.612297 0.896015 0.038552
0.666091 0.896683 0.039244
0.719885 0.897350 0.039936
0.773680 0.898018 0.040628
0.827474 0.898686 0.041320
0.000000 0.911386 0.031979
0.021849 0.917576 0.032751
0.074209 0.923803 0.033527
0.127161 0.930068 0.034308
0.180712 0.936369 0.035093
0.234864 0.942706 0.035882
0.289622 0.949079 0.036676
0.344991 0.955488 0.037474
0.399189 0.957351 0.038189
0.452983 0.958019 0.038881
0.506777 0.958687 0.039573
0.560572 0.959355 0.040266
0.614366 0.960023 0.040958
0.668160 0.960691 0.041650
0.721955 0.961359 0.042342
0.775749 0.962027 0.043034
0.829543 0.962694 0.043726
0.000000 0.000000 0.056658
0.000000 0.000000 0.057277
0.034679 0.000000 0.057897
0.077527 0.000000 0.058516
0.120375 0.000000 0.059136
0.163223 0.000000 0.059755
0.206070 0.000000 0.060375
0.248918 0.000000 0.060994
0.291766 0.000000 0.061614
0.334614 0.000000 0.062233
0.377461 0.000000 0.062853
0.420309 0.000000 0.063472
0.463157 0.000000 0.064092
0.506005 0.000000 0.064711
0.548852 0.000000 0.065331
0.591700 0.000000 0.065950
0.634548 0.000000 0.066570
0.000000 0.000000 0.058811
0.000000 0.000000 0.059431
0.036327 0.000000 0.060050
0.079175 0.000000 0.060670
0.122023 0.000000 0.061289
0.164871 0.000000 0.061909
0.207719 0.000000 0.062528
0.250566 0.000000 0.063148
0.293414 0.000000 0.063767
0.336262 0.000000 0.064387
0.379110 0.000000 0.065006
0.421957 0.000000 0.065626
0.464805 0.000120 0.066245
0.507653 0.000643 0.066865
0.550501 0.001165 0.067484
0.593348 0.001688 0.068104
0.636728 0.002213 0.068749
0.000000 0.043928 0.060965
0.000000 0.044451 0.061584
0.037976 0.044973 0.062204
0.080823 0.045496 0.062823
0.123671 0.046018 0.063443
0.166519 0.046541 0.064062
0.209367 0.047064 0.064682
0.252215 0.047586 0.065301
0.295062 0.048109 0.065921
0.337910 0.048631 0.066540
0.380758 0.049154 0.067160
0.423606 0.049677 0.067779
0.466453 0.050199 0.068399
0.510454 0.050847 0.069090
0.555341 0.051567 0.069823
0.600782 0.052315 0.070571
0.646747 0.053084 0.071331
0.000000 0.094007 0.063118
0.000000 0.094530 0.063738
0.039624 0.095052 0.064357
0.082472 0.095575 0.064977
0.125320 0.096097 0.065596
0.168167 0.096620 0.066216
0.211015 0.097142 0.066835
0.253863 0.097665 0.067455
0.296711 0.098188 0.068074
0.339799 0.098786 0.068716
0.383887 0.099651 0.069437
0.428493 0.100583 0.070177
0.473582 0.101556 0.070932
0.519154 0.102563 0.071697
0.565214 0.103597 0.072471
0.611769 0.104657 0.073254
0.658827 0.105738 0.074044
0.000000 0.144086 0.065272
0.000000 0.144608 0.065891
0.041272 0.145131 0.066511
0.084120 0.145654 0.067130
0.126968 0.146176 0.067750
0.169816 0.146699 0.068369
0.213112 0.147560 0.069056
0.256943 0.148645 0.069787
0.301202 0.149805 0.070535
0.345899 0.151017 0.071295
0.391046 0.152271 0.072064
0.436657 0.153562 0.072843
0.482742 0.154884 0.073629
0.529314 0.156236 0.074423
0.576381 0.157615 0.075225
0.623954 0.159019 0.076033
0.672041 0.160447 0.076848
0.000000 0.194165 0.067425
0.000073 0.194687 0.068045
0.042946 0.195334 0.068683
0.086086 0.196522 0.069402
0.129572 0.197843 0.070142
0.173437 0.199243 0.070896
0.217708 0.200704 0.071660
0.262404 0.202216 0.072434
0.307543 0.203770 0.073216
0.353140 0.205363 0.074007
0.399208 0.206992 0.074804
0.445758 0.208653 0.075609
0.492802 0.210344 0.076420
0.540348 0.212064 0.077238
0.588407 0.213811 0.078063
0.636987 0.215584 0.078893
0.686095 0.217382 0.079730
0.000000 0.245687 0.069752
0.001737 0.247254 0.070499
0.045172 0.248906 0.071259
0.088989 0.250626 0.072028
0.133212 0.252402 0.072806
0.177860 0.254228 0.073592
0.222951 0.256098 0.074386
0.268499 0.258009 0.075187
0.314518 0.259957 0.075994
0.361019 0.261941 0.076809
0.408013 0.263958 0.077630
0.455510 0.266006 0.078457
0.503518 0.268084 0.079291
0.552047 0.270191 0.080131
0.601105 0.272325 0.080976
0.650698 0.274486 0.081828
0.700835 0.276673 0.082686
0.000000 0.300788 0.072397
0.003453 0.302836 0.073179
0.047593 0.304940 0.073969
0.092162 0.307093 0.074766
0.137177 0.309292 0.075571
0.182651 0.311533 0.076382
0.228598 0.313814 0.077199
0.275028 0.316132 0.078023
0.321952 0.318485 0.078854
0.369379 0.320872 0.079690
0.417320 0.323292 0.080533
0.465781 0.325742 0.081381
0.514771 0.328223 0.082236
0.564297 0.330733 0.083096
0.614367 0.333271 0.083962
0.664987 0.335836 0.084834
0.716164 0.338428 0.085711
0.000000 0.358352 0.075148
0.005230 0.360844 0.075956
0.050148 0.363382 0.076770
0.095528 0.365965 0.077591
0.141384 0.368588 0.078418
0.187725 0.371251 0.079251
0.234562 0.373951 0.080091
0.281905 0.376687 0.080936
0.329761 0.379457 0.081788
0.378140 0.382261 0.082645
0.427048 0.385097 0.083508
0.476494 0.387964 0.084376
0.526484 0.390861 0.085251
0.577025 0.393787 0.086131
0.628123 0.396743 0.087017
0.679785 0.399726 0.087908
0.732016 0.402737 0.088805
0.000000 0.418398 0.077984
0.007074 0.421331 0.078814
0.052823 0.424306 0.079651
0.099060 0.427323 0.080493
0.145796 0.430379 0.081341
0.193040 0.433472 0.082195
0.240799 0.436602 0.083055
0.289082 0.439767 0.083921
0.337896 0.442966 0.084792
0.387250 0.446197 0.085669
0.437148 0.449461 0.086552
0.487599 0.452757 0.087441
0.538608 0.456083 0.088335
0.590181 0.459438 0.089234
0.642324 0.462823 0.090140
0.695042 0.466237 0.091050
0.748342 0.469679 0.091967
0.000000 0.480991 0.080896
0.008988 0.484370 0.081747
0.055610 0.487790 0.082604
0.102743 0.491249 0.083467
0.150393 0.494745 0.084335
0.198569 0.498279 0.085209
0.247279 0.501848 0.086089
0.296528 0.505452 0.086975
0.346325 0.509090 0.087866
0.396675 0.512761 0.088763
0.447584 0.516464 0.089665
0.499059 0.520198 0.090573
0.551105 0.523964 0.091486
0.603727 0.527760 0.092405
0.656931 0.531586 0.093329
0.710722 0.535440 0.094259
0.765104 0.539324 0.095194
0.000000 0.546203 0.083880
0.010976 0.550035 0.084751
0.058507 0.553906 0.085628
0.106567 0.557815 0.086510
0.155161 0.561762 0.087399
0.204298 0.565744 0.088292
0.253983 0.569763 0.089192
0.304223 0.573815 0.090097
0.355023 0.577902 0.091007
0.406391 0.582022 0.091923
0.458330 0.586174 0.092844
0.510848 0.590358 0.093771
0.563948 0.594573 0.094704
0.617635 0.598819 0.095642
0.671916 0.603096 0.096585
0.726794 0.607402 0.097534
0.782273 0.611737 0.098489
0.000000 0.614100 0.086933
0.013041 0.618391 0.087824
0.061512 0.622722 0.088720
0.110526 0.627090 0.089622
0.160091 0.631495 0.090530
0.210212 0.635935 0.091443
0.260896 0.640412 0.092361
0.312148 0.644922 0.093285
0.363974 0.649467 0.094215
0.416378 0.654045 0.095150
0.469366 0.658655 0.096091
0.522943 0.663298 0.097037
0.577114 0.667972 0.097988
0.631883 0.672678 0.098945
0.687255 0.677414 0.099908
0.743234 0.682180 0.100875
0.799825 0.686976 0.101849
0.000000 0.684744 0.090054
0.015185 0.689503 0.090964
0.064622 0.694300 0.091879
0.114617 0.699135 0.092801
0.165176 0.704006 0.093727
0.216305 0.708913 0.094660
0.268009 0.713856 0.095597
0.320293 0.718833 0.096541
0.373162 0.723844 0.097489
0.426621 0.728888 0.098443
0.480675 0.733965 0.099403
0.535329 0.739075 0.100368
0.590586 0.744217 0.101338
0.646452 0.749390 0.102314
0.702930 0.754595 0.103296
0.760024 0.759830 0.104283
0.817739 0.765096 0.105275
0.000000 0.758194 0.093241
0.017411 0.763427 0.094171
0.067838 0.768699 0.095106
0.118837 0.774008 0.096046
0.170412 0.779353 0.096992
0.222569 0.784734 0.097943
0.275312 0.790151 0.098900
0.328647 0.795602 0.099862
0.382578 0.801087 0.100829
0.437109 0.806606 0.101803
0.492245 0.812159 0.102781
0.547991 0.817744 0.103765
0.604350 0.823361 0.104754
0.661326 0.829010 0.105749
0.718041 0.833595 0.106682
0.771835 0.834263 0.107374
0.825630 0.834931 0.108066
0.000000 0.834503 0.096496
0.019720 0.840218 0.097444
0.071160 0.845972 0.098398
0.123183 0.851762 0.099357
0.175794 0.857589 0.100322
0.228998 0.863451 0.101292
0.282799 0.869349 0.102268
0.337202 0.875282 0.103249
0.392211 0.881249 0.104236
0.447831 0.887250 0.105228
0.504065 0.893285 0.106225
0.558728 0.895599 0.107012
0.612522 0.896267 0.107704
0.666316 0.896935 0.108396
0.720110 0.897603 0.109088
0.773905 0.898271 0.109780
0.827699 0.898939 0.110473
0.000000 0.913722 0.099816
0.022114 0.919926 0.100784
0.074587 0.926168 0.101756
0.127654 0.932446 0.102735
0.181320 0.938761 0.103718
0.235588 0.945112 0.104707
0.290465 0.951499 0.105702
0.345620 0.956936 0.106649
0.399414 0.957604 0.107341
0.453208 0.958271 0.108034
0.507003 0.958939 0.108726
0.560797 0.959607 0.109418
0.614591 0.960275 0.110110
0.668385 0.960943 0.110802
0.722180 0.961611 0.111494
0.775974 0.962279 0.112187
0.829768 0.962947 0.112879
0.000000 0.000000 0.118549
0.000000 0.000000 0.119168
0.034859 0.000000 0.119788
0.077706 0.000000 0.120407
0.120554 0.000000 0.121027
0.163402 0.000000 0.121646
0.206250 0.000000 0.122266
0.249097 0.000000 0.122885
0.291945 0.000000 0.123505
0.334793 0.000000 0.124124
0.377641 0.000000 0.124744
0.420488 0.000000 0.125363
0.463336 0.000000 0.125983
0.506184 0.000000 0.126602
