assets/lighting/cinematic/grade-desert-harsh/lut.cube
TITLE "Desert Harsh"
# TKRS lighting-batch-001 original LUT
# Intended usage: hot desert high-key yellow-orange
# License: CC0-1.0
LUT_3D_SIZE 17
DOMAIN_MIN 0.0 0.0 0.0
DOMAIN_MAX 1.0 1.0 1.0
0.000000 0.000000 0.000000
0.000000 0.000000 0.000000
0.052335 0.000000 0.000000
0.120838 0.000000 0.000000
0.189341 0.000000 0.000000
0.257844 0.000000 0.000000
0.326347 0.000000 0.000000
0.394849 0.000000 0.000000
0.463352 0.000000 0.000000
0.531855 0.000000 0.000000
0.600358 0.000000 0.000000
0.668860 0.000000 0.000000
0.737363 0.000000 0.000000
0.805866 0.000000 0.000000
0.874369 0.000000 0.000000
0.942871 0.000000 0.000000
1.000000 0.000000 0.000000
0.000000 0.000000 0.000000
0.000000 0.000000 0.000000
0.047982 0.000000 0.000000
0.116485 0.000000 0.000000
0.184988 0.000000 0.000000
0.253491 0.000000 0.000000
0.321993 0.000000 0.000000
0.390496 0.000000 0.000000
0.458999 0.000000 0.000000
0.527502 0.000000 0.000000
0.596005 0.000000 0.000000
0.664507 0.000000 0.000000
0.733010 0.000000 0.000000
0.801513 0.000000 0.000000
0.870016 0.000000 0.000000
0.938518 0.000000 0.000000
1.000000 0.000000 0.000000
0.000000 0.038731 0.000000
0.000000 0.037441 0.000000
0.043629 0.036150 0.000000
0.112132 0.034860 0.000000
0.180635 0.033570 0.000000
0.249138 0.032280 0.000000
0.317640 0.030989 0.000000
0.386143 0.029699 0.000000
0.454646 0.028409 0.000000
0.523149 0.027119 0.000000
0.591652 0.025828 0.000000
0.660154 0.024538 0.000000
0.728657 0.023248 0.000000
0.798737 0.021999 0.000000
0.870998 0.020789 0.000000
0.944378 0.019580 0.000000
1.000000 0.018366 0.000000
0.000000 0.098556 0.000000
0.000000 0.097265 0.000000
0.039276 0.095975 0.000000
0.107779 0.094685 0.000000
0.176282 0.093395 0.000000
0.244785 0.092104 0.000000
0.313287 0.090814 0.000000
0.381790 0.089524 0.000000
0.450293 0.088234 0.000000
0.518796 0.086943 0.000000
0.588970 0.085887 0.000000
0.660518 0.084945 0.000000
0.733038 0.084033 0.000000
0.806509 0.083138 0.000000
0.880939 0.082252 0.000000
0.956339 0.081369 0.000000
1.000000 0.080487 0.000000
0.000000 0.158381 0.000000
0.000000 0.157090 0.000000
0.034923 0.155800 0.000000
0.103426 0.154510 0.000000
0.171929 0.153220 0.000000
0.240432 0.151929 0.000000
0.308987 0.150664 0.000000
0.378857 0.149888 0.000000
0.449618 0.149230 0.000000
0.521235 0.148627 0.000000
0.593728 0.148059 0.000000
0.667121 0.147515 0.000000
0.741438 0.146988 0.000000
0.816701 0.146473 0.000000
0.892930 0.145967 0.000000
0.970145 0.145466 0.000000
1.000000 0.144967 0.000000
0.000000 0.218205 0.000000
0.000000 0.216915 0.000000
0.030570 0.215625 0.000000
0.099155 0.214505 0.000000
0.168366 0.214008 0.000000
0.238280 0.213648 0.000000
0.308956 0.213364 0.000000
0.380442 0.213131 0.000000
0.452776 0.212936 0.000000
0.525989 0.212770 0.000000
0.600111 0.212627 0.000000
0.675166 0.212501 0.000000
0.751177 0.212390 0.000000
0.828165 0.212290 0.000000
0.906149 0.212198 0.000000
0.985146 0.212112 0.000000
1.000000 0.212031 0.000000
0.000000 0.278457 0.000000
0.000000 0.278254 0.000000
0.026490 0.278203 0.000000
0.096192 0.278246 0.000000
0.166644 0.278355 0.000000
0.237896 0.278515 0.000000
0.309987 0.278716 0.000000
0.382951 0.278949 0.000000
0.456817 0.279209 0.000000
0.531611 0.279492 0.000000
0.607355 0.279793 0.000000
0.684071 0.280110 0.000000
0.761778 0.280439 0.000000
0.840494 0.280779 0.000000
0.920237 0.281128 0.000000
1.000000 0.281483 0.000000
1.000000 0.281843 0.000000
0.000000 0.343278 0.000000
0.000000 0.343736 0.000000
0.022475 0.344256 0.000000
0.093426 0.344828 0.000000
0.165216 0.345442 0.000000
0.237879 0.346092 0.000000
0.311441 0.346772 0.000000
0.385929 0.347478 0.000000
0.461366 0.348206 0.000000
0.537773 0.348954 0.000000
0.615168 0.349718 0.000000
0.693571 0.350497 0.000000
0.772997 0.351288 0.000000
0.853463 0.352089 0.000000
0.934983 0.352899 0.000000
1.000000 0.353716 0.000000
1.000000 0.354539 0.000000
0.000000 0.411108 0.000000
0.000000 0.412107 0.000000
0.018345 0.413150 0.000000
0.090664 0.414231 0.000000
0.163885 0.415345 0.000000
0.238032 0.416488 0.000000
0.313127 0.417657 0.000000
0.389192 0.418849 0.000000
0.466246 0.420060 0.000000
0.544306 0.421289 0.000000
0.623388 0.422533 0.000000
0.703510 0.423791 0.000000
0.784684 0.425061 0.000000
0.866927 0.426341 0.000000
0.950250 0.427630 0.000000
1.000000 0.428926 0.000000
1.000000 0.430229 0.000000
0.000000 0.481871 0.000000
0.000000 0.483397 0.000000
0.014064 0.484958 0.000000
0.087839 0.486551 0.000000
0.162564 0.488172 0.000000
0.238259 0.489818 0.000000
0.314944 0.491488 0.000000
0.392635 0.493178 0.000000
0.471350 0.494886 0.000000
0.551103 0.496610 0.000000
0.631909 0.498349 0.000000
0.713782 0.500102 0.000000
0.796735 0.501866 0.000000
0.880782 0.503640 0.000000
0.965934 0.505423 0.000000
1.000000 0.507214 0.000000
1.000000 0.509012 0.000000
0.000000 0.555635 0.000000
0.000000 0.557688 0.000000
0.009608 0.559773 0.000000
0.084909 0.561885 0.000000
0.161201 0.564022 0.000000
0.238501 0.566183 0.000000
0.316825 0.568364 0.000000
0.396188 0.570565 0.000000
0.476604 0.572782 0.000000
0.558088 0.575016 0.000000
0.640653 0.577263 0.000000
0.724310 0.579523 0.000000
0.809072 0.581795 0.000000
0.894951 0.584077 0.000000
0.981958 0.586368 0.000000
1.000000 0.588667 0.000000
1.000000 0.590974 0.000000
0.000000 0.632481 0.000000
0.000000 0.635068 0.000000
0.004962 0.637683 0.000000
0.081849 0.640324 0.000000
0.159762 0.642987 0.000000
0.238715 0.645672 0.000000
0.318723 0.648377 0.000000
0.399799 0.651099 0.000000
0.481956 0.653838 0.000000
0.565206 0.656593 0.000000
0.649562 0.659360 0.000000
0.735035 0.662141 0.000000
0.821635 0.664933 0.000000
0.909373 0.667735 0.000000
0.998261 0.670546 0.000000
1.000000 0.673366 0.000000
1.000000 0.676193 0.000000
0.000000 0.712489 0.000000
0.000000 0.715618 0.000000
0.000113 0.718772 0.000000
0.078638 0.721950 0.000000
0.158219 0.725149 0.000000
0.238870 0.728369 0.000000
0.320603 0.731607 0.000000
0.403430 0.734862 0.000000
0.487363 0.738133 0.000000
0.572413 0.741419 0.000000
0.658591 0.744719 0.000000
0.745908 0.748031 0.000000
0.834374 0.751354 0.000000
0.923999 0.754688 0.000000
1.000000 0.758031 0.000000
1.000000 0.761382 0.000000
1.000000 0.764741 0.000000
0.000000 0.795735 0.000000
0.000000 0.799413 0.000000
0.000000 0.803115 0.000000
0.075259 0.806839 0.000000
0.156552 0.810583 0.000000
0.238940 0.814347 0.000000
0.322435 0.818128 0.000000
0.407048 0.821926 0.000000
0.492790 0.825740 0.000000
0.579672 0.829568 0.000000
0.667702 0.833410 0.000000
0.756892 0.837263 0.000000
0.847251 0.841128 0.000000
0.938787 0.845004 0.000000
1.000000 0.848889 0.000000
1.000000 0.850178 0.000000
1.000000 0.848559 0.000000
0.000000 0.882288 0.000000
0.000000 0.886523 0.000000
0.000000 0.890781 0.000000
0.071700 0.895060 0.000000
0.154743 0.899358 0.000000
0.238905 0.903675 0.000000
0.324197 0.908009 0.000000
0.410629 0.912360 0.000000
0.498211 0.916725 0.000000
0.586953 0.921105 0.000000
0.676864 0.925498 0.000000
0.767953 0.929903 0.000000
0.856228 0.930114 0.000000
0.942941 0.928495 0.000000
1.000000 0.926875 0.000000
1.000000 0.925256 0.000000
1.000000 0.923637 0.000000
0.000000 0.972214 0.000000
0.000000 0.977014 0.000000
0.000000 0.981836 0.000000
0.067949 0.986677 0.000000
0.152778 0.991538 0.000000
0.238748 0.996417 0.000000
0.325869 1.000000 0.000000
0.414150 1.000000 0.000000
0.503602 1.000000 0.000000
0.590581 1.000000 0.000000
0.677294 1.000000 0.000000
0.764006 1.000000 0.000000
0.850718 1.000000 0.000000
0.937431 1.000000 0.000000
1.000000 1.000000 0.000000
1.000000 1.000000 0.000000
1.000000 0.998715 0.000000
0.000000 1.000000 0.000000
0.000000 1.000000 0.000000
0.000000 1.000000 0.000000
0.063996 1.000000 0.000000
0.150644 1.000000 0.000000
0.238221 1.000000 0.000000
0.324934 1.000000 0.000000
0.411646 1.000000 0.000000
0.498359 1.000000 0.000000
0.585071 1.000000 0.000000
0.671783 1.000000 0.000000
0.758496 1.000000 0.000000
0.845208 1.000000 0.000000
0.931920 1.000000 0.000000
1.000000 1.000000 0.000000
1.000000 1.000000 0.000000
1.000000 1.000000 0.000000
0.000000 0.000000 0.000000
0.000000 0.000000 0.000000
0.051910 0.000000 0.000000
0.120413 0.000000 0.000000
0.188915 0.000000 0.000000
0.257418 0.000000 0.000000
0.325921 0.000000 0.000000
0.394424 0.000000 0.000000
0.462926 0.000000 0.000000
0.531429 0.000000 0.000000
0.599932 0.000000 0.000000
0.668435 0.000000 0.000000
0.736938 0.000000 0.000000
0.805440 0.000000 0.000000
0.873943 0.000000 0.000000
0.942446 0.000000 0.000000
1.000000 0.000000 0.000000
0.000000 0.000000 0.000000
0.000000 0.000000 0.000000
0.047557 0.000000 0.000000
0.116060 0.000000 0.000000
0.184562 0.000000 0.000000
0.253065 0.000000 0.000000
0.321568 0.000000 0.000000
0.390071 0.000000 0.000000
0.458573 0.000000 0.000000
0.527076 0.000000 0.000000
0.595579 0.000000 0.000000
0.664082 0.000000 0.000000
0.732584 0.000000 0.000000
0.801087 0.000000 0.000000
0.869590 0.000000 0.000000
0.938093 0.000000 0.000000
1.000000 0.000000 0.000000
0.000000 0.038324 0.000000
0.000000 0.037034 0.000000
0.043204 0.035744 0.000000
0.111706 0.034453 0.000000
0.180209 0.033163 0.000000
0.248712 0.031873 0.000000
0.317215 0.030583 0.000000
0.385718 0.029292 0.000000
0.454220 0.028002 0.000000
0.522723 0.026712 0.000000
0.591226 0.025422 0.000000
0.659729 0.024131 0.000000
0.728231 0.022841 0.000000
0.799294 0.021617 0.000000
0.871828 0.020409 0.000000
0.945430 0.019198 0.000000
1.000000 0.017981 0.000000
0.000000 0.098149 0.000000
0.000000 0.096859 0.000000
0.038851 0.095568 0.000000
0.107353 0.094278 0.000000
0.175856 0.092988 0.000000
0.244359 0.091698 0.000000
0.312862 0.090407 0.000000
0.381365 0.089117 0.000000
0.449867 0.087827 0.000000
0.518587 0.086571 0.000000
0.589305 0.085585 0.000000
0.661065 0.084655 0.000000
0.733775 0.083750 0.000000
0.807430 0.082858 0.000000
0.882041 0.081973 0.000000
0.957622 0.081091 0.000000
1.000000 0.080209 0.000000
0.000000 0.157974 0.000000
0.000000 0.156684 0.000000
0.034498 0.155393 0.000000
0.103000 0.154103 0.000000
0.171503 0.152813 0.000000
0.240006 0.151523 0.000000
0.308858 0.150395 0.000000
0.378938 0.149672 0.000000
0.449866 0.149035 0.000000
0.521645 0.148445 0.000000
0.594300 0.147885 0.000000
0.667858 0.147347 0.000000
0.742342 0.146825 0.000000
0.817774 0.146313 0.000000
0.894176 0.145808 0.000000
0.971566 0.145308 0.000000
1.000000 0.144811 0.000000
0.000000 0.217799 0.000000
0.000000 0.216508 0.000000
0.030145 0.215218 0.000000
0.098838 0.214325 0.000000
0.168172 0.213884 0.000000
0.238215 0.213552 0.000000
0.309029 0.213285 0.000000
0.380658 0.213066 0.000000
0.453141 0.212881 0.000000
0.526508 0.212722 0.000000
0.600788 0.212585 0.000000
0.676004 0.212465 0.000000
0.752181 0.212357 0.000000
0.829337 0.212260 0.000000
0.907492 0.212170 0.000000
0.986664 0.212086 0.000000
1.000000 0.212006 0.000000
0.000000 0.278369 0.000000
0.000000 0.278225 0.000000
0.026101 0.278208 0.000000
0.095918 0.278274 0.000000
0.166496 0.278401 0.000000
0.237883 0.278575 0.000000
0.310115 0.278786 0.000000
0.383226 0.279028 0.000000
0.457243 0.279296 0.000000
0.532193 0.279585 0.000000
0.608097 0.279891 0.000000
0.684976 0.280212 0.000000
0.762850 0.280545 0.000000
0.841737 0.280888 0.000000
0.921652 0.281239 0.000000
1.000000 0.281596 0.000000
1.000000 0.281958 0.000000
0.000000 0.343414 0.000000
0.000000 0.343894 0.000000
0.022077 0.344432 0.000000
0.093157 0.345017 0.000000
0.165084 0.345643 0.000000
0.237888 0.346303 0.000000
0.311598 0.346991 0.000000
0.386238 0.347705 0.000000
0.461831 0.348440 0.000000
0.538397 0.349193 0.000000
0.615956 0.349962 0.000000
0.694525 0.350745 0.000000
0.774121 0.351539 0.000000
0.854759 0.352343 0.000000
0.936455 0.353156 0.000000
1.000000 0.353975 0.000000
1.000000 0.354799 0.000000
0.000000 0.411418 0.000000
0.000000 0.412431 0.000000
0.017934 0.413487 0.000000
0.090391 0.414579 0.000000
0.163756 0.415703 0.000000
0.238052 0.416854 0.000000
0.313300 0.418031 0.000000
0.389522 0.419229 0.000000
0.466736 0.420446 0.000000
0.544960 0.421680 0.000000
0.624210 0.422929 0.000000
0.704501 0.424190 0.000000
0.785848 0.425463 0.000000
0.868265 0.426746 0.000000
0.951766 0.428038 0.000000
1.000000 0.429336 0.000000
1.000000 0.430641 0.000000
0.000000 0.482348 0.000000
0.000000 0.483885 0.000000
0.013636 0.485457 0.000000
0.087557 0.487059 0.000000
0.162433 0.488688 0.000000
0.238283 0.490342 0.000000
0.315126 0.492018 0.000000
0.392979 0.493714 0.000000
0.471858 0.495428 0.000000
0.551778 0.497157 0.000000
0.632755 0.498901 0.000000
0.714801 0.500657 0.000000
0.797930 0.502424 0.000000
0.882154 0.504201 0.000000
0.967486 0.505987 0.000000
1.000000 0.507780 0.000000
1.000000 0.509580 0.000000
0.000000 0.556279 0.000000
0.000000 0.558342 0.000000
0.009162 0.560436 0.000000
0.084616 0.562556 0.000000
0.161065 0.564701 0.000000
0.238524 0.566868 0.000000
0.317010 0.569056 0.000000
0.396539 0.571262 0.000000
0.477124 0.573485 0.000000
0.558779 0.575723 0.000000
0.641517 0.577974 0.000000
0.725351 0.580238 0.000000
0.810291 0.582513 0.000000
0.896351 0.584798 0.000000
0.983540 0.587092 0.000000
1.000000 0.589394 0.000000
1.000000 0.591702 0.000000
0.000000 0.633294 0.000000
0.000000 0.635890 0.000000
0.004497 0.638513 0.000000
0.081542 0.641161 0.000000
0.159616 0.643832 0.000000
0.238734 0.646523 0.000000
0.318908 0.649233 0.000000
0.400154 0.651961 0.000000
0.482483 0.654705 0.000000
0.565908 0.657464 0.000000
0.650440 0.660236 0.000000
0.736092 0.663020 0.000000
0.822873 0.665815 0.000000
0.910795 0.668620 0.000000
0.999868 0.671434 0.000000
1.000000 0.674257 0.000000
1.000000 0.677086 0.000000
0.000000 0.713473 0.000000
0.000000 0.716610 0.000000
0.000000 0.719772 0.000000
0.078315 0.722956 0.000000
0.158062 0.726162 0.000000
0.238881 0.729388 0.000000
0.320784 0.732631 0.000000
0.403785 0.735892 0.000000
0.487893 0.739168 0.000000
0.573121 0.742458 0.000000
0.659479 0.745762 0.000000
0.746978 0.749077 0.000000
0.835628 0.752404 0.000000
0.925438 0.755741 0.000000
1.000000 0.759086 0.000000
1.000000 0.762440 0.000000
1.000000 0.765802 0.000000
0.000000 0.796892 0.000000
0.000000 0.800578 0.000000
0.000000 0.804286 0.000000
0.074920 0.808017 0.000000
0.156382 0.811768 0.000000
0.238942 0.815537 0.000000
0.322611 0.819324 0.000000
0.407401 0.823127 0.000000
0.493321 0.826945 0.000000
0.580383 0.830778 0.000000
0.668596 0.834623 0.000000
0.757971 0.838480 0.000000
0.848516 0.842349 0.000000
0.940240 0.846227 0.000000
1.000000 0.850115 0.000000
1.000000 0.849668 0.000000
1.000000 0.848048 0.000000
0.000000 0.883621 0.000000
0.000000 0.887863 0.000000
0.000000 0.892128 0.000000
0.071342 0.896413 0.000000
0.154558 0.900717 0.000000
0.238895 0.905040 0.000000
0.324365 0.909379 0.000000
0.410976 0.913734 0.000000
0.498740 0.918104 0.000000
0.587665 0.922488 0.000000
0.677762 0.926885 0.000000
0.768977 0.931223 0.000000
0.855690 0.929603 0.000000
0.942402 0.927984 0.000000
1.000000 0.926365 0.000000
1.000000 0.924746 0.000000
1.000000 0.923127 0.000000
0.000000 0.973725 0.000000
0.000000 0.978532 0.000000
0.000000 0.983360 0.000000
0.067572 0.988208 0.000000
0.152577 0.993074 0.000000
0.238725 0.997959 0.000000
0.326027 1.000000 0.000000
0.414491 1.000000 0.000000
0.503330 1.000000 0.000000
0.590042 1.000000 0.000000
0.676755 1.000000 0.000000
0.763467 1.000000 0.000000
0.850179 1.000000 0.000000
0.936892 1.000000 0.000000
1.000000 1.000000 0.000000
1.000000 0.999824 0.000000
1.000000 0.998205 0.000000
0.000000 1.000000 0.000000
0.000000 1.000000 0.000000
0.000000 1.000000 0.000000
0.063598 1.000000 0.000000
0.150426 1.000000 0.000000
0.237683 1.000000 0.000000
0.324395 1.000000 0.000000
0.411107 1.000000 0.000000
0.497820 1.000000 0.000000
0.584532 1.000000 0.000000
0.671245 1.000000 0.000000
0.757957 1.000000 0.000000
0.844669 1.000000 0.000000
0.931382 1.000000 0.000000
1.000000 1.000000 0.000000
1.000000 1.000000 0.000000
1.000000 1.000000 0.000000
0.000000 0.000000 0.040255
0.000000 0.000000 0.039025
0.051484 0.000000 0.037794
0.119987 0.000000 0.036564
0.188490 0.000000 0.035333
0.256993 0.000000 0.034103
0.325495 0.000000 0.032872
0.393998 0.000000 0.031642
0.462501 0.000000 0.030411
0.531004 0.000000 0.029181
0.599506 0.000000 0.027951
0.668009 0.000000 0.026720
0.736512 0.000000 0.025490
0.805015 0.000000 0.024259
0.873517 0.000000 0.023029
0.942020 0.000000 0.021798
1.000000 0.000000 0.020568
0.000000 0.000000 0.036288
0.000000 0.000000 0.035057
0.047131 0.000000 0.033827
0.115634 0.000000 0.032596
0.184137 0.000000 0.031366
0.252639 0.000000 0.030135
0.321142 0.000000 0.028905
0.389645 0.000000 0.027675
0.458148 0.000000 0.026444
0.526651 0.000000 0.025214
0.595153 0.000000 0.023983
0.663656 0.000000 0.022753
0.732159 0.000000 0.021522
0.800662 0.000000 0.020292
0.869164 0.000000 0.019062
0.937735 0.000000 0.017832
1.000000 0.000000 0.016633
0.000000 0.037917 0.032320
0.000000 0.036627 0.031090
0.042778 0.035337 0.029859
0.111281 0.034047 0.028629
0.179784 0.032756 0.027399
0.248286 0.031466 0.026168
0.316789 0.030176 0.024938
0.385292 0.028886 0.023707
0.453795 0.027595 0.022477
0.522297 0.026305 0.021246
0.590800 0.025015 0.020016
0.659303 0.023725 0.018785
0.728310 0.022449 0.017562
0.799917 0.021236 0.016365
0.872697 0.020027 0.015170
0.946514 0.018815 0.013971
1.000000 0.017596 0.012768
0.000000 0.097742 0.028353
0.000000 0.096452 0.027123
0.038425 0.095162 0.025892
0.106928 0.093871 0.024662
0.175431 0.092581 0.023431
0.243933 0.091291 0.022201
0.312436 0.090001 0.020970
0.380939 0.088710 0.019740
0.449442 0.087420 0.018509
0.518695 0.086250 0.017293
0.589680 0.085288 0.016097
0.661639 0.084368 0.014901
0.734534 0.083468 0.013702
0.808370 0.082579 0.012498
0.883160 0.081695 0.011288
0.958922 0.080813 0.010072
1.000000 0.079931 0.008848
0.000000 0.157567 0.024386
0.000000 0.156277 0.023155
0.034072 0.154987 0.021925
0.102575 0.153696 0.020694
0.171078 0.152406 0.019464
0.239580 0.151116 0.018233
0.308785 0.150153 0.017024
0.379043 0.149465 0.015829
0.450130 0.148845 0.014633
0.522069 0.148266 0.013432
0.594886 0.147714 0.012227
0.668607 0.147181 0.011016
0.743258 0.146662 0.009798
0.818859 0.146153 0.008573
0.895433 0.145650 0.007340
0.972997 0.145151 0.006099
1.000000 0.144654 0.004850
0.000000 0.217392 0.020418
0.000000 0.216102 0.019188
0.029719 0.214811 0.017957
0.098533 0.214169 0.016756
0.167985 0.213770 0.015561
0.238158 0.213462 0.014364
0.309109 0.213212 0.013162
0.380882 0.213004 0.011956
0.453513 0.212828 0.010743
0.527034 0.212677 0.009524
0.601472 0.212546 0.008297
0.676850 0.212430 0.007062
0.753192 0.212326 0.005820
0.830517 0.212231 0.004569
0.908843 0.212143 0.003310
0.988189 0.212060 0.002041
1.000000 0.211981 0.000764
0.000000 0.278305 0.016488
0.000000 0.278209 0.015293
0.025711 0.278222 0.014095
0.095645 0.278309 0.012892
0.166351 0.278451 0.011684
0.237872 0.278638 0.010470
0.310246 0.278859 0.009249
0.383504 0.279110 0.008021
0.457674 0.279385 0.006784
0.532780 0.279680 0.005540
0.608844 0.279991 0.004287
0.685887 0.280316 0.003026
0.763929 0.280652 0.001755
0.842985 0.280998 0.000476
0.923074 0.281351 0.000000
1.000000 0.281710 0.000000
1.000000 0.282073 0.000000
0.000000 0.343558 0.012622
0.000000 0.344058 0.011412
0.021678 0.344611 0.010197
0.092888 0.345211 0.008974
0.164952 0.345848 0.007744
0.237899 0.346517 0.006506
0.311756 0.347214 0.005260
0.386549 0.347934 0.004005
0.462298 0.348675 0.002742
0.539025 0.349434 0.001469
0.616747 0.350208 0.000188
0.695483 0.350994 0.000000
0.775249 0.351792 0.000000
0.856061 0.352599 0.000000
0.937932 0.353413 0.000000
1.000000 0.354234 0.000000
1.000000 0.355060 0.000000
0.000000 0.411732 0.008699
0.000000 0.412760 0.007467
0.017521 0.413827 0.006227
0.090118 0.414930 0.004979
0.163628 0.416063 0.003722
0.238073 0.417223 0.002457
0.313475 0.418406 0.001182
0.389854 0.419610 0.000000
0.467229 0.420833 0.000000
0.545617 0.422072 0.000000
0.625034 0.423325 0.000000
0.705495 0.424591 0.000000
0.787015 0.425867 0.000000
0.869608 0.427153 0.000000
0.953286 0.428446 0.000000
1.000000 0.429747 0.000000
1.000000 0.431053 0.000000
0.000000 0.482829 0.004698
0.000000 0.484377 0.003439
0.013207 0.485959 0.002172
0.087275 0.487570 0.000895
0.162302 0.489207 0.000000
0.238307 0.490869 0.000000
0.315308 0.492551 0.000000
0.393323 0.494253 0.000000
0.472367 0.495971 0.000000
0.552456 0.497705 0.000000
0.633603 0.499453 0.000000
0.715822 0.501213 0.000000
0.799127 0.502983 0.000000
0.883530 0.504763 0.000000
0.969042 0.506551 0.000000
1.000000 0.508347 0.000000
1.000000 0.510148 0.000000
0.000000 0.556926 0.000608
0.000000 0.558999 0.000000
0.008715 0.561101 0.000000
0.084322 0.563230 0.000000
0.160927 0.565382 0.000000
0.238546 0.567556 0.000000
0.317196 0.569750 0.000000
0.396891 0.571961 0.000000
0.477645 0.574189 0.000000
0.559471 0.576431 0.000000
0.642383 0.578687 0.000000
0.726393 0.580954 0.000000
0.811513 0.583233 0.000000
0.897753 0.585521 0.000000
0.985126 0.587817 0.000000
1.000000 0.590121 0.000000
1.000000 0.592431 0.000000
0.000000 0.634109 0.000000
0.000000 0.636714 0.000000
0.004030 0.639345 0.000000
0.081234 0.642001 0.000000
0.159469 0.644678 0.000000
0.238751 0.647375 0.000000
0.319093 0.650091 0.000000
0.400509 0.652825 0.000000
0.483010 0.655573 0.000000
0.566610 0.658336 0.000000
0.651320 0.661112 0.000000
0.737150 0.663900 0.000000
0.824113 0.666698 0.000000
0.912219 0.669506 0.000000
1.000000 0.672323 0.000000
1.000000 0.675148 0.000000
1.000000 0.677979 0.000000
0.000000 0.714459 0.000000
0.000000 0.717604 0.000000
0.000000 0.720773 0.000000
0.077991 0.723965 0.000000
0.157904 0.727177 0.000000
0.238891 0.730408 0.000000
0.320966 0.733657 0.000000
0.404139 0.736923 0.000000
0.488423 0.740204 0.000000
0.573829 0.743498 0.000000
0.660367 0.746806 0.000000
0.748049 0.750125 0.000000
0.836883 0.753455 0.000000
0.926879 0.756794 0.000000
1.000000 0.760143 0.000000
1.000000 0.763499 0.000000
1.000000 0.766863 0.000000
0.000000 0.798051 0.000000
0.000000 0.801744 0.000000
0.000000 0.805460 0.000000
0.074578 0.809197 0.000000
0.156210 0.812954 0.000000
0.238942 0.816729 0.000000
0.322786 0.820521 0.000000
0.407752 0.824329 0.000000
0.493852 0.828152 0.000000
0.581095 0.831989 0.000000
0.669491 0.835838 0.000000
0.759050 0.839699 0.000000
0.849782 0.843571 0.000000
0.941694 0.847452 0.000000
1.000000 0.850776 0.000000
1.000000 0.849157 0.000000
1.000000 0.847538 0.000000
0.000000 0.884956 0.000000
0.000000 0.889205 0.000000
0.000000 0.893476 0.000000
0.070982 0.897768 0.000000
0.154372 0.902078 0.000000
0.238885 0.906406 0.000000
0.324532 0.910750 0.000000
0.411323 0.915110 0.000000
0.499269 0.919485 0.000000
0.588378 0.923873 0.000000
0.678659 0.928274 0.000000
0.768439 0.930712 0.000000
0.855151 0.929093 0.000000
0.941863 0.927474 0.000000
1.000000 0.925855 0.000000
1.000000 0.924235 0.000000
1.000000 0.922616 0.000000
0.000000 0.975238 0.000000
0.000000 0.980052 0.000000
0.000000 0.984886 0.000000
0.067192 0.989740 0.000000
0.152374 0.994612 0.000000
0.238701 0.999502 0.000000
0.326184 1.000000 0.000000
0.414830 1.000000 0.000000
0.502791 1.000000 0.000000
0.589504 1.000000 0.000000
0.676216 1.000000 0.000000
0.762928 1.000000 0.000000
0.849641 1.000000 0.000000
0.936353 1.000000 0.000000
1.000000 1.000000 0.000000
1.000000 0.999314 0.000000
1.000000 0.997694 0.000000
0.000000 1.000000 0.000000
0.000000 1.000000 0.000000
0.000000 1.000000 0.000000
0.063199 1.000000 0.000000
0.150206 1.000000 0.000000
0.237144 1.000000 0.000000
0.323856 1.000000 0.000000
0.410569 1.000000 0.000000
0.497281 1.000000 0.000000
0.583993 1.000000 0.000000
0.670706 1.000000 0.000000
0.757418 1.000000 0.000000
0.844131 1.000000 0.000000
0.930843 1.000000 0.000000
1.000000 1.000000 0.000000
1.000000 1.000000 0.000000
1.000000 1.000000 0.000000
0.000000 0.000000 0.098966
0.000000 0.000000 0.097736
0.051059 0.000000 0.096505
0.119561 0.000000 0.095275
0.188064 0.000000 0.094045
0.256567 0.000000 0.092814
0.325070 0.000000 0.091584
0.393572 0.000000 0.090353
0.462075 0.000000 0.089123
0.530578 0.000000 0.087892
0.599081 0.000000 0.086662
0.667584 0.000000 0.085432
0.736086 0.000000 0.084201
0.804589 0.000000 0.082971
