assets/lighting/cinematic/grade-desert-harsh/lut.cube
TITLE "Desert Harsh"
# TKRS lighting-batch-001 original LUT
# Intended usage: hot desert high-key yellow-orange
# License: CC0-1.0
LUT_3D_SIZE 9
DOMAIN_MIN 0.0 0.0 0.0
DOMAIN_MAX 1.0 1.0 1.0
0.000000 0.000000 0.000000
0.052335 0.000000 0.000000
0.189341 0.000000 0.000000
0.326347 0.000000 0.000000
0.463352 0.000000 0.000000
0.600358 0.000000 0.000000
0.737363 0.000000 0.000000
0.874369 0.000000 0.000000
1.000000 0.000000 0.000000
0.000000 0.038731 0.000000
0.043629 0.036150 0.000000
0.180635 0.033570 0.000000
0.317640 0.030989 0.000000
0.454646 0.028409 0.000000
0.591652 0.025828 0.000000
0.728657 0.023248 0.000000
0.870998 0.020789 0.000000
1.000000 0.018366 0.000000
0.000000 0.158381 0.000000
0.034923 0.155800 0.000000
0.171929 0.153220 0.000000
0.308987 0.150664 0.000000
0.449618 0.149230 0.000000
0.593728 0.148059 0.000000
0.741438 0.146988 0.000000
0.892930 0.145967 0.000000
1.000000 0.144967 0.000000
0.000000 0.278457 0.000000
0.026490 0.278203 0.000000
0.166644 0.278355 0.000000
0.309987 0.278716 0.000000
0.456817 0.279209 0.000000
0.607355 0.279793 0.000000
0.761778 0.280439 0.000000
0.920237 0.281128 0.000000
1.000000 0.281843 0.000000
0.000000 0.411108 0.000000
0.018345 0.413150 0.000000
0.163885 0.415345 0.000000
0.313127 0.417657 0.000000
0.466246 0.420060 0.000000
0.623388 0.422533 0.000000
0.784684 0.425061 0.000000
0.950250 0.427630 0.000000
1.000000 0.430229 0.000000
0.000000 0.555635 0.000000
0.009608 0.559773 0.000000
0.161201 0.564022 0.000000
0.316825 0.568364 0.000000
0.476604 0.572782 0.000000
0.640653 0.577263 0.000000
0.809072 0.581795 0.000000
0.981958 0.586368 0.000000
1.000000 0.590974 0.000000
0.000000 0.712489 0.000000
0.000113 0.718772 0.000000
0.158219 0.725149 0.000000
0.320603 0.731607 0.000000
0.487363 0.738133 0.000000
0.658591 0.744719 0.000000
0.834374 0.751354 0.000000
1.000000 0.758031 0.000000
1.000000 0.764741 0.000000
0.000000 0.882288 0.000000
0.000000 0.890781 0.000000
0.154743 0.899358 0.000000
0.324197 0.908009 0.000000
0.498211 0.916725 0.000000
0.676864 0.925498 0.000000
0.856228 0.930114 0.000000
1.000000 0.926875 0.000000
1.000000 0.923637 0.000000
0.000000 1.000000 0.000000
0.000000 1.000000 0.000000
0.150644 1.000000 0.000000
0.324934 1.000000 0.000000
0.498359 1.000000 0.000000
0.671783 1.000000 0.000000
0.845208 1.000000 0.000000
1.000000 1.000000 0.000000
1.000000 1.000000 0.000000
0.000000 0.000000 0.040255
0.051484 0.000000 0.037794
0.188490 0.000000 0.035333
0.325495 0.000000 0.032872
0.462501 0.000000 0.030411
0.599506 0.000000 0.027951
0.736512 0.000000 0.025490
0.873517 0.000000 0.023029
1.000000 0.000000 0.020568
0.000000 0.037917 0.032320
0.042778 0.035337 0.029859
0.179784 0.032756 0.027399
0.316789 0.030176 0.024938
0.453795 0.027595 0.022477
0.590800 0.025015 0.020016
0.728310 0.022449 0.017562
0.872697 0.020027 0.015170
1.000000 0.017596 0.012768
0.000000 0.157567 0.024386
0.034072 0.154987 0.021925
0.171078 0.152406 0.019464
0.308785 0.150153 0.017024
0.450130 0.148845 0.014633
0.594886 0.147714 0.012227
0.743258 0.146662 0.009798
0.895433 0.145650 0.007340
1.000000 0.144654 0.004850
0.000000 0.278305 0.016488
0.025711 0.278222 0.014095
0.166351 0.278451 0.011684
0.310246 0.278859 0.009249
0.457674 0.279385 0.006784
0.608844 0.279991 0.004287
0.763929 0.280652 0.001755
0.923074 0.281351 0.000000
1.000000 0.282073 0.000000
0.000000 0.411732 0.008699
0.017521 0.413827 0.006227
0.163628 0.416063 0.003722
0.313475 0.418406 0.001182
0.467229 0.420833 0.000000
0.625034 0.423325 0.000000
0.787015 0.425867 0.000000
0.953286 0.428446 0.000000
1.000000 0.431053 0.000000
0.000000 0.556926 0.000608
0.008715 0.561101 0.000000
0.160927 0.565382 0.000000
0.317196 0.569750 0.000000
0.477645 0.574189 0.000000
0.642383 0.578687 0.000000
0.811513 0.583233 0.000000
0.985126 0.587817 0.000000
1.000000 0.592431 0.000000
0.000000 0.714459 0.000000
0.000000 0.720773 0.000000
0.157904 0.727177 0.000000
0.320966 0.733657 0.000000
0.488423 0.740204 0.000000
0.660367 0.746806 0.000000
0.836883 0.753455 0.000000
1.000000 0.760143 0.000000
1.000000 0.766863 0.000000
0.000000 0.884956 0.000000
0.000000 0.893476 0.000000
0.154372 0.902078 0.000000
0.324532 0.910750 0.000000
0.499269 0.919485 0.000000
0.678659 0.928274 0.000000
0.855151 0.929093 0.000000
1.000000 0.925855 0.000000
1.000000 0.922616 0.000000
0.000000 1.000000 0.000000
0.000000 1.000000 0.000000
0.150206 1.000000 0.000000
0.323856 1.000000 0.000000
0.497281 1.000000 0.000000
0.670706 1.000000 0.000000
0.844131 1.000000 0.000000
1.000000 1.000000 0.000000
1.000000 1.000000 0.000000
0.000000 0.000000 0.157678
0.050633 0.000000 0.155217
0.187639 0.000000 0.152756
0.324644 0.000000 0.150295
0.461650 0.000000 0.147834
0.598655 0.000000 0.145373
0.735661 0.000000 0.142912
0.872666 0.000000 0.140452
1.000000 0.000000 0.137991
0.000000 0.037104 0.149743
0.041927 0.034523 0.147282
0.178932 0.031943 0.144821
0.315938 0.029362 0.142360
0.452943 0.026782 0.139899
0.589949 0.024201 0.137439
0.729131 0.021683 0.135199
0.874539 0.019264 0.133407
1.000000 0.016823 0.131697
0.000000 0.156754 0.141808
0.033221 0.154173 0.139347
0.170226 0.151593 0.136887
0.308729 0.149709 0.134785
0.450703 0.148476 0.133019
0.596093 0.147376 0.131319
0.745122 0.146340 0.129651
0.897978 0.145335 0.127996
1.000000 0.144340 0.126345
0.000000 0.278229 0.134380
0.024930 0.278269 0.132633
0.166066 0.278564 0.130943
0.310519 0.279015 0.129279
0.458548 0.279569 0.127626
0.610353 0.280194 0.125974
0.766102 0.280869 0.124317
0.925934 0.281577 0.122649
1.000000 0.282303 0.120965
0.000000 0.412375 0.128908
0.016690 0.414519 0.127256
0.163370 0.416791 0.125603
0.313827 0.419163 0.123944
0.468220 0.421612 0.122272
0.626690 0.424122 0.120585
0.789359 0.426677 0.118878
0.956339 0.429266 0.117148
1.000000 0.431879 0.115394
0.000000 0.558230 0.123570
0.007814 0.562440 0.121895
0.160649 0.566750 0.120204
0.317568 0.571142 0.118492
0.478688 0.575601 0.116757
0.644120 0.580115 0.114996
0.813961 0.584674 0.113209
0.988304 0.589269 0.111392
1.000000 0.593891 0.109544
0.000000 0.716439 0.118104
0.000000 0.722783 0.116364
0.157583 0.729212 0.114598
0.321326 0.735715 0.112804
0.489485 0.742279 0.110980
0.662147 0.748897 0.109125
0.839396 0.755559 0.107237
1.000000 0.762258 0.105315
1.000000 0.768987 0.103357
0.000000 0.887633 0.112397
0.000000 0.896180 0.110567
0.153994 0.904805 0.108704
0.324863 0.913498 0.106809
0.500324 0.922250 0.104879
0.680455 0.931054 0.102913
0.854073 0.928072 0.100111
1.000000 0.924834 0.097291
1.000000 0.921595 0.094472
0.000000 1.000000 0.106379
0.000000 1.000000 0.104441
0.149354 1.000000 0.102298
0.322779 1.000000 0.099479
0.496204 1.000000 0.096659
0.669628 1.000000 0.093839
0.843053 1.000000 0.091019
1.000000 1.000000 0.088200
1.000000 1.000000 0.085380
0.000000 0.000000 0.275100
0.049782 0.000000 0.272639
0.186787 0.000000 0.270179
0.323793 0.000000 0.267718
0.460798 0.000000 0.265257
0.597804 0.000000 0.262796
0.734809 0.000000 0.260335
0.871815 0.000000 0.257874
1.000000 0.000000 0.255413
0.000000 0.036290 0.267166
0.041076 0.033710 0.264705
0.178081 0.031129 0.262244
0.315087 0.028549 0.259783
0.452092 0.025968 0.257322
0.589098 0.023388 0.254861
0.730225 0.020921 0.253186
0.876496 0.018498 0.252066
1.000000 0.016045 0.251090
0.000000 0.155940 0.259231
0.032370 0.153359 0.256770
0.169375 0.150779 0.254309
0.308750 0.149298 0.252917
0.451326 0.148119 0.251838
0.597343 0.147045 0.250883
0.747028 0.146021 0.250005
0.900564 0.145021 0.249178
1.000000 0.144026 0.248385
0.000000 0.278204 0.252660
0.024145 0.278341 0.251615
0.165788 0.278692 0.250681
0.310804 0.279180 0.249816
0.459438 0.279759 0.248998
0.611882 0.280403 0.248211
0.768295 0.281090 0.247445
0.928818 0.281804 0.246692
1.000000 0.282534 0.245945
0.000000 0.413035 0.249629
0.015853 0.415223 0.248819
0.163112 0.417529 0.248037
0.314182 0.419928 0.247275
0.469218 0.422398 0.246524
0.628356 0.424923 0.245777
0.791715 0.427490 0.245031
0.959405 0.430087 0.244280
1.000000 0.432706 0.243521
0.000000 0.559545 0.247106
0.006906 0.563789 0.246356
0.160368 0.568127 0.245610
0.317939 0.572541 0.244863
0.479735 0.577019 0.244111
0.645862 0.581548 0.243349
0.816418 0.586119 0.242576
0.991491 0.590723 0.241788
1.000000 0.595352 0.240983
0.000000 0.718429 0.244695
0.000000 0.724801 0.243941
0.157258 0.731255 0.243177
0.321685 0.737778 0.242401
0.490546 0.744360 0.241609
0.663928 0.750993 0.240800
0.841914 0.757668 0.239971
1.000000 0.764377 0.239120
1.000000 0.770418 0.238110
0.000000 0.890318 0.242225
0.000000 0.898891 0.241429
0.153610 0.907538 0.240616
0.325190 0.916251 0.239782
0.501379 0.925021 0.238926
0.679571 0.930290 0.237478
0.852996 0.927051 0.234658
1.000000 0.923813 0.231838
1.000000 0.920574 0.229018
0.000000 1.000000 0.239592
0.000000 1.000000 0.238730
0.148277 1.000000 0.236845
0.321701 1.000000 0.234025
0.495126 1.000000 0.231206
0.668551 1.000000 0.228386
0.841976 1.000000 0.225566
1.000000 1.000000 0.222746
1.000000 1.000000 0.219927
0.000000 0.000000 0.392523
0.048930 0.000000 0.390062
0.185936 0.000000 0.387601
0.322942 0.000000 0.385140
0.459947 0.000000 0.382680
0.596953 0.000000 0.380219
0.733958 0.000000 0.377758
0.870964 0.000000 0.375297
1.000000 0.000000 0.372836
0.000000 0.035477 0.384588
0.040224 0.032896 0.382127
0.177230 0.030316 0.379667
0.314235 0.027735 0.377206
0.451241 0.025155 0.374745
0.588463 0.022582 0.372359
0.731487 0.020159 0.371567
0.878551 0.017729 0.371171
1.000000 0.015263 0.370963
0.000000 0.155126 0.376654
0.031518 0.152546 0.374193
0.168839 0.150234 0.372113
0.308825 0.148910 0.371456
0.451992 0.147773 0.371111
0.598633 0.146718 0.370934
0.748971 0.145705 0.370873
0.903186 0.144708 0.370894
1.000000 0.143711 0.370978
0.000000 0.278216 0.371359
0.023357 0.278433 0.371059
0.165515 0.278834 0.370912
0.311100 0.279354 0.370871
0.460343 0.279956 0.370908
0.613427 0.280615 0.371004
0.770509 0.281312 0.371146
0.931723 0.282033 0.371322
1.000000 0.282766 0.371525
0.000000 0.413710 0.370873
0.015010 0.415939 0.370925
0.162853 0.418277 0.371033
0.314541 0.420700 0.371183
0.470223 0.423188 0.371366
0.630031 0.425728 0.371574
0.794084 0.428306 0.371800
0.962486 0.430911 0.372039
1.000000 0.433535 0.372286
0.000000 0.560872 0.371221
0.005991 0.565148 0.371411
0.160084 0.569511 0.371623
0.318310 0.573946 0.371853
0.480784 0.578442 0.372094
0.647610 0.582985 0.372342
0.818882 0.587568 0.372592
0.994689 0.592180 0.372843
1.000000 0.596816 0.373089
0.000000 0.720428 0.371906
0.000000 0.726828 0.372149
0.156927 0.733304 0.372398
0.322041 0.739847 0.372649
0.491608 0.746446 0.372898
0.665713 0.753093 0.373143
0.844436 0.759779 0.373381
1.000000 0.766498 0.373608
1.000000 0.769397 0.372657
0.000000 0.893012 0.372705
0.000000 0.901610 0.372954
0.153220 0.910278 0.373197
0.325513 0.919010 0.373433
0.502431 0.927796 0.373658
0.678494 0.929269 0.372025
0.851918 0.926030 0.369205
1.000000 0.922792 0.366385
1.000000 0.919553 0.363565
0.000000 1.000000 0.373484
0.000000 1.000000 0.373707
0.147199 1.000000 0.371392
0.320624 1.000000 0.368572
0.494049 1.000000 0.365752
0.667473 1.000000 0.362933
0.840898 1.000000 0.360113
1.000000 1.000000 0.357293
1.000000 1.000000 0.354473
0.000000 0.000000 0.509946
0.048079 0.000000 0.507485
0.185085 0.000000 0.505024
0.322090 0.000000 0.502563
0.459096 0.000000 0.500102
0.596101 0.000000 0.497641
0.733107 0.000000 0.495180
0.870112 0.000000 0.492720
1.000000 0.000000 0.490509
0.000000 0.034663 0.502011
0.039373 0.032083 0.499550
0.176379 0.029502 0.497089
0.313384 0.026922 0.494628
0.450390 0.024341 0.492168
0.588901 0.021814 0.490395
0.732874 0.019395 0.490372
0.880690 0.016956 0.490739
1.000000 0.014477 0.491330
0.000000 0.154313 0.494076
0.030667 0.151732 0.491616
0.168411 0.149782 0.490337
0.308941 0.148538 0.490429
0.452694 0.147434 0.490855
0.599958 0.146396 0.491486
0.750950 0.145389 0.492264
0.905844 0.144394 0.493155
1.000000 0.143395 0.494133
0.000000 0.278259 0.490502
0.022565 0.278544 0.490981
0.165247 0.278987 0.491649
0.311406 0.279536 0.492455
0.461261 0.280159 0.493367
0.614989 0.280832 0.494363
0.772742 0.281538 0.495428
0.934649 0.282263 0.496548
1.000000 0.282998 0.497713
0.000000 0.414399 0.492652
0.014161 0.416665 0.493584
0.162593 0.419032 0.494597
0.314903 0.421478 0.495674
0.471234 0.423984 0.496805
0.631716 0.426537 0.497980
0.796464 0.429125 0.499190
0.965581 0.431737 0.500429
1.000000 0.434365 0.501692
0.000000 0.562209 0.495924
0.005067 0.566514 0.497065
0.159795 0.570902 0.498249
0.318681 0.575358 0.499466
0.481836 0.579869 0.500711
0.649362 0.584426 0.501978
0.821353 0.589019 0.503262
0.997895 0.593640 0.504559
1.000000 0.598281 0.505865
0.000000 0.722437 0.499743
0.000000 0.728862 0.500993
0.156591 0.735360 0.502264
0.322395 0.741922 0.503552
0.492670 0.748537 0.504851
0.667499 0.755197 0.506158
0.846963 0.761894 0.507471
1.000000 0.768622 0.508785
1.000000 0.768376 0.507204
0.000000 0.895714 0.503842
0.000000 0.904335 0.505144
0.152823 0.913025 0.506452
0.325833 0.921774 0.507765
0.503482 0.930576 0.509079
0.677416 0.928248 0.506571
0.850841 0.925009 0.503752
1.000000 0.921771 0.500932
1.000000 0.918532 0.498112
0.000000 1.000000 0.508060
0.000000 1.000000 0.508759
0.146122 1.000000 0.505939
0.319546 1.000000 0.503119
0.492971 1.000000 0.500299
0.666396 1.000000 0.497480
0.839820 1.000000 0.494660
1.000000 1.000000 0.491840
1.000000 1.000000 0.489020
0.000000 0.000000 0.627368
0.047228 0.000000 0.624908
0.184234 0.000000 0.622447
0.321239 0.000000 0.619986
0.458245 0.000000 0.617525
0.595250 0.000000 0.615064
0.732256 0.000000 0.612603
0.869261 0.000000 0.610142
1.000000 0.000000 0.608778
0.000000 0.033850 0.619434
0.038522 0.031269 0.616973
0.175527 0.028689 0.614512
0.312533 0.026108 0.612051
0.449539 0.023528 0.609590
0.589591 0.021052 0.608860
0.734359 0.018630 0.609624
0.882904 0.016179 0.610788
1.000000 0.013685 0.612205
0.000000 0.153499 0.611499
0.029816 0.150919 0.609038
0.168027 0.149367 0.608982
0.309090 0.148180 0.609858
0.453428 0.147101 0.611087
0.601316 0.146076 0.612551
0.752961 0.145075 0.614190
0.908535 0.144080 0.615968
1.000000 0.143078 0.617858
0.000000 0.278327 0.610109
0.021769 0.278669 0.611397
0.164982 0.279151 0.612905
0.311720 0.279726 0.614578
0.462192 0.280367 0.616383
0.616567 0.281051 0.618295
0.774992 0.281765 0.620297
0.937595 0.282494 0.622373
1.000000 0.283230 0.624513
0.000000 0.415101 0.614973
0.013304 0.417402 0.616803
0.162332 0.419796 0.618737
0.315267 0.422262 0.620756
0.472251 0.424785 0.622848
0.633410 0.427350 0.625001
0.798855 0.429946 0.627207
0.968688 0.432564 0.629456
1.000000 0.435195 0.631744
0.000000 0.563557 0.621220
0.004136 0.567889 0.623326
0.159503 0.572300 0.625492
0.319051 0.576775 0.627708
0.482890 0.581301 0.629967
0.651119 0.585870 0.632262
0.823831 0.590473 0.634588
1.000000 0.595101 0.636941
1.000000 0.599747 0.639314
0.000000 0.724454 0.628211
0.000000 0.730903 0.630479
0.156249 0.737423 0.632781
0.322746 0.744002 0.635114
0.493731 0.750632 0.637471
0.669287 0.757305 0.639849
0.849493 0.764012 0.642244
1.000000 0.770593 0.644570
1.000000 0.767355 0.641751
0.000000 0.898424 0.635641
0.000000 0.907068 0.638003
0.152420 0.915777 0.640385
0.326148 0.924544 0.642783
0.502914 0.930465 0.643938
0.676339 0.927227 0.641118
0.849763 0.923988 0.638298
1.000000 0.920750 0.635479
1.000000 0.917511 0.632659
0.000000 1.000000 0.643323
0.000000 1.000000 0.643305
0.145044 1.000000 0.640486
0.318469 1.000000 0.637666
0.491893 1.000000 0.634846
0.665318 1.000000 0.632026
0.838743 1.000000 0.629207
1.000000 1.000000 0.626387
1.000000 1.000000 0.623567
0.000000 0.000000 0.744791
0.046377 0.000000 0.742330
0.183382 0.000000 0.739869
0.320388 0.000000 0.737408
0.457393 0.000000 0.734948
0.594399 0.000000 0.732487
0.731404 0.000000 0.730026
0.868410 0.000000 0.727565
1.000000 0.000000 0.727493
0.000000 0.033036 0.736856
0.037671 0.030456 0.734396
0.174676 0.027875 0.731935
0.311682 0.025295 0.729474
0.448727 0.022716 0.727048
0.590426 0.020290 0.727764
0.735928 0.017861 0.729343
0.885184 0.015398 0.731332
1.000000 0.012888 0.733600
0.000000 0.152686 0.728922
0.029007 0.150318 0.727049
0.167671 0.148975 0.728071
0.309268 0.147832 0.729760
0.454191 0.146774 0.731819
0.602702 0.145759 0.734139
0.755003 0.144762 0.736660
0.911257 0.143766 0.739343
1.000000 0.142759 0.742159
0.000000 0.278416 0.730195
0.020967 0.278809 0.732319
0.164720 0.279324 0.734689
0.312043 0.279922 0.737249
0.463134 0.280579 0.739964
0.618159 0.281274 0.742807
0.777260 0.281994 0.745760
0.940560 0.282726 0.748805
1.000000 0.283461 0.751932
0.000000 0.415815 0.737846
0.012441 0.418148 0.740591
0.162068 0.420566 0.743461
0.315633 0.423052 0.746435
0.473273 0.425589 0.749500
0.635111 0.428165 0.752643
0.801256 0.430769 0.755854
0.971808 0.433392 0.759125
1.000000 0.436026 0.762447
0.000000 0.564913 0.747115
0.003197 0.569272 0.750199
0.159206 0.573704 0.753358
0.319420 0.578196 0.756583
0.483946 0.582738 0.759866
0.652881 0.587318 0.763199
0.826315 0.591930 0.766577
1.000000 0.596564 0.769993
1.000000 0.601215 0.773442
0.000000 0.726478 0.757315
0.000000 0.732951 0.760609
0.155902 0.739491 0.763953
0.323094 0.746087 0.767340
0.494792 0.752732 0.770764
0.671077 0.759416 0.774220
0.852028 0.766133 0.777704
1.000000 0.769572 0.779117
1.000000 0.766334 0.776298
0.000000 0.901141 0.768105
0.000000 0.909807 0.771536
0.152011 0.918535 0.774999
0.326459 0.927318 0.778489
0.501836 0.929444 0.778485
0.675261 0.926206 0.775665
0.848686 0.922967 0.772845
1.000000 0.919729 0.770026
1.000000 0.916490 0.767206
0.000000 1.000000 0.779276
0.000000 1.000000 0.777852
0.143967 1.000000 0.775032
0.317391 1.000000 0.772213
0.490816 1.000000 0.769393
0.664241 1.000000 0.766573
0.837665 1.000000 0.763753
1.000000 1.000000 0.760934
1.000000 1.000000 0.758114
0.000000 0.000000 0.862214
0.045526 0.000000 0.859753
0.182531 0.000000 0.857292
0.319537 0.000000 0.854831
0.456542 0.000000 0.852370
0.593548 0.000000 0.849909
0.730553 0.000000 0.847449
0.868066 0.000000 0.845259
1.000000 0.000000 0.846663
0.000000 0.032223 0.854279
0.036819 0.029642 0.851818
0.173825 0.027062 0.849357
0.310831 0.024481 0.846896
0.448797 0.021946 0.845430
0.591364 0.019527 0.847126
0.737568 0.017089 0.849545
0.887525 0.014612 0.852384
1.000000 0.012086 0.855524
0.000000 0.151872 0.846344
0.028224 0.149857 0.845710
0.167336 0.148601 0.847622
0.309469 0.147491 0.850150
0.454980 0.146451 0.853065
0.604117 0.145444 0.856262
0.757073 0.144448 0.859683
0.914009 0.143450 0.863287
1.000000 0.142438 0.867045
0.000000 0.278524 0.850775
0.020161 0.278960 0.853760
0.164460 0.279505 0.857012
0.312372 0.280124 0.860477
0.464087 0.280794 0.864118
0.619765 0.281499 0.867906
0.779543 0.282224 0.871823
0.943543 0.282958 0.875850
1.000000 0.283693 0.879974
0.000000 0.416539 0.861280
0.011571 0.418902 0.864955
0.161802 0.421344 0.868775
0.316001 0.423847 0.872717
0.474301 0.426398 0.876767
0.636820 0.428984 0.880911
0.803667 0.431594 0.885138
0.974940 0.434222 0.889439
1.000000 0.436858 0.893806
0.000000 0.566279 0.873617
0.002251 0.570662 0.877689
0.158906 0.575115 0.881852
0.319788 0.579623 0.886097
0.485003 0.584178 0.890413
0.654646 0.588769 0.894793
0.828806 0.593388 0.899230
1.000000 0.598029 0.903718
1.000000 0.602684 0.908251
0.000000 0.728511 0.887059
0.000000 0.735006 0.891390
0.155550 0.741565 0.895784
0.323440 0.748177 0.900233
0.495852 0.754835 0.904731
0.672869 0.761530 0.909274
0.854565 0.768256 0.913855
1.000000 0.768551 0.913664
1.000000 0.765313 0.910844
0.000000 0.903866 0.901238
0.000000 0.912552 0.905747
0.151595 0.921298 0.910298
0.326766 0.930097 0.914888
0.500759 0.928423 0.913032
0.674184 0.925185 0.910212
0.847608 0.921946 0.907392
1.000000 0.918708 0.904572
1.000000 0.915469 0.901753
0.000000 1.000000 0.915219
0.000000 1.000000 0.912399
0.142889 1.000000 0.909579
0.316314 1.000000 0.906760
0.489738 1.000000 0.903940
0.663163 1.000000 0.901120
0.836588 1.000000 0.898300
1.000000 1.000000 0.895481
1.000000 1.000000 0.892661
