assets/lighting/cinematic/grade-desert-harsh/lut.cube
TITLE "Desert Harsh"
# TKRS lighting-batch-001 original LUT
# Intended usage: hot desert high-key yellow-orange
# License: CC0-1.0
LUT_3D_SIZE 5
DOMAIN_MIN 0.0 0.0 0.0
DOMAIN_MAX 1.0 1.0 1.0
0.000000 0.000000 0.000000
0.189341 0.000000 0.000000
0.463352 0.000000 0.000000
0.737363 0.000000 0.000000
1.000000 0.000000 0.000000
0.000000 0.158381 0.000000
0.171929 0.153220 0.000000
0.449618 0.149230 0.000000
0.741438 0.146988 0.000000
1.000000 0.144967 0.000000
0.000000 0.411108 0.000000
0.163885 0.415345 0.000000
0.466246 0.420060 0.000000
0.784684 0.425061 0.000000
1.000000 0.430229 0.000000
0.000000 0.712489 0.000000
0.158219 0.725149 0.000000
0.487363 0.738133 0.000000
0.834374 0.751354 0.000000
1.000000 0.764741 0.000000
0.000000 1.000000 0.000000
0.150644 1.000000 0.000000
0.498359 1.000000 0.000000
0.845208 1.000000 0.000000
1.000000 1.000000 0.000000
0.000000 0.000000 0.157678
0.187639 0.000000 0.152756
0.461650 0.000000 0.147834
0.735661 0.000000 0.142912
1.000000 0.000000 0.137991
0.000000 0.156754 0.141808
0.170226 0.151593 0.136887
0.450703 0.148476 0.133019
0.745122 0.146340 0.129651
1.000000 0.144340 0.126345
0.000000 0.412375 0.128908
0.163370 0.416791 0.125603
0.468220 0.421612 0.122272
0.789359 0.426677 0.118878
1.000000 0.431879 0.115394
0.000000 0.716439 0.118104
0.157583 0.729212 0.114598
0.489485 0.742279 0.110980
0.839396 0.755559 0.107237
1.000000 0.768987 0.103357
0.000000 1.000000 0.106379
0.149354 1.000000 0.102298
0.496204 1.000000 0.096659
0.843053 1.000000 0.091019
1.000000 1.000000 0.085380
0.000000 0.000000 0.392523
0.185936 0.000000 0.387601
0.459947 0.000000 0.382680
0.733958 0.000000 0.377758
1.000000 0.000000 0.372836
0.000000 0.155126 0.376654
0.168839 0.150234 0.372113
0.451992 0.147773 0.371111
0.748971 0.145705 0.370873
1.000000 0.143711 0.370978
0.000000 0.413710 0.370873
0.162853 0.418277 0.371033
0.470223 0.423188 0.371366
0.794084 0.428306 0.371800
1.000000 0.433535 0.372286
0.000000 0.720428 0.371906
0.156927 0.733304 0.372398
0.491608 0.746446 0.372898
0.844436 0.759779 0.373381
1.000000 0.769397 0.372657
0.000000 1.000000 0.373484
0.147199 1.000000 0.371392
0.494049 1.000000 0.365752
0.840898 1.000000 0.360113
1.000000 1.000000 0.354473
0.000000 0.000000 0.627368
0.184234 0.000000 0.622447
0.458245 0.000000 0.617525
0.732256 0.000000 0.612603
1.000000 0.000000 0.608778
0.000000 0.153499 0.611499
0.168027 0.149367 0.608982
0.453428 0.147101 0.611087
0.752961 0.145075 0.614190
1.000000 0.143078 0.617858
0.000000 0.415101 0.614973
0.162332 0.419796 0.618737
0.472251 0.424785 0.622848
0.798855 0.429946 0.627207
1.000000 0.435195 0.631744
0.000000 0.724454 0.628211
0.156249 0.737423 0.632781
0.493731 0.750632 0.637471
0.849493 0.764012 0.642244
1.000000 0.767355 0.641751
0.000000 1.000000 0.643323
0.145044 1.000000 0.640486
0.491893 1.000000 0.634846
0.838743 1.000000 0.629207
1.000000 1.000000 0.623567
0.000000 0.000000 0.862214
0.182531 0.000000 0.857292
0.456542 0.000000 0.852370
0.730553 0.000000 0.847449
1.000000 0.000000 0.846663
0.000000 0.151872 0.846344
0.167336 0.148601 0.847622
0.454980 0.146451 0.853065
0.757073 0.144448 0.859683
1.000000 0.142438 0.867045
0.000000 0.416539 0.861280
0.161802 0.421344 0.868775
0.474301 0.426398 0.876767
0.803667 0.431594 0.885138
1.000000 0.436858 0.893806
0.000000 0.728511 0.887059
0.155550 0.741565 0.895784
0.495852 0.754835 0.904731
0.854565 0.768256 0.913855
1.000000 0.765313 0.910844
0.000000 1.000000 0.915219
0.142889 1.000000 0.909579
0.489738 1.000000 0.903940
0.836588 1.000000 0.898300
1.000000 1.000000 0.892661
