assets/lighting/cinematic/grade-storm-green/lut.cube
TITLE "Storm Green"
# TKRS lighting-batch-001 original LUT
# Intended usage: approaching storm sickly outdoor grade
# License: CC0-1.0
LUT_3D_SIZE 5
DOMAIN_MIN 0.0 0.0 0.0
DOMAIN_MAX 1.0 1.0 1.0
0.000000 0.000000 0.000000
0.092950 0.000000 0.000000
0.215168 0.000000 0.000000
0.337387 0.001697 0.001416
0.459605 0.014537 0.012131
0.004950 0.146673 0.005197
0.127228 0.159582 0.015917
0.253793 0.175185 0.026952
0.386249 0.191981 0.038359
0.525163 0.209724 0.050167
0.041037 0.344812 0.042479
0.173067 0.366102 0.054434
0.311563 0.388484 0.066821
0.456964 0.411913 0.079660
0.609620 0.436367 0.092966
0.083365 0.578637 0.084301
0.227835 0.607214 0.097776
0.379622 0.636915 0.111738
0.539006 0.667724 0.126199
0.706231 0.699632 0.141171
0.132982 0.850119 0.131423
0.291236 0.886515 0.146578
0.448511 0.907131 0.159910
0.604220 0.923244 0.172658
0.759929 0.939357 0.185407
0.000000 0.000000 0.091958
0.096457 0.000000 0.102672
0.218676 0.000000 0.113386
0.340894 0.006110 0.124101
0.463284 0.018956 0.134850
0.008458 0.151085 0.127881
0.131389 0.164757 0.139120
0.259168 0.180844 0.151876
0.392914 0.197975 0.165286
0.533206 0.216030 0.179271
0.045065 0.352002 0.170156
0.178288 0.373674 0.184339
0.318087 0.396419 0.199077
0.464874 0.420203 0.214368
0.618986 0.445005 0.230213
0.088103 0.588330 0.219895
0.233933 0.617295 0.235937
0.387148 0.647379 0.252538
0.548019 0.678567 0.269705
0.716782 0.710851 0.287443
0.138507 0.862494 0.275898
0.297271 0.896555 0.293135
0.452980 0.912668 0.305884
0.608689 0.928781 0.318632
0.764398 0.944894 0.331380
0.000000 0.000000 0.214642
0.099965 0.000000 0.225357
0.222183 0.000000 0.236071
0.344402 0.010522 0.246785
0.469095 0.023477 0.258446
0.011965 0.155498 0.250566
0.135736 0.170149 0.263374
0.264687 0.186624 0.278083
0.399725 0.204079 0.293626
0.541399 0.222442 0.309885
0.049162 0.359326 0.299284
0.183599 0.381372 0.315784
0.324716 0.404477 0.332944
0.472901 0.428612 0.350747
0.628477 0.453763 0.369183
0.092918 0.598157 0.357180
0.240121 0.627509 0.375838
0.394776 0.657973 0.395125
0.557142 0.689539 0.415039
0.725271 0.720153 0.434611
0.144117 0.875009 0.422215
0.301740 0.902093 0.439109
0.457449 0.918206 0.451857
0.613158 0.934319 0.464606
0.768866 0.950432 0.477354
0.000000 0.000000 0.337327
0.103472 0.000000 0.348041
0.225691 0.002096 0.358756
0.347909 0.014935 0.369470
0.475484 0.028069 0.383185
0.015486 0.160034 0.373465
0.140210 0.175690 0.388831
0.270338 0.192518 0.405649
0.406675 0.210289 0.423434
0.549736 0.228959 0.442051
0.053327 0.366781 0.429912
0.189000 0.389195 0.448805
0.331448 0.412657 0.468453
0.481043 0.437142 0.488824
0.638092 0.462640 0.509901
0.097812 0.608118 0.496181
0.246401 0.637854 0.517505
0.402505 0.668698 0.539520
0.566376 0.700640 0.562219
0.729739 0.725691 0.580585
0.149811 0.887663 0.570391
0.306209 0.907631 0.585083
0.461917 0.923744 0.597831
0.617626 0.939856 0.610580
0.773335 0.955969 0.623328
0.000000 0.000000 0.460011
0.106980 0.000000 0.470726
0.229198 0.006508 0.481440
0.351669 0.019360 0.492400
0.482212 0.032729 0.509177
0.019094 0.165236 0.497987
0.144795 0.181361 0.515589
0.276112 0.198522 0.534637
0.413758 0.216605 0.554757
0.558215 0.235581 0.575806
0.057563 0.374364 0.562082
0.194490 0.397142 0.583440
0.338284 0.420957 0.605634
0.489298 0.445791 0.628627
0.647829 0.471636 0.652392
0.102785 0.618212 0.636925
0.252772 0.648330 0.660958
0.410336 0.679552 0.685742
0.575719 0.711870 0.711266
0.734208 0.731229 0.726558
0.154968 0.897055 0.718308
0.310677 0.913168 0.731057
0.466386 0.929281 0.743805
0.622095 0.945394 0.756553
0.777804 0.961507 0.769302
