assets/lighting/cinematic/grade-storm-green/lut.cube
TITLE "Storm Green"
# TKRS lighting-batch-001 original LUT
# Intended usage: approaching storm sickly outdoor grade
# License: CC0-1.0
LUT_3D_SIZE 17
DOMAIN_MIN 0.0 0.0 0.0
DOMAIN_MAX 1.0 1.0 1.0
0.000000 0.000000 0.000000
0.001286 0.000000 0.000000
0.031841 0.000000 0.000000
0.062395 0.000000 0.000000
0.092950 0.000000 0.000000
0.123504 0.000000 0.000000
0.154059 0.000000 0.000000
0.184614 0.000000 0.000000
0.215168 0.000000 0.000000
0.245723 0.000000 0.000000
0.276277 0.000000 0.000000
0.306832 0.000000 0.000000
0.337387 0.001697 0.001416
0.367941 0.004907 0.004095
0.398496 0.008117 0.006774
0.429050 0.011327 0.009452
0.459605 0.014537 0.012131
0.000000 0.009053 0.000000
0.009841 0.012262 0.000000
0.040395 0.015472 0.000000
0.070950 0.018682 0.000000
0.101504 0.021892 0.000000
0.132059 0.025102 0.000000
0.162614 0.028312 0.000000
0.193168 0.031521 0.000000
0.223723 0.034731 0.000000
0.254277 0.037941 0.002361
0.284832 0.041151 0.005040
0.315387 0.044361 0.007719
0.345941 0.047571 0.010397
0.376496 0.050781 0.013076
0.407178 0.054006 0.015758
0.439230 0.057398 0.018481
0.471850 0.060853 0.021227
0.000000 0.054926 0.000000
0.018395 0.058136 0.000000
0.048950 0.061346 0.000000
0.079505 0.064555 0.000000
0.110059 0.067765 0.000000
0.140614 0.070975 0.000628
0.171168 0.074185 0.003307
0.201723 0.077395 0.005985
0.232278 0.080605 0.008664
0.262832 0.083815 0.011342
0.293387 0.087024 0.014021
0.324385 0.090349 0.016715
0.356312 0.093890 0.019447
0.388694 0.097505 0.022201
0.421495 0.101181 0.024978
0.454709 0.104911 0.027778
0.488336 0.108694 0.030601
0.000000 0.100799 0.000000
0.026950 0.104009 0.000000
0.057505 0.107219 0.001573
0.088059 0.110429 0.004252
0.118614 0.113639 0.006930
0.149169 0.116849 0.009609
0.179723 0.120058 0.012288
0.210278 0.123268 0.014966
0.241459 0.126784 0.017677
0.273179 0.130485 0.020416
0.305289 0.134269 0.023179
0.337784 0.138122 0.025964
0.370667 0.142037 0.028771
0.403945 0.146011 0.031603
0.437624 0.150042 0.034458
0.471712 0.154128 0.037337
0.506215 0.158268 0.040242
0.004950 0.146673 0.005197
0.035505 0.149883 0.007876
0.066059 0.153092 0.010554
0.096614 0.156302 0.013233
0.127228 0.159582 0.015917
0.158345 0.163319 0.018641
0.189811 0.167189 0.021388
0.221623 0.171149 0.024159
0.253793 0.175185 0.026952
0.286330 0.179289 0.029768
0.319246 0.183459 0.032607
0.352549 0.187690 0.035471
0.386249 0.191981 0.038359
0.420353 0.196331 0.041273
0.454868 0.200738 0.044212
0.489803 0.205203 0.047176
0.525163 0.209724 0.050167
0.013505 0.192546 0.014178
0.044128 0.196041 0.016875
0.075015 0.199959 0.019608
0.106192 0.204006 0.022363
0.137685 0.208148 0.025142
0.169514 0.212372 0.027943
0.201693 0.216671 0.030767
0.234235 0.221040 0.033615
0.267152 0.225475 0.036487
0.300454 0.229974 0.039385
0.334150 0.234537 0.042307
0.368249 0.239161 0.045255
0.402759 0.243845 0.048229
0.437687 0.248589 0.051229
0.473038 0.253393 0.054256
0.508821 0.258255 0.057310
0.545041 0.263176 0.060391
0.022310 0.240940 0.023341
0.053466 0.245270 0.026127
0.084939 0.249688 0.028936
0.116747 0.254185 0.031769
0.148905 0.258756 0.034626
0.181427 0.263399 0.037507
0.214323 0.268110 0.040413
0.247605 0.272887 0.043344
0.281280 0.277730 0.046301
0.315358 0.282637 0.049284
0.349847 0.287607 0.052294
0.384753 0.292639 0.055330
0.420084 0.297732 0.058394
0.455845 0.302887 0.061485
0.492044 0.308103 0.064603
0.528684 0.313380 0.067750
0.565772 0.318716 0.070925
0.031487 0.291832 0.032774
0.063251 0.296610 0.035640
0.095369 0.301463 0.038529
0.127852 0.306389 0.041444
0.160711 0.311384 0.044385
0.193957 0.316448 0.047351
0.227598 0.321580 0.050343
0.261642 0.326777 0.053362
0.296097 0.332040 0.056408
0.330970 0.337367 0.059481
0.366268 0.342758 0.062582
0.401998 0.348213 0.065710
0.438164 0.353730 0.068867
0.474773 0.359310 0.072052
0.511830 0.364953 0.075266
0.549341 0.370657 0.078509
0.587310 0.376424 0.081780
0.041037 0.344812 0.042479
0.073467 0.350028 0.045428
0.106276 0.355317 0.048404
0.139473 0.360675 0.051405
0.173067 0.366102 0.054434
0.207066 0.371598 0.057489
0.241477 0.377160 0.060572
0.276307 0.382789 0.063683
0.311563 0.388484 0.066821
0.347251 0.394244 0.069988
0.383377 0.400069 0.073183
0.419946 0.405959 0.076407
0.456964 0.411913 0.079660
0.494435 0.417931 0.082942
0.532366 0.424013 0.086253
0.570759 0.430158 0.089595
0.609620 0.436367 0.092966
0.050982 0.399923 0.052471
0.084120 0.405583 0.055509
0.117657 0.411313 0.058574
0.151601 0.417113 0.061666
0.185959 0.422981 0.064787
0.220737 0.428918 0.067935
0.255943 0.434923 0.071112
0.291581 0.440995 0.074317
0.327658 0.447133 0.077551
0.364180 0.453338 0.080814
0.401151 0.459609 0.084107
0.438576 0.465946 0.087429
0.476461 0.472348 0.090781
0.514809 0.478815 0.094163
0.553626 0.485347 0.097575
0.592916 0.491944 0.101018
0.632682 0.498607 0.104491
0.061341 0.457226 0.062764
0.095222 0.463336 0.065894
0.129518 0.469517 0.069053
0.164237 0.475767 0.072240
0.199384 0.482087 0.075455
0.234965 0.488476 0.078699
0.270987 0.494933 0.081973
0.307453 0.501458 0.085276
0.344371 0.508051 0.088608
0.381743 0.514711 0.091971
0.419576 0.521438 0.095363
0.457874 0.528232 0.098786
0.496640 0.535093 0.102239
0.535880 0.542020 0.105724
0.575597 0.549013 0.109238
0.615795 0.556072 0.112784
0.656479 0.563198 0.116362
0.072131 0.516778 0.073371
0.106783 0.523348 0.076596
0.141865 0.529988 0.079851
0.177383 0.536699 0.083135
0.213342 0.543480 0.086448
0.249747 0.550330 0.089791
0.286605 0.557249 0.093164
0.323918 0.564237 0.096568
0.361693 0.571294 0.100001
0.399934 0.578419 0.103465
0.438644 0.585612 0.106960
0.477828 0.592873 0.110486
0.517491 0.600202 0.114043
0.557635 0.607598 0.117631
0.598266 0.615062 0.121251
0.639385 0.622593 0.124903
0.680998 0.630191 0.128586
0.083365 0.578637 0.084301
0.118813 0.585674 0.087624
0.154704 0.592783 0.090978
0.191043 0.599963 0.094362
0.227835 0.607214 0.097776
0.265084 0.614534 0.101220
0.302796 0.621925 0.104695
0.340974 0.629385 0.108201
0.379622 0.636915 0.111738
0.418746 0.644514 0.115306
0.458349 0.652182 0.118905
0.498434 0.659919 0.122536
0.539006 0.667724 0.126199
0.580069 0.675599 0.129894
0.621625 0.683542 0.133620
0.663678 0.691553 0.137379
0.706231 0.699632 0.141171
0.095057 0.642853 0.095563
0.131323 0.650367 0.098987
0.168044 0.657953 0.102443
0.205224 0.665610 0.105928
0.242867 0.673339 0.109445
0.280977 0.681139 0.112993
0.319560 0.689009 0.116572
0.358618 0.696950 0.120183
0.398156 0.704961 0.123825
0.438178 0.713042 0.127499
0.478687 0.721194 0.131205
0.519687 0.729415 0.134943
0.561182 0.737706 0.138714
0.603174 0.746067 0.142516
0.645668 0.754497 0.146352
0.688305 0.762620 0.150162
0.727232 0.766648 0.153349
0.107217 0.709476 0.107166
0.144322 0.717474 0.110693
0.181891 0.725545 0.114252
0.219930 0.733688 0.117842
0.258441 0.741902 0.121464
0.297430 0.750189 0.125118
0.336899 0.758547 0.128803
0.376852 0.766977 0.132520
0.417294 0.775477 0.136270
0.458228 0.784049 0.140052
0.499657 0.792692 0.143866
0.541584 0.801405 0.147713
0.582422 0.808104 0.151287
0.621350 0.812133 0.154474
0.660277 0.816161 0.157661
0.699204 0.820189 0.160848
0.738131 0.824217 0.164035
0.119855 0.778551 0.119117
0.157817 0.787040 0.122750
0.196253 0.795603 0.126414
0.235167 0.804239 0.130111
0.274563 0.812948 0.133840
0.314444 0.821729 0.137600
0.354815 0.830582 0.141394
0.395678 0.839508 0.145220
0.437037 0.848505 0.149078
0.476540 0.853589 0.152411
0.515467 0.857618 0.155598
0.554394 0.861646 0.158785
0.593321 0.865674 0.161972
0.632249 0.869702 0.165159
0.671176 0.873731 0.168347
0.710103 0.877759 0.171534
0.749030 0.881787 0.174721
0.132982 0.850119 0.131423
0.171818 0.859107 0.135163
0.211136 0.868170 0.138935
0.250941 0.877306 0.142740
0.291236 0.886515 0.146578
0.331730 0.895046 0.150349
0.370657 0.899074 0.153536
0.409584 0.903102 0.156723
0.448511 0.907131 0.159910
0.487439 0.911159 0.163097
0.526366 0.915187 0.166284
0.565293 0.919215 0.169471
0.604220 0.923244 0.172658
0.643148 0.927272 0.175845
0.682075 0.931300 0.179032
0.721002 0.935328 0.182219
0.759929 0.939357 0.185407
0.000000 0.000000 0.000000
0.002163 0.000000 0.002623
0.032717 0.000000 0.005301
0.063272 0.000000 0.007980
0.093827 0.000000 0.010659
0.124381 0.000000 0.013337
0.154936 0.000000 0.016016
0.185490 0.000000 0.018694
0.216045 0.000000 0.021373
0.246600 0.000000 0.024052
0.277154 0.000000 0.026730
0.307709 0.000000 0.029409
0.338263 0.002800 0.032087
0.368818 0.006010 0.034766
0.399373 0.009220 0.037445
0.429927 0.012430 0.040123
0.460482 0.015640 0.042802
0.000000 0.010156 0.008925
0.010718 0.013366 0.011604
0.041272 0.016575 0.014282
0.071827 0.019785 0.016961
0.102381 0.022995 0.019640
0.132936 0.026205 0.022318
0.163491 0.029415 0.024997
0.194045 0.032625 0.027675
0.224600 0.035834 0.030354
0.255154 0.039044 0.033033
0.285709 0.042254 0.035711
0.316264 0.045464 0.038390
0.346818 0.048674 0.041068
0.377373 0.051884 0.043747
0.408473 0.055162 0.046469
0.440712 0.058579 0.049277
0.473455 0.062052 0.052121
0.000000 0.056029 0.017906
0.019272 0.059239 0.020585
0.049827 0.062449 0.023263
0.080381 0.065659 0.025942
0.110936 0.068868 0.028621
0.141491 0.072078 0.031299
0.172045 0.075288 0.033978
0.202600 0.078498 0.036656
0.233154 0.081708 0.039335
0.263709 0.084918 0.042014
0.294264 0.088128 0.044692
0.325652 0.091556 0.047455
0.357706 0.095125 0.050277
0.390190 0.098762 0.053131
0.423086 0.102457 0.056015
0.456393 0.106206 0.058927
0.490113 0.110006 0.061867
0.000000 0.101902 0.026887
0.027827 0.105112 0.029566
0.058382 0.108322 0.032244
0.088936 0.111532 0.034923
0.119491 0.114742 0.037602
0.150045 0.117952 0.040280
0.180600 0.121162 0.042959
0.211248 0.124423 0.045651
0.242653 0.128045 0.048447
0.274469 0.131777 0.051281
0.306667 0.135586 0.054146
0.339247 0.139460 0.057040
0.372216 0.143396 0.059962
0.405579 0.147390 0.062911
0.439345 0.151440 0.065889
0.473520 0.155544 0.068894
0.508111 0.159703 0.071928
0.005827 0.147776 0.035868
0.036382 0.150986 0.038547
0.066936 0.154196 0.041225
0.097491 0.157405 0.043904
0.128242 0.160844 0.046632
0.159445 0.164637 0.049443
0.190987 0.168540 0.052288
0.222876 0.172528 0.055164
0.255122 0.176588 0.058067
0.287738 0.180715 0.060999
0.320734 0.184906 0.063959
0.354119 0.189158 0.066946
0.387901 0.193469 0.069962
0.422089 0.197839 0.073005
0.456690 0.202266 0.076076
0.491711 0.206750 0.079176
0.527159 0.211291 0.082304
0.014382 0.193649 0.044849
0.045062 0.197369 0.047619
0.076006 0.201338 0.050443
0.107246 0.205420 0.053299
0.138806 0.209591 0.056185
0.170704 0.213842 0.059099
0.202956 0.218165 0.062040
0.235573 0.222557 0.065010
0.268567 0.227014 0.068007
0.301947 0.231535 0.071032
0.335724 0.236119 0.074085
0.369906 0.240764 0.077167
0.404499 0.245469 0.080276
0.439511 0.250233 0.083415
0.474949 0.255057 0.086582
0.510819 0.259940 0.089778
0.547128 0.264880 0.093003
0.023235 0.242418 0.054314
0.054450 0.246779 0.057210
0.085986 0.251224 0.060134
0.117861 0.255748 0.063085
0.150089 0.260344 0.066064
0.182684 0.265010 0.069071
0.215655 0.269744 0.072106
0.249014 0.274544 0.075169
0.282768 0.279409 0.078261
0.316927 0.284338 0.081380
0.351498 0.289329 0.084529
0.386488 0.294382 0.087706
0.421903 0.299497 0.090913
0.457751 0.304673 0.094149
0.494036 0.309910 0.097414
0.530766 0.315207 0.100709
0.567944 0.320564 0.104034
0.032448 0.293465 0.064133
0.064279 0.298269 0.067122
0.096465 0.303148 0.070139
0.129020 0.308098 0.073184
0.161953 0.313117 0.076257
0.195274 0.318204 0.079358
0.228993 0.323359 0.082488
0.263116 0.328579 0.085647
0.297653 0.333863 0.088834
0.332609 0.339213 0.092051
0.367991 0.344626 0.095297
0.403805 0.350102 0.098573
0.440058 0.355641 0.101879
0.476755 0.361242 0.105214
0.513901 0.366906 0.108580
0.551502 0.372632 0.111976
0.589561 0.378420 0.115403
0.042037 0.346597 0.074265
0.074538 0.351838 0.077348
0.107421 0.357150 0.080459
0.140693 0.362532 0.083599
0.174364 0.367983 0.086768
0.208441 0.373502 0.089966
0.242933 0.379087 0.093193
0.277845 0.384739 0.096450
0.313184 0.390456 0.099736
0.348957 0.396239 0.103052
0.385168 0.402086 0.106398
0.421825 0.407998 0.109775
0.458931 0.413974 0.113182
0.496491 0.420014 0.116619
0.534512 0.426118 0.120088
0.572997 0.432285 0.123587
0.611950 0.438515 0.127118
0.052024 0.401860 0.084714
0.085237 0.407544 0.087893
0.118851 0.413298 0.091101
0.152873 0.419122 0.094339
0.187311 0.425014 0.097606
0.222170 0.430975 0.100903
0.257458 0.437002 0.104229
0.293181 0.443097 0.107586
0.329343 0.449258 0.110973
0.365951 0.455486 0.114391
0.403010 0.461779 0.117840
0.440524 0.468138 0.121319
0.478498 0.474563 0.124829
0.516937 0.481053 0.128371
0.555846 0.487607 0.131944
0.595228 0.494227 0.135549
0.635088 0.500911 0.139185
0.062427 0.459318 0.095488
0.096385 0.465452 0.098766
0.130761 0.471657 0.102073
0.165561 0.477932 0.105410
0.200790 0.484275 0.108778
0.236455 0.490688 0.112176
0.272561 0.497168 0.115604
0.309114 0.503717 0.119064
0.346118 0.510332 0.122554
0.383579 0.517015 0.126075
0.421501 0.523766 0.129628
0.459889 0.530582 0.133212
0.498747 0.537466 0.136828
0.538078 0.544415 0.140476
0.577889 0.551431 0.144155
0.618181 0.558514 0.147867
0.658959 0.565662 0.151612
0.073262 0.519028 0.106595
0.107994 0.525622 0.109973
0.143158 0.532287 0.113382
0.178759 0.539022 0.116821
0.214803 0.545826 0.120292
0.251294 0.552700 0.123793
0.288238 0.559643 0.127325
0.325640 0.566655 0.130889
0.363503 0.573735 0.134484
0.401834 0.580884 0.138112
0.440635 0.588100 0.141771
0.479911 0.595384 0.145462
0.519666 0.602736 0.149185
0.559904 0.610155 0.152940
0.600628 0.617642 0.156728
0.641843 0.625196 0.160549
0.683552 0.632818 0.164403
0.084543 0.581047 0.118042
0.120074 0.588109 0.121523
0.156049 0.595243 0.125036
0.192473 0.602447 0.128579
0.229351 0.609722 0.132154
0.266688 0.617066 0.135761
0.304487 0.624481 0.139399
0.342755 0.631965 0.143069
0.381494 0.639519 0.146772
0.420710 0.647141 0.150506
0.460405 0.654833 0.154273
0.500583 0.662594 0.158073
0.541249 0.670423 0.161905
0.582406 0.678321 0.165771
0.624058 0.686287 0.169669
0.666207 0.694322 0.173600
0.708858 0.702425 0.177565
0.096282 0.645427 0.129837
0.132633 0.652966 0.133423
0.169440 0.660576 0.137041
0.206707 0.668258 0.140690
0.244438 0.676011 0.144372
0.282638 0.683835 0.148086
0.321310 0.691730 0.151832
0.360460 0.699695 0.155610
0.400090 0.707731 0.159421
0.440205 0.715836 0.163265
0.480807 0.724011 0.167142
0.521902 0.732257 0.171052
0.563492 0.740572 0.174995
0.605580 0.748956 0.178972
0.648170 0.757410 0.182982
0.689422 0.764004 0.186655
0.728350 0.768032 0.189843
0.108490 0.712217 0.141986
0.145682 0.720240 0.145679
0.183340 0.728335 0.149404
0.221467 0.736503 0.153161
0.260069 0.744742 0.156951
0.299148 0.753053 0.160774
0.338708 0.761436 0.164630
0.378755 0.769890 0.168518
0.419290 0.778415 0.172440
0.460318 0.787011 0.176395
0.501842 0.795678 0.180383
0.543865 0.804416 0.184405
0.583540 0.809489 0.187780
0.622467 0.813517 0.190967
0.661394 0.817545 0.194154
0.700321 0.821574 0.197341
0.739248 0.825602 0.200528
0.121178 0.781460 0.154495
0.159229 0.789975 0.158296
0.197755 0.798563 0.162131
0.236759 0.807224 0.165998
0.276247 0.815957 0.169898
0.316220 0.824763 0.173831
0.356684 0.833642 0.177798
0.397641 0.842592 0.181798
0.438730 0.850945 0.185717
0.477657 0.854974 0.188905
0.516584 0.859002 0.192092
0.555511 0.863030 0.195279
0.594439 0.867058 0.198466
0.633366 0.871087 0.201653
0.672293 0.875115 0.204840
0.711220 0.879143 0.208027
0.750147 0.883171 0.211214
0.134356 0.853200 0.167370
0.173282 0.862214 0.171282
0.212691 0.871301 0.175227
0.252589 0.880463 0.179206
0.292977 0.889697 0.183218
0.332847 0.896430 0.186842
0.371774 0.900459 0.190029
0.410701 0.904487 0.193216
0.449629 0.908515 0.196403
0.488556 0.912543 0.199590
0.527483 0.916572 0.202777
0.566410 0.920600 0.205965
0.605337 0.924628 0.209152
0.644265 0.928656 0.212339
0.683192 0.932685 0.215526
0.722119 0.936713 0.218713
0.761046 0.940741 0.221900
0.000000 0.000000 0.030615
0.003040 0.000000 0.033294
0.033594 0.000000 0.035973
0.064149 0.000000 0.038651
0.094703 0.000000 0.041330
0.125258 0.000000 0.044008
0.155813 0.000000 0.046687
0.186367 0.000000 0.049366
0.216922 0.000000 0.052044
0.247476 0.000000 0.054723
0.278031 0.000000 0.057401
0.308586 0.000694 0.060080
0.339140 0.003904 0.062759
0.369695 0.007113 0.065437
0.400249 0.010323 0.068116
0.430804 0.013533 0.070794
0.461359 0.016743 0.073473
0.000000 0.011259 0.039596
0.011594 0.014469 0.042275
0.042149 0.017679 0.044954
0.072704 0.020888 0.047632
0.103258 0.024098 0.050311
0.133813 0.027308 0.052989
0.164367 0.030518 0.055668
0.194922 0.033728 0.058347
0.225477 0.036938 0.061025
0.256031 0.040147 0.063704
0.286586 0.043357 0.066382
0.317140 0.046567 0.069061
0.347695 0.049777 0.071740
0.378250 0.052987 0.074418
0.409840 0.056329 0.077232
0.442226 0.059767 0.080136
0.475083 0.063257 0.083082
0.000000 0.057132 0.048577
0.020149 0.060342 0.051256
0.050704 0.063552 0.053934
0.081258 0.066762 0.056613
0.111813 0.069972 0.059292
0.142368 0.073181 0.061970
0.172922 0.076391 0.064649
0.203477 0.079601 0.067328
0.234031 0.082811 0.070006
0.264586 0.086021 0.072685
0.295264 0.089265 0.075385
0.326956 0.092773 0.078251
0.359121 0.096368 0.081171
0.391703 0.100025 0.084131
0.424694 0.103739 0.087126
0.458092 0.107506 0.090154
0.491904 0.111324 0.093214
0.000000 0.103006 0.057558
0.028704 0.106215 0.060237
0.059259 0.109425 0.062915
0.089813 0.112635 0.065594
0.120368 0.115845 0.068273
0.150922 0.119055 0.070951
0.181477 0.122265 0.073630
0.212350 0.125650 0.076388
0.243869 0.129318 0.079276
0.275775 0.133078 0.082211
0.308058 0.136910 0.085184
0.340723 0.140806 0.088190
0.373776 0.144762 0.091230
0.407225 0.148775 0.094301
0.441077 0.152844 0.097403
0.475339 0.156968 0.100536
0.510018 0.161145 0.103700
0.006704 0.148879 0.066539
0.037259 0.152089 0.069218
0.067813 0.155299 0.071896
0.098368 0.158509 0.074575
0.129277 0.162132 0.077401
0.160558 0.165968 0.080307
0.192174 0.169902 0.083256
0.224138 0.173915 0.086241
0.256462 0.177999 0.089259
0.289156 0.182148 0.092310
0.322232 0.186360 0.095392
0.355698 0.190633 0.098505
0.389563 0.194965 0.101649
0.423835 0.199354 0.104824
0.458522 0.203801 0.108030
0.493630 0.208304 0.111266
0.529165 0.212864 0.114533
0.015268 0.194858 0.075551
0.046001 0.198717 0.078421
0.077003 0.202729 0.081343
0.108307 0.206844 0.084305
0.139934 0.211043 0.087302
0.171902 0.215320 0.090332
0.204226 0.219667 0.093394
0.236918 0.224081 0.096487
0.269989 0.228561 0.099611
0.303449 0.233104 0.102766
0.337307 0.237708 0.105952
0.371570 0.242374 0.109168
0.406247 0.247099 0.112415
0.441344 0.251884 0.115693
0.476869 0.256728 0.119002
0.512826 0.261631 0.122342
0.549223 0.266592 0.125713
0.024162 0.243906 0.085359
0.055437 0.248298 0.088367
0.087038 0.252770 0.091409
0.118980 0.257319 0.094482
0.151279 0.261940 0.097586
0.183947 0.266630 0.100721
0.216994 0.271387 0.103887
0.250430 0.276209 0.107083
0.284263 0.281096 0.110310
0.318503 0.286046 0.113568
0.353156 0.291059 0.116857
0.388230 0.296133 0.120177
0.423730 0.301269 0.123528
0.459664 0.306466 0.126910
0.496038 0.311723 0.130323
0.532855 0.317041 0.133767
0.570123 0.322419 0.137243
0.033414 0.295108 0.095573
0.065310 0.299938 0.098688
0.097566 0.304841 0.101834
0.130193 0.309815 0.105011
0.163200 0.314858 0.108218
0.196598 0.319968 0.111457
0.230394 0.325145 0.114725
0.264598 0.330388 0.118025
0.299215 0.335695 0.121356
0.334254 0.341066 0.124717
0.369721 0.346501 0.128110
0.405621 0.351998 0.131534
0.441960 0.357559 0.134990
0.478745 0.363182 0.138477
0.515980 0.368867 0.141996
0.553671 0.374614 0.145546
0.591821 0.380423 0.149129
0.043042 0.348390 0.106139
0.075615 0.353656 0.109357
0.108570 0.358992 0.112606
0.141918 0.364398 0.115886
0.175666 0.369872 0.119197
0.209823 0.375414 0.122538
0.244395 0.381022 0.125911
0.279389 0.386697 0.129315
0.314812 0.392436 0.132750
0.350669 0.398241 0.136217
0.386967 0.404111 0.139715
0.423710 0.410045 0.143245
0.460905 0.416043 0.146807
0.498555 0.422105 0.150401
0.536666 0.428230 0.154027
0.575242 0.434419 0.157685
0.614288 0.440671 0.161376
0.053071 0.403806 0.117051
0.086359 0.409514 0.120372
0.120050 0.415292 0.123725
0.154150 0.421139 0.127108
0.188668 0.427055 0.130523
0.223609 0.433039 0.133970
0.258980 0.439089 0.137447
0.294787 0.445207 0.140957
0.331034 0.451391 0.144498
0.367729 0.457641 0.148071
0.404875 0.463957 0.151676
0.442478 0.470339 0.155314
0.480543 0.476786 0.158983
0.519073 0.483298 0.162686
0.558073 0.489875 0.166420
0.597548 0.496517 0.170188
0.637501 0.503223 0.173989
0.063517 0.461418 0.128310
0.097554 0.467577 0.131736
0.132009 0.473806 0.135193
0.166890 0.480104 0.138682
0.202202 0.486471 0.142203
0.237951 0.492907 0.145755
0.274142 0.499411 0.149340
0.310781 0.505983 0.152956
0.347872 0.512622 0.156605
0.385422 0.519328 0.160286
0.423433 0.526101 0.164000
0.461911 0.532940 0.167746
0.500860 0.539847 0.171525
0.540284 0.546819 0.175337
0.580187 0.553858 0.179183
0.620574 0.560963 0.183061
0.661447 0.568134 0.186973
0.074397 0.521286 0.139921
0.109211 0.527905 0.143453
0.144456 0.534593 0.147016
0.180141 0.541352 0.150612
0.216269 0.548181 0.154240
0.252846 0.555079 0.157900
0.289877 0.562045 0.161593
0.327367 0.569081 0.165318
0.365320 0.576184 0.169076
0.403740 0.583356 0.172867
0.442632 0.590596 0.176690
0.482000 0.597903 0.180547
0.521848 0.605278 0.184437
0.562179 0.612721 0.188361
0.602998 0.620231 0.192318
0.644308 0.627808 0.196309
0.686113 0.635452 0.200333
0.085725 0.583466 0.151888
0.121339 0.590553 0.155528
0.157398 0.597711 0.159199
0.193908 0.604939 0.162903
0.230872 0.612238 0.166640
0.268297 0.619607 0.170410
0.306185 0.627045 0.174212
0.344543 0.634553 0.178048
0.383373 0.642131 0.181916
0.422679 0.649777 0.185818
0.462467 0.657492 0.189753
0.502739 0.665277 0.193722
0.543499 0.673129 0.197725
0.584751 0.681051 0.201761
0.626498 0.689041 0.205832
0.668744 0.697099 0.209936
0.711492 0.705225 0.214075
0.097511 0.648010 0.164218
0.133948 0.655573 0.167966
0.170841 0.663209 0.171748
0.208196 0.670915 0.175562
0.246015 0.678692 0.179409
0.284304 0.686541 0.183289
0.323067 0.694459 0.187203
0.362308 0.702449 0.191150
0.402030 0.710508 0.195131
0.442238 0.718638 0.199145
0.482935 0.726837 0.203194
0.524124 0.735106 0.207276
0.565809 0.743445 0.211393
0.607993 0.751854 0.215543
0.650681 0.760332 0.219728
0.690540 0.765388 0.223149
0.729467 0.769417 0.226336
0.109768 0.714966 0.176915
0.147048 0.723014 0.180774
0.184794 0.731134 0.184666
0.223010 0.739326 0.188592
0.261702 0.747591 0.192551
0.300872 0.755926 0.196543
0.340524 0.764334 0.200570
0.380663 0.772812 0.204630
0.421292 0.781362 0.208725
0.462414 0.789982 0.212853
0.504033 0.798673 0.217016
0.545730 0.806845 0.221086
0.584657 0.810873 0.224273
0.623584 0.814901 0.227461
0.662511 0.818930 0.230648
0.701438 0.822958 0.233835
0.740366 0.826986 0.237022
0.122506 0.784378 0.189985
0.160646 0.792918 0.193956
0.199262 0.801531 0.197960
0.238357 0.810217 0.201999
0.277936 0.818976 0.206071
0.318002 0.827806 0.210178
0.358559 0.836709 0.214318
0.399610 0.845685 0.218493
0.439847 0.852330 0.222211
0.478774 0.856358 0.225398
0.517701 0.860386 0.228585
0.556629 0.864415 0.231772
0.595556 0.868443 0.234959
0.634483 0.872471 0.238146
0.673410 0.876499 0.241333
0.712337 0.880528 0.244521
0.751265 0.884556 0.247708
0.135734 0.856289 0.203432
0.174751 0.865328 0.207516
0.214252 0.874441 0.211635
0.254242 0.883628 0.215787
0.294723 0.892888 0.219975
0.333964 0.897815 0.223335
0.372891 0.901843 0.226523
0.411819 0.905871 0.229710
0.450746 0.909899 0.232897
0.489673 0.913928 0.236084
0.528600 0.917956 0.239271
0.567527 0.921984 0.242458
0.606455 0.926012 0.245645
0.645382 0.930041 0.248832
0.684309 0.934069 0.252019
0.723236 0.938097 0.255206
0.762163 0.942125 0.258393
0.000000 0.000000 0.061287
0.003917 0.000000 0.063965
0.034471 0.000000 0.066644
0.065026 0.000000 0.069322
0.095580 0.000000 0.072001
0.126135 0.000000 0.074680
0.156690 0.000000 0.077358
0.187244 0.000000 0.080037
0.217799 0.000000 0.082715
0.248353 0.000000 0.085394
0.278908 0.000000 0.088073
0.309463 0.001797 0.090751
0.340017 0.005007 0.093430
0.370572 0.008217 0.096108
