assets/lighting/cinematic/grade-storm-green/lut.cube
TITLE "Storm Green"
# TKRS lighting-batch-001 original LUT
# Intended usage: approaching storm sickly outdoor grade
# License: CC0-1.0
LUT_3D_SIZE 9
DOMAIN_MIN 0.0 0.0 0.0
DOMAIN_MAX 1.0 1.0 1.0
0.000000 0.000000 0.000000
0.031841 0.000000 0.000000
0.092950 0.000000 0.000000
0.154059 0.000000 0.000000
0.215168 0.000000 0.000000
0.276277 0.000000 0.000000
0.337387 0.001697 0.001416
0.398496 0.008117 0.006774
0.459605 0.014537 0.012131
0.000000 0.054926 0.000000
0.048950 0.061346 0.000000
0.110059 0.067765 0.000000
0.171168 0.074185 0.003307
0.232278 0.080605 0.008664
0.293387 0.087024 0.014021
0.356312 0.093890 0.019447
0.421495 0.101181 0.024978
0.488336 0.108694 0.030601
0.004950 0.146673 0.005197
0.066059 0.153092 0.010554
0.127228 0.159582 0.015917
0.189811 0.167189 0.021388
0.253793 0.175185 0.026952
0.319246 0.183459 0.032607
0.386249 0.191981 0.038359
0.454868 0.200738 0.044212
0.525163 0.209724 0.050167
0.022310 0.240940 0.023341
0.084939 0.249688 0.028936
0.148905 0.258756 0.034626
0.214323 0.268110 0.040413
0.281280 0.277730 0.046301
0.349847 0.287607 0.052294
0.420084 0.297732 0.058394
0.492044 0.308103 0.064603
0.565772 0.318716 0.070925
0.041037 0.344812 0.042479
0.106276 0.355317 0.048404
0.173067 0.366102 0.054434
0.241477 0.377160 0.060572
0.311563 0.388484 0.066821
0.383377 0.400069 0.073183
0.456964 0.411913 0.079660
0.532366 0.424013 0.086253
0.609620 0.436367 0.092966
0.061341 0.457226 0.062764
0.129518 0.469517 0.069053
0.199384 0.482087 0.075455
0.270987 0.494933 0.081973
0.344371 0.508051 0.088608
0.419576 0.521438 0.095363
0.496640 0.535093 0.102239
0.575597 0.549013 0.109238
0.656479 0.563198 0.116362
0.083365 0.578637 0.084301
0.154704 0.592783 0.090978
0.227835 0.607214 0.097776
0.302796 0.621925 0.104695
0.379622 0.636915 0.111738
0.458349 0.652182 0.118905
0.539006 0.667724 0.126199
0.621625 0.683542 0.133620
0.706231 0.699632 0.141171
0.107217 0.709476 0.107166
0.181891 0.725545 0.114252
0.258441 0.741902 0.121464
0.336899 0.758547 0.128803
0.417294 0.775477 0.136270
0.499657 0.792692 0.143866
0.582422 0.808104 0.151287
0.660277 0.816161 0.157661
0.738131 0.824217 0.164035
0.132982 0.850119 0.131423
0.211136 0.868170 0.138935
0.291236 0.886515 0.146578
0.370657 0.899074 0.153536
0.448511 0.907131 0.159910
0.526366 0.915187 0.166284
0.604220 0.923244 0.172658
0.682075 0.931300 0.179032
0.759929 0.939357 0.185407
0.000000 0.000000 0.030615
0.033594 0.000000 0.035973
0.094703 0.000000 0.041330
0.155813 0.000000 0.046687
0.216922 0.000000 0.052044
0.278031 0.000000 0.057401
0.339140 0.003904 0.062759
0.400249 0.010323 0.068116
0.461359 0.016743 0.073473
0.000000 0.057132 0.048577
0.050704 0.063552 0.053934
0.111813 0.069972 0.059292
0.172922 0.076391 0.064649
0.234031 0.082811 0.070006
0.295264 0.089265 0.075385
0.359121 0.096368 0.081171
0.424694 0.103739 0.087126
0.491904 0.111324 0.093214
0.006704 0.148879 0.066539
0.067813 0.155299 0.071896
0.129277 0.162132 0.077401
0.192174 0.169902 0.083256
0.256462 0.177999 0.089259
0.322232 0.186360 0.095392
0.389563 0.194965 0.101649
0.458522 0.203801 0.108030
0.529165 0.212864 0.114533
0.024162 0.243906 0.085359
0.087038 0.252770 0.091409
0.151279 0.261940 0.097586
0.216994 0.271387 0.103887
0.284263 0.281096 0.110310
0.353156 0.291059 0.116857
0.423730 0.301269 0.123528
0.496038 0.311723 0.130323
0.570123 0.322419 0.137243
0.043042 0.348390 0.106139
0.108570 0.358992 0.112606
0.175666 0.369872 0.119197
0.244395 0.381022 0.125911
0.314812 0.392436 0.132750
0.386967 0.404111 0.139715
0.460905 0.416043 0.146807
0.536666 0.428230 0.154027
0.614288 0.440671 0.161376
0.063517 0.461418 0.128310
0.132009 0.473806 0.135193
0.202202 0.486471 0.142203
0.274142 0.499411 0.149340
0.347872 0.512622 0.156605
0.423433 0.526101 0.164000
0.500860 0.539847 0.171525
0.580187 0.553858 0.179183
0.661447 0.568134 0.186973
0.085725 0.583466 0.151888
0.157398 0.597711 0.159199
0.230872 0.612238 0.166640
0.306185 0.627045 0.174212
0.383373 0.642131 0.181916
0.462467 0.657492 0.189753
0.543499 0.673129 0.197725
0.626498 0.689041 0.205832
0.711492 0.705225 0.214075
0.109768 0.714966 0.176915
0.184794 0.731134 0.184666
0.261702 0.747591 0.192551
0.340524 0.764334 0.200570
0.421292 0.781362 0.208725
0.504033 0.798673 0.217016
0.584657 0.810873 0.224273
0.662511 0.818930 0.230648
0.740366 0.826986 0.237022
0.135734 0.856289 0.203432
0.214252 0.874441 0.211635
0.294723 0.892888 0.219975
0.372891 0.901843 0.226523
0.450746 0.909899 0.232897
0.528600 0.917956 0.239271
0.606455 0.926012 0.245645
0.684309 0.934069 0.252019
0.762163 0.942125 0.258393
0.000000 0.000000 0.091958
0.035348 0.000000 0.097315
0.096457 0.000000 0.102672
0.157566 0.000000 0.108029
0.218676 0.000000 0.113386
0.279785 0.000000 0.118744
0.340894 0.006110 0.124101
0.402003 0.012530 0.129458
0.463284 0.018956 0.134850
0.000000 0.059339 0.109920
0.052458 0.065758 0.115277
0.113567 0.072178 0.120634
0.174676 0.078598 0.125991
0.235785 0.085017 0.131348
0.297690 0.091665 0.136959
0.362009 0.098875 0.143164
0.427952 0.106323 0.149574
0.495524 0.113978 0.156150
0.008458 0.151085 0.127881
0.069567 0.157505 0.133239
0.131389 0.164757 0.139120
0.194578 0.172653 0.145405
0.259168 0.180844 0.151876
0.325254 0.189291 0.158506
0.392914 0.197975 0.165286
0.462213 0.206890 0.172208
0.533206 0.216030 0.179271
0.026029 0.246916 0.147669
0.089157 0.255889 0.154198
0.153678 0.265156 0.160882
0.219691 0.274694 0.167712
0.287275 0.284492 0.174684
0.356495 0.294540 0.181797
0.427408 0.304835 0.189048
0.500064 0.315372 0.196437
0.574507 0.326151 0.203964
0.045065 0.352002 0.170156
0.110885 0.362701 0.177178
0.178288 0.373674 0.184339
0.247338 0.384915 0.191639
0.318087 0.396419 0.199077
0.390585 0.408183 0.206653
0.464874 0.420203 0.214368
0.540996 0.432477 0.222221
0.618986 0.445005 0.230213
0.065712 0.465644 0.194248
0.134521 0.478127 0.201735
0.205042 0.490888 0.209360
0.277321 0.503921 0.217123
0.351400 0.517224 0.225025
0.427317 0.530795 0.233066
0.505108 0.544632 0.241247
0.584807 0.558734 0.249569
0.666445 0.573101 0.258031
0.088103 0.588330 0.219895
0.160113 0.602672 0.227846
0.233933 0.617295 0.235937
0.309600 0.632198 0.244167
0.387148 0.647379 0.252538
0.466611 0.662835 0.261051
0.548019 0.678567 0.269705
0.631400 0.694572 0.278502
0.716782 0.710851 0.287443
0.112340 0.720490 0.247105
0.187717 0.736757 0.255526
0.264985 0.753312 0.264088
0.344174 0.770154 0.272793
0.425316 0.787279 0.281641
0.508437 0.804688 0.290632
0.586891 0.813642 0.297260
0.664746 0.821699 0.303635
0.742600 0.829755 0.310009
0.138507 0.862494 0.275898
0.217390 0.880748 0.284797
0.297271 0.896555 0.293135
0.375126 0.904612 0.299509
0.452980 0.912668 0.305884
0.530835 0.920725 0.312258
0.608689 0.928781 0.318632
0.686543 0.936838 0.325006
0.764398 0.944894 0.331380
0.000000 0.000000 0.153300
0.037102 0.000000 0.158657
0.098211 0.000000 0.164014
0.159320 0.000000 0.169372
0.220429 0.000000 0.174729
0.281539 0.001896 0.180086
0.342648 0.008316 0.185443
0.403757 0.014736 0.190800
0.466081 0.021207 0.196513
0.000000 0.061545 0.171262
0.054211 0.067964 0.176619
0.115320 0.074384 0.181976
0.176430 0.080804 0.187333
0.237539 0.087224 0.192691
0.300255 0.094112 0.198786
0.364964 0.101410 0.205444
0.431266 0.108931 0.212336
0.499194 0.116655 0.219419
0.010212 0.153292 0.189224
0.071367 0.159807 0.194668
0.133545 0.167432 0.201104
0.197019 0.175437 0.207852
0.261911 0.183719 0.214814
0.328313 0.192249 0.221960
0.396302 0.201014 0.229275
0.465941 0.210006 0.236753
0.537284 0.219223 0.244387
0.027911 0.249964 0.210287
0.091297 0.259042 0.217316
0.156100 0.268404 0.224522
0.222414 0.278033 0.231896
0.290314 0.287917 0.239429
0.359863 0.298050 0.247117
0.431117 0.308429 0.254959
0.504123 0.319050 0.262951
0.578925 0.329911 0.271094
0.047105 0.355647 0.234536
0.113219 0.366441 0.242124
0.180933 0.377508 0.249867
0.250305 0.388840 0.257762
0.321388 0.400433 0.265807
0.394230 0.412285 0.274002
0.468873 0.424392 0.282347
0.545357 0.436754 0.290839
0.623716 0.449369 0.299481
0.067925 0.469903 0.260583
0.137053 0.482482 0.268682
0.207905 0.495336 0.276930
0.280524 0.508462 0.285326
0.354952 0.521858 0.293872
0.431228 0.535520 0.302565
0.509385 0.549449 0.311408
0.589456 0.563642 0.320399
0.671474 0.578099 0.329539
0.090501 0.593227 0.288325
0.162849 0.607666 0.296922
0.237016 0.622386 0.305668
0.313038 0.637384 0.314563
0.390949 0.652660 0.323607
0.470782 0.668211 0.332800
0.552567 0.684037 0.342142
0.636331 0.700136 0.351635
0.722101 0.716508 0.361277
0.114932 0.726048 0.317737
0.190663 0.742415 0.326834
0.268291 0.759068 0.336079
0.347849 0.776007 0.345475
0.429365 0.793230 0.355020
0.511271 0.808354 0.363873
0.589125 0.816411 0.370247
0.666980 0.824467 0.376621
0.744834 0.832524 0.382996
0.141302 0.868734 0.348825
0.220551 0.887089 0.358424
0.299506 0.899324 0.366122
0.377360 0.907381 0.372496
0.455214 0.915437 0.378871
0.533069 0.923494 0.385245
0.610923 0.931550 0.391619
0.688778 0.939607 0.397993
0.766632 0.947663 0.404367
0.000000 0.000000 0.214642
0.038856 0.000000 0.219999
0.099965 0.000000 0.225357
0.161074 0.000000 0.230714
0.222183 0.000000 0.236071
0.283292 0.004103 0.241428
0.344402 0.010522 0.246785
0.405511 0.016942 0.252143
0.469095 0.023477 0.258446
0.000000 0.063751 0.232604
0.055965 0.070171 0.237961
0.117074 0.076590 0.243318
0.178183 0.083010 0.248676
0.239434 0.089479 0.254137
0.302906 0.096593 0.260888
0.367977 0.103971 0.268028
0.434630 0.111563 0.275422
0.502913 0.119356 0.283029
0.011965 0.155498 0.250566
0.073292 0.162366 0.256451
0.135736 0.170149 0.263374
0.199494 0.178254 0.270611
0.264687 0.186624 0.278083
0.331407 0.195235 0.285761
0.399725 0.204079 0.293626
0.469705 0.213149 0.301670
0.541399 0.222442 0.309885
0.029809 0.253050 0.273223
0.093456 0.262229 0.280770
0.158545 0.271684 0.288515
0.225163 0.281401 0.296444
0.293381 0.291372 0.304549
0.363261 0.301590 0.312824
0.434856 0.312052 0.321265
0.508213 0.322755 0.329869
0.583375 0.333699 0.338635
0.049162 0.359326 0.299284
0.115574 0.370214 0.307450
0.183599 0.381372 0.315784
0.253296 0.392795 0.324283
0.324716 0.404477 0.332944
0.397903 0.416417 0.341766
0.472901 0.428612 0.350747
0.549747 0.441061 0.359886
0.628477 0.453763 0.369183
0.070156 0.474194 0.327320
0.139606 0.486869 0.336038
0.210790 0.499817 0.344916
0.283751 0.513036 0.353953
0.358531 0.526523 0.363148
0.435165 0.540277 0.372501
0.513689 0.554297 0.382011
0.594135 0.568581 0.391677
0.676532 0.583128 0.401500
0.092918 0.598157 0.357180
0.165606 0.612693 0.366430
0.240121 0.627509 0.375838
0.316500 0.642603 0.385403
0.394776 0.657973 0.395125
0.474980 0.673619 0.405004
0.557142 0.689539 0.415039
0.641290 0.705732 0.425231
0.725271 0.720153 0.434611
0.117545 0.731640 0.388816
0.193630 0.748106 0.398593
0.271621 0.764858 0.408527
0.351547 0.781894 0.418617
0.433439 0.799215 0.428864
0.513505 0.811123 0.436860
0.591360 0.819180 0.443234
0.669214 0.827236 0.449608
0.747069 0.835293 0.455982
0.144117 0.875009 0.422215
0.223734 0.893465 0.432518
0.301740 0.902093 0.439109
0.379594 0.910149 0.445483
0.457449 0.918206 0.451857
0.535303 0.926262 0.458232
0.613158 0.934319 0.464606
0.691012 0.942375 0.470980
0.768866 0.950432 0.477354
0.000000 0.000000 0.275984
0.040609 0.000000 0.281342
0.101719 0.000000 0.286699
0.162828 0.000000 0.292056
0.223937 0.000000 0.297413
0.285046 0.006309 0.302770
0.346155 0.012729 0.308128
0.407485 0.019158 0.313602
0.472239 0.025764 0.320665
0.000000 0.065957 0.293946
0.057719 0.072377 0.299304
0.118828 0.078797 0.304661
0.179937 0.085216 0.310018
0.241748 0.091884 0.316011
0.305624 0.099103 0.323283
0.371044 0.106557 0.330927
0.438043 0.114219 0.338843
0.506677 0.122080 0.346990
0.013719 0.157704 0.311908
0.075256 0.164996 0.318521
0.137958 0.172903 0.325945
0.202000 0.181103 0.333692
0.267496 0.189557 0.341692
0.334534 0.198249 0.349915
0.403183 0.207170 0.358344
0.473504 0.216317 0.366965
0.545550 0.225688 0.375772
0.031721 0.256172 0.336488
0.095636 0.265448 0.344569
0.161014 0.274995 0.352867
0.227938 0.284800 0.361364
0.296476 0.294856 0.370052
0.366688 0.305158 0.378922
0.438626 0.315703 0.387971
0.512335 0.326489 0.397195
0.587858 0.337515 0.406591
0.051236 0.363037 0.364408
0.117948 0.374019 0.373161
0.186288 0.385268 0.382095
0.256312 0.396780 0.391206
0.328069 0.408552 0.400491
0.401604 0.420580 0.409947
0.476958 0.432862 0.419571
0.554168 0.445398 0.429364
0.633269 0.458187 0.439322
0.072407 0.478519 0.394463
0.142180 0.491288 0.403808
0.213698 0.504329 0.413323
0.287003 0.517641 0.423007
0.362135 0.531220 0.432858
0.439129 0.545066 0.442876
0.518021 0.559176 0.453058
0.598842 0.573551 0.463405
0.681621 0.588188 0.473916
0.095355 0.603121 0.426464
0.168384 0.617753 0.436374
0.243250 0.632665 0.446450
0.319987 0.647854 0.456690
0.398628 0.663319 0.467095
0.479204 0.679059 0.477664
0.561745 0.695073 0.488397
0.646278 0.711360 0.499293
0.727505 0.722922 0.507598
0.120178 0.737267 0.460343
0.196619 0.753831 0.470806
0.274973 0.770681 0.481432
0.355270 0.787815 0.492223
0.437539 0.805233 0.503177
0.515740 0.813892 0.509847
0.593594 0.821948 0.516221
0.671449 0.830005 0.522595
0.749303 0.838061 0.528969
0.146953 0.881319 0.496069
0.226120 0.896805 0.505722
0.303974 0.904862 0.512096
0.381829 0.912918 0.518470
0.459683 0.920975 0.524844
0.537538 0.929031 0.531218
0.615392 0.937088 0.537593
0.693246 0.945144 0.543967
0.771101 0.953201 0.550341
0.000000 0.000000 0.337327
0.042363 0.000000 0.342684
0.103472 0.000000 0.348041
0.164581 0.000000 0.353398
0.225691 0.002096 0.358756
0.286800 0.008515 0.364113
0.347909 0.014935 0.369470
0.410181 0.021411 0.375565
0.475484 0.028069 0.383185
0.000000 0.068164 0.355289
0.059473 0.074583 0.360646
0.120582 0.081003 0.366003
0.181691 0.087423 0.371360
0.244169 0.094335 0.378189
0.308400 0.101641 0.385986
0.374159 0.109167 0.394153
0.441501 0.116898 0.402606
0.510486 0.124828 0.411307
0.015486 0.160034 0.373465
0.077248 0.167676 0.380888
0.140210 0.175690 0.388831
0.204537 0.183980 0.397105
0.270338 0.192518 0.405649
0.337694 0.201289 0.414432
0.406675 0.210289 0.423434
0.477339 0.219513 0.432643
0.549736 0.228959 0.442051
0.033650 0.259328 0.400091
0.097836 0.268699 0.408722
0.163505 0.278336 0.417584
0.230737 0.288228 0.426660
0.299598 0.298369 0.435941
0.370144 0.308755 0.445416
0.442426 0.319383 0.455082
0.516489 0.330251 0.464933
0.592374 0.341359 0.474966
0.053327 0.366781 0.429912
0.120343 0.377855 0.439262
0.189000 0.389195 0.448805
0.259352 0.400797 0.458537
0.331448 0.412657 0.468453
0.405332 0.424772 0.478549
0.481043 0.437142 0.488824
0.558618 0.449765 0.499275
0.638092 0.462640 0.509901
0.074675 0.482876 0.462015
0.144774 0.495739 0.471995
0.216628 0.508874 0.482154
0.290278 0.522278 0.492492
0.365764 0.535949 0.503005
0.443120 0.549885 0.513692
0.522381 0.564086 0.524553
0.603578 0.578552 0.535586
0.686740 0.593280 0.546790
0.097812 0.608118 0.496181
0.171184 0.622847 0.506756
0.246401 0.637854 0.517505
0.323497 0.653138 0.528426
0.402505 0.668698 0.539520
0.483455 0.684532 0.550784
0.566376 0.700640 0.562219
0.651294 0.717020 0.573825
0.729739 0.725691 0.580585
0.122831 0.742927 0.532321
0.199630 0.759589 0.543475
0.278349 0.776537 0.554799
0.359018 0.793769 0.566295
0.440120 0.808604 0.576460
0.517974 0.816661 0.582834
0.595828 0.824717 0.589208
0.673683 0.832774 0.595582
0.751537 0.840830 0.601956
0.149811 0.887663 0.570391
0.228354 0.899574 0.578709
0.306209 0.907631 0.585083
0.384063 0.915687 0.591457
0.461917 0.923744 0.597831
0.539772 0.931800 0.604205
0.617626 0.939856 0.610580
0.695481 0.947913 0.616954
0.773335 0.955969 0.623328
0.000000 0.000000 0.398669
0.044117 0.000000 0.404026
0.105226 0.000000 0.409383
0.166335 0.000000 0.414741
0.227444 0.004302 0.420098
0.288554 0.010722 0.425455
0.349663 0.017141 0.430812
0.413056 0.023683 0.437850
0.478811 0.030390 0.446019
0.000117 0.070370 0.416631
0.061226 0.076790 0.421988
0.122336 0.083209 0.427345
0.183587 0.089694 0.432935
0.246660 0.096818 0.440673
0.311227 0.104204 0.449008
0.377320 0.111802 0.457715
0.445003 0.119601 0.466720
0.514337 0.127598 0.475988
0.017282 0.162601 0.435560
0.079265 0.170396 0.443564
0.142490 0.178510 0.452042
0.207104 0.186887 0.460860
0.273210 0.195506 0.469962
0.340887 0.204357 0.479316
0.410200 0.213434 0.488903
0.481207 0.222734 0.498710
0.553958 0.232257 0.508728
0.035594 0.262518 0.464041
0.100056 0.271982 0.473235
0.166020 0.281707 0.482673
0.233562 0.291685 0.492339
0.302747 0.301911 0.502221
0.373628 0.312380 0.512311
0.446256 0.323091 0.522601
0.520673 0.334042 0.533087
0.596922 0.345232 0.543764
0.055436 0.370556 0.495802
0.122758 0.381723 0.505758
0.191734 0.393153 0.515919
0.262417 0.404844 0.526279
0.334853 0.416792 0.536833
0.409087 0.428995 0.547577
0.485156 0.441452 0.558508
0.563098 0.454161 0.569624
0.642945 0.467123 0.580924
0.076963 0.487266 0.529981
0.147389 0.500223 0.540602
0.219581 0.513450 0.551413
0.293578 0.526946 0.562409
0.369419 0.540708 0.573591
0.447138 0.554736 0.584954
0.526769 0.569028 0.596498
0.608343 0.583584 0.608222
0.691888 0.598402 0.620124
0.100289 0.613149 0.566334
0.174005 0.627973 0.577579
0.249575 0.643076 0.589007
0.327032 0.658455 0.600614
0.406408 0.674109 0.612401
0.487732 0.690037 0.624366
0.571034 0.706239 0.636508
0.654119 0.720403 0.647197
0.731974 0.728460 0.653572
0.125505 0.748621 0.604753
0.202663 0.765382 0.616603
0.281748 0.782427 0.628630
0.362790 0.799757 0.640835
0.442354 0.811373 0.649446
0.520208 0.819430 0.655821
0.598063 0.827486 0.662195
0.675917 0.835543 0.668569
0.753772 0.843599 0.674943
0.152690 0.894042 0.645183
0.230588 0.902343 0.651696
0.308443 0.910399 0.658070
0.386297 0.918456 0.664444
0.464152 0.926512 0.670818
0.542006 0.934569 0.677192
0.619861 0.942625 0.683566
0.697715 0.950682 0.689941
0.775569 0.958738 0.696315
0.000000 0.000000 0.460011
0.045871 0.000000 0.465368
0.106980 0.000000 0.470726
0.168089 0.000088 0.476083
0.229198 0.006508 0.481440
0.290307 0.012928 0.486797
0.351669 0.019360 0.492400
0.416045 0.025972 0.500451
0.482212 0.032729 0.509177
0.001871 0.072576 0.477973
0.062980 0.078996 0.483330
0.124089 0.085416 0.488688
0.185781 0.092104 0.495121
0.249207 0.099331 0.503474
0.314099 0.106792 0.512360
0.380524 0.114460 0.521621
0.448548 0.122327 0.531193
0.518230 0.130392 0.541039
0.019094 0.165236 0.497987
0.081305 0.173153 0.506561
0.144795 0.181361 0.515589
0.209699 0.189823 0.524965
0.276112 0.198522 0.534637
0.344111 0.207451 0.544574
0.413758 0.216605 0.554757
0.485110 0.225982 0.565171
0.558215 0.235581 0.575806
0.037555 0.265740 0.528346
0.102295 0.275295 0.538114
0.168557 0.285108 0.548140
0.236412 0.295172 0.558405
0.305922 0.305481 0.568899
0.377141 0.316034 0.579610
0.450115 0.326828 0.590532
0.524889 0.337861 0.601660
0.601502 0.349133 0.612988
0.057563 0.374364 0.562082
0.125193 0.385622 0.572654
0.194490 0.397142 0.583440
0.265505 0.408921 0.594435
0.338284 0.420957 0.605634
0.412869 0.433247 0.617032
0.489298 0.445791 0.628627
0.567607 0.458588 0.640414
0.647829 0.471636 0.652392
0.079269 0.491688 0.598364
0.150025 0.504738 0.609633
0.222556 0.518058 0.621101
0.296901 0.531646 0.632764
0.373099 0.545499 0.644619
0.451183 0.559618 0.656663
0.531185 0.574001 0.668896
0.613137 0.588647 0.681316
0.697066 0.603555 0.693921
0.102785 0.618212 0.636925
0.176848 0.633132 0.648847
0.252772 0.648330 0.660958
0.330591 0.663804 0.673257
0.410336 0.679552 0.685742
0.492036 0.695574 0.698412
0.575719 0.711870 0.711266
0.656354 0.723172 0.720184
0.734208 0.731229 0.726558
0.128200 0.754349 0.677641
0.205718 0.771208 0.690192
0.285171 0.788351 0.702927
0.366586 0.805778 0.715845
0.444588 0.814142 0.722433
0.522443 0.822198 0.728808
0.600297 0.830255 0.735182
0.678152 0.838311 0.741556
0.756006 0.846368 0.747930
0.154968 0.897055 0.718308
0.232823 0.905112 0.724682
0.310677 0.913168 0.731057
0.388532 0.921225 0.737431
0.466386 0.929281 0.743805
0.544240 0.937338 0.750179
0.622095 0.945394 0.756553
0.699949 0.953451 0.762928
0.777804 0.961507 0.769302
