assets/lighting/day-night-palettes/grade-moonlight-4100k/lut.cube
TITLE "Moonlight 4100K"
# TKRS lighting-batch-001 original LUT
# Intended usage: night exterior moonlight, desaturated cool
# License: CC0-1.0
LUT_3D_SIZE 17
DOMAIN_MIN 0.0 0.0 0.0
DOMAIN_MAX 1.0 1.0 1.0
0.000000 0.000000 0.000000
0.000000 0.000000 0.000000
0.003093 0.000000 0.000000
0.031223 0.000000 0.000000
0.059352 0.000000 0.000000
0.087482 0.000000 0.000000
0.115611 0.000000 0.000000
0.143741 0.000000 0.000000
0.171870 0.000000 0.000000
0.200000 0.000000 0.000000
0.228129 0.000000 0.000000
0.256258 0.000000 0.000000
0.284388 0.000000 0.000000
0.312517 0.001069 0.001297
0.340647 0.005445 0.006607
0.368776 0.009820 0.011917
0.396906 0.014196 0.017228
0.000000 0.000000 0.000000
0.000000 0.000000 0.000000
0.016609 0.000000 0.000000
0.044738 0.000000 0.000000
0.072868 0.000125 0.000000
0.100997 0.004500 0.000000
0.129127 0.008876 0.000000
0.157256 0.013252 0.000000
0.185386 0.017627 0.000000
0.213515 0.022003 0.000000
0.241645 0.026379 0.002586
0.269774 0.030754 0.007896
0.297903 0.035130 0.013206
0.326033 0.039506 0.018516
0.354162 0.043881 0.023826
0.382292 0.048257 0.029136
0.411148 0.052732 0.034482
0.000000 0.021059 0.000000
0.001995 0.025434 0.000000
0.030124 0.029810 0.000000
0.058254 0.034186 0.000000
0.086383 0.038561 0.000000
0.114513 0.042937 0.000000
0.142642 0.047313 0.000000
0.170772 0.051688 0.003875
0.198901 0.056064 0.009185
0.227031 0.060440 0.014495
0.255160 0.064815 0.019805
0.283290 0.069191 0.025115
0.311419 0.073567 0.030425
0.340391 0.078149 0.035788
0.369787 0.082824 0.041184
0.399508 0.087562 0.046611
0.429541 0.092359 0.052068
0.000000 0.059495 0.000000
0.015510 0.063871 0.000000
0.043640 0.068247 0.000000
0.071769 0.072622 0.000000
0.099899 0.076998 0.005163
0.128028 0.081374 0.010474
0.156158 0.085749 0.015784
0.184287 0.090125 0.021094
0.212417 0.094501 0.026404
0.240651 0.098923 0.031722
0.269543 0.103609 0.037094
0.298760 0.108387 0.042498
0.328271 0.113236 0.047932
0.358074 0.118149 0.053397
0.388170 0.123123 0.058892
0.418564 0.128158 0.064420
0.449260 0.133252 0.069979
0.000896 0.097932 0.001142
0.029026 0.102308 0.006452
0.057155 0.106683 0.011762
0.085285 0.111059 0.017072
0.113414 0.115435 0.022383
0.141544 0.119810 0.027693
0.169848 0.124323 0.033023
0.198595 0.129114 0.038403
0.227616 0.133999 0.043814
0.256907 0.138961 0.049256
0.286473 0.143992 0.054728
0.316318 0.149089 0.060231
0.346450 0.154250 0.065766
0.376874 0.159474 0.071334
0.407595 0.164761 0.076934
0.438620 0.170109 0.082569
0.469953 0.175519 0.088238
0.014412 0.136369 0.018361
0.042541 0.140744 0.023671
0.070671 0.145120 0.028981
0.098967 0.149766 0.034326
0.127540 0.154664 0.039714
0.156352 0.159661 0.045132
0.185414 0.164739 0.050581
0.214734 0.169891 0.056060
0.244323 0.175113 0.061571
0.274187 0.180402 0.067114
0.304335 0.185758 0.072690
0.334773 0.191178 0.078299
0.365507 0.196664 0.083942
0.396543 0.202214 0.089619
0.427885 0.207828 0.095331
0.459540 0.213506 0.101079
0.491510 0.219248 0.106862
0.027994 0.175254 0.035630
0.056373 0.180263 0.041026
0.084964 0.185374 0.046452
0.113788 0.190571 0.051908
0.142857 0.195846 0.057395
0.172182 0.201194 0.062914
0.201775 0.206613 0.068464
0.231643 0.212102 0.074048
0.261793 0.217658 0.079665
0.292232 0.223282 0.085316
0.322967 0.228973 0.091002
0.354004 0.234730 0.096723
0.385347 0.240553 0.102479
0.417001 0.246443 0.108271
0.448971 0.252398 0.114100
0.481262 0.258420 0.119966
0.513878 0.264508 0.125868
0.042026 0.216458 0.053237
0.070837 0.221858 0.058731
0.099895 0.227334 0.064258
0.129211 0.232885 0.069816
0.158795 0.238508 0.075408
0.188653 0.244201 0.081034
0.218795 0.249965 0.086693
0.249226 0.255798 0.092387
0.279953 0.261699 0.098116
0.310982 0.267669 0.103881
0.342317 0.273706 0.109683
0.373964 0.279812 0.115520
0.405927 0.285986 0.121395
0.438211 0.292227 0.127307
0.470819 0.298536 0.133256
0.503757 0.304914 0.139244
0.537027 0.311359 0.145270
0.056495 0.259217 0.071171
0.085790 0.264976 0.076770
0.115353 0.270808 0.082404
0.145194 0.276712 0.088072
0.175318 0.282688 0.093774
0.205733 0.288735 0.099512
0.236445 0.294852 0.105286
0.267459 0.301038 0.111096
0.298779 0.307295 0.116943
0.330412 0.313622 0.122826
0.362362 0.320017 0.128747
0.394633 0.326483 0.134706
0.427229 0.333018 0.140703
0.460154 0.339622 0.146739
0.493411 0.346296 0.152813
0.527006 0.353039 0.158927
0.560940 0.359852 0.165080
0.071427 0.303525 0.089453
0.101242 0.309645 0.095164
0.131342 0.315837 0.100910
0.161734 0.322103 0.106693
0.192424 0.328440 0.112512
0.223417 0.334848 0.118367
0.254717 0.341328 0.124260
0.286331 0.347879 0.130190
0.318261 0.354501 0.136158
0.350514 0.361194 0.142164
0.383092 0.367958 0.148210
0.416000 0.374793 0.154294
0.449241 0.381699 0.160417
0.482818 0.388676 0.166580
0.516736 0.395724 0.172783
0.550998 0.402843 0.179026
0.585606 0.410034 0.185309
0.086850 0.349422 0.108102
0.117213 0.355910 0.113929
0.147875 0.362471 0.119794
0.178841 0.369106 0.125696
0.210116 0.375813 0.131635
0.241705 0.382592 0.137612
0.273612 0.389444 0.143628
0.305841 0.396369 0.149683
0.338397 0.403366 0.155776
0.371283 0.410435 0.161909
0.404503 0.417576 0.168081
0.438060 0.424790 0.174294
0.471958 0.432076 0.180547
0.506200 0.439435 0.186840
0.540789 0.446866 0.193174
0.575728 0.454369 0.199550
0.611020 0.461945 0.205966
0.102782 0.396954 0.127134
0.133717 0.403818 0.133082
0.164962 0.410756 0.139069
0.196522 0.417768 0.145094
0.228401 0.424854 0.151158
0.260603 0.432013 0.157261
0.293133 0.439246 0.163403
0.325993 0.446552 0.169586
0.359188 0.453932 0.175808
0.392721 0.461386 0.182070
0.426595 0.468913 0.188374
0.460813 0.476514 0.194718
0.495379 0.484188 0.201103
0.530296 0.491937 0.207530
0.565566 0.499759 0.213998
0.601193 0.507655 0.220509
0.637178 0.515625 0.227061
0.119244 0.446165 0.146562
0.150771 0.453413 0.152635
0.182617 0.460735 0.158748
0.214789 0.468132 0.164900
0.247288 0.475604 0.171092
0.280119 0.483151 0.177324
0.313285 0.490773 0.183596
0.346789 0.498469 0.189910
0.380636 0.506241 0.196264
0.414828 0.514087 0.202659
0.449368 0.522007 0.209096
0.484259 0.530003 0.215575
0.519504 0.538073 0.222095
0.555106 0.546219 0.228658
0.591067 0.554440 0.235263
0.627391 0.562735 0.241911
0.664079 0.571106 0.248602
0.136250 0.497095 0.166399
0.168386 0.504733 0.172601
0.200852 0.512447 0.178843
0.233650 0.520238 0.185125
0.266784 0.528104 0.191448
0.300257 0.536046 0.197812
0.334074 0.544064 0.204217
0.368236 0.552158 0.210664
0.402746 0.560327 0.217153
0.437609 0.568573 0.223684
0.472826 0.576894 0.230257
0.508400 0.585292 0.236873
0.544334 0.593766 0.243531
0.580631 0.602316 0.250233
0.617293 0.610942 0.256977
0.652986 0.618305 0.263425
0.686722 0.623615 0.269358
0.153816 0.549780 0.186656
0.186578 0.557817 0.192989
0.219676 0.565930 0.199363
0.253116 0.574121 0.205778
0.286898 0.582388 0.212235
0.321027 0.590732 0.218734
0.355506 0.599153 0.225275
0.390337 0.607651 0.231859
0.425523 0.616226 0.238485
0.461067 0.624878 0.245154
0.496971 0.633607 0.251866
0.533238 0.642414 0.258621
0.567989 0.649019 0.264865
0.601725 0.654330 0.270798
0.635460 0.659640 0.276731
0.669195 0.664950 0.282664
0.702931 0.670260 0.288597
0.171954 0.604257 0.207342
0.205355 0.612698 0.213809
0.239102 0.621217 0.220318
0.273195 0.629814 0.226869
0.307639 0.638489 0.233463
0.342435 0.647242 0.240100
0.377588 0.656073 0.246779
0.413099 0.664982 0.253501
0.448970 0.673969 0.260267
0.482992 0.679734 0.266305
0.516728 0.685044 0.272238
0.550463 0.690355 0.278171
0.584198 0.695665 0.284104
0.617934 0.700975 0.290037
0.651669 0.706285 0.295970
0.685404 0.711595 0.301903
0.719140 0.716905 0.307837
0.190676 0.660557 0.228466
0.224731 0.669409 0.235070
0.259137 0.678340 0.241717
0.293897 0.687350 0.248406
0.329013 0.696439 0.255139
0.364260 0.705139 0.261812
0.397995 0.710449 0.267745
0.431731 0.715759 0.273678
0.465466 0.721069 0.279611
0.499201 0.726380 0.285544
0.532937 0.731690 0.291477
0.566672 0.737000 0.297410
0.600407 0.742310 0.303343
0.634143 0.747620 0.309276
0.667878 0.752930 0.315210
0.701613 0.758240 0.321143
0.735349 0.763550 0.327076
0.000000 0.000000 0.000000
0.000000 0.000000 0.000000
0.004419 0.000000 0.000000
0.032548 0.000000 0.000000
0.060678 0.000000 0.000000
0.088807 0.000000 0.000000
0.116937 0.000000 0.000000
0.145066 0.000000 0.000000
0.173196 0.000000 0.005024
0.201325 0.000000 0.010334
0.229455 0.000000 0.015644
0.257584 0.000000 0.020954
0.285713 0.000000 0.026264
0.313843 0.002461 0.031574
0.341972 0.006836 0.036884
0.370102 0.011212 0.042194
0.398231 0.015587 0.047505
0.000000 0.000000 0.000000
0.000000 0.000000 0.000000
0.017934 0.000000 0.000000
0.046064 0.000000 0.000000
0.074193 0.001516 0.001002
0.102323 0.005892 0.006312
0.130452 0.010268 0.011623
0.158582 0.014643 0.016933
0.186711 0.019019 0.022243
0.214841 0.023395 0.027553
0.242970 0.027770 0.032863
0.271100 0.032146 0.038173
0.299229 0.036522 0.043483
0.327358 0.040897 0.048793
0.355488 0.045273 0.054103
0.383654 0.049653 0.059417
0.412862 0.054181 0.064827
0.000000 0.022450 0.000000
0.003320 0.026826 0.002291
0.031450 0.031202 0.007601
0.059579 0.035577 0.012911
0.087709 0.039953 0.018221
0.115838 0.044329 0.023531
0.143968 0.048704 0.028842
0.172097 0.053080 0.034152
0.200227 0.057456 0.039462
0.228356 0.061831 0.044772
0.256486 0.066207 0.050082
0.284615 0.070583 0.055392
0.312935 0.075007 0.060724
0.342056 0.079629 0.066147
0.371532 0.084324 0.071610
0.401325 0.089082 0.077109
0.431426 0.093897 0.082642
0.000000 0.060887 0.014200
0.016836 0.065263 0.019510
0.044965 0.069638 0.024820
0.073095 0.074014 0.030130
0.101224 0.078390 0.035440
0.129354 0.082765 0.040751
0.157483 0.087141 0.046061
0.185613 0.091517 0.051371
0.213742 0.095892 0.056681
0.242168 0.100400 0.062036
0.271149 0.105120 0.067470
0.300434 0.109922 0.072941
0.330010 0.114791 0.078448
0.359875 0.119724 0.083990
0.390034 0.124718 0.089566
0.420490 0.129771 0.095176
0.451249 0.134884 0.100821
0.002222 0.099324 0.031419
0.030351 0.103699 0.036729
0.058481 0.108075 0.042039
0.086610 0.112451 0.047349
0.114740 0.116826 0.052660
0.142869 0.121202 0.057970
0.171324 0.125834 0.063351
0.200136 0.130658 0.068794
0.229216 0.135569 0.074275
0.258565 0.140554 0.079790
0.288188 0.145606 0.085340
0.318091 0.150724 0.090924
0.348282 0.155905 0.096543
0.378766 0.161149 0.102196
0.409549 0.166455 0.107885
0.440635 0.171823 0.113610
0.472031 0.177253 0.119371
0.015738 0.137760 0.048638
0.043867 0.142136 0.053948
0.072000 0.146519 0.059260
0.100388 0.151311 0.064668
0.129012 0.156244 0.070121
0.157874 0.161268 0.075610
0.186987 0.166370 0.081134
0.216361 0.171544 0.086692
0.246004 0.176788 0.092284
0.275925 0.182098 0.097912
0.306130 0.187475 0.103574
0.336626 0.192916 0.109271
0.367419 0.198422 0.115005
0.398515 0.203992 0.120774
0.429919 0.209626 0.126580
0.461635 0.215325 0.132423
0.493669 0.221087 0.138304
0.029352 0.176834 0.065988
0.057770 0.181879 0.071450
0.086405 0.187018 0.076948
0.115275 0.192241 0.082480
0.144393 0.197539 0.088046
0.173770 0.202910 0.093647
0.203416 0.208352 0.099282
0.233338 0.213862 0.104953
0.263544 0.219440 0.110659
0.294041 0.225085 0.116402
0.324834 0.230797 0.122180
0.355930 0.236575 0.127995
0.387333 0.242419 0.133847
0.419048 0.248330 0.139737
0.451081 0.254306 0.145664
0.483435 0.260349 0.151630
0.516114 0.266458 0.157634
0.043426 0.218167 0.083828
0.072282 0.223591 0.089402
0.101388 0.229092 0.095011
0.130754 0.234665 0.100655
0.160389 0.240311 0.106335
0.190302 0.246027 0.112050
0.220498 0.251813 0.117801
0.250986 0.257667 0.123588
0.281771 0.263590 0.129412
0.312858 0.269581 0.135273
0.344253 0.275641 0.141172
0.375960 0.281768 0.147108
0.407985 0.287963 0.153083
0.440331 0.294226 0.159097
0.473003 0.300557 0.165149
0.506004 0.306956 0.171240
0.539338 0.313423 0.177371
0.057938 0.261040 0.102031
0.087283 0.266823 0.107718
0.116898 0.272678 0.113442
0.146791 0.278605 0.119202
0.176970 0.284603 0.124998
0.207441 0.290672 0.130831
0.238209 0.296812 0.136701
0.269281 0.303021 0.142609
0.300661 0.309300 0.148555
0.332354 0.315648 0.154539
0.364365 0.322066 0.160562
0.396698 0.328553 0.166624
0.429356 0.335110 0.172725
0.462345 0.341737 0.178865
0.495667 0.348433 0.185046
0.529326 0.355198 0.191266
0.563326 0.362034 0.197527
0.072918 0.305463 0.120605
0.102785 0.311606 0.126410
0.132940 0.317822 0.132252
0.163387 0.324110 0.138132
0.194133 0.330470 0.144049
0.225183 0.336901 0.150004
0.256543 0.343404 0.155997
0.288216 0.349978 0.162029
0.320207 0.356622 0.168101
0.352521 0.363338 0.174211
0.385162 0.370124 0.180361
0.418133 0.376982 0.186552
0.451437 0.383911 0.192782
0.485080 0.390910 0.199053
0.519063 0.397981 0.205365
0.553391 0.405123 0.211718
0.588066 0.412336 0.218112
0.088389 0.351477 0.139564
0.118808 0.357989 0.145490
0.149526 0.364573 0.151455
0.180549 0.371231 0.157458
0.211883 0.377961 0.163499
0.243531 0.384764 0.169580
0.275499 0.391639 0.175700
0.307789 0.398586 0.181860
0.340407 0.405606 0.188060
0.373356 0.412698 0.194300
0.406640 0.419863 0.200581
0.440261 0.427099 0.206903
0.474224 0.434408 0.213266
0.508532 0.441790 0.219670
0.543187 0.449244 0.226116
0.578193 0.456771 0.232603
0.613553 0.464370 0.239133
0.104373 0.399129 0.158920
0.135365 0.406017 0.164971
0.166669 0.412978 0.171062
0.198288 0.420013 0.177192
0.230227 0.427123 0.183361
0.262490 0.434305 0.189571
0.295081 0.441561 0.195821
0.328004 0.448891 0.202112
0.361262 0.456295 0.208443
0.394859 0.463772 0.214816
0.428798 0.471322 0.221230
0.463082 0.478947 0.227686
0.497714 0.486645 0.234184
0.532698 0.494416 0.240725
0.568035 0.502262 0.247307
0.603730 0.510181 0.253932
0.639784 0.518175 0.260601
0.120887 0.448462 0.178685
0.152473 0.455733 0.184864
0.184380 0.463079 0.191084
0.216612 0.470501 0.197344
0.249173 0.477997 0.203644
0.282066 0.485567 0.209986
0.315295 0.493213 0.216369
0.348864 0.500933 0.222793
0.382775 0.508728 0.229260
0.417032 0.516597 0.235768
0.451638 0.524542 0.242318
0.486596 0.532561 0.248911
0.521908 0.540656 0.255547
0.557578 0.548825 0.262225
0.593607 0.557070 0.268947
0.630000 0.565389 0.275712
0.666757 0.573784 0.282521
0.137948 0.499516 0.198869
0.170145 0.507178 0.205180
0.202672 0.514917 0.211531
0.235532 0.522731 0.217924
0.268729 0.530622 0.224359
0.302266 0.538588 0.230835
0.336147 0.546630 0.237354
0.370374 0.554748 0.243914
0.404951 0.562941 0.250518
0.439879 0.571211 0.257164
0.475163 0.579557 0.263853
0.510805 0.587979 0.270585
0.546807 0.596477 0.277361
0.583173 0.605051 0.284180
0.619904 0.613701 0.291043
0.654576 0.619993 0.297254
0.688311 0.625304 0.303187
0.155569 0.552328 0.219482
0.188393 0.560389 0.225927
0.221555 0.568527 0.232413
0.255058 0.576741 0.238942
0.288905 0.585033 0.245513
0.323099 0.593402 0.252127
0.357643 0.601847 0.258783
0.392540 0.610370 0.265483
0.427793 0.618969 0.272225
0.463404 0.627646 0.279012
0.499376 0.636400 0.285842
0.535712 0.645230 0.292716
0.569579 0.650708 0.298694
0.603314 0.656018 0.304627
0.637050 0.661328 0.310560
0.670785 0.666639 0.316493
0.704520 0.671949 0.322426
0.173764 0.606933 0.240533
0.207229 0.615399 0.247114
0.241039 0.623943 0.253738
0.275198 0.632565 0.260405
0.309707 0.641265 0.267115
0.344569 0.650042 0.273868
0.379789 0.658898 0.280665
0.415367 0.667831 0.287506
0.450847 0.676113 0.294201
0.484582 0.681423 0.300134
0.518317 0.686733 0.306067
0.552053 0.692043 0.312000
0.585788 0.697353 0.317933
0.619523 0.702664 0.323866
0.653259 0.707974 0.329799
0.686994 0.713284 0.335732
0.720729 0.718594 0.341666
0.192544 0.663363 0.262030
0.226664 0.672241 0.268750
0.261135 0.681197 0.275514
0.295961 0.690232 0.282322
0.331144 0.699346 0.289173
0.365850 0.706828 0.295641
0.399585 0.712138 0.301574
0.433320 0.717448 0.307507
0.467056 0.722758 0.313440
0.500791 0.728068 0.319373
0.534526 0.733378 0.325306
0.568262 0.738689 0.331239
0.601997 0.743999 0.337172
0.635732 0.749309 0.343106
0.669468 0.754619 0.349039
0.703203 0.759929 0.354972
0.736938 0.765239 0.360905
0.000000 0.000000 0.000000
0.000000 0.000000 0.000000
0.005744 0.000000 0.003440
0.033874 0.000000 0.008750
0.062003 0.000000 0.014060
0.090133 0.000000 0.019370
0.118262 0.000000 0.024680
0.146392 0.000000 0.029991
0.174521 0.000000 0.035301
0.202651 0.000000 0.040611
0.230780 0.000000 0.045921
0.258910 0.000000 0.051231
0.287039 0.000000 0.056541
0.315168 0.003852 0.061851
0.343298 0.008228 0.067161
0.371427 0.012603 0.072471
0.399557 0.016979 0.077781
0.000000 0.000000 0.010039
0.000000 0.000000 0.015349
0.019260 0.000000 0.020659
0.047389 0.000000 0.025969
0.075519 0.002908 0.031279
0.103648 0.007284 0.036589
0.131778 0.011659 0.041899
0.159907 0.016035 0.047210
0.188037 0.020411 0.052520
0.216166 0.024786 0.057830
0.244296 0.029162 0.063140
0.272425 0.033537 0.068450
0.300555 0.037913 0.073760
0.328684 0.042289 0.079070
0.356813 0.046664 0.084380
0.385249 0.051084 0.089732
0.414604 0.055636 0.095208
0.000000 0.023842 0.027258
0.004646 0.028218 0.032568
0.032775 0.032593 0.037878
0.060905 0.036969 0.043188
0.089034 0.041345 0.048498
0.117164 0.045720 0.053808
0.145293 0.050096 0.059119
0.173423 0.054472 0.064429
0.201552 0.058847 0.069739
0.229682 0.063223 0.075049
0.257811 0.067598 0.080359
0.285941 0.071974 0.085669
0.314520 0.076467 0.091056
0.343740 0.081115 0.096544
0.373292 0.085831 0.102078
0.403155 0.090607 0.107651
0.433322 0.095440 0.113263
0.000000 0.062279 0.044477
0.018161 0.066654 0.049787
0.046291 0.071030 0.055097
0.074420 0.075406 0.060407
0.102550 0.079781 0.065717
0.130679 0.084157 0.071028
0.158809 0.088533 0.076338
0.186938 0.092908 0.081648
0.215068 0.097284 0.086958
0.243713 0.101891 0.092383
0.272770 0.106640 0.097884
0.302120 0.111463 0.103427
0.331759 0.116353 0.109010
0.361686 0.121306 0.114630
0.391907 0.126318 0.120288
0.422426 0.131391 0.125982
0.453247 0.136523 0.131714
0.003548 0.100715 0.061696
0.031677 0.105091 0.067006
0.059806 0.109467 0.072316
0.087936 0.113842 0.077626
0.116065 0.118218 0.082937
0.144221 0.122617 0.088256
0.172816 0.127357 0.093714
0.201688 0.132212 0.099225
0.230825 0.137147 0.104778
0.260231 0.142153 0.110370
0.289911 0.147227 0.116000
0.319873 0.152365 0.121666
0.350123 0.157566 0.127370
0.380667 0.162830 0.133111
0.411510 0.168155 0.138889
0.442658 0.173543 0.144705
0.474116 0.178992 0.150559
0.017063 0.139152 0.078915
0.045193 0.143528 0.084225
0.073375 0.148018 0.089573
0.101818 0.152869 0.095047
0.130490 0.157833 0.100569
0.159403 0.162882 0.106132
0.188568 0.168008 0.111733
0.217995 0.173205 0.117372
0.247693 0.178469 0.123047
0.277669 0.183801 0.128760
0.307932 0.189198 0.134510
0.338486 0.194660 0.140297
0.369339 0.200186 0.146122
0.400495 0.205777 0.151985
0.431960 0.211432 0.157886
0.463739 0.217151 0.163826
0.495835 0.222934 0.169804
0.030713 0.178427 0.096383
0.059172 0.183504 0.101916
0.087851 0.188671 0.107488
0.116768 0.193918 0.113098
0.145936 0.199239 0.118746
0.175364 0.204633 0.124430
0.205063 0.210097 0.130152
0.235040 0.215628 0.135911
0.265302 0.221228 0.141708
0.295856 0.226894 0.147542
0.326707 0.232627 0.153414
0.357862 0.238426 0.159324
0.389326 0.244292 0.165273
0.421103 0.250223 0.171261
0.453198 0.256221 0.177288
0.485614 0.262285 0.183354
0.518358 0.268415 0.189460
0.044829 0.219883 0.114465
0.073732 0.225332 0.120122
0.102886 0.230856 0.125816
0.132303 0.236453 0.131546
0.161990 0.242121 0.137315
0.191956 0.247859 0.143120
0.222208 0.253667 0.148964
0.252752 0.259543 0.154845
0.283594 0.265488 0.160765
0.314740 0.271501 0.166723
0.346195 0.277582 0.172720
0.377963 0.283731 0.178756
0.410049 0.289948 0.184832
0.442458 0.296232 0.190947
0.475193 0.302585 0.197103
0.508258 0.309005 0.203299
0.541658 0.315494 0.209535
0.059386 0.262871 0.132943
0.088781 0.268677 0.138720
0.118447 0.274555 0.144535
0.148394 0.280505 0.150387
0.178628 0.286526 0.156278
0.209154 0.292617 0.162207
0.239980 0.298779 0.168175
0.271110 0.305010 0.174181
0.302549 0.311311 0.180227
0.334303 0.317682 0.186313
0.366374 0.324122 0.192438
0.398769 0.330631 0.198603
0.431490 0.337210 0.204808
0.464543 0.343859 0.211055
0.497929 0.350577 0.217342
0.531653 0.357365 0.223670
0.565719 0.364222 0.230039
0.074413 0.307409 0.151814
0.104334 0.313575 0.157713
0.134542 0.319814 0.163652
0.165045 0.326125 0.169629
0.195848 0.332508 0.175645
0.226956 0.338962 0.181700
0.258374 0.345487 0.187795
0.290107 0.352083 0.193930
0.322160 0.358750 0.200105
0.354535 0.365489 0.206321
0.387238 0.372298 0.212577
0.420272 0.379178 0.218874
0.453641 0.386129 0.225212
0.487348 0.393151 0.231591
0.521397 0.400244 0.238013
0.555791 0.407409 0.244476
0.590532 0.414645 0.250981
0.089934 0.353540 0.171085
0.120408 0.360075 0.177111
0.151182 0.366683 0.183176
0.182263 0.373363 0.189281
0.213656 0.380117 0.195425
0.245364 0.386942 0.201610
0.277391 0.393841 0.207835
0.309744 0.400811 0.214101
0.342424 0.407854 0.220408
0.375435 0.414969 0.226756
0.408783 0.422156 0.233146
0.442469 0.429416 0.239577
0.476497 0.436748 0.246051
0.510870 0.444153 0.252566
0.545592 0.451630 0.259124
0.580665 0.459180 0.265725
0.616092 0.466802 0.272369
0.105969 0.401312 0.190768
0.137019 0.408223 0.196923
0.168380 0.415208 0.203117
0.200059 0.422266 0.209352
0.232058 0.429399 0.215628
0.264382 0.436605 0.221945
0.297036 0.443885 0.228303
0.330021 0.451238 0.234703
0.363343 0.458665 0.241144
0.397004 0.466165 0.247628
0.431008 0.473739 0.254154
0.465357 0.481387 0.260722
0.500056 0.489108 0.267333
0.535106 0.496903 0.273987
0.570511 0.504773 0.280685
0.606274 0.512716 0.287425
0.642396 0.520733 0.294209
0.122536 0.450766 0.210872
0.154181 0.458061 0.217157
0.186148 0.465432 0.223484
0.218441 0.472876 0.229853
0.251064 0.480396 0.236262
0.284019 0.487991 0.242714
0.317312 0.495660 0.249208
0.350945 0.503404 0.255744
0.384921 0.511222 0.262323
0.419243 0.519116 0.268944
0.453915 0.527084 0.275609
0.488939 0.535128 0.282316
0.524319 0.543246 0.289068
0.560056 0.551439 0.295862
0.596154 0.559708 0.302701
0.632615 0.568051 0.309584
0.669442 0.576470 0.316510
0.139651 0.501944 0.231404
0.171909 0.509631 0.237824
0.204498 0.517394 0.244286
0.237420 0.525232 0.250790
0.270680 0.533147 0.257337
0.304282 0.541137 0.263926
0.338227 0.549203 0.270558
0.372519 0.557345 0.277233
0.407161 0.565563 0.283951
0.442157 0.573857 0.290713
0.477508 0.582227 0.297518
0.513217 0.590673 0.304367
0.549288 0.599195 0.311261
0.585722 0.607793 0.318198
0.622430 0.616372 0.325150
0.656166 0.621682 0.331083
0.689901 0.626992 0.337016
0.157328 0.554883 0.252375
0.190214 0.562969 0.258932
0.223439 0.571131 0.265532
0.257006 0.579370 0.272174
0.290917 0.587686 0.278859
0.325176 0.596079 0.285588
0.359786 0.604549 0.292360
0.394749 0.613096 0.299176
0.430069 0.621720 0.306036
0.465748 0.630422 0.312940
0.501788 0.639200 0.319889
0.537433 0.647087 0.326590
0.571169 0.652397 0.332523
0.604904 0.657707 0.338456
0.638639 0.663017 0.344389
0.672375 0.668327 0.350322
0.706110 0.673637 0.356255
0.175580 0.609617 0.273792
0.209109 0.618108 0.280488
0.242983 0.626676 0.287228
0.277206 0.635323 0.294010
0.311781 0.644048 0.300837
0.346710 0.652850 0.307708
0.381996 0.661731 0.314623
0.417641 0.670689 0.321582
0.452436 0.677802 0.328030
0.486172 0.683112 0.333963
0.519907 0.688422 0.339896
0.553642 0.693732 0.345829
0.587378 0.699042 0.351762
0.621113 0.704352 0.357695
0.654848 0.709662 0.363628
0.688584 0.714973 0.369562
0.722319 0.720283 0.375495
0.194418 0.666178 0.295663
0.228602 0.675081 0.302501
0.263139 0.684062 0.309382
0.298031 0.693122 0.316307
0.333281 0.702262 0.323277
0.367439 0.708517 0.329470
0.401175 0.713827 0.335403
0.434910 0.719137 0.341336
0.468646 0.724447 0.347269
0.502381 0.729757 0.353202
0.536116 0.735067 0.359135
0.569852 0.740377 0.365068
0.603587 0.745687 0.371001
0.637322 0.750997 0.376935
0.671058 0.756308 0.382868
0.704793 0.761618 0.388801
0.738528 0.766928 0.394734
0.000000 0.000000 0.023097
0.000000 0.000000 0.028407
0.007070 0.000000 0.033717
0.035199 0.000000 0.039027
0.063329 0.000000 0.044337
0.091458 0.000000 0.049647
0.119588 0.000000 0.054957
0.147717 0.000000 0.060267
0.175847 0.000000 0.065578
0.203976 0.000000 0.070888
0.232106 0.000000 0.076198
0.260235 0.000000 0.081508
0.288365 0.000868 0.086818
0.316494 0.005244 0.092128
