assets/lighting/day-night-palettes/grade-moonlight-4100k/lut.cube
TITLE "Moonlight 4100K"
# TKRS lighting-batch-001 original LUT
# Intended usage: night exterior moonlight, desaturated cool
# License: CC0-1.0
LUT_3D_SIZE 5
DOMAIN_MIN 0.0 0.0 0.0
DOMAIN_MAX 1.0 1.0 1.0
0.000000 0.000000 0.000000
0.059352 0.000000 0.000000
0.171870 0.000000 0.000000
0.284388 0.000000 0.000000
0.396906 0.014196 0.017228
0.000896 0.097932 0.001142
0.113414 0.115435 0.022383
0.227616 0.133999 0.043814
0.346450 0.154250 0.065766
0.469953 0.175519 0.088238
0.056495 0.259217 0.071171
0.175318 0.282688 0.093774
0.298779 0.307295 0.116943
0.427229 0.333018 0.140703
0.560940 0.359852 0.165080
0.119244 0.446165 0.146562
0.247288 0.475604 0.171092
0.380636 0.506241 0.196264
0.519504 0.538073 0.222095
0.664079 0.571106 0.248602
0.190676 0.660557 0.228466
0.329013 0.696439 0.255139
0.465466 0.721069 0.279611
0.600407 0.742310 0.303343
0.735349 0.763550 0.327076
0.000000 0.000000 0.053374
0.064654 0.000000 0.074614
0.177172 0.000000 0.095855
0.289690 0.002260 0.117095
0.402208 0.019762 0.138335
0.006199 0.103499 0.122250
0.118717 0.121001 0.143490
0.234070 0.140324 0.165920
0.353829 0.160907 0.189180
0.478311 0.182491 0.213104
0.062296 0.266556 0.194926
0.181959 0.290392 0.219010
0.306344 0.315355 0.243753
0.435780 0.341431 0.269165
0.570527 0.368620 0.295259
0.125850 0.455398 0.275435
0.254863 0.485218 0.301696
0.389231 0.516235 0.328653
0.529161 0.548449 0.356318
0.674835 0.581864 0.384702
0.198183 0.671832 0.363140
0.336884 0.706584 0.391195
0.471825 0.727825 0.414927
0.606766 0.749065 0.438660
0.741708 0.770305 0.462392
0.000000 0.000000 0.174482
0.069957 0.000000 0.195722
0.182474 0.000000 0.216963
0.294992 0.007826 0.238203
0.407537 0.025330 0.259454
0.011501 0.109065 0.243358
0.124338 0.126916 0.264999
0.240655 0.146758 0.288769
0.361334 0.167664 0.313439
0.486797 0.189563 0.338882
0.068171 0.274012 0.319545
0.188690 0.298210 0.345170
0.314010 0.323528 0.371538
0.444440 0.349957 0.398643
0.580230 0.377501 0.426488
0.132540 0.464752 0.405333
0.262533 0.494953 0.433358
0.397928 0.526350 0.462130
0.538926 0.558945 0.491656
0.683230 0.590480 0.520751
0.205782 0.683234 0.498936
0.343242 0.713339 0.526511
0.478184 0.734580 0.550243
0.613125 0.755820 0.573976
0.748067 0.777061 0.597708
0.000000 0.000000 0.295590
0.075259 0.000000 0.316830
0.187777 0.000000 0.338070
0.300295 0.013392 0.359311
0.414260 0.031011 0.381337
0.016803 0.114631 0.364466
0.130200 0.133096 0.387249
0.247361 0.153298 0.412417
0.368962 0.174521 0.438576
0.495410 0.196735 0.465598
0.074120 0.281585 0.445058
0.195511 0.306141 0.472281
0.321776 0.331812 0.500318
0.453208 0.358596 0.529153
0.590048 0.386496 0.558783
0.139317 0.474227 0.536272
0.270297 0.504808 0.566094
0.406727 0.536586 0.596710
0.548801 0.569564 0.628123
0.689589 0.597235 0.656067
0.213474 0.694765 0.635867
0.349601 0.720094 0.661827
0.484543 0.741335 0.685559
0.619484 0.762575 0.709292
0.754425 0.783816 0.733024
0.000000 0.000000 0.416698
0.080561 0.000000 0.437938
0.193079 0.001456 0.459178
0.305597 0.018959 0.480419
0.421410 0.036769 0.503987
0.022105 0.120198 0.485574
0.136177 0.139404 0.510258
0.254180 0.159940 0.536908
0.376708 0.181478 0.564623
0.504145 0.204008 0.593275
0.080145 0.289273 0.571494
0.202422 0.314185 0.600364
0.329643 0.340210 0.630111
0.462086 0.367348 0.660713
0.599981 0.395605 0.692159
0.146179 0.483823 0.668268
0.278157 0.514785 0.699917
0.415629 0.546944 0.732405
0.558784 0.580304 0.765729
0.695948 0.603990 0.791383
0.221019 0.705609 0.773411
0.355960 0.726849 0.797143
0.490902 0.748090 0.820876
0.625843 0.769330 0.844608
0.760784 0.790571 0.868340
