assets/lighting/day-night-palettes/grade-moonlight-4100k/lut.cube
TITLE "Moonlight 4100K"
# TKRS lighting-batch-001 original LUT
# Intended usage: night exterior moonlight, desaturated cool
# License: CC0-1.0
LUT_3D_SIZE 9
DOMAIN_MIN 0.0 0.0 0.0
DOMAIN_MAX 1.0 1.0 1.0
0.000000 0.000000 0.000000
0.003093 0.000000 0.000000
0.059352 0.000000 0.000000
0.115611 0.000000 0.000000
0.171870 0.000000 0.000000
0.228129 0.000000 0.000000
0.284388 0.000000 0.000000
0.340647 0.005445 0.006607
0.396906 0.014196 0.017228
0.000000 0.021059 0.000000
0.030124 0.029810 0.000000
0.086383 0.038561 0.000000
0.142642 0.047313 0.000000
0.198901 0.056064 0.009185
0.255160 0.064815 0.019805
0.311419 0.073567 0.030425
0.369787 0.082824 0.041184
0.429541 0.092359 0.052068
0.000896 0.097932 0.001142
0.057155 0.106683 0.011762
0.113414 0.115435 0.022383
0.169848 0.124323 0.033023
0.227616 0.133999 0.043814
0.286473 0.143992 0.054728
0.346450 0.154250 0.065766
0.407595 0.164761 0.076934
0.469953 0.175519 0.088238
0.027994 0.175254 0.035630
0.084964 0.185374 0.046452
0.142857 0.195846 0.057395
0.201775 0.206613 0.068464
0.261793 0.217658 0.079665
0.322967 0.228973 0.091002
0.385347 0.240553 0.102479
0.448971 0.252398 0.114100
0.513878 0.264508 0.125868
0.056495 0.259217 0.071171
0.115353 0.270808 0.082404
0.175318 0.282688 0.093774
0.236445 0.294852 0.105286
0.298779 0.307295 0.116943
0.362362 0.320017 0.128747
0.427229 0.333018 0.140703
0.493411 0.346296 0.152813
0.560940 0.359852 0.165080
0.086850 0.349422 0.108102
0.147875 0.362471 0.119794
0.210116 0.375813 0.131635
0.273612 0.389444 0.143628
0.338397 0.403366 0.155776
0.404503 0.417576 0.168081
0.471958 0.432076 0.180547
0.540789 0.446866 0.193174
0.611020 0.461945 0.205966
0.119244 0.446165 0.146562
0.182617 0.460735 0.158748
0.247288 0.475604 0.171092
0.313285 0.490773 0.183596
0.380636 0.506241 0.196264
0.449368 0.522007 0.209096
0.519504 0.538073 0.222095
0.591067 0.554440 0.235263
0.664079 0.571106 0.248602
0.153816 0.549780 0.186656
0.219676 0.565930 0.199363
0.286898 0.582388 0.212235
0.355506 0.599153 0.225275
0.425523 0.616226 0.238485
0.496971 0.633607 0.251866
0.567989 0.649019 0.264865
0.635460 0.659640 0.276731
0.702931 0.670260 0.288597
0.190676 0.660557 0.228466
0.259137 0.678340 0.241717
0.329013 0.696439 0.255139
0.397995 0.710449 0.267745
0.465466 0.721069 0.279611
0.532937 0.731690 0.291477
0.600407 0.742310 0.303343
0.667878 0.752930 0.315210
0.735349 0.763550 0.327076
0.000000 0.000000 0.000000
0.005744 0.000000 0.003440
0.062003 0.000000 0.014060
0.118262 0.000000 0.024680
0.174521 0.000000 0.035301
0.230780 0.000000 0.045921
0.287039 0.000000 0.056541
0.343298 0.008228 0.067161
0.399557 0.016979 0.077781
0.000000 0.023842 0.027258
0.032775 0.032593 0.037878
0.089034 0.041345 0.048498
0.145293 0.050096 0.059119
0.201552 0.058847 0.069739
0.257811 0.067598 0.080359
0.314520 0.076467 0.091056
0.373292 0.085831 0.102078
0.433322 0.095440 0.113263
0.003548 0.100715 0.061696
0.059806 0.109467 0.072316
0.116065 0.118218 0.082937
0.172816 0.127357 0.093714
0.230825 0.137147 0.104778
0.289911 0.147227 0.116000
0.350123 0.157566 0.127370
0.411510 0.168155 0.138889
0.474116 0.178992 0.150559
0.030713 0.178427 0.096383
0.087851 0.188671 0.107488
0.145936 0.199239 0.118746
0.205063 0.210097 0.130152
0.265302 0.221228 0.141708
0.326707 0.232627 0.153414
0.389326 0.244292 0.165273
0.453198 0.256221 0.177288
0.518358 0.268415 0.189460
0.059386 0.262871 0.132943
0.118447 0.274555 0.144535
0.178628 0.286526 0.156278
0.239980 0.298779 0.168175
0.302549 0.311311 0.180227
0.366374 0.324122 0.192438
0.431490 0.337210 0.204808
0.497929 0.350577 0.217342
0.565719 0.364222 0.230039
0.089934 0.353540 0.171085
0.151182 0.366683 0.183176
0.213656 0.380117 0.195425
0.277391 0.393841 0.207835
0.342424 0.407854 0.220408
0.408783 0.422156 0.233146
0.476497 0.436748 0.246051
0.545592 0.451630 0.259124
0.616092 0.466802 0.272369
0.122536 0.450766 0.210872
0.186148 0.465432 0.223484
0.251064 0.480396 0.236262
0.317312 0.495660 0.249208
0.384921 0.511222 0.262323
0.453915 0.527084 0.275609
0.524319 0.543246 0.289068
0.596154 0.559708 0.302701
0.669442 0.576470 0.316510
0.157328 0.554883 0.252375
0.223439 0.571131 0.265532
0.290917 0.587686 0.278859
0.359786 0.604549 0.292360
0.430069 0.621720 0.306036
0.501788 0.639200 0.319889
0.571169 0.652397 0.332523
0.638639 0.663017 0.344389
0.706110 0.673637 0.356255
0.194418 0.666178 0.295663
0.263139 0.684062 0.309382
0.333281 0.702262 0.323277
0.401175 0.713827 0.335403
0.468646 0.724447 0.347269
0.536116 0.735067 0.359135
0.603587 0.745687 0.371001
0.671058 0.756308 0.382868
0.738528 0.766928 0.394734
0.000000 0.000000 0.053374
0.008395 0.000000 0.063994
0.064654 0.000000 0.074614
0.120913 0.000000 0.085234
0.177172 0.000000 0.095855
0.233431 0.000000 0.106475
0.289690 0.002260 0.117095
0.345949 0.011011 0.127715
0.402208 0.019762 0.138335
0.000000 0.026625 0.087812
0.035427 0.035377 0.098432
0.091685 0.044128 0.109052
0.147944 0.052879 0.119673
0.204203 0.061630 0.130293
0.260462 0.070382 0.140913
0.317773 0.079415 0.151829
0.376852 0.088862 0.163144
0.437148 0.098544 0.174648
0.006199 0.103499 0.122250
0.062458 0.112250 0.132870
0.118717 0.121001 0.143490
0.175834 0.130435 0.154556
0.234070 0.140324 0.165920
0.293383 0.150488 0.177466
0.353829 0.160907 0.189180
0.415457 0.171575 0.201060
0.478311 0.182491 0.213104
0.033449 0.181645 0.157296
0.090759 0.191999 0.168706
0.149038 0.202662 0.180294
0.208376 0.213607 0.192049
0.268837 0.224824 0.203968
0.330475 0.236308 0.216052
0.393333 0.248057 0.228301
0.457453 0.260070 0.240715
0.522867 0.272348 0.253296
0.062296 0.266556 0.194926
0.121562 0.278331 0.206886
0.181959 0.290392 0.219010
0.243539 0.302734 0.231298
0.306344 0.315355 0.243753
0.370413 0.328254 0.256375
0.435780 0.341431 0.269165
0.502475 0.354886 0.282126
0.570527 0.368620 0.295259
0.093038 0.357688 0.234306
0.154511 0.370924 0.246801
0.217218 0.384450 0.259463
0.281195 0.398266 0.272295
0.346475 0.412371 0.285298
0.413089 0.426766 0.298472
0.481062 0.441450 0.311820
0.550423 0.456424 0.325344
0.621193 0.471689 0.339044
0.125850 0.455398 0.275435
0.189701 0.470158 0.288479
0.254863 0.485218 0.301696
0.321364 0.500577 0.315086
0.389231 0.516235 0.328653
0.458489 0.532192 0.342396
0.529161 0.548449 0.356318
0.601269 0.565006 0.370419
0.674835 0.581864 0.384702
0.160862 0.560017 0.318363
0.227225 0.576363 0.331972
0.294960 0.593016 0.345758
0.364091 0.609977 0.359723
0.434641 0.627246 0.373869
0.506632 0.644823 0.388196
0.574348 0.655775 0.400181
0.641819 0.666395 0.412047
0.709290 0.677015 0.423913
0.198183 0.671832 0.363140
0.267166 0.689816 0.377329
0.336884 0.706584 0.391195
0.404354 0.717204 0.403061
0.471825 0.727825 0.414927
0.539296 0.738445 0.426793
0.606766 0.749065 0.438660
0.674237 0.759685 0.450526
0.741708 0.770305 0.462392
0.000000 0.000000 0.113928
0.011047 0.000000 0.124548
0.067305 0.000000 0.135168
0.123564 0.000000 0.145788
0.179823 0.000000 0.156409
0.236082 0.000000 0.167029
0.292341 0.005043 0.177649
0.348600 0.013794 0.188269
0.404859 0.022545 0.198889
0.000000 0.029408 0.148366
0.038078 0.038160 0.158986
0.094337 0.046911 0.169606
0.150595 0.055662 0.180226
0.206854 0.064414 0.190847
0.263113 0.073165 0.201467
0.321103 0.082392 0.212764
0.380460 0.091916 0.224393
0.441016 0.101670 0.236230
0.008850 0.106282 0.182804
0.065109 0.115033 0.193424
0.121464 0.123890 0.204140
0.178892 0.133547 0.215565
0.237347 0.143528 0.227248
0.296886 0.153774 0.239132
0.357566 0.164273 0.251202
0.419436 0.175020 0.263451
0.482538 0.186014 0.275878
0.036200 0.184901 0.218380
0.093687 0.195359 0.230114
0.152164 0.206113 0.242044
0.211713 0.217146 0.254158
0.272398 0.228448 0.266451
0.334269 0.240016 0.278920
0.397369 0.251849 0.291565
0.461737 0.263946 0.304384
0.527407 0.276308 0.317380
0.065224 0.270269 0.257126
0.124697 0.282136 0.269461
0.185314 0.294287 0.281973
0.247122 0.306718 0.294660
0.310165 0.319427 0.307522
0.374478 0.332415 0.320561
0.440096 0.345680 0.333776
0.507049 0.359224 0.347169
0.575364 0.373047 0.360741
0.096162 0.361866 0.297765
0.157862 0.375194 0.310670
0.220804 0.388812 0.323752
0.285023 0.402720 0.337010
0.350552 0.416918 0.350447
0.417421 0.431404 0.364062
0.485655 0.446180 0.377858
0.555282 0.461247 0.391835
0.626323 0.476605 0.405994
0.129184 0.460060 0.340255
0.193277 0.474915 0.353735
0.258686 0.490070 0.367394
0.325441 0.505524 0.381233
0.393567 0.521277 0.395254
0.463089 0.537329 0.409458
0.534030 0.553682 0.423846
0.606412 0.570335 0.438420
0.680051 0.587102 0.453093
0.164419 0.565182 0.384619
0.231034 0.581626 0.398685
0.299027 0.598377 0.412933
0.368421 0.615436 0.427366
0.439239 0.632803 0.441985
0.510057 0.648532 0.455973
0.577528 0.659152 0.467839
0.644998 0.669772 0.479705
0.712469 0.680393 0.491572
0.201971 0.677517 0.430897
0.271216 0.695602 0.445561
0.340063 0.709962 0.458853
0.407534 0.720582 0.470719
0.475004 0.731202 0.482585
0.542475 0.741822 0.494451
0.609946 0.752443 0.506318
0.677416 0.763063 0.518184
0.744887 0.773683 0.530050
0.000000 0.000000 0.174482
0.013698 0.000000 0.185102
0.069957 0.000000 0.195722
0.126216 0.000000 0.206342
0.182474 0.000000 0.216963
0.238733 0.000000 0.227583
0.294992 0.007826 0.238203
0.351251 0.016577 0.248823
0.407537 0.025330 0.259454
0.000000 0.032192 0.208920
0.040729 0.040943 0.219540
0.096988 0.049694 0.230160
0.153247 0.058445 0.240780
0.209506 0.067197 0.251401
0.266079 0.076044 0.262203
0.324492 0.085395 0.273872
0.384112 0.094994 0.285831
0.444924 0.104819 0.298015
0.011501 0.109065 0.243358
0.067760 0.117816 0.253978
0.124338 0.126916 0.264999
0.181983 0.136691 0.276752
0.240655 0.146758 0.288769
0.300420 0.157086 0.301004
0.361334 0.167664 0.313439
0.423446 0.178490 0.326067
0.486797 0.189563 0.338882
0.038968 0.188193 0.279647
0.096635 0.198748 0.291719
0.155312 0.209592 0.304004
0.215075 0.220711 0.316486
0.275985 0.232098 0.329160
0.338090 0.243751 0.342021
0.401433 0.255668 0.355068
0.466050 0.267849 0.368299
0.531976 0.280296 0.381714
0.068171 0.274012 0.319545
0.127853 0.285970 0.332264
0.188690 0.298210 0.345170
0.250729 0.310730 0.358262
0.314010 0.323528 0.371538
0.378569 0.336603 0.384998
0.444440 0.349957 0.398643
0.511651 0.363590 0.412473
0.580230 0.377501 0.426488
0.099307 0.366073 0.361467
0.161234 0.379494 0.374788
0.224412 0.393204 0.388293
0.288875 0.407204 0.401982
0.354654 0.421493 0.415857
0.421779 0.436072 0.429918
0.490275 0.450940 0.444164
0.560168 0.466099 0.458599
0.631481 0.481550 0.473221
0.132540 0.464752 0.405333
0.196875 0.479703 0.419252
0.262533 0.494953 0.433358
0.329542 0.510501 0.447650
0.397928 0.526350 0.462130
0.467715 0.542497 0.476798
0.538926 0.558945 0.491656
0.611583 0.575694 0.506704
0.683230 0.590480 0.520751
0.167998 0.570378 0.451147
0.234866 0.586920 0.465673
0.303118 0.603769 0.480387
0.372776 0.620925 0.495291
0.443863 0.638391 0.510385
0.513236 0.651910 0.523631
0.580707 0.662530 0.535497
0.648178 0.673150 0.547363
0.715648 0.683770 0.559230
0.205782 0.683234 0.498936
0.275290 0.701419 0.514077
0.343242 0.713339 0.526511
0.410713 0.723959 0.538377
0.478184 0.734580 0.550243
0.545654 0.745200 0.562109
0.613125 0.755820 0.573976
0.680596 0.766440 0.585842
0.748067 0.777061 0.597708
0.000000 0.000000 0.235036
0.016349 0.000000 0.245656
0.072608 0.000000 0.256276
0.128867 0.000000 0.266896
0.185126 0.000000 0.277516
0.241384 0.001858 0.288137
0.297643 0.010609 0.298757
0.353902 0.019361 0.309377
0.410815 0.028160 0.320298
0.000000 0.034975 0.269474
0.043380 0.043726 0.280094
0.099639 0.052477 0.290714
0.155898 0.061229 0.301334
0.212157 0.069980 0.311955
0.269230 0.078987 0.323151
0.327931 0.088423 0.335163
0.387806 0.098094 0.347467
0.448871 0.107990 0.360009
0.014152 0.111848 0.303912
0.070411 0.120599 0.314532
0.127253 0.129988 0.326033
0.185106 0.139863 0.338125
0.243994 0.150015 0.350490
0.303984 0.160423 0.363086
0.365133 0.171080 0.375896
0.427487 0.181984 0.388909
0.491088 0.193136 0.402122
0.041752 0.191517 0.341103
0.099603 0.202166 0.353527
0.158482 0.213099 0.366176
0.218462 0.224304 0.379036
0.279598 0.235775 0.392098
0.341938 0.247512 0.405358
0.405524 0.259513 0.418813
0.470392 0.271779 0.432461
0.536574 0.284310 0.446301
0.071136 0.277785 0.382187
0.131030 0.289832 0.395298
0.192089 0.302162 0.408605
0.254360 0.314770 0.422107
0.317880 0.327656 0.435802
0.382687 0.340820 0.449689
0.448810 0.354262 0.463768
0.516281 0.367984 0.478039
0.585124 0.381985 0.492501
0.102471 0.370310 0.425413
0.164628 0.383823 0.439155
0.228044 0.397625 0.453088
0.292751 0.411717 0.467214
0.358782 0.426098 0.481531
0.426163 0.440769 0.496041
0.494922 0.455730 0.510742
0.565083 0.470982 0.525637
0.636668 0.486525 0.540726
0.135918 0.469474 0.470671
0.200496 0.484520 0.485035
0.266403 0.499865 0.499591
0.333668 0.515509 0.514340
0.402315 0.531453 0.529282
0.472368 0.547696 0.544417
0.543850 0.564239 0.559748
0.616781 0.581084 0.575273
0.686410 0.593857 0.588409
0.171599 0.575606 0.517948
0.238722 0.592245 0.532937
0.307234 0.609192 0.548120
0.377157 0.626446 0.563498
0.448513 0.644010 0.579071
0.516416 0.655287 0.591289
0.583887 0.665907 0.603155
0.651357 0.676528 0.615021
0.718828 0.687148 0.626888
0.209616 0.688983 0.567259
0.278951 0.706097 0.582303
0.346422 0.716717 0.594169
0.413893 0.727337 0.606035
0.481363 0.737957 0.617901
0.548834 0.748577 0.629768
0.616305 0.759198 0.641634
0.683775 0.769818 0.653500
0.751246 0.780438 0.665366
0.000000 0.000000 0.295590
0.019000 0.000000 0.306210
0.075259 0.000000 0.316830
0.131518 0.000000 0.327450
0.187777 0.000000 0.338070
0.244036 0.004641 0.348691
0.300295 0.013392 0.359311
0.356553 0.022144 0.369931
0.414260 0.031011 0.381337
0.000000 0.037758 0.330028
0.046031 0.046509 0.340648
0.102290 0.055261 0.351268
0.158549 0.064012 0.361888
0.214808 0.072763 0.372509
0.272451 0.081961 0.384281
0.331415 0.091474 0.396645
0.391539 0.101217 0.409306
0.452854 0.111184 0.422216
0.016803 0.114631 0.364466
0.073104 0.123458 0.375212
0.130200 0.133096 0.387249
0.188257 0.143063 0.399693
0.247361 0.153298 0.412417
0.307578 0.163785 0.425384
0.368962 0.174521 0.438576
0.431559 0.185504 0.451983
0.495410 0.196735 0.465598
0.044553 0.194872 0.402757
0.102592 0.205613 0.415543
0.161676 0.216633 0.428566
0.221872 0.227923 0.441811
0.283236 0.239479 0.455268
0.345813 0.251300 0.468933
0.409644 0.263385 0.482802
0.474763 0.275735 0.496872
0.541202 0.288351 0.511143
0.074120 0.281585 0.445058
0.134227 0.293723 0.458566
0.195511 0.306141 0.472281
0.258015 0.318838 0.486199
0.321776 0.331812 0.500318
0.386830 0.345065 0.514636
0.453208 0.358596 0.529153
0.520939 0.372406 0.543869
0.590048 0.386496 0.558783
0.105656 0.374576 0.489607
0.168044 0.388181 0.503774
0.231698 0.402076 0.518141
0.296652 0.416260 0.532707
0.362934 0.430733 0.547471
0.430574 0.445496 0.562433
0.499596 0.460549 0.577593
0.570025 0.475893 0.592952
0.641883 0.491529 0.608511
0.139317 0.474227 0.536272
0.204139 0.489368 0.551084
0.270297 0.504808 0.566094
0.337818 0.520547 0.581303
0.406727 0.536586 0.596710
0.477047 0.552925 0.612317
0.548801 0.569564 0.628123
0.622008 0.586504 0.644129
0.689589 0.597235 0.656067
0.175223 0.580864 0.585024
0.242601 0.597601 0.600479
0.311374 0.614646 0.616134
0.381562 0.631999 0.631989
0.452125 0.648044 0.647081
0.519595 0.658665 0.658947
0.587066 0.669285 0.670813
0.654537 0.679905 0.682680
0.722007 0.690525 0.694546
0.213474 0.694765 0.635867
0.282131 0.709474 0.649961
0.349601 0.720094 0.661827
0.417072 0.730715 0.673693
0.484543 0.741335 0.685559
0.552013 0.751955 0.697426
0.619484 0.762575 0.709292
0.686955 0.773195 0.721158
0.754425 0.783816 0.733024
0.000000 0.000000 0.356144
0.021651 0.000000 0.366764
0.077910 0.000000 0.377384
0.134169 0.000000 0.388004
0.190428 0.000000 0.398624
0.246687 0.007424 0.409245
0.302946 0.016176 0.419865
0.359205 0.024927 0.430485
0.417799 0.033881 0.442565
0.000000 0.040541 0.390582
0.048682 0.049292 0.401202
0.104941 0.058044 0.411822
0.161200 0.066795 0.422442
0.217664 0.075623 0.433303
0.275725 0.084960 0.445599
0.334939 0.094548 0.458325
0.395309 0.104363 0.471353
0.456874 0.114401 0.484641
0.019454 0.117414 0.425020
0.075887 0.126476 0.436229
0.133175 0.136235 0.448656
0.191437 0.146290 0.461461
0.250757 0.156606 0.474555
0.311200 0.167173 0.487902
0.372820 0.177987 0.501484
0.435661 0.189049 0.515291
0.499762 0.200359 0.529315
0.047371 0.198257 0.464614
0.105601 0.209088 0.477772
0.164891 0.220195 0.491177
0.225307 0.231570 0.504815
0.286900 0.243210 0.518675
0.349715 0.255115 0.532751
0.413790 0.267284 0.547039
0.479161 0.279718 0.561537
0.545859 0.292419 0.576241
0.077123 0.285415 0.508159
0.137446 0.297642 0.522071
0.198955 0.310149 0.536199
0.261693 0.322934 0.550539
0.325697 0.335997 0.565086
0.391000 0.349338 0.579841
0.457633 0.362958 0.594801
0.525625 0.376857 0.609966
0.595000 0.391036 0.625335
0.108861 0.378871 0.554050
0.171482 0.392568 0.568648
0.235376 0.406555 0.583453
0.300577 0.420831 0.598463
0.367112 0.435396 0.613677
0.435011 0.450252 0.629096
0.504297 0.465397 0.644719
0.574995 0.480834 0.660545
0.647127 0.496563 0.676576
0.142737 0.479010 0.602136
0.207805 0.494246 0.617401
0.274215 0.509781 0.632869
0.341994 0.525616 0.648541
0.411165 0.541750 0.664417
0.481753 0.558184 0.680498
0.553778 0.574919 0.696783
0.625298 0.589992 0.711859
0.692769 0.600613 0.723725
0.178869 0.586154 0.652375
0.246504 0.602988 0.668301
0.315538 0.620131 0.684431
0.385993 0.637582 0.700766
0.455304 0.651422 0.714739
0.522775 0.662042 0.726605
0.590245 0.672662 0.738471
0.657716 0.683283 0.750338
0.725187 0.693903 0.762204
0.217355 0.700577 0.704761
0.285310 0.712852 0.717619
0.352781 0.723472 0.729485
0.420251 0.734092 0.741351
0.487722 0.744712 0.753218
0.555193 0.755333 0.765084
0.622663 0.765953 0.776950
0.690134 0.776573 0.788816
0.757605 0.787193 0.800682
0.000000 0.000000 0.416698
0.024302 0.000000 0.427318
0.080561 0.000000 0.437938
0.136820 0.000000 0.448558
0.193079 0.001456 0.459178
0.249338 0.010207 0.469799
0.305597 0.018959 0.480419
0.362341 0.027750 0.491427
0.421410 0.036769 0.503987
0.000000 0.043324 0.451136
0.051333 0.052076 0.461756
0.107592 0.060827 0.472376
0.163851 0.069578 0.482996
0.220715 0.078560 0.494416
0.279045 0.087984 0.507111
0.338501 0.097645 0.520209
0.399115 0.107531 0.533614
0.460929 0.117641 0.547287
0.022105 0.120198 0.485574
0.078701 0.129543 0.497449
0.136177 0.139404 0.510258
0.194643 0.149544 0.523436
0.254180 0.159940 0.536908
0.314851 0.170585 0.550643
0.376708 0.181478 0.564623
0.439793 0.192619 0.578836
0.504145 0.204008 0.593275
0.050207 0.201671 0.526680
0.108630 0.212591 0.540219
0.168129 0.223783 0.554014
0.228765 0.235243 0.568052
0.290589 0.246967 0.582320
0.353643 0.258956 0.596813
0.417965 0.271210 0.611526
0.483589 0.283729 0.626455
0.550546 0.296514 0.641599
0.080145 0.289273 0.571494
0.140686 0.301589 0.585817
0.202422 0.314185 0.600364
0.265396 0.327058 0.615130
0.329643 0.340210 0.630111
0.395196 0.353639 0.645306
0.462086 0.367348 0.660713
0.530339 0.381336 0.676331
0.599981 0.395605 0.692159
0.112087 0.383196 0.618746
0.174942 0.396985 0.633779
0.239077 0.411064 0.649026
0.304526 0.425432 0.664484
0.371316 0.440089 0.680153
0.439474 0.455037 0.696032
0.509025 0.470275 0.712120
0.579993 0.485805 0.728418
0.652399 0.501627 0.744924
0.146179 0.483823 0.668268
0.211494 0.499154 0.683987
0.278157 0.514785 0.699917
0.346194 0.530714 0.716056
0.415629 0.546944 0.732405
0.486485 0.563473 0.748962
0.558784 0.580304 0.765729
0.628478 0.593370 0.779517
0.695948 0.603990 0.791383
0.182538 0.591474 0.720005
0.250431 0.608407 0.736404
0.319727 0.625648 0.753012
0.390450 0.643197 0.769830
0.458484 0.654800 0.782397
0.525954 0.665420 0.794263
0.593425 0.676040 0.806130
0.660896 0.686660 0.817996
0.728366 0.697280 0.829862
0.221019 0.705609 0.773411
0.288490 0.716229 0.785277
0.355960 0.726849 0.797143
0.423431 0.737470 0.809009
0.490902 0.748090 0.820876
0.558372 0.758710 0.832742
0.625843 0.769330 0.844608
0.693314 0.779951 0.856474
0.760784 0.790571 0.868340
