assets/lighting/cinematic/grade-warehouse-sodium/lut.cube
TITLE "Warehouse Sodium"
# TKRS lighting-batch-001 original LUT
# Intended usage: industrial high-pressure sodium amber
# License: CC0-1.0
LUT_3D_SIZE 5
DOMAIN_MIN 0.0 0.0 0.0
DOMAIN_MAX 1.0 1.0 1.0
0.000000 0.000000 0.000000
0.138435 0.000000 0.000000
0.328479 0.000000 0.000000
0.518522 0.000000 0.000000
0.708566 0.000000 0.000000
0.000000 0.089335 0.000000
0.143710 0.091339 0.000000
0.333780 0.093348 0.000000
0.535954 0.097110 0.000000
0.751701 0.101468 0.000000
0.000000 0.229721 0.000000
0.154625 0.236776 0.000000
0.362596 0.244695 0.000000
0.584019 0.253216 0.000000
0.819958 0.262230 0.000000
0.000000 0.391659 0.000000
0.173095 0.404214 0.000000
0.399173 0.417420 0.000000
0.640224 0.431198 0.000000
0.896967 0.445492 0.000000
0.000000 0.576875 0.000000
0.194369 0.595123 0.000000
0.440138 0.613998 0.000000
0.701969 0.633451 0.000000
0.980412 0.653443 0.000000
0.000000 0.000000 0.037634
0.138788 0.000000 0.039537
0.328831 0.000000 0.041441
0.518875 0.000000 0.043344
0.708918 0.000000 0.045247
0.000000 0.089671 0.042408
0.144062 0.091675 0.044311
0.335064 0.093892 0.046253
0.538780 0.097812 0.048513
0.755899 0.102235 0.050882
0.000000 0.230820 0.047384
0.155750 0.238055 0.049706
0.364872 0.246087 0.052117
0.587571 0.254696 0.054603
0.824873 0.263786 0.057160
0.000000 0.393715 0.053371
0.174439 0.406387 0.055894
0.401790 0.419693 0.058486
0.644197 0.433561 0.061145
0.902363 0.447938 0.063870
0.000000 0.579890 0.059828
0.195877 0.598248 0.062521
0.443010 0.617222 0.065280
0.706268 0.636768 0.068105
0.986192 0.656847 0.070995
0.000000 0.000000 0.121978
0.139141 0.000000 0.123881
0.329184 0.000000 0.125784
0.519228 0.000000 0.127688
0.709271 0.000000 0.129591
0.000000 0.090007 0.126752
0.144415 0.092011 0.128655
0.336596 0.094493 0.130804
0.541682 0.098526 0.133740
0.760160 0.103013 0.136892
0.000000 0.231959 0.132260
0.156893 0.239356 0.135321
0.367177 0.247494 0.138553
0.591155 0.256189 0.141920
0.829825 0.265354 0.145404
0.000000 0.395792 0.140248
0.175795 0.408577 0.143676
0.404425 0.421982 0.147215
0.648193 0.435938 0.150857
0.907787 0.450396 0.154596
0.000000 0.582924 0.149053
0.197396 0.601389 0.152745
0.445898 0.620462 0.156532
0.710587 0.640100 0.160411
0.990331 0.659332 0.164279
0.000000 0.000000 0.206322
0.139493 0.000000 0.208225
0.329537 0.000000 0.210128
0.519580 0.000000 0.212032
0.709646 0.000000 0.213937
0.000000 0.090344 0.211095
0.144768 0.092347 0.212999
0.338256 0.095124 0.215554
0.544652 0.099253 0.219215
0.764482 0.103799 0.223178
0.000000 0.233133 0.217365
0.158054 0.240676 0.221199
0.369508 0.248917 0.225275
0.594772 0.257696 0.229540
0.834814 0.266933 0.233964
0.000000 0.397890 0.227421
0.177163 0.410785 0.231769
0.407079 0.424287 0.236268
0.652213 0.438330 0.240903
0.913239 0.452868 0.245665
0.000000 0.585977 0.238607
0.198924 0.604547 0.243307
0.448801 0.623718 0.248132
0.714925 0.643446 0.253073
0.990809 0.659763 0.257468
0.000000 0.000000 0.290665
0.139846 0.000000 0.292569
0.329890 0.000000 0.294472
0.519933 0.000000 0.296376
0.711947 0.000000 0.298523
0.000000 0.090680 0.295439
0.145121 0.092683 0.297343
0.340009 0.095778 0.300520
0.547683 0.099990 0.304946
0.768860 0.104594 0.309745
0.000000 0.234337 0.302711
0.159233 0.242016 0.307347
0.371865 0.250355 0.312289
0.598420 0.259215 0.317467
0.839837 0.268523 0.322845
0.000000 0.400007 0.314893
0.178542 0.413009 0.320176
0.409751 0.426606 0.325646
0.656256 0.440735 0.331286
0.918718 0.455353 0.337081
0.000000 0.589048 0.328492
0.200463 0.607723 0.334212
0.451719 0.626990 0.340082
0.719283 0.646808 0.346094
0.991287 0.660195 0.350657
