assets/lighting/cinematic/grade-warehouse-sodium/lut.cube
TITLE "Warehouse Sodium"
# TKRS lighting-batch-001 original LUT
# Intended usage: industrial high-pressure sodium amber
# License: CC0-1.0
LUT_3D_SIZE 9
DOMAIN_MIN 0.0 0.0 0.0
DOMAIN_MAX 1.0 1.0 1.0
0.000000 0.000000 0.000000
0.043413 0.000000 0.000000
0.138435 0.000000 0.000000
0.233457 0.000000 0.000000
0.328479 0.000000 0.000000
0.423500 0.000000 0.000000
0.518522 0.000000 0.000000
0.613544 0.000000 0.000000
0.708566 0.000000 0.000000
0.000000 0.020088 0.000000
0.046051 0.021090 0.000000
0.141072 0.022091 0.000000
0.236094 0.023093 0.000000
0.331116 0.024094 0.000000
0.426138 0.025096 0.000000
0.521159 0.026098 0.000000
0.618925 0.027195 0.000000
0.722857 0.028468 0.000000
0.000000 0.089335 0.000000
0.048688 0.090337 0.000000
0.143710 0.091339 0.000000
0.238731 0.092340 0.000000
0.333780 0.093348 0.000000
0.433153 0.095112 0.000000
0.535954 0.097110 0.000000
0.642099 0.099238 0.000000
0.751701 0.101468 0.000000
0.000000 0.158583 0.000000
0.051325 0.159584 0.000000
0.147023 0.161178 0.000000
0.245375 0.163727 0.000000
0.346613 0.166531 0.000000
0.450974 0.169509 0.000000
0.558644 0.172627 0.000000
0.669772 0.175866 0.000000
0.784486 0.179212 0.000000
0.000000 0.229721 0.000000
0.055227 0.233110 0.000000
0.154625 0.236776 0.000000
0.257010 0.240650 0.000000
0.362596 0.244695 0.000000
0.471552 0.248889 0.000000
0.584019 0.253216 0.000000
0.700119 0.257666 0.000000
0.819958 0.262230 0.000000
0.000000 0.307885 0.000000
0.060077 0.312693 0.000000
0.163451 0.317698 0.000000
0.270124 0.322876 0.000000
0.380247 0.328211 0.000000
0.493945 0.333688 0.000000
0.611332 0.339300 0.000000
0.732506 0.345037 0.000000
0.857559 0.350893 0.000000
0.000000 0.391659 0.000000
0.065406 0.397849 0.000000
0.173095 0.404214 0.000000
0.284313 0.410742 0.000000
0.399173 0.417420 0.000000
0.517779 0.424242 0.000000
0.640224 0.431198 0.000000
0.766594 0.438283 0.000000
0.896967 0.445492 0.000000
0.000000 0.481244 0.000000
0.071158 0.488842 0.000000
0.183424 0.496607 0.000000
0.299399 0.504531 0.000000
0.419177 0.512604 0.000000
0.542845 0.520820 0.000000
0.670484 0.529174 0.000000
0.802169 0.537659 0.000000
0.937968 0.546272 0.000000
0.000000 0.576875 0.000000
0.077314 0.585917 0.000000
0.194369 0.595123 0.000000
0.315283 0.604486 0.000000
0.440138 0.613998 0.000000
0.569010 0.623655 0.000000
0.701969 0.633451 0.000000
0.839082 0.643381 0.000000
0.980412 0.653443 0.000000
0.000000 0.000000 0.000000
0.043590 0.000000 0.000000
0.138612 0.000000 0.000000
0.233633 0.000000 0.000000
0.328655 0.000000 0.000000
0.423677 0.000000 0.000220
0.518699 0.000000 0.001172
0.613720 0.000000 0.002124
0.708742 0.000000 0.003075
0.000000 0.020256 0.000000
0.046227 0.021258 0.000000
0.141249 0.022259 0.000000
0.236270 0.023261 0.000704
0.331292 0.024262 0.001656
0.426314 0.025264 0.002607
0.521336 0.026266 0.003559
0.620219 0.027403 0.004519
0.724607 0.028688 0.005492
0.000000 0.089503 0.000236
0.048864 0.090505 0.001187
0.143886 0.091507 0.002139
0.238908 0.092508 0.003091
0.334372 0.093609 0.004044
0.434211 0.095436 0.005012
0.537357 0.097459 0.005991
0.643844 0.099606 0.006979
0.753792 0.101850 0.007978
0.000000 0.158751 0.002623
0.051501 0.159752 0.003574
0.147467 0.161581 0.004535
0.246088 0.164183 0.005508
0.347615 0.167020 0.006492
0.452281 0.170023 0.007485
0.560269 0.173162 0.008490
0.671728 0.176420 0.009505
0.786783 0.179784 0.010531
0.000000 0.230265 0.005028
0.055534 0.233708 0.006007
0.155185 0.237413 0.006995
0.257848 0.241318 0.007994
0.363731 0.245389 0.009004
0.472999 0.249606 0.010025
0.585791 0.253955 0.011057
0.702226 0.258424 0.012101
0.822411 0.263007 0.013156
0.000000 0.308676 0.007501
0.060420 0.313520 0.008506
0.164072 0.318555 0.009521
0.271043 0.323761 0.010548
0.381476 0.329120 0.011586
0.495497 0.334621 0.012636
0.613218 0.340254 0.013697
0.734736 0.346011 0.014771
0.860141 0.351887 0.015857
0.000000 0.392685 0.010042
0.065778 0.398905 0.011074
0.173766 0.405298 0.012118
0.285295 0.411852 0.013173
0.400479 0.418555 0.014241
0.519419 0.425399 0.015321
0.642207 0.432378 0.016413
0.768929 0.439484 0.017518
0.899661 0.446713 0.018635
0.000000 0.482506 0.012653
0.071558 0.490133 0.013714
0.184138 0.497926 0.014788
0.300437 0.505875 0.015874
0.420550 0.513973 0.016973
0.544562 0.522212 0.018084
0.672553 0.530588 0.019208
0.804597 0.539095 0.020345
0.940763 0.547729 0.021495
0.000000 0.578380 0.015338
0.077740 0.587450 0.016431
0.195122 0.596683 0.017536
0.316372 0.606071 0.018654
0.441573 0.615608 0.019784
0.570797 0.625288 0.020928
0.704116 0.635107 0.022085
0.841596 0.645060 0.023255
0.983299 0.655143 0.024439
0.000000 0.000000 0.037634
0.043766 0.000000 0.038586
0.138788 0.000000 0.039537
0.233810 0.000000 0.040489
0.328831 0.000000 0.041441
0.423853 0.000000 0.042392
0.518875 0.000000 0.043344
0.613897 0.000000 0.044296
0.708918 0.000000 0.045247
0.000000 0.020424 0.040021
0.046403 0.021426 0.040972
0.141425 0.022427 0.041924
0.236447 0.023429 0.042876
0.331469 0.024430 0.043828
0.426490 0.025432 0.044779
0.521512 0.026434 0.045731
0.621571 0.027614 0.046795
0.726390 0.028910 0.047927
0.000000 0.089671 0.042408
0.049041 0.090673 0.043359
0.144062 0.091675 0.044311
0.239084 0.092676 0.045263
0.335064 0.093892 0.046253
0.435295 0.095765 0.047366
0.538780 0.097812 0.048513
0.645606 0.099976 0.049687
0.755899 0.102235 0.050882
0.000000 0.158919 0.044795
0.051678 0.159920 0.045746
0.147926 0.161995 0.046813
0.246814 0.164645 0.047945
0.348628 0.167513 0.049107
0.453599 0.170541 0.050291
0.561906 0.173701 0.051497
0.673695 0.176977 0.052721
0.789092 0.180358 0.053965
0.000000 0.230820 0.047384
0.055844 0.234314 0.048532
0.155750 0.238055 0.049706
0.258692 0.241990 0.050901
0.364872 0.246087 0.052117
0.474453 0.250327 0.053351
0.587571 0.254696 0.054603
0.704342 0.259185 0.055873
0.824873 0.263786 0.057160
0.000000 0.309474 0.050311
0.060764 0.314352 0.051516
0.164697 0.319417 0.052741
0.271965 0.324649 0.053985
0.382710 0.330033 0.055246
0.497056 0.335557 0.056525
0.615111 0.341211 0.057821
0.736973 0.346988 0.059133
0.862732 0.352883 0.060463
0.000000 0.393715 0.053371
0.066151 0.399965 0.054624
0.174439 0.406387 0.055894
0.286281 0.412966 0.057181
0.401790 0.419693 0.058486
0.521064 0.426561 0.059807
0.644197 0.433561 0.061145
0.771270 0.440688 0.062499
0.902363 0.447938 0.063870
0.000000 0.483774 0.056546
0.071959 0.491429 0.057842
0.184854 0.499248 0.059155
0.301479 0.507223 0.060484
0.421927 0.515345 0.061831
0.546284 0.523608 0.063194
0.674628 0.532006 0.064573
0.807032 0.540535 0.065969
0.943565 0.549190 0.067381
0.000000 0.579890 0.059828
0.078168 0.588988 0.061166
0.195877 0.598248 0.062521
0.317465 0.607661 0.063892
0.443010 0.617222 0.065280
0.572588 0.626926 0.066684
0.706268 0.636768 0.068105
0.844116 0.646743 0.069542
0.986192 0.656847 0.070995
0.000000 0.000000 0.079806
0.043943 0.000000 0.080758
0.138964 0.000000 0.081709
0.233986 0.000000 0.082661
0.329008 0.000000 0.083613
0.424030 0.000000 0.084564
0.519051 0.000000 0.085516
0.614073 0.000000 0.086468
0.709095 0.000000 0.087419
0.000000 0.020592 0.082193
0.046580 0.021594 0.083144
0.141601 0.022595 0.084096
0.236623 0.023597 0.085048
0.331645 0.024598 0.085999
0.426667 0.025600 0.086951
0.521717 0.026603 0.087904
0.622971 0.027827 0.089120
0.728203 0.029133 0.090418
0.000000 0.089839 0.084580
0.049217 0.090841 0.085531
0.144239 0.091843 0.086483
0.239260 0.092844 0.087435
0.335811 0.094188 0.088505
0.436402 0.096099 0.089773
0.540222 0.098168 0.091096
0.647385 0.100349 0.092458
0.758022 0.102623 0.093853
0.000000 0.159087 0.086967
0.051862 0.160107 0.087922
0.148396 0.162420 0.089141
0.247550 0.165113 0.090440
0.349652 0.168011 0.091784
0.454928 0.171062 0.093163
0.563554 0.174243 0.094573
0.675674 0.177537 0.096009
0.791412 0.180935 0.097472
0.000000 0.231385 0.089794
0.056156 0.234926 0.091118
0.156319 0.238703 0.092481
0.259542 0.242666 0.093876
0.366021 0.246788 0.095299
0.475915 0.251051 0.096749
0.589359 0.255441 0.098224
0.706467 0.259949 0.099722
0.827345 0.264568 0.101243
0.000000 0.310278 0.093186
0.061111 0.315189 0.094596
0.165326 0.320284 0.096033
0.272893 0.325542 0.097496
0.383950 0.330950 0.098982
0.498620 0.336496 0.100492
0.617011 0.342172 0.102024
0.739218 0.347969 0.103577
0.865330 0.353883 0.105151
0.000000 0.394751 0.096773
0.066527 0.401031 0.098248
0.175116 0.407479 0.099746
0.287272 0.414084 0.101267
0.403105 0.420836 0.102810
0.522715 0.427726 0.104374
0.646192 0.434748 0.105959
0.773618 0.441896 0.107565
0.905071 0.449165 0.109190
0.000000 0.485046 0.100516
0.072362 0.492730 0.102049
0.185573 0.500576 0.103602
0.302525 0.508575 0.105177
0.423309 0.516721 0.106772
0.548011 0.525007 0.108388
0.676707 0.533428 0.110024
0.809472 0.541978 0.111679
0.946373 0.550654 0.113355
0.000000 0.581404 0.104400
0.078597 0.590530 0.105985
0.196635 0.599816 0.107591
0.318561 0.609255 0.109217
0.444452 0.618840 0.110862
0.574384 0.628567 0.112528
0.708425 0.638432 0.114213
0.846640 0.648429 0.115918
0.989091 0.658555 0.117642
0.000000 0.000000 0.121978
0.044119 0.000000 0.122929
0.139141 0.000000 0.123881
0.234162 0.000000 0.124833
0.329184 0.000000 0.125784
0.424206 0.000000 0.126736
0.519228 0.000000 0.127688
0.614249 0.000000 0.128640
0.709271 0.000000 0.129591
0.000000 0.020760 0.124365
0.046756 0.021762 0.125316
0.141778 0.022763 0.126268
0.236800 0.023765 0.127220
0.331821 0.024767 0.128171
0.426843 0.025768 0.129123
0.522535 0.026797 0.130124
0.624413 0.028042 0.131497
0.730045 0.029358 0.132969
0.000000 0.090007 0.126752
0.049393 0.091009 0.127703
0.144415 0.092011 0.128655
0.239437 0.093012 0.129607
0.336596 0.094493 0.130804
0.437531 0.096437 0.132236
0.541682 0.098526 0.133740
0.649181 0.100724 0.135295
0.760160 0.103013 0.136892
0.000000 0.159255 0.129138
0.052105 0.160438 0.130145
0.148876 0.162854 0.131521
0.248296 0.165587 0.132993
0.350686 0.168513 0.134524
0.456268 0.171587 0.136102
0.565212 0.174788 0.137718
0.677663 0.178100 0.139370
0.793743 0.181514 0.141053
0.000000 0.231959 0.132260
0.056471 0.235545 0.133765
0.156893 0.239356 0.135321
0.260398 0.243347 0.136918
0.367177 0.247494 0.138553
0.477385 0.251779 0.140221
0.591155 0.256189 0.141920
0.708601 0.260717 0.143648
0.829825 0.265354 0.145404
0.000000 0.311088 0.136128
0.061459 0.316031 0.137745
0.165958 0.321155 0.139397
0.273824 0.326439 0.141081
0.385196 0.331871 0.142794
0.500191 0.337439 0.144537
0.618917 0.343136 0.146306
0.741470 0.348953 0.148101
0.867935 0.354887 0.149922
0.000000 0.395792 0.140248
0.066904 0.402101 0.141948
0.175795 0.408577 0.143676
0.288266 0.415207 0.145432
0.404425 0.421982 0.147215
0.524371 0.428895 0.149023
0.648193 0.435938 0.150857
0.775973 0.443107 0.152714
0.907787 0.450396 0.154596
0.000000 0.486323 0.144565
0.072766 0.494035 0.146335
0.186294 0.501907 0.148131
0.303573 0.509932 0.149952
0.424695 0.518102 0.151798
0.549742 0.526411 0.153667
0.678792 0.534853 0.155561
0.811918 0.543425 0.157477
0.949187 0.552121 0.159417
0.000000 0.582924 0.149053
0.079028 0.592077 0.150887
0.197396 0.601389 0.152745
0.319660 0.610853 0.154627
0.445898 0.620462 0.156532
0.576184 0.630213 0.158460
0.710587 0.640100 0.160411
0.849171 0.650119 0.162384
0.990331 0.659332 0.164279
0.000000 0.000000 0.164150
0.044295 0.000000 0.165101
0.139317 0.000000 0.166053
0.234339 0.000000 0.167005
0.329361 0.000000 0.167956
0.424382 0.000000 0.168908
0.519404 0.000000 0.169860
0.614426 0.000000 0.170811
0.709448 0.000000 0.171763
0.000000 0.020928 0.166537
0.046933 0.021930 0.167488
0.141954 0.022931 0.168440
0.236976 0.023933 0.169392
0.331998 0.024935 0.170343
0.427020 0.025936 0.171295
0.523514 0.026998 0.172390
0.625893 0.028258 0.173929
0.731913 0.029584 0.175579
0.000000 0.090176 0.168923
0.049570 0.091177 0.169875
0.144591 0.092179 0.170827
0.239613 0.093180 0.171779
0.337413 0.094806 0.173153
0.438680 0.096778 0.174757
0.543159 0.098888 0.176446
0.650992 0.101102 0.178197
0.762314 0.103405 0.180000
0.000000 0.159423 0.171310
0.052362 0.160806 0.172413
0.149366 0.163296 0.173955
0.249052 0.166066 0.175606
0.351730 0.169019 0.177329
0.457617 0.172116 0.179108
0.566882 0.175336 0.180934
0.679664 0.178666 0.182802
0.796085 0.182096 0.184709
0.000000 0.232542 0.174783
0.056789 0.236170 0.176474
0.157471 0.240013 0.178226
0.261259 0.244033 0.180030
0.368339 0.248204 0.181878
0.478863 0.252510 0.183767
0.592959 0.256941 0.185692
0.710743 0.261487 0.187652
0.832315 0.266142 0.189644
0.000000 0.311904 0.179137
0.061810 0.316879 0.180964
0.166594 0.322031 0.182833
0.274761 0.327341 0.184740
0.386446 0.332796 0.186683
0.501768 0.338386 0.188660
0.620831 0.344103 0.190669
0.743729 0.349941 0.192708
0.870549 0.355893 0.194776
0.000000 0.396838 0.183797
0.067284 0.403176 0.185723
0.176478 0.409679 0.187684
0.289264 0.416334 0.189677
0.405750 0.423133 0.191701
0.526032 0.430068 0.193755
0.650200 0.437132 0.195838
0.778334 0.444322 0.197949
0.910509 0.451631 0.200087
0.000000 0.487605 0.188692
0.073173 0.495344 0.190701
0.187018 0.503243 0.192741
0.304626 0.511293 0.194810
0.426085 0.519486 0.196907
0.551478 0.527818 0.199032
0.680883 0.536282 0.201184
0.814370 0.544875 0.203363
0.952008 0.553592 0.205567
0.000000 0.584448 0.193788
0.079461 0.593628 0.195872
0.198159 0.602966 0.197983
0.320762 0.612455 0.200122
0.447347 0.622088 0.202288
0.577989 0.631862 0.204480
0.712754 0.641771 0.206697
0.851706 0.651812 0.208940
0.990570 0.659547 0.210873
0.000000 0.000000 0.206322
0.044472 0.000000 0.207273
0.139493 0.000000 0.208225
0.234515 0.000000 0.209177
0.329537 0.000000 0.210128
0.424559 0.000000 0.211080
0.519580 0.000000 0.212032
0.614602 0.000000 0.212983
0.709646 0.000000 0.213937
0.000000 0.021096 0.208709
0.047109 0.022098 0.209660
0.142131 0.023099 0.210612
0.237152 0.024101 0.211564
0.332174 0.025103 0.212515
0.427196 0.026104 0.213467
0.524579 0.027203 0.214704
0.627406 0.028477 0.216415
0.733806 0.029811 0.218250
0.000000 0.090344 0.211095
0.049746 0.091345 0.212047
0.144768 0.092347 0.212999
0.239817 0.093357 0.213958
0.338256 0.095124 0.215554
0.439848 0.097124 0.217336
0.544652 0.099253 0.219215
0.652818 0.101482 0.221167
0.764482 0.103799 0.223178
0.000000 0.159591 0.213482
0.052629 0.161194 0.214730
0.149864 0.163745 0.216444
0.249817 0.166550 0.218280
0.352784 0.169529 0.220198
0.458977 0.172648 0.222182
0.568561 0.175887 0.224220
0.681675 0.179235 0.226308
0.798438 0.182681 0.228440
0.000000 0.233133 0.217365
0.057109 0.236801 0.219246
0.158054 0.240676 0.221199
0.262127 0.244722 0.223211
0.369508 0.248917 0.225275
0.480347 0.253245 0.227386
0.594772 0.257696 0.229540
0.712894 0.262261 0.231733
0.834814 0.266933 0.233964
0.000000 0.312725 0.222214
0.062163 0.317731 0.224254
0.167233 0.322911 0.226342
0.275702 0.328246 0.228475
0.387702 0.333725 0.230650
0.503351 0.339337 0.232862
0.622751 0.345074 0.235111
0.745995 0.350931 0.237396
0.873170 0.356902 0.239713
0.000000 0.397890 0.227421
0.067665 0.404256 0.229575
0.177163 0.410785 0.231769
0.290266 0.417464 0.234001
0.407079 0.424287 0.236268
0.527699 0.431244 0.238569
0.652213 0.438330 0.240903
0.780701 0.445540 0.243269
0.913239 0.452868 0.245665
0.000000 0.488892 0.232898
0.073581 0.496658 0.235148
0.187745 0.504583 0.237433
0.305682 0.512657 0.239751
0.427479 0.520874 0.242101
0.553219 0.529229 0.244483
0.682979 0.537715 0.246895
0.816828 0.546329 0.249336
0.954834 0.555066 0.251807
0.000000 0.585977 0.238607
0.079896 0.595184 0.240941
0.198924 0.604547 0.243307
0.321867 0.614061 0.245704
0.448801 0.623718 0.248132
0.579798 0.633515 0.250588
0.714925 0.643446 0.253073
0.854247 0.653509 0.255586
0.990809 0.659763 0.257468
0.000000 0.000000 0.248494
0.044648 0.000000 0.249445
0.139670 0.000000 0.250397
0.234692 0.000000 0.251349
0.329713 0.000000 0.252300
0.424735 0.000000 0.253252
0.519757 0.000000 0.254204
0.614779 0.000000 0.255155
0.710682 0.000000 0.256201
0.000000 0.021264 0.250880
0.047285 0.022266 0.251832
0.142307 0.023267 0.252784
0.237329 0.024269 0.253735
0.332351 0.025271 0.254687
0.427372 0.026272 0.255639
0.525705 0.027412 0.257070
0.628950 0.028697 0.258960
0.735723 0.030040 0.260983
0.000000 0.090512 0.253267
0.049923 0.091513 0.254219
0.144944 0.092515 0.255171
0.240297 0.093619 0.256227
0.339122 0.095449 0.258009
0.441033 0.097473 0.259975
0.546160 0.099620 0.262048
0.654658 0.101865 0.264203
0.766664 0.104195 0.266426
0.000000 0.159759 0.255654
0.052902 0.161596 0.257099
0.150370 0.164201 0.258992
0.250590 0.167039 0.261017
0.353847 0.170043 0.263134
0.460346 0.173183 0.265325
0.570250 0.176441 0.267579
0.683696 0.179806 0.269888
0.800802 0.183268 0.272248
0.000000 0.233732 0.260007
0.057432 0.237438 0.262082
0.158641 0.241344 0.264239
0.263000 0.245416 0.266463
0.370683 0.249634 0.268745
0.481839 0.253983 0.271081
0.596592 0.258454 0.273465
0.715053 0.263037 0.275893
0.837321 0.267727 0.278364
0.000000 0.313552 0.265361
0.062517 0.318589 0.267616
0.167875 0.323795 0.269926
0.276647 0.329155 0.272286
0.388964 0.334657 0.274693
0.504940 0.340291 0.277144
0.624677 0.346049 0.279635
0.748269 0.351925 0.282166
0.875799 0.357915 0.284734
0.000000 0.398946 0.271119
0.068048 0.405340 0.273504
0.177851 0.411895 0.275933
0.291271 0.418599 0.278405
0.408413 0.425444 0.280916
0.529371 0.432424 0.283466
0.654231 0.439531 0.286052
0.783075 0.446761 0.288674
0.915975 0.454109 0.291330
0.000000 0.490183 0.277184
0.073991 0.497977 0.279676
0.188475 0.505927 0.282207
0.306741 0.514026 0.284775
0.428877 0.522266 0.287380
0.554965 0.530643 0.290019
0.685080 0.539151 0.292692
0.819292 0.547786 0.295398
0.957668 0.556543 0.298135
0.000000 0.587510 0.283507
0.080332 0.596744 0.286094
0.199693 0.606133 0.288717
0.322976 0.615671 0.291373
0.450258 0.625352 0.294063
0.581611 0.635172 0.296785
0.717102 0.645125 0.299539
0.856794 0.655210 0.302323
0.991048 0.659979 0.304062
0.000000 0.000000 0.290665
0.044824 0.000000 0.291617
0.139846 0.000000 0.292569
0.234868 0.000000 0.293521
0.329890 0.000000 0.294472
0.424911 0.000000 0.295424
0.519933 0.000000 0.296376
0.614955 0.000000 0.297327
0.711947 0.000000 0.298523
0.000000 0.021432 0.293052
0.047462 0.022434 0.294004
0.142483 0.023435 0.294956
0.237505 0.024437 0.295907
0.332527 0.025439 0.296859
0.427549 0.026440 0.297811
0.526879 0.027622 0.299488
0.630522 0.028918 0.301563
0.737663 0.030271 0.303780
0.000000 0.090680 0.295439
0.050099 0.091681 0.296391
0.145121 0.092683 0.297343
0.240847 0.093903 0.298552
0.340009 0.095778 0.300520
0.442234 0.097826 0.302675
0.547683 0.099990 0.304946
0.656513 0.102250 0.307308
0.768860 0.104594 0.309745
0.000000 0.159927 0.297826
0.053181 0.162011 0.299520
0.150884 0.164663 0.301598
0.251372 0.167532 0.303816
0.354919 0.170561 0.306136
0.461725 0.173722 0.308538
0.571950 0.176999 0.311009
0.685728 0.180380 0.313542
0.803176 0.183858 0.316131
0.000000 0.234337 0.302711
0.057757 0.238080 0.304984
0.159233 0.242016 0.307347
0.263878 0.246114 0.309785
0.371865 0.250355 0.312289
0.483338 0.254725 0.314851
0.598420 0.259215 0.317467
0.717220 0.263816 0.320132
0.839837 0.268523 0.322845
0.000000 0.314384 0.308577
0.062874 0.319451 0.311049
0.168520 0.324684 0.313583
0.277596 0.330069 0.316173
0.390230 0.335593 0.318815
0.506535 0.341248 0.321505
0.626611 0.347027 0.324240
0.750550 0.352922 0.327018
0.878436 0.358930 0.329838
0.000000 0.400007 0.314893
0.068433 0.406429 0.317509
0.178542 0.413009 0.320176
0.292281 0.419738 0.322889
0.409751 0.426606 0.325646
0.531048 0.433607 0.328446
0.656256 0.440735 0.331286
0.785455 0.447985 0.334165
0.918718 0.455353 0.337081
0.000000 0.491479 0.321549
0.074403 0.499300 0.324285
0.189207 0.507276 0.327064
0.307804 0.515398 0.329884
0.430280 0.523662 0.332744
0.556715 0.532061 0.335642
0.687186 0.540591 0.338577
0.821761 0.549246 0.341548
0.960507 0.558024 0.344554
0.000000 0.589048 0.328492
0.080771 0.598308 0.331332
0.200463 0.607723 0.334212
0.324087 0.617285 0.337129
0.451719 0.626990 0.340082
0.583429 0.636832 0.343071
0.719283 0.646808 0.346094
0.859345 0.656914 0.349151
0.991287 0.660195 0.350657
