assets/lighting/cinematic/grade-warehouse-sodium/lut.cube
TITLE "Warehouse Sodium"
# TKRS lighting-batch-001 original LUT
# Intended usage: industrial high-pressure sodium amber
# License: CC0-1.0
LUT_3D_SIZE 17
DOMAIN_MIN 0.0 0.0 0.0
DOMAIN_MAX 1.0 1.0 1.0
0.000000 0.000000 0.000000
0.000000 0.000000 0.000000
0.043413 0.000000 0.000000
0.090924 0.000000 0.000000
0.138435 0.000000 0.000000
0.185946 0.000000 0.000000
0.233457 0.000000 0.000000
0.280968 0.000000 0.000000
0.328479 0.000000 0.000000
0.375989 0.000000 0.000000
0.423500 0.000000 0.000000
0.471011 0.000000 0.000000
0.518522 0.000000 0.000000
0.566033 0.000000 0.000000
0.613544 0.000000 0.000000
0.661055 0.000000 0.000000
0.708566 0.000000 0.000000
0.000000 0.000000 0.000000
0.000000 0.000000 0.000000
0.044732 0.000000 0.000000
0.092243 0.000000 0.000000
0.139754 0.000000 0.000000
0.187265 0.000000 0.000000
0.234775 0.000000 0.000000
0.282286 0.000000 0.000000
0.329797 0.000000 0.000000
0.377308 0.000000 0.000000
0.424819 0.000000 0.000000
0.472330 0.000000 0.000000
0.519841 0.000000 0.000000
0.567352 0.000000 0.000000
0.614862 0.000000 0.000000
0.662373 0.000000 0.000000
0.711266 0.000000 0.000000
0.000000 0.020088 0.000000
0.000000 0.020589 0.000000
0.046051 0.021090 0.000000
0.093561 0.021590 0.000000
0.141072 0.022091 0.000000
0.188583 0.022592 0.000000
0.236094 0.023093 0.000000
0.283605 0.023594 0.000000
0.331116 0.024094 0.000000
0.378627 0.024595 0.000000
0.426138 0.025096 0.000000
0.473648 0.025597 0.000000
0.521159 0.026098 0.000000
0.568692 0.026599 0.000000
0.618925 0.027195 0.000000
0.670404 0.027823 0.000000
0.722857 0.028468 0.000000
0.000000 0.054712 0.000000
0.000000 0.055213 0.000000
0.047369 0.055713 0.000000
0.094880 0.056214 0.000000
0.142391 0.056715 0.000000
0.189902 0.057216 0.000000
0.237413 0.057717 0.000000
0.284924 0.058217 0.000000
0.332434 0.058718 0.000000
0.379945 0.059219 0.000000
0.427456 0.059720 0.000000
0.475927 0.060318 0.000000
0.526258 0.061072 0.000000
0.577534 0.061869 0.000000
0.629694 0.062695 0.000000
0.682729 0.063546 0.000000
0.736643 0.064419 0.000000
0.000000 0.089335 0.000000
0.001177 0.089836 0.000000
0.048688 0.090337 0.000000
0.096199 0.090838 0.000000
0.143710 0.091339 0.000000
0.191220 0.091839 0.000000
0.238731 0.092340 0.000000
0.286242 0.092841 0.000000
0.333780 0.093348 0.000000
0.382994 0.094182 0.000000
0.433153 0.095112 0.000000
0.484141 0.096092 0.000000
0.535954 0.097110 0.000000
0.588602 0.098161 0.000000
0.642099 0.099238 0.000000
0.696460 0.100341 0.000000
0.751701 0.101468 0.000000
0.000000 0.123959 0.000000
0.002496 0.124460 0.000000
0.050006 0.124961 0.000000
0.097517 0.125461 0.000000
0.145028 0.125962 0.000000
0.192539 0.126463 0.000000
0.240553 0.127176 0.000000
0.289668 0.128210 0.000000
0.339541 0.129327 0.000000
0.390180 0.130502 0.000000
0.441602 0.131720 0.000000
0.493830 0.132977 0.000000
0.546883 0.134267 0.000000
0.600780 0.135587 0.000000
0.655539 0.136936 0.000000
0.711176 0.138310 0.000000
0.767707 0.139709 0.000000
0.000000 0.158583 0.000000
0.003814 0.159084 0.000000
0.051325 0.159584 0.000000
0.098848 0.160101 0.000000
0.147023 0.161178 0.000000
0.195856 0.162411 0.000000
0.245375 0.163727 0.000000
0.295616 0.165104 0.000000
0.346613 0.166531 0.000000
0.398390 0.168001 0.000000
0.450974 0.169509 0.000000
0.504385 0.171052 0.000000
0.558644 0.172627 0.000000
0.613767 0.174232 0.000000
0.669772 0.175866 0.000000
0.726673 0.177526 0.000000
0.784486 0.179212 0.000000
0.000000 0.193206 0.000000
0.005144 0.194043 0.000000
0.053034 0.195357 0.000000
0.101501 0.196797 0.000000
0.150614 0.198319 0.000000
0.200421 0.199907 0.000000
0.250961 0.201548 0.000000
0.302263 0.203237 0.000000
0.354356 0.204969 0.000000
0.407261 0.206739 0.000000
0.461001 0.208546 0.000000
0.515593 0.210386 0.000000
0.571057 0.212258 0.000000
0.627408 0.214161 0.000000
0.684661 0.216092 0.000000
0.742830 0.218051 0.000000
0.801929 0.220037 0.000000
0.000000 0.229721 0.000000
0.006559 0.231374 0.000000
0.055227 0.233110 0.000000
0.104569 0.234914 0.000000
0.154625 0.236776 0.000000
0.205429 0.238690 0.000000
0.257010 0.240650 0.000000
0.309391 0.242653 0.000000
0.362596 0.244695 0.000000
0.416643 0.246775 0.000000
0.471552 0.248889 0.000000
0.527339 0.251037 0.000000
0.584019 0.253216 0.000000
0.641608 0.255427 0.000000
0.700119 0.257666 0.000000
0.759565 0.259935 0.000000
0.819958 0.262230 0.000000
0.000000 0.268105 0.000000
0.008036 0.270132 0.000000
0.057586 0.272220 0.000000
0.107872 0.274364 0.000000
0.158922 0.276557 0.000000
0.210763 0.278796 0.000000
0.263417 0.281078 0.000000
0.316904 0.283401 0.000000
0.371245 0.285761 0.000000
0.426455 0.288157 0.000000
0.482551 0.290589 0.000000
0.539548 0.293053 0.000000
0.597460 0.295550 0.000000
0.656301 0.298077 0.000000
0.716083 0.300635 0.000000
0.776817 0.303221 0.000000
0.838516 0.305836 0.000000
0.000000 0.307885 0.000000
0.009574 0.310262 0.000000
0.060077 0.312693 0.000000
0.111362 0.315173 0.000000
0.163451 0.317698 0.000000
0.216365 0.320267 0.000000
0.270124 0.322876 0.000000
0.324746 0.325525 0.000000
0.380247 0.328211 0.000000
0.436642 0.330932 0.000000
0.493945 0.333688 0.000000
0.552171 0.336478 0.000000
0.611332 0.339300 0.000000
0.671439 0.342153 0.000000
0.732506 0.345037 0.000000
0.794542 0.347950 0.000000
0.857559 0.350893 0.000000
0.000000 0.349061 0.000000
0.011176 0.351785 0.000000
0.062686 0.354558 0.000000
0.115015 0.357376 0.000000
0.168181 0.360238 0.000000
0.222204 0.363142 0.000000
0.277098 0.366085 0.000000
0.332880 0.369067 0.000000
0.389565 0.372085 0.000000
0.447167 0.375139 0.000000
0.505698 0.378228 0.000000
0.565170 0.381350 0.000000
0.625596 0.384505 0.000000
0.686987 0.387691 0.000000
0.749353 0.390909 0.000000
0.812705 0.394157 0.000000
0.877052 0.397434 0.000000
0.000000 0.391659 0.000000
0.012844 0.394731 0.000000
0.065406 0.397849 0.000000
0.118817 0.401010 0.000000
0.173095 0.404214 0.000000
0.228256 0.407458 0.000000
0.284313 0.410742 0.000000
0.341281 0.414063 0.000000
0.399173 0.417420 0.000000
0.458002 0.420814 0.000000
0.517779 0.424242 0.000000
0.578516 0.427703 0.000000
0.640224 0.431198 0.000000
0.702913 0.434725 0.000000
0.766594 0.438283 0.000000
0.831275 0.441873 0.000000
0.896967 0.445492 0.000000
0.000000 0.435710 0.000000
0.014579 0.439133 0.000000
0.068231 0.442600 0.000000
0.122759 0.446109 0.000000
0.178180 0.449660 0.000000
0.234506 0.453250 0.000000
0.291751 0.456880 0.000000
0.349928 0.460546 0.000000
0.409049 0.464250 0.000000
0.469125 0.467989 0.000000
0.530168 0.471763 0.000000
0.592187 0.475570 0.000000
0.655193 0.479411 0.000000
0.719196 0.483285 0.000000
0.784206 0.487191 0.000000
0.850230 0.491128 0.000000
0.917278 0.495096 0.000000
0.000000 0.481244 0.000000
0.016384 0.485021 0.000000
0.071158 0.488842 0.000000
0.126834 0.492704 0.000000
0.183424 0.496607 0.000000
0.240942 0.500550 0.000000
0.299399 0.504531 0.000000
0.358807 0.508549 0.000000
0.419177 0.512604 0.000000
0.480520 0.516695 0.000000
0.542845 0.520820 0.000000
0.606164 0.524980 0.000000
0.670484 0.529174 0.000000
0.735816 0.533400 0.000000
0.802169 0.537659 0.000000
0.869550 0.541950 0.000000
0.937968 0.546272 0.000000
0.000000 0.528289 0.000000
0.018259 0.532426 0.000000
0.074187 0.536605 0.000000
0.131037 0.540825 0.000000
0.188823 0.545086 0.000000
0.247555 0.549386 0.000000
0.307246 0.553724 0.000000
0.367905 0.558099 0.000000
0.429544 0.562511 0.000000
0.492171 0.566959 0.000000
0.555797 0.571442 0.000000
0.620431 0.575960 0.000000
0.686081 0.580512 0.000000
0.752756 0.585097 0.000000
0.820466 0.589715 0.000000
0.889216 0.594365 0.000000
0.959017 0.599047 0.000000
0.000000 0.576875 0.000000
0.020207 0.581375 0.000000
0.077314 0.585917 0.000000
0.135365 0.590500 0.000000
0.194369 0.595123 0.000000
0.254338 0.599786 0.000000
0.315283 0.604486 0.000000
0.377213 0.609224 0.000000
0.440138 0.613998 0.000000
0.504068 0.618809 0.000000
0.569010 0.623655 0.000000
0.634975 0.628536 0.000000
0.701969 0.633451 0.000000
0.770003 0.638399 0.000000
0.839082 0.643381 0.000000
0.909216 0.648396 0.000000
0.980412 0.653443 0.000000
0.000000 0.000000 0.000000
0.000000 0.000000 0.000000
0.043502 0.000000 0.000000
0.091012 0.000000 0.000000
0.138523 0.000000 0.000000
0.186034 0.000000 0.000000
0.233545 0.000000 0.000000
0.281056 0.000000 0.000000
0.328567 0.000000 0.000000
0.376078 0.000000 0.000000
0.423589 0.000000 0.000000
0.471099 0.000000 0.000000
0.518610 0.000000 0.000000
0.566121 0.000000 0.000000
0.613632 0.000000 0.000000
0.661143 0.000000 0.000000
0.708654 0.000000 0.000000
0.000000 0.000000 0.000000
0.000000 0.000000 0.000000
0.044820 0.000000 0.000000
0.092331 0.000000 0.000000
0.139842 0.000000 0.000000
0.187353 0.000000 0.000000
0.234864 0.000000 0.000000
0.282375 0.000000 0.000000
0.329885 0.000000 0.000000
0.377396 0.000000 0.000000
0.424907 0.000000 0.000000
0.472418 0.000000 0.000000
0.519929 0.000000 0.000000
0.567440 0.000000 0.000000
0.614951 0.000000 0.000000
0.662462 0.000000 0.000000
0.711914 0.000000 0.000000
0.000000 0.020172 0.000000
0.000000 0.020673 0.000000
0.046139 0.021174 0.000000
0.093650 0.021674 0.000000
0.141161 0.022175 0.000000
0.188671 0.022676 0.000000
0.236182 0.023177 0.000000
0.283693 0.023678 0.000000
0.331204 0.024178 0.000000
0.378715 0.024679 0.000000
0.426226 0.025180 0.000000
0.473737 0.025681 0.000000
0.521248 0.026182 0.000000
0.569090 0.026695 0.000000
0.619564 0.027299 0.000000
0.671167 0.027930 0.000000
0.723728 0.028578 0.000000
0.000000 0.054796 0.000000
0.000000 0.055297 0.000000
0.047457 0.055797 0.000000
0.094968 0.056298 0.000000
0.142479 0.056799 0.000000
0.189990 0.057300 0.000000
0.237501 0.057801 0.000000
0.285012 0.058301 0.000000
0.332523 0.058802 0.000000
0.380033 0.059303 0.000000
0.427544 0.059804 0.000000
0.476392 0.060440 0.000000
0.526850 0.061203 0.000000
0.578228 0.062005 0.000000
0.630484 0.062837 0.000000
0.683611 0.063691 0.000000
0.737615 0.064567 0.000000
0.000000 0.089419 0.000000
0.001265 0.089920 0.000000
0.048776 0.090421 0.000000
0.096287 0.090922 0.000000
0.143798 0.091423 0.000000
0.191309 0.091923 0.000000
0.238819 0.092424 0.000000
0.286330 0.092925 0.000000
0.334056 0.093474 0.000000
0.383424 0.094334 0.000000
0.433678 0.095273 0.000000
0.484754 0.096260 0.000000
0.536653 0.097285 0.000000
0.589386 0.098340 0.000000
0.642969 0.099422 0.000000
0.697417 0.100529 0.000000
0.752744 0.101659 0.000000
0.000000 0.124043 0.000000
0.002584 0.124544 0.000000
0.050095 0.125045 0.000000
0.097605 0.125545 0.000000
0.145116 0.126046 0.000000
0.192627 0.126547 0.000000
0.240833 0.127341 0.000000
0.290034 0.128392 0.000000
0.339987 0.129521 0.000000
0.390703 0.130703 0.000000
0.442204 0.131929 0.000000
0.494512 0.133191 0.000000
0.547646 0.134487 0.000000
0.601625 0.135812 0.000000
0.656468 0.137164 0.000000
0.712190 0.138543 0.000000
0.768806 0.139946 0.000000
0.000000 0.158667 0.000000
0.003902 0.159168 0.000000
0.051413 0.159668 0.000000
0.098994 0.160259 0.000000
0.147243 0.161378 0.000000
0.196143 0.162627 0.000000
0.245730 0.163954 0.000000
0.296043 0.165340 0.000000
0.347112 0.166775 0.000000
0.398965 0.168251 0.000000
0.451626 0.169766 0.000000
0.505116 0.171314 0.000000
0.559455 0.172894 0.000000
0.614660 0.174504 0.000000
0.670748 0.176142 0.000000
0.727734 0.177807 0.000000
0.785633 0.179498 0.000000
0.000000 0.193290 0.000000
0.005236 0.194251 0.000000
0.053174 0.195592 0.000000
0.101697 0.197047 0.000000
0.150871 0.198581 0.000000
0.200744 0.200178 0.000000
0.251352 0.201828 0.000000
0.302726 0.203525 0.000000
0.354892 0.205263 0.000000
0.407874 0.207040 0.000000
0.461691 0.208852 0.000000
0.516363 0.210698 0.000000
0.571908 0.212575 0.000000
0.628341 0.214483 0.000000
0.685678 0.216419 0.000000
0.743932 0.218382 0.000000
0.803118 0.220372 0.000000
0.000000 0.229992 0.000000
0.006656 0.231660 0.000000
0.055380 0.233408 0.000000
0.104783 0.235223 0.000000
0.154904 0.237094 0.000000
0.205777 0.239016 0.000000
0.257428 0.240983 0.000000
0.309883 0.242993 0.000000
0.363162 0.245042 0.000000
0.417287 0.247127 0.000000
0.472274 0.249247 0.000000
0.528141 0.251400 0.000000
0.584904 0.253585 0.000000
0.642576 0.255800 0.000000
0.701171 0.258045 0.000000
0.760703 0.260318 0.000000
0.821184 0.262618 0.000000
0.000000 0.268440 0.000000
0.008137 0.270478 0.000000
0.057749 0.272576 0.000000
0.108100 0.274728 0.000000
0.159218 0.276930 0.000000
0.211129 0.279176 0.000000
0.263856 0.281465 0.000000
0.317419 0.283794 0.000000
0.371836 0.286160 0.000000
0.427125 0.288563 0.000000
0.483301 0.291000 0.000000
0.540380 0.293470 0.000000
0.598375 0.295971 0.000000
0.657300 0.298504 0.000000
0.717167 0.301067 0.000000
0.777989 0.303658 0.000000
0.839775 0.306278 0.000000
0.000000 0.308279 0.000000
0.009679 0.310666 0.000000
0.060248 0.313105 0.000000
0.111601 0.315593 0.000000
0.163761 0.318126 0.000000
0.216749 0.320702 0.000000
0.270583 0.323318 0.000000
0.325281 0.325973 0.000000
0.380861 0.328665 0.000000
0.437336 0.331392 0.000000
0.494721 0.334154 0.000000
0.553029 0.336949 0.000000
0.612274 0.339776 0.000000
0.672467 0.342635 0.000000
0.733620 0.345523 0.000000
0.795744 0.348442 0.000000
0.858849 0.351389 0.000000
0.000000 0.349514 0.000000
0.011286 0.352247 0.000000
0.062865 0.355027 0.000000
0.115265 0.357853 0.000000
0.168505 0.360722 0.000000
0.222602 0.363633 0.000000
0.277573 0.366583 0.000000
0.333434 0.369570 0.000000
0.390199 0.372595 0.000000
0.447882 0.375655 0.000000
0.506496 0.378749 0.000000
0.566052 0.381877 0.000000
0.626563 0.385037 0.000000
0.688040 0.388229 0.000000
0.750494 0.391451 0.000000
0.813934 0.394704 0.000000
0.878371 0.397987 0.000000
0.000000 0.392171 0.000000
0.012958 0.395251 0.000000
0.065592 0.398376 0.000000
0.119077 0.401545 0.000000
0.173430 0.404755 0.000000
0.228668 0.408006 0.000000
0.284803 0.411296 0.000000
0.341852 0.414623 0.000000
0.399825 0.417987 0.000000
0.458737 0.421386 0.000000
0.518598 0.424820 0.000000
0.579421 0.428287 0.000000
0.641215 0.431787 0.000000
0.703992 0.435320 0.000000
0.767760 0.438883 0.000000
0.832531 0.442478 0.000000
0.898313 0.446102 0.000000
0.000000 0.436281 0.000000
0.014698 0.439711 0.000000
0.068423 0.443185 0.000000
0.123028 0.446702 0.000000
0.178525 0.450259 0.000000
0.234930 0.453857 0.000000
0.292256 0.457492 0.000000
0.350515 0.461165 0.000000
0.409719 0.464875 0.000000
0.469879 0.468619 0.000000
0.531007 0.472399 0.000000
0.593113 0.476212 0.000000
0.656206 0.480059 0.000000
0.720298 0.483938 0.000000
0.785396 0.487849 0.000000
0.851511 0.491791 0.000000
0.918651 0.495764 0.000000
0.000000 0.481874 0.000000
0.016507 0.485659 0.000000
0.071358 0.489487 0.000000
0.127111 0.493356 0.000000
0.183781 0.497266 0.000000
0.241379 0.501215 0.000000
0.299918 0.505202 0.000000
0.359409 0.509227 0.000000
0.419863 0.513288 0.000000
0.481291 0.517384 0.000000
0.543703 0.521516 0.000000
0.607109 0.525681 0.000000
0.671518 0.529880 0.000000
0.736939 0.534112 0.000000
0.803382 0.538377 0.000000
0.870854 0.542673 0.000000
0.939365 0.547000 0.000000
0.000000 0.528980 0.000000
0.018387 0.533124 0.000000
0.074393 0.537310 0.000000
0.131323 0.541537 0.000000
0.189189 0.545805 0.000000
0.248004 0.550111 0.000000
0.307778 0.554455 0.000000
0.368521 0.558837 0.000000
0.430245 0.563255 0.000000
0.492959 0.567709 0.000000
0.556673 0.572198 0.000000
0.621395 0.576721 0.000000
0.687135 0.581279 0.000000
0.753900 0.585869 0.000000
0.821701 0.590492 0.000000
0.890544 0.595148 0.000000
0.960437 0.599835 0.000000
0.000000 0.577627 0.000000
0.020340 0.582134 0.000000
0.077527 0.586683 0.000000
0.135658 0.591273 0.000000
0.194745 0.595903 0.000000
0.254798 0.600571 0.000000
0.315827 0.605278 0.000000
0.377843 0.610022 0.000000
0.440855 0.614803 0.000000
0.504872 0.619619 0.000000
0.569903 0.624471 0.000000
0.635957 0.629358 0.000000
0.703042 0.634278 0.000000
0.771167 0.639233 0.000000
0.840339 0.644220 0.000146
0.910565 0.649240 0.000669
0.981855 0.654293 0.001195
0.000000 0.000000 0.000000
0.000000 0.000000 0.000000
0.043590 0.000000 0.000000
0.091101 0.000000 0.000000
0.138612 0.000000 0.000000
0.186122 0.000000 0.000000
0.233633 0.000000 0.000000
0.281144 0.000000 0.000000
0.328655 0.000000 0.000000
0.376166 0.000000 0.000000
0.423677 0.000000 0.000220
0.471188 0.000000 0.000696
0.518699 0.000000 0.001172
0.566209 0.000000 0.001648
0.613720 0.000000 0.002124
0.661231 0.000000 0.002600
0.708742 0.000000 0.003075
0.000000 0.000000 0.000000
0.000000 0.000000 0.000000
0.044908 0.000000 0.000000
0.092419 0.000000 0.000000
0.139930 0.000000 0.000000
0.187441 0.000000 0.000000
0.234952 0.000000 0.000000
0.282463 0.000000 0.000000
0.329974 0.000000 0.000462
0.377484 0.000000 0.000938
0.424995 0.000000 0.001414
0.472506 0.000000 0.001890
0.520017 0.000000 0.002365
0.567528 0.000000 0.002841
0.615039 0.000000 0.003317
0.662550 0.000000 0.003793
0.712592 0.000000 0.004273
0.000000 0.020256 0.000000
0.000000 0.020757 0.000000
0.046227 0.021258 0.000000
0.093738 0.021759 0.000000
0.141249 0.022259 0.000000
0.188760 0.022760 0.000228
0.236270 0.023261 0.000704
0.283781 0.023762 0.001180
0.331292 0.024262 0.001656
0.378803 0.024763 0.002131
0.426314 0.025264 0.002607
0.473825 0.025765 0.003083
0.521336 0.026266 0.003559
0.569561 0.026793 0.004036
0.620219 0.027403 0.004519
0.671941 0.028037 0.005004
0.724607 0.028688 0.005492
0.000000 0.054880 0.000000
0.000035 0.055381 0.000000
0.047546 0.055881 0.000000
0.095056 0.056382 0.000470
0.142567 0.056883 0.000946
0.190078 0.057384 0.001422
0.237589 0.057885 0.001897
0.285100 0.058385 0.002373
0.332611 0.058886 0.002849
0.380122 0.059387 0.003325
0.427633 0.059888 0.003801
0.476876 0.060564 0.004281
0.527452 0.061335 0.004765
0.578931 0.062143 0.005252
0.631279 0.062978 0.005741
0.684498 0.063837 0.006233
0.738593 0.064716 0.006727
0.000000 0.089503 0.000236
0.001353 0.090004 0.000712
0.048864 0.090505 0.001187
0.096375 0.091006 0.001663
0.143886 0.091507 0.002139
0.191397 0.092007 0.002615
0.238908 0.092508 0.003091
0.286419 0.093009 0.003567
0.334372 0.093609 0.004044
0.383864 0.094487 0.004527
0.434211 0.095436 0.005012
0.485373 0.096430 0.005500
0.537357 0.097459 0.005991
0.590176 0.098519 0.006484
0.643844 0.099606 0.006979
0.698378 0.100717 0.007477
0.753792 0.101850 0.007978
0.000000 0.124127 0.001429
0.002672 0.124628 0.001905
0.050183 0.125129 0.002381
0.097694 0.125629 0.002857
0.145205 0.126130 0.003333
0.192715 0.126631 0.003808
0.241122 0.127510 0.004289
0.290406 0.128577 0.004773
0.340437 0.129716 0.005260
0.391231 0.130906 0.005749
0.442811 0.132138 0.006241
0.495198 0.133406 0.006735
0.548413 0.134707 0.007232
0.602475 0.136037 0.007731
0.657400 0.137394 0.008233
0.713207 0.138776 0.008738
0.769909 0.140183 0.009246
0.000000 0.158751 0.002623
0.003991 0.159252 0.003099
0.051501 0.159752 0.003574
0.099150 0.160431 0.004052
0.147467 0.161581 0.004535
0.196433 0.162845 0.005020
0.246088 0.164183 0.005508
0.296472 0.165578 0.005999
0.347615 0.167020 0.006492
0.399543 0.168503 0.006987
0.452281 0.170023 0.007485
0.505850 0.171577 0.007986
0.560269 0.173162 0.008490
0.615556 0.174777 0.008996
0.671728 0.176420 0.009505
0.728799 0.178089 0.010017
0.786783 0.179784 0.010531
0.000000 0.193374 0.003816
0.005329 0.194465 0.004297
0.053315 0.195829 0.004781
0.101894 0.197300 0.005268
0.151131 0.198845 0.005757
0.201069 0.200452 0.006249
0.251746 0.202110 0.006743
0.303192 0.203814 0.007240
0.355431 0.205559 0.007739
0.408489 0.207342 0.008242
0.462384 0.209160 0.008747
0.517135 0.211011 0.009254
0.572761 0.212893 0.009765
0.629277 0.214805 0.010278
0.686697 0.216746 0.010794
0.745037 0.218714 0.011313
0.804309 0.220709 0.011834
0.000000 0.230265 0.005028
0.006753 0.231948 0.005516
0.055534 0.233708 0.006007
0.104998 0.235533 0.006500
0.155185 0.237413 0.006995
0.206126 0.239343 0.007493
0.257848 0.241318 0.007994
0.310376 0.243334 0.008498
0.363731 0.245389 0.009004
0.417932 0.247480 0.009513
0.472999 0.249606 0.010025
0.528946 0.251765 0.010540
0.585791 0.253955 0.011057
0.643546 0.256175 0.011577
0.702226 0.258424 0.012101
0.761844 0.260702 0.012627
0.822411 0.263007 0.013156
0.000000 0.268778 0.006257
0.008238 0.270826 0.006751
0.057912 0.272934 0.007248
0.108328 0.275094 0.007748
0.159515 0.277303 0.008250
0.211497 0.279557 0.008755
0.264297 0.281853 0.009262
0.317935 0.284188 0.009773
0.372429 0.286561 0.010286
0.427797 0.288969 0.010802
0.484053 0.291412 0.011321
0.541214 0.293887 0.011843
0.599292 0.296394 0.012368
0.658301 0.298932 0.012895
0.718254 0.301499 0.013426
0.779162 0.304096 0.013960
0.841036 0.306720 0.014497
0.000000 0.308676 0.007501
0.009785 0.311072 0.008002
0.060420 0.313520 0.008506
0.111841 0.316015 0.009012
0.164072 0.318555 0.009521
0.217133 0.321138 0.010033
0.271043 0.323761 0.010548
0.325818 0.326422 0.011065
0.381476 0.329120 0.011586
0.438031 0.331853 0.012109
0.495497 0.334621 0.012636
0.553889 0.337421 0.013165
0.613218 0.340254 0.013697
0.673496 0.343117 0.014232
0.734736 0.346011 0.014771
0.796947 0.348934 0.015312
0.860141 0.351887 0.015857
0.000000 0.349969 0.008763
0.011395 0.352710 0.009271
0.063044 0.355498 0.009781
0.115515 0.358332 0.010294
0.168828 0.361208 0.010811
0.223001 0.364125 0.011330
0.278050 0.367081 0.011851
0.333989 0.370075 0.012376
0.390834 0.373106 0.012904
0.448599 0.376172 0.013435
0.507295 0.379271 0.013969
0.566936 0.382405 0.014505
0.627532 0.385570 0.015045
0.689096 0.388767 0.015588
0.751637 0.391995 0.016134
0.815166 0.395253 0.016684
0.879692 0.398540 0.017236
0.000000 0.392685 0.010042
0.013072 0.395772 0.010556
0.065778 0.398905 0.011074
0.119337 0.402080 0.011594
0.173766 0.405298 0.012118
0.229080 0.408555 0.012644
0.285295 0.411852 0.013173
0.342424 0.415185 0.013706
0.400479 0.418555 0.014241
0.459473 0.421960 0.014779
0.519419 0.425399 0.015321
0.580327 0.428872 0.015865
0.642207 0.432378 0.016413
0.705071 0.435915 0.016964
0.768929 0.439484 0.017518
0.833789 0.443084 0.018075
0.899661 0.446713 0.018635
0.000000 0.436853 0.011338
0.014816 0.440291 0.011860
0.068616 0.443772 0.012385
0.123297 0.447296 0.012913
0.178872 0.450860 0.013443
0.235356 0.454464 0.013977
0.292762 0.458106 0.014514
0.351103 0.461785 0.015054
0.410389 0.465500 0.015597
0.470634 0.469251 0.016143
0.531847 0.473036 0.016693
0.594039 0.476855 0.017245
0.657221 0.480708 0.017801
0.721401 0.484592 0.018359
0.786589 0.488508 0.018921
0.852794 0.492456 0.019487
0.920025 0.496434 0.020055
0.000000 0.482506 0.012653
0.016630 0.486298 0.013182
0.071558 0.490133 0.013714
0.127389 0.494009 0.014250
0.184138 0.497926 0.014788
0.241817 0.501881 0.015330
0.300437 0.505875 0.015874
0.360011 0.509906 0.016422
0.420550 0.513973 0.016973
0.482064 0.518075 0.017527
0.544562 0.522212 0.018084
0.608056 0.526383 0.018645
0.672553 0.530588 0.019208
0.738064 0.534826 0.019775
0.804597 0.539095 0.020345
0.872161 0.543397 0.020919
0.940763 0.547729 0.021495
0.000000 0.529672 0.013986
0.018516 0.533823 0.014523
0.074599 0.538016 0.015063
0.131609 0.542250 0.015606
0.189556 0.546524 0.016152
0.248453 0.550837 0.016701
0.308310 0.555188 0.017254
0.369138 0.559576 0.017810
0.430948 0.564000 0.018368
0.493748 0.568460 0.018931
0.557550 0.572954 0.019496
0.622360 0.577483 0.020064
0.688190 0.582046 0.020636
0.755046 0.586642 0.021211
0.822938 0.591271 0.021790
0.891873 0.595932 0.022372
0.961859 0.600624 0.022957
0.000000 0.578380 0.015338
0.020473 0.582894 0.015883
0.077740 0.587450 0.016431
0.135953 0.592047 0.016982
0.195122 0.596683 0.017536
0.255258 0.601358 0.018093
0.316372 0.606071 0.018654
0.378474 0.610822 0.019217
0.441573 0.615608 0.019784
0.505677 0.620431 0.020355
0.570797 0.625288 0.020928
0.636941 0.630181 0.021505
0.704116 0.635107 0.022085
0.772332 0.640067 0.022668
0.841596 0.645060 0.023255
0.911916 0.650086 0.023845
0.983299 0.655143 0.024439
0.000000 0.000000 0.016548
0.000000 0.000000 0.017024
0.043678 0.000000 0.017500
0.091189 0.000000 0.017975
0.138700 0.000000 0.018451
0.186211 0.000000 0.018927
0.233721 0.000000 0.019403
0.281232 0.000000 0.019879
0.328743 0.000000 0.020355
0.376254 0.000000 0.020830
0.423765 0.000000 0.021306
0.471276 0.000000 0.021782
0.518787 0.000000 0.022258
0.566298 0.000000 0.022734
