assets/lighting/tone-mapping/grade-aces-contrast-proxy/lut.cube
TITLE "ACES-like Contrast Proxy"
# TKRS lighting-batch-001 original LUT
# Intended usage: filmic S-curve contrast proxy (not a real ACES RRT)
# License: CC0-1.0
LUT_3D_SIZE 5
DOMAIN_MIN 0.0 0.0 0.0
DOMAIN_MAX 1.0 1.0 1.0
0.000000 0.000000 0.000000
0.293319 0.000000 0.000000
0.599451 0.000000 0.000000
0.889526 0.000000 0.000000
1.000000 0.000000 0.000000
0.000000 0.272564 0.000000
0.284016 0.269701 0.000000
0.590148 0.267177 0.000000
0.880223 0.264785 0.000000
1.000000 0.262477 0.000000
0.000000 0.568205 0.000000
0.275654 0.565342 0.000000
0.581786 0.562818 0.000000
0.871860 0.560426 0.000000
1.000000 0.558118 0.000000
0.000000 0.850651 0.000000
0.267664 0.847787 0.000000
0.573796 0.845263 0.000000
0.863871 0.842872 0.000000
1.000000 0.840563 0.000000
0.000000 1.000000 0.000000
0.259912 1.000000 0.000000
0.566044 1.000000 0.000000
0.856119 1.000000 0.000000
1.000000 1.000000 0.000000
0.000000 0.000000 0.266561
0.292414 0.000000 0.263697
0.598546 0.000000 0.261173
0.888620 0.000000 0.258782
1.000000 0.000000 0.256474
0.000000 0.271659 0.257258
0.283111 0.268795 0.254394
0.589243 0.266271 0.251870
0.879317 0.263880 0.249479
1.000000 0.261572 0.247170
0.000000 0.567300 0.248895
0.274748 0.564436 0.246031
0.580880 0.561912 0.243508
0.870955 0.559521 0.241116
1.000000 0.557213 0.238808
0.000000 0.849745 0.240906
0.266759 0.846882 0.238042
0.572891 0.844358 0.235518
0.862966 0.841966 0.233127
1.000000 0.839658 0.230819
0.000000 1.000000 0.233154
0.259007 1.000000 0.230290
0.565139 1.000000 0.227766
0.855213 1.000000 0.225375
1.000000 1.000000 0.223066
0.000000 0.000000 0.564785
0.291583 0.000000 0.561921
0.597715 0.000000 0.559397
0.887790 0.000000 0.557006
1.000000 0.000000 0.554698
0.000000 0.270829 0.555482
0.282280 0.267965 0.552618
0.588412 0.265441 0.550094
0.878487 0.263049 0.547703
1.000000 0.260741 0.545395
0.000000 0.566469 0.547119
0.273918 0.563606 0.544256
0.580050 0.561082 0.541732
0.870124 0.558690 0.539340
1.000000 0.556382 0.537032
0.000000 0.848915 0.539130
0.265929 0.846051 0.536266
0.572061 0.843527 0.533743
0.862135 0.841136 0.531351
1.000000 0.838828 0.529043
0.000000 1.000000 0.531378
0.258176 1.000000 0.528514
0.564308 1.000000 0.525990
0.854383 1.000000 0.523599
1.000000 1.000000 0.521291
0.000000 0.000000 0.852131
0.290783 0.000000 0.849267
0.596915 0.000000 0.846743
0.886990 0.000000 0.844352
1.000000 0.000000 0.842044
0.000000 0.270028 0.842828
0.281480 0.267165 0.839964
0.587612 0.264641 0.837440
0.877687 0.262249 0.835049
1.000000 0.259941 0.832740
0.000000 0.565669 0.834465
0.273118 0.562806 0.831601
0.579250 0.560282 0.829078
0.869324 0.557890 0.826686
1.000000 0.555582 0.824378
0.000000 0.848115 0.826476
0.265128 0.845251 0.823612
0.571260 0.842727 0.821088
0.861335 0.840336 0.818697
1.000000 0.838028 0.816389
0.000000 1.000000 0.818724
0.257376 1.000000 0.815860
0.563508 1.000000 0.813336
0.853583 1.000000 0.810944
1.000000 1.000000 0.808636
0.000000 0.000000 1.000000
0.290002 0.000000 1.000000
0.596134 0.000000 1.000000
0.886209 0.000000 1.000000
1.000000 0.000000 1.000000
0.000000 0.269248 1.000000
0.280699 0.266384 1.000000
0.586831 0.263860 1.000000
0.876906 0.261469 1.000000
1.000000 0.259160 1.000000
0.000000 0.564889 1.000000
0.272337 0.562025 1.000000
0.578469 0.559501 1.000000
0.868543 0.557109 1.000000
1.000000 0.554801 1.000000
0.000000 0.847334 1.000000
0.264348 0.844470 1.000000
0.570480 0.841946 1.000000
0.860554 0.839555 1.000000
1.000000 0.837247 1.000000
0.000000 1.000000 1.000000
0.256595 1.000000 1.000000
0.562727 1.000000 1.000000
0.852802 1.000000 1.000000
1.000000 1.000000 1.000000
