assets/lighting/tone-mapping/grade-aces-contrast-proxy/lut.cube
TITLE "ACES-like Contrast Proxy"
# TKRS lighting-batch-001 original LUT
# Intended usage: filmic S-curve contrast proxy (not a real ACES RRT)
# License: CC0-1.0
LUT_3D_SIZE 17
DOMAIN_MIN 0.0 0.0 0.0
DOMAIN_MAX 1.0 1.0 1.0
0.000000 0.000000 0.000000
0.041908 0.000000 0.000000
0.129339 0.000000 0.000000
0.212677 0.000000 0.000000
0.293319 0.000000 0.000000
0.371965 0.000000 0.000000
0.449030 0.000000 0.000000
0.524793 0.000000 0.000000
0.599451 0.000000 0.000000
0.673151 0.000000 0.000000
0.746005 0.000000 0.000000
0.818106 0.000000 0.000000
0.889526 0.000000 0.000000
0.960326 0.000000 0.000000
1.000000 0.000000 0.000000
1.000000 0.000000 0.000000
1.000000 0.000000 0.000000
0.000000 0.033130 0.000000
0.039377 0.032339 0.000000
0.126809 0.031618 0.000000
0.210146 0.030931 0.000000
0.290789 0.030266 0.000000
0.369434 0.029618 0.000000
0.446500 0.028983 0.000000
0.522263 0.028358 0.000000
0.596921 0.027743 0.000000
0.670620 0.027135 0.000000
0.743475 0.026534 0.000000
0.815575 0.025940 0.000000
0.886995 0.025351 0.000000
0.957796 0.024767 0.000000
1.000000 0.024188 0.000000
1.000000 0.023614 0.000000
1.000000 0.023043 0.000000
0.000000 0.115861 0.000000
0.037037 0.115070 0.000000
0.124469 0.114349 0.000000
0.207806 0.113662 0.000000
0.288449 0.112997 0.000000
0.367094 0.112349 0.000000
0.444160 0.111713 0.000000
0.519923 0.111089 0.000000
0.594581 0.110473 0.000000
0.668280 0.109866 0.000000
0.741135 0.109265 0.000000
0.813235 0.108671 0.000000
0.884655 0.108082 0.000000
0.955456 0.107498 0.000000
1.000000 0.106919 0.000000
1.000000 0.106344 0.000000
1.000000 0.105774 0.000000
0.000000 0.195303 0.000000
0.034790 0.194512 0.000000
0.122222 0.193791 0.000000
0.205559 0.193104 0.000000
0.286201 0.192439 0.000000
0.364847 0.191791 0.000000
0.441913 0.191155 0.000000
0.517676 0.190531 0.000000
0.592333 0.189915 0.000000
0.666033 0.189308 0.000000
0.738888 0.188707 0.000000
0.810988 0.188113 0.000000
0.882408 0.187524 0.000000
0.953209 0.186940 0.000000
1.000000 0.186361 0.000000
1.000000 0.185786 0.000000
1.000000 0.185216 0.000000
0.000000 0.272564 0.000000
0.032605 0.271773 0.000000
0.120036 0.271053 0.000000
0.203374 0.270365 0.000000
0.284016 0.269701 0.000000
0.362661 0.269052 0.000000
0.439727 0.268417 0.000000
0.515490 0.267792 0.000000
0.590148 0.267177 0.000000
0.663847 0.266569 0.000000
0.736702 0.265969 0.000000
0.808803 0.265374 0.000000
0.880223 0.264785 0.000000
0.951023 0.264202 0.000000
1.000000 0.263623 0.000000
1.000000 0.263048 0.000000
1.000000 0.262477 0.000000
0.000000 0.348202 0.000000
0.030465 0.347411 0.000000
0.117897 0.346690 0.000000
0.201234 0.346003 0.000000
0.281877 0.345338 0.000000
0.360522 0.344690 0.000000
0.437588 0.344054 0.000000
0.513351 0.343430 0.000000
0.588009 0.342814 0.000000
0.661708 0.342207 0.000000
0.734563 0.341606 0.000000
0.806663 0.341012 0.000000
0.878083 0.340423 0.000000
0.948884 0.339839 0.000000
1.000000 0.339260 0.000000
1.000000 0.338685 0.000000
1.000000 0.338115 0.000000
0.000000 0.422550 0.000000
0.028362 0.421759 0.000000
0.115794 0.421038 0.000000
0.199131 0.420351 0.000000
0.279774 0.419686 0.000000
0.358419 0.419038 0.000000
0.435485 0.418402 0.000000
0.511248 0.417778 0.000000
0.585906 0.417162 0.000000
0.659605 0.416555 0.000000
0.732460 0.415954 0.000000
0.804560 0.415359 0.000000
0.875980 0.414771 0.000000
0.946781 0.414187 0.000000
1.000000 0.413608 0.000000
1.000000 0.413033 0.000000
1.000000 0.412463 0.000000
0.000000 0.495831 0.000000
0.026289 0.495040 0.000000
0.113721 0.494319 0.000000
0.197058 0.493632 0.000000
0.277701 0.492967 0.000000
0.356346 0.492319 0.000000
0.433412 0.491684 0.000000
0.509175 0.491059 0.000000
0.583833 0.490444 0.000000
0.657532 0.489836 0.000000
0.730387 0.489235 0.000000
0.802487 0.488641 0.000000
0.873907 0.488052 0.000000
0.944708 0.487468 0.000000
1.000000 0.486889 0.000000
1.000000 0.486315 0.000000
1.000000 0.485744 0.000000
0.000000 0.568205 0.000000
0.024242 0.567414 0.000000
0.111674 0.566693 0.000000
0.195011 0.566006 0.000000
0.275654 0.565342 0.000000
0.354299 0.564693 0.000000
0.431365 0.564058 0.000000
0.507128 0.563433 0.000000
0.581786 0.562818 0.000000
0.655485 0.562210 0.000000
0.728340 0.561609 0.000000
0.800440 0.561015 0.000000
0.871860 0.560426 0.000000
0.942661 0.559843 0.000000
1.000000 0.559264 0.000000
1.000000 0.558689 0.000000
1.000000 0.558118 0.000000
0.000000 0.639791 0.000000
0.022217 0.639000 0.000000
0.109649 0.638279 0.000000
0.192986 0.637592 0.000000
0.273629 0.636927 0.000000
0.352274 0.636279 0.000000
0.429340 0.635643 0.000000
0.505103 0.635019 0.000000
0.579761 0.634403 0.000000
0.653460 0.633796 0.000000
0.726315 0.633195 0.000000
0.798415 0.632601 0.000000
0.869835 0.632012 0.000000
0.940636 0.631428 0.000000
1.000000 0.630849 0.000000
1.000000 0.630274 0.000000
1.000000 0.629704 0.000000
0.000000 0.710680 0.000000
0.020212 0.709889 0.000000
0.107644 0.709168 0.000000
0.190981 0.708481 0.000000
0.271624 0.707817 0.000000
0.350269 0.707168 0.000000
0.427335 0.706533 0.000000
0.503098 0.705908 0.000000
0.577756 0.705293 0.000000
0.651455 0.704685 0.000000
0.724310 0.704084 0.000000
0.796410 0.703490 0.000000
0.867830 0.702901 0.000000
0.938631 0.702317 0.000000
1.000000 0.701738 0.000000
1.000000 0.701164 0.000000
1.000000 0.700593 0.000000
0.000000 0.780947 0.000000
0.018225 0.780156 0.000000
0.105656 0.779435 0.000000
0.188994 0.778748 0.000000
0.269636 0.778083 0.000000
0.348281 0.777435 0.000000
0.425347 0.776799 0.000000
0.501110 0.776175 0.000000
0.575768 0.775559 0.000000
0.649467 0.774952 0.000000
0.722322 0.774351 0.000000
0.794423 0.773757 0.000000
0.865843 0.773168 0.000000
0.936643 0.772584 0.000000
1.000000 0.772005 0.000000
1.000000 0.771430 0.000000
1.000000 0.770860 0.000000
0.000000 0.850651 0.000000
0.016253 0.849860 0.000000
0.103685 0.849139 0.000000
0.187022 0.848452 0.000000
0.267664 0.847787 0.000000
0.346310 0.847139 0.000000
0.423375 0.846503 0.000000
0.499139 0.845879 0.000000
0.573796 0.845263 0.000000
0.647496 0.844655 0.000000
0.720350 0.844055 0.000000
0.792451 0.843460 0.000000
0.863871 0.842872 0.000000
0.934672 0.842288 0.000000
1.000000 0.841709 0.000000
1.000000 0.841134 0.000000
1.000000 0.840563 0.000000
0.000000 0.919841 0.000000
0.014296 0.919050 0.000000
0.101727 0.918330 0.000000
0.185065 0.917643 0.000000
0.265707 0.916978 0.000000
0.344353 0.916329 0.000000
0.421418 0.915694 0.000000
0.497182 0.915069 0.000000
0.571839 0.914454 0.000000
0.645539 0.913846 0.000000
0.718393 0.913246 0.000000
0.790494 0.912651 0.000000
0.861914 0.912062 0.000000
0.932714 0.911479 0.000000
1.000000 0.910900 0.000000
1.000000 0.910325 0.000000
1.000000 0.909754 0.000000
0.000000 0.988561 0.000000
0.012352 0.987770 0.000000
0.099784 0.987049 0.000000
0.183121 0.986362 0.000000
0.263764 0.985697 0.000000
0.342409 0.985049 0.000000
0.419475 0.984414 0.000000
0.495238 0.983789 0.000000
0.569896 0.983174 0.000000
0.643595 0.982566 0.000000
0.716450 0.981965 0.000000
0.788550 0.981371 0.000000
0.859970 0.980782 0.000000
0.930771 0.980198 0.000000
1.000000 0.979619 0.000000
1.000000 0.979045 0.000000
1.000000 0.978474 0.000000
0.000000 1.000000 0.000000
0.010421 1.000000 0.000000
0.097852 1.000000 0.000000
0.181190 1.000000 0.000000
0.261832 1.000000 0.000000
0.340477 1.000000 0.000000
0.417543 1.000000 0.000000
0.493306 1.000000 0.000000
0.567964 1.000000 0.000000
0.641663 1.000000 0.000000
0.714518 1.000000 0.000000
0.786619 1.000000 0.000000
0.858039 1.000000 0.000000
0.928839 1.000000 0.000000
0.999072 1.000000 0.000000
1.000000 1.000000 0.000000
1.000000 1.000000 0.000000
0.000000 1.000000 0.000000
0.008501 1.000000 0.000000
0.095932 1.000000 0.000000
0.179270 1.000000 0.000000
0.259912 1.000000 0.000000
0.338557 1.000000 0.000000
0.415623 1.000000 0.000000
0.491386 1.000000 0.000000
0.566044 1.000000 0.000000
0.639743 1.000000 0.000000
0.712598 1.000000 0.000000
0.784699 1.000000 0.000000
0.856119 1.000000 0.000000
0.926919 1.000000 0.000000
0.997152 1.000000 0.000000
1.000000 1.000000 0.000000
1.000000 1.000000 0.000000
0.000000 0.000000 0.028484
0.041665 0.000000 0.027693
0.129097 0.000000 0.026972
0.212434 0.000000 0.026285
0.293077 0.000000 0.025620
0.371722 0.000000 0.024972
0.448788 0.000000 0.024336
0.524551 0.000000 0.023712
0.599209 0.000000 0.023096
0.672908 0.000000 0.022489
0.745763 0.000000 0.021888
0.817863 0.000000 0.021294
0.889283 0.000000 0.020705
0.960084 0.000000 0.020121
1.000000 0.000000 0.019542
1.000000 0.000000 0.018967
1.000000 0.000000 0.018397
0.000000 0.032888 0.025953
0.039135 0.032097 0.025162
0.126566 0.031376 0.024442
0.209904 0.030689 0.023754
0.290546 0.030024 0.023090
0.369192 0.029376 0.022441
0.446257 0.028740 0.021806
0.522020 0.028116 0.021181
0.596678 0.027500 0.020566
0.670378 0.026893 0.019958
0.743232 0.026292 0.019358
0.815333 0.025697 0.018763
0.886753 0.025109 0.018174
0.957553 0.024525 0.017591
1.000000 0.023946 0.017012
1.000000 0.023371 0.016437
1.000000 0.022801 0.015866
0.000000 0.115618 0.023613
0.036795 0.114827 0.022822
0.124226 0.114107 0.022101
0.207564 0.113420 0.021414
0.288206 0.112755 0.020750
0.366852 0.112106 0.020101
0.443917 0.111471 0.019466
0.519680 0.110846 0.018841
0.594338 0.110231 0.018226
0.668037 0.109623 0.017618
0.740892 0.109023 0.017017
0.812993 0.108428 0.016423
0.884413 0.107839 0.015834
0.955213 0.107256 0.015250
1.000000 0.106677 0.014671
1.000000 0.106102 0.014097
1.000000 0.105531 0.013526
0.000000 0.195060 0.021366
0.034548 0.194269 0.020575
0.121979 0.193549 0.019854
0.205317 0.192862 0.019167
0.285959 0.192197 0.018502
0.364604 0.191548 0.017854
0.441670 0.190913 0.017219
0.517433 0.190288 0.016594
0.592091 0.189673 0.015979
0.665790 0.189065 0.015371
0.738645 0.188465 0.014770
0.810746 0.187870 0.014176
0.882166 0.187281 0.013587
0.952966 0.186698 0.013003
1.000000 0.186119 0.012424
1.000000 0.185544 0.011850
1.000000 0.184973 0.011279
0.000000 0.272322 0.019181
0.032362 0.271531 0.018390
0.119794 0.270810 0.017669
0.203131 0.270123 0.016982
0.283774 0.269458 0.016317
0.362419 0.268810 0.015669
0.439485 0.268174 0.015033
0.515248 0.267550 0.014409
0.589906 0.266934 0.013793
0.663605 0.266327 0.013186
0.736460 0.265726 0.012585
0.808560 0.265132 0.011991
0.879980 0.264543 0.011402
0.950781 0.263959 0.010818
1.000000 0.263380 0.010239
1.000000 0.262805 0.009664
1.000000 0.262235 0.009094
0.000000 0.347959 0.017041
0.030223 0.347168 0.016250
0.117654 0.346448 0.015529
0.200992 0.345760 0.014842
0.281634 0.345096 0.014178
0.360280 0.344447 0.013529
0.437345 0.343812 0.012894
0.513108 0.343187 0.012269
0.587766 0.342572 0.011654
0.661466 0.341964 0.011046
0.734320 0.341364 0.010445
0.806421 0.340769 0.009851
0.877841 0.340180 0.009262
0.948641 0.339597 0.008679
1.000000 0.339018 0.008100
1.000000 0.338443 0.007525
1.000000 0.337872 0.006954
0.000000 0.422307 0.014938
0.028120 0.421516 0.014147
0.115551 0.420795 0.013427
0.198889 0.420108 0.012739
0.279531 0.419444 0.012075
0.358177 0.418795 0.011426
0.435242 0.418160 0.010791
0.511005 0.417535 0.010166
0.585663 0.416920 0.009551
0.659363 0.416312 0.008943
0.732217 0.415711 0.008343
0.804318 0.415117 0.007748
0.875738 0.414528 0.007159
0.946538 0.413945 0.006576
1.000000 0.413366 0.005997
1.000000 0.412791 0.005422
1.000000 0.412220 0.004851
0.000000 0.495589 0.012865
0.026047 0.494798 0.012074
0.113479 0.494077 0.011354
0.196816 0.493390 0.010667
0.277458 0.492725 0.010002
0.356104 0.492077 0.009353
0.433169 0.491441 0.008718
0.508933 0.490817 0.008093
0.583590 0.490201 0.007478
0.657290 0.489594 0.006870
0.730144 0.488993 0.006270
0.802245 0.488399 0.005675
0.873665 0.487810 0.005086
0.944466 0.487226 0.004503
1.000000 0.486647 0.003924
1.000000 0.486072 0.003349
1.000000 0.485502 0.002778
0.000000 0.567963 0.010818
0.024000 0.567172 0.010027
0.111431 0.566451 0.009307
0.194769 0.565764 0.008619
0.275411 0.565099 0.007955
0.354057 0.564451 0.007306
0.431122 0.563815 0.006671
0.506885 0.563191 0.006046
0.581543 0.562575 0.005431
0.655243 0.561968 0.004823
0.728097 0.561367 0.004223
0.800198 0.560773 0.003628
0.871618 0.560184 0.003039
0.942418 0.559600 0.002456
1.000000 0.559021 0.001877
1.000000 0.558446 0.001302
1.000000 0.557876 0.000731
0.000000 0.639548 0.008793
0.021975 0.638757 0.008002
0.109407 0.638037 0.007282
0.192744 0.637350 0.006595
0.273386 0.636685 0.005930
0.352032 0.636036 0.005281
0.429097 0.635401 0.004646
0.504861 0.634776 0.004021
0.579518 0.634161 0.003406
0.653218 0.633553 0.002798
0.726072 0.632953 0.002198
0.798173 0.632358 0.001603
0.869593 0.631769 0.001014
0.940394 0.631186 0.000431
1.000000 0.630607 0.000000
1.000000 0.630032 0.000000
1.000000 0.629461 0.000000
0.000000 0.710438 0.006788
0.019970 0.709647 0.005997
0.107401 0.708926 0.005277
0.190739 0.708239 0.004589
0.271381 0.707574 0.003925
0.350027 0.706926 0.003276
0.427092 0.706290 0.002641
0.502855 0.705666 0.002016
0.577513 0.705050 0.001401
0.651213 0.704443 0.000793
0.724067 0.703842 0.000193
0.796168 0.703248 0.000000
0.867588 0.702659 0.000000
0.938388 0.702075 0.000000
1.000000 0.701496 0.000000
1.000000 0.700921 0.000000
1.000000 0.700351 0.000000
0.000000 0.780704 0.004801
0.017982 0.779913 0.004010
0.105414 0.779193 0.003289
0.188751 0.778506 0.002602
0.269394 0.777841 0.001937
0.348039 0.777192 0.001289
0.425105 0.776557 0.000653
0.500868 0.775932 0.000029
0.575526 0.775317 0.000000
0.649225 0.774709 0.000000
0.722080 0.774109 0.000000
0.794180 0.773514 0.000000
0.865600 0.772925 0.000000
0.936401 0.772342 0.000000
1.000000 0.771763 0.000000
1.000000 0.771188 0.000000
1.000000 0.770617 0.000000
0.000000 0.850408 0.002829
0.016011 0.849617 0.002038
0.103442 0.848896 0.001317
0.186780 0.848209 0.000630
0.267422 0.847545 0.000000
0.346067 0.846896 0.000000
0.423133 0.846261 0.000000
0.498896 0.845636 0.000000
0.573554 0.845021 0.000000
0.647253 0.844413 0.000000
0.720108 0.843812 0.000000
0.792209 0.843218 0.000000
0.863629 0.842629 0.000000
0.934429 0.842045 0.000000
1.000000 0.841466 0.000000
1.000000 0.840892 0.000000
1.000000 0.840321 0.000000
0.000000 0.919599 0.000872
0.014054 0.918808 0.000081
0.101485 0.918087 0.000000
0.184822 0.917400 0.000000
0.265465 0.916735 0.000000
0.344110 0.916087 0.000000
0.421176 0.915452 0.000000
0.496939 0.914827 0.000000
0.571597 0.914211 0.000000
0.645296 0.913604 0.000000
0.718151 0.913003 0.000000
0.790251 0.912409 0.000000
0.861672 0.911820 0.000000
0.932472 0.911236 0.000000
1.000000 0.910657 0.000000
1.000000 0.910083 0.000000
1.000000 0.909512 0.000000
0.000000 0.988319 0.000000
0.012110 0.987528 0.000000
0.099541 0.986807 0.000000
0.182879 0.986120 0.000000
0.263521 0.985455 0.000000
0.342167 0.984807 0.000000
0.419232 0.984171 0.000000
0.494995 0.983547 0.000000
0.569653 0.982931 0.000000
0.643352 0.982324 0.000000
0.716207 0.981723 0.000000
0.788308 0.981128 0.000000
0.859728 0.980540 0.000000
0.930528 0.979956 0.000000
1.000000 0.979377 0.000000
1.000000 0.978802 0.000000
1.000000 0.978232 0.000000
0.000000 1.000000 0.000000
0.010178 1.000000 0.000000
0.097610 1.000000 0.000000
0.180947 1.000000 0.000000
0.261590 1.000000 0.000000
0.340235 1.000000 0.000000
0.417301 1.000000 0.000000
0.493064 1.000000 0.000000
0.567722 1.000000 0.000000
0.641421 1.000000 0.000000
0.714276 1.000000 0.000000
0.786376 1.000000 0.000000
0.857796 1.000000 0.000000
0.928597 1.000000 0.000000
0.998829 1.000000 0.000000
1.000000 1.000000 0.000000
1.000000 1.000000 0.000000
0.000000 1.000000 0.000000
0.008258 1.000000 0.000000
0.095690 1.000000 0.000000
0.179027 1.000000 0.000000
0.259670 1.000000 0.000000
0.338315 1.000000 0.000000
0.415381 1.000000 0.000000
0.491144 1.000000 0.000000
0.565802 1.000000 0.000000
0.639501 1.000000 0.000000
0.712356 1.000000 0.000000
0.784456 1.000000 0.000000
0.855876 1.000000 0.000000
0.926677 1.000000 0.000000
0.996909 1.000000 0.000000
1.000000 1.000000 0.000000
1.000000 1.000000 0.000000
0.000000 0.000000 0.110198
0.041438 0.000000 0.109407
0.128869 0.000000 0.108686
0.212207 0.000000 0.107999
0.292849 0.000000 0.107334
0.371495 0.000000 0.106686
0.448560 0.000000 0.106050
0.524323 0.000000 0.105426
0.598981 0.000000 0.104810
0.672681 0.000000 0.104203
0.745535 0.000000 0.103602
0.817636 0.000000 0.103008
0.889056 0.000000 0.102419
0.959856 0.000000 0.101835
1.000000 0.000000 0.101256
1.000000 0.000000 0.100681
1.000000 0.000000 0.100111
0.000000 0.032660 0.107667
0.038907 0.031869 0.106876
0.126339 0.031148 0.106155
0.209676 0.030461 0.105468
0.290319 0.029796 0.104804
0.368964 0.029148 0.104155
0.446030 0.028513 0.103520
0.521793 0.027888 0.102895
0.596451 0.027273 0.102280
0.670150 0.026665 0.101672
0.743005 0.026064 0.101071
0.815105 0.025470 0.100477
0.886525 0.024881 0.099888
0.957326 0.024297 0.099305
1.000000 0.023718 0.098726
1.000000 0.023144 0.098151
1.000000 0.022573 0.097580
0.000000 0.115391 0.105327
0.036567 0.114600 0.104536
0.123999 0.113879 0.103815
0.207336 0.113192 0.103128
0.287979 0.112527 0.102463
0.366624 0.111879 0.101815
0.443690 0.111243 0.101180
0.519453 0.110619 0.100555
0.594111 0.110003 0.099940
0.667810 0.109396 0.099332
0.740665 0.108795 0.098731
0.812765 0.108201 0.098137
0.884185 0.107612 0.097548
0.954986 0.107028 0.096964
1.000000 0.106449 0.096385
1.000000 0.105874 0.095811
1.000000 0.105304 0.095240
0.000000 0.194833 0.103080
0.034320 0.194042 0.102289
0.121752 0.193321 0.101568
0.205089 0.192634 0.100881
0.285732 0.191969 0.100216
0.364377 0.191321 0.099568
0.441443 0.190685 0.098933
0.517206 0.190061 0.098308
0.591864 0.189445 0.097693
0.665563 0.188838 0.097085
0.738418 0.188237 0.096484
0.810518 0.187643 0.095890
0.881938 0.187054 0.095301
0.952739 0.186470 0.094717
1.000000 0.185891 0.094138
1.000000 0.185316 0.093564
1.000000 0.184746 0.092993
0.000000 0.272094 0.100895
0.032135 0.271303 0.100104
0.119566 0.270583 0.099383
0.202904 0.269896 0.098696
0.283546 0.269231 0.098031
0.362191 0.268582 0.097383
0.439257 0.267947 0.096747
0.515020 0.267322 0.096123
0.589678 0.266707 0.095507
0.663377 0.266099 0.094900
0.736232 0.265499 0.094299
0.808333 0.264904 0.093704
0.879753 0.264315 0.093116
0.950553 0.263732 0.092532
1.000000 0.263153 0.091953
1.000000 0.262578 0.091378
1.000000 0.262007 0.090808
0.000000 0.347732 0.098755
0.029995 0.346941 0.097964
0.117427 0.346220 0.097243
0.200764 0.345533 0.096556
0.281407 0.344868 0.095892
0.360052 0.344220 0.095243
0.437118 0.343584 0.094608
0.512881 0.342960 0.093983
0.587539 0.342344 0.093368
0.661238 0.341737 0.092760
0.734093 0.341136 0.092159
0.806193 0.340542 0.091565
0.877613 0.339953 0.090976
0.948414 0.339369 0.090393
1.000000 0.338790 0.089813
1.000000 0.338215 0.089239
1.000000 0.337645 0.088668
0.000000 0.422080 0.096652
0.027892 0.421289 0.095861
0.115324 0.420568 0.095140
0.198661 0.419881 0.094453
0.279304 0.419216 0.093789
0.357949 0.418568 0.093140
0.435015 0.417932 0.092505
0.510778 0.417308 0.091880
0.585436 0.416692 0.091265
0.659135 0.416085 0.090657
0.731990 0.415484 0.090056
0.804090 0.414890 0.089462
0.875510 0.414301 0.088873
0.946311 0.413717 0.088290
1.000000 0.413138 0.087711
1.000000 0.412563 0.087136
1.000000 0.411993 0.086565
0.000000 0.495361 0.094579
0.025819 0.494570 0.093788
0.113251 0.493849 0.093068
0.196588 0.493162 0.092381
0.277231 0.492498 0.091716
0.355876 0.491849 0.091067
0.432942 0.491214 0.090432
0.508705 0.490589 0.089807
0.583363 0.489974 0.089192
0.657062 0.489366 0.088584
0.729917 0.488765 0.087984
0.802017 0.488171 0.087389
0.873437 0.487582 0.086800
0.944238 0.486999 0.086217
1.000000 0.486419 0.085638
1.000000 0.485845 0.085063
1.000000 0.485274 0.084492
0.000000 0.567735 0.092532
0.023772 0.566944 0.091741
0.111204 0.566224 0.091020
0.194541 0.565536 0.090333
0.275184 0.564872 0.089669
0.353829 0.564223 0.089020
0.430895 0.563588 0.088385
0.506658 0.562963 0.087760
0.581316 0.562348 0.087145
0.655015 0.561740 0.086537
0.727870 0.561140 0.085936
0.799970 0.560545 0.085342
0.871390 0.559956 0.084753
0.942191 0.559373 0.084170
1.000000 0.558794 0.083591
1.000000 0.558219 0.083016
1.000000 0.557648 0.082445
0.000000 0.639321 0.090507
0.021747 0.638530 0.089716
0.109179 0.637809 0.088996
0.192516 0.637122 0.088309
0.273159 0.636457 0.087644
0.351804 0.635809 0.086995
0.428870 0.635173 0.086360
0.504633 0.634549 0.085735
0.579291 0.633933 0.085120
0.652990 0.633326 0.084512
0.725845 0.632725 0.083912
0.797945 0.632131 0.083317
0.869365 0.631542 0.082728
0.940166 0.630958 0.082145
1.000000 0.630379 0.081566
1.000000 0.629804 0.080991
1.000000 0.629234 0.080420
0.000000 0.710210 0.088502
0.019742 0.709419 0.087711
0.107174 0.708698 0.086990
0.190511 0.708011 0.086303
0.271154 0.707347 0.085639
0.349799 0.706698 0.084990
0.426865 0.706063 0.084355
0.502628 0.705438 0.083730
0.577286 0.704823 0.083115
0.650985 0.704215 0.082507
0.723840 0.703614 0.081906
0.795940 0.703020 0.081312
0.867360 0.702431 0.080723
0.938161 0.701848 0.080140
1.000000 0.701269 0.079561
1.000000 0.700694 0.078986
1.000000 0.700123 0.078415
0.000000 0.780477 0.086515
0.017755 0.779686 0.085724
0.105186 0.778965 0.085003
0.188524 0.778278 0.084316
0.269166 0.777613 0.083651
0.347812 0.776965 0.083003
0.424877 0.776329 0.082367
0.500640 0.775705 0.081743
0.575298 0.775089 0.081127
0.648997 0.774482 0.080520
0.721852 0.773881 0.079919
0.793953 0.773287 0.079324
0.865373 0.772698 0.078736
0.936173 0.772114 0.078152
1.000000 0.771535 0.077573
1.000000 0.770960 0.076998
1.000000 0.770390 0.076428
0.000000 0.850181 0.084543
0.015783 0.849390 0.083752
0.103215 0.848669 0.083031
0.186552 0.847982 0.082344
0.267195 0.847317 0.081679
0.345840 0.846669 0.081031
0.422906 0.846033 0.080396
0.498669 0.845409 0.079771
0.573326 0.844793 0.079156
0.647026 0.844186 0.078548
0.719881 0.843585 0.077947
0.791981 0.842990 0.077353
0.863401 0.842402 0.076764
0.934202 0.841818 0.076180
1.000000 0.841239 0.075601
1.000000 0.840664 0.075027
1.000000 0.840094 0.074456
0.000000 0.919371 0.082586
0.013826 0.918580 0.081795
0.101258 0.917860 0.081074
0.184595 0.917173 0.080387
0.265237 0.916508 0.079722
0.343883 0.915859 0.079074
0.420948 0.915224 0.078439
0.496712 0.914599 0.077814
0.571369 0.913984 0.077198
0.645069 0.913376 0.076591
0.717923 0.912776 0.075990
0.790024 0.912181 0.075396
0.861444 0.911592 0.074807
0.932245 0.911009 0.074223
1.000000 0.910430 0.073644
1.000000 0.909855 0.073070
1.000000 0.909284 0.072499
0.000000 0.988091 0.080642
0.011882 0.987300 0.079851
0.099314 0.986579 0.079130
0.182651 0.985892 0.078443
0.263294 0.985227 0.077778
0.341939 0.984579 0.077130
0.419005 0.983944 0.076495
0.494768 0.983319 0.075870
0.569426 0.982704 0.075255
0.643125 0.982096 0.074647
0.715980 0.981495 0.074046
0.788080 0.980901 0.073452
0.859500 0.980312 0.072863
0.930301 0.979728 0.072279
1.000000 0.979149 0.071700
1.000000 0.978575 0.071126
1.000000 0.978004 0.070555
0.000000 1.000000 0.078711
0.009951 1.000000 0.077920
0.097382 1.000000 0.077199
0.180720 1.000000 0.076512
0.261362 1.000000 0.075847
0.340007 1.000000 0.075199
0.417073 1.000000 0.074563
0.492836 1.000000 0.073939
0.567494 1.000000 0.073323
0.641193 1.000000 0.072716
0.714048 1.000000 0.072115
0.786149 1.000000 0.071520
0.857569 1.000000 0.070932
0.928369 1.000000 0.070348
0.998602 1.000000 0.069769
1.000000 1.000000 0.069194
1.000000 1.000000 0.068624
0.000000 1.000000 0.076791
0.008031 1.000000 0.076000
0.095462 1.000000 0.075279
0.178800 1.000000 0.074592
0.259442 1.000000 0.073927
0.338087 1.000000 0.073279
0.415153 1.000000 0.072643
0.490916 1.000000 0.072019
0.565574 1.000000 0.071403
0.639273 1.000000 0.070796
0.712128 1.000000 0.070195
0.784229 1.000000 0.069600
0.855649 1.000000 0.069012
0.926449 1.000000 0.068428
0.996682 1.000000 0.067849
1.000000 1.000000 0.067274
1.000000 1.000000 0.066704
0.000000 0.000000 0.189264
0.041218 0.000000 0.188473
0.128649 0.000000 0.187752
0.211987 0.000000 0.187065
0.292629 0.000000 0.186400
0.371274 0.000000 0.185752
0.448340 0.000000 0.185116
0.524103 0.000000 0.184492
0.598761 0.000000 0.183876
0.672460 0.000000 0.183269
0.745315 0.000000 0.182668
0.817416 0.000000 0.182074
0.888836 0.000000 0.181485
