assets/lighting/tone-mapping/grade-aces-contrast-proxy/lut.cube
TITLE "ACES-like Contrast Proxy"
# TKRS lighting-batch-001 original LUT
# Intended usage: filmic S-curve contrast proxy (not a real ACES RRT)
# License: CC0-1.0
LUT_3D_SIZE 9
DOMAIN_MIN 0.0 0.0 0.0
DOMAIN_MAX 1.0 1.0 1.0
0.000000 0.000000 0.000000
0.129339 0.000000 0.000000
0.293319 0.000000 0.000000
0.449030 0.000000 0.000000
0.599451 0.000000 0.000000
0.746005 0.000000 0.000000
0.889526 0.000000 0.000000
1.000000 0.000000 0.000000
1.000000 0.000000 0.000000
0.000000 0.115861 0.000000
0.124469 0.114349 0.000000
0.288449 0.112997 0.000000
0.444160 0.111713 0.000000
0.594581 0.110473 0.000000
0.741135 0.109265 0.000000
0.884655 0.108082 0.000000
1.000000 0.106919 0.000000
1.000000 0.105774 0.000000
0.000000 0.272564 0.000000
0.120036 0.271053 0.000000
0.284016 0.269701 0.000000
0.439727 0.268417 0.000000
0.590148 0.267177 0.000000
0.736702 0.265969 0.000000
0.880223 0.264785 0.000000
1.000000 0.263623 0.000000
1.000000 0.262477 0.000000
0.000000 0.422550 0.000000
0.115794 0.421038 0.000000
0.279774 0.419686 0.000000
0.435485 0.418402 0.000000
0.585906 0.417162 0.000000
0.732460 0.415954 0.000000
0.875980 0.414771 0.000000
1.000000 0.413608 0.000000
1.000000 0.412463 0.000000
0.000000 0.568205 0.000000
0.111674 0.566693 0.000000
0.275654 0.565342 0.000000
0.431365 0.564058 0.000000
0.581786 0.562818 0.000000
0.728340 0.561609 0.000000
0.871860 0.560426 0.000000
1.000000 0.559264 0.000000
1.000000 0.558118 0.000000
0.000000 0.710680 0.000000
0.107644 0.709168 0.000000
0.271624 0.707817 0.000000
0.427335 0.706533 0.000000
0.577756 0.705293 0.000000
0.724310 0.704084 0.000000
0.867830 0.702901 0.000000
1.000000 0.701738 0.000000
1.000000 0.700593 0.000000
0.000000 0.850651 0.000000
0.103685 0.849139 0.000000
0.267664 0.847787 0.000000
0.423375 0.846503 0.000000
0.573796 0.845263 0.000000
0.720350 0.844055 0.000000
0.863871 0.842872 0.000000
1.000000 0.841709 0.000000
1.000000 0.840563 0.000000
0.000000 0.988561 0.000000
0.099784 0.987049 0.000000
0.263764 0.985697 0.000000
0.419475 0.984414 0.000000
0.569896 0.983174 0.000000
0.716450 0.981965 0.000000
0.859970 0.980782 0.000000
1.000000 0.979619 0.000000
1.000000 0.978474 0.000000
0.000000 1.000000 0.000000
0.095932 1.000000 0.000000
0.259912 1.000000 0.000000
0.415623 1.000000 0.000000
0.566044 1.000000 0.000000
0.712598 1.000000 0.000000
0.856119 1.000000 0.000000
0.997152 1.000000 0.000000
1.000000 1.000000 0.000000
0.000000 0.000000 0.110198
0.128869 0.000000 0.108686
0.292849 0.000000 0.107334
0.448560 0.000000 0.106050
0.598981 0.000000 0.104810
0.745535 0.000000 0.103602
0.889056 0.000000 0.102419
1.000000 0.000000 0.101256
1.000000 0.000000 0.100111
0.000000 0.115391 0.105327
0.123999 0.113879 0.103815
0.287979 0.112527 0.102463
0.443690 0.111243 0.101180
0.594111 0.110003 0.099940
0.740665 0.108795 0.098731
0.884185 0.107612 0.097548
1.000000 0.106449 0.096385
1.000000 0.105304 0.095240
0.000000 0.272094 0.100895
0.119566 0.270583 0.099383
0.283546 0.269231 0.098031
0.439257 0.267947 0.096747
0.589678 0.266707 0.095507
0.736232 0.265499 0.094299
0.879753 0.264315 0.093116
1.000000 0.263153 0.091953
1.000000 0.262007 0.090808
0.000000 0.422080 0.096652
0.115324 0.420568 0.095140
0.279304 0.419216 0.093789
0.435015 0.417932 0.092505
0.585436 0.416692 0.091265
0.731990 0.415484 0.090056
0.875510 0.414301 0.088873
1.000000 0.413138 0.087711
1.000000 0.411993 0.086565
0.000000 0.567735 0.092532
0.111204 0.566224 0.091020
0.275184 0.564872 0.089669
0.430895 0.563588 0.088385
0.581316 0.562348 0.087145
0.727870 0.561140 0.085936
0.871390 0.559956 0.084753
1.000000 0.558794 0.083591
1.000000 0.557648 0.082445
0.000000 0.710210 0.088502
0.107174 0.708698 0.086990
0.271154 0.707347 0.085639
0.426865 0.706063 0.084355
0.577286 0.704823 0.083115
0.723840 0.703614 0.081906
0.867360 0.702431 0.080723
1.000000 0.701269 0.079561
1.000000 0.700123 0.078415
0.000000 0.850181 0.084543
0.103215 0.848669 0.083031
0.267195 0.847317 0.081679
0.422906 0.846033 0.080396
0.573326 0.844793 0.079156
0.719881 0.843585 0.077947
0.863401 0.842402 0.076764
1.000000 0.841239 0.075601
1.000000 0.840094 0.074456
0.000000 0.988091 0.080642
0.099314 0.986579 0.079130
0.263294 0.985227 0.077778
0.419005 0.983944 0.076495
0.569426 0.982704 0.075255
0.715980 0.981495 0.074046
0.859500 0.980312 0.072863
1.000000 0.979149 0.071700
1.000000 0.978004 0.070555
0.000000 1.000000 0.076791
0.095462 1.000000 0.075279
0.259442 1.000000 0.073927
0.415153 1.000000 0.072643
0.565574 1.000000 0.071403
0.712128 1.000000 0.070195
0.855649 1.000000 0.069012
0.996682 1.000000 0.067849
1.000000 1.000000 0.066704
0.000000 0.000000 0.266561
0.128434 0.000000 0.265049
0.292414 0.000000 0.263697
0.448125 0.000000 0.262413
0.598546 0.000000 0.261173
0.745100 0.000000 0.259965
0.888620 0.000000 0.258782
1.000000 0.000000 0.257619
1.000000 0.000000 0.256474
0.000000 0.114955 0.261690
0.123563 0.113444 0.260178
0.287543 0.112092 0.258826
0.443254 0.110808 0.257543
0.593675 0.109568 0.256303
0.740229 0.108360 0.255094
0.883750 0.107176 0.253911
1.000000 0.106014 0.252748
1.000000 0.104868 0.251603
0.000000 0.271659 0.257258
0.119131 0.270147 0.255746
0.283111 0.268795 0.254394
0.438822 0.267512 0.253110
0.589243 0.266271 0.251870
0.735797 0.265063 0.250662
0.879317 0.263880 0.249479
1.000000 0.262717 0.248316
1.000000 0.261572 0.247170
0.000000 0.421644 0.253015
0.114888 0.420133 0.251503
0.278868 0.418781 0.250151
0.434579 0.417497 0.248868
0.585000 0.416257 0.247628
0.731554 0.415049 0.246419
0.875075 0.413865 0.245236
1.000000 0.412703 0.244073
1.000000 0.411557 0.242928
0.000000 0.567300 0.248895
0.110768 0.565788 0.247383
0.274748 0.564436 0.246031
0.430459 0.563152 0.244748
0.580880 0.561912 0.243508
0.727434 0.560704 0.242299
0.870955 0.559521 0.241116
1.000000 0.558358 0.239953
1.000000 0.557213 0.238808
0.000000 0.709775 0.244865
0.106738 0.708263 0.243353
0.270718 0.706911 0.242001
0.426429 0.705627 0.240718
0.576850 0.704387 0.239478
0.723404 0.703179 0.238269
0.866925 0.701996 0.237086
1.000000 0.700833 0.235923
1.000000 0.699688 0.234778
0.000000 0.849745 0.240906
0.102779 0.848233 0.239394
0.266759 0.846882 0.238042
0.422470 0.845598 0.236759
0.572891 0.844358 0.235518
0.719445 0.843149 0.234310
0.862966 0.841966 0.233127
1.000000 0.840804 0.231964
1.000000 0.839658 0.230819
0.000000 0.987656 0.237005
0.098878 0.986144 0.235493
0.262858 0.984792 0.234141
0.418569 0.983508 0.232858
0.568990 0.982268 0.231618
0.715544 0.981060 0.230409
0.859065 0.979877 0.229226
1.000000 0.978714 0.228063
1.000000 0.977569 0.226918
0.000000 1.000000 0.233154
0.095027 1.000000 0.231642
0.259007 1.000000 0.230290
0.414718 1.000000 0.229006
0.565139 1.000000 0.227766
0.711693 1.000000 0.226558
0.855213 1.000000 0.225375
0.996246 1.000000 0.224212
1.000000 1.000000 0.223066
0.000000 0.000000 0.417450
0.128014 0.000000 0.415938
0.291994 0.000000 0.414586
0.447705 0.000000 0.413303
0.598126 0.000000 0.412063
0.744680 0.000000 0.410854
0.888200 0.000000 0.409671
1.000000 0.000000 0.408508
1.000000 0.000000 0.407363
0.000000 0.114535 0.412579
0.123143 0.113023 0.411068
0.287123 0.111672 0.409716
0.442834 0.110388 0.408432
0.593255 0.109148 0.407192
0.739809 0.107939 0.405984
0.883330 0.106756 0.404800
1.000000 0.105593 0.403638
1.000000 0.104448 0.402492
0.000000 0.271239 0.408147
0.118711 0.269727 0.406635
0.282691 0.268375 0.405283
0.438402 0.267091 0.404000
0.588823 0.265851 0.402759
0.735377 0.264643 0.401551
0.878897 0.263460 0.400368
1.000000 0.262297 0.399205
1.000000 0.261152 0.398060
0.000000 0.421224 0.403905
0.114468 0.419712 0.402393
0.278448 0.418360 0.401041
0.434159 0.417077 0.399757
0.584580 0.415837 0.398517
0.731134 0.414628 0.397309
0.874655 0.413445 0.396125
1.000000 0.412282 0.394963
1.000000 0.411137 0.393817
0.000000 0.566880 0.399785
0.110348 0.565368 0.398273
0.274328 0.564016 0.396921
0.430039 0.562732 0.395637
0.580460 0.561492 0.394397
0.727014 0.560284 0.393189
0.870535 0.559101 0.392005
1.000000 0.557938 0.390843
1.000000 0.556793 0.389697
0.000000 0.709355 0.395755
0.106318 0.707843 0.394243
0.270298 0.706491 0.392891
0.426009 0.705207 0.391607
0.576430 0.703967 0.390367
0.722984 0.702759 0.389159
0.866505 0.701576 0.387975
1.000000 0.700413 0.386813
1.000000 0.699268 0.385667
0.000000 0.849325 0.391795
0.102359 0.847813 0.390284
0.266339 0.846461 0.388932
0.422050 0.845178 0.387648
0.572471 0.843938 0.386408
0.719025 0.842729 0.385200
0.862545 0.841546 0.384016
1.000000 0.840383 0.382854
1.000000 0.839238 0.381708
0.000000 0.987236 0.387894
0.098458 0.985724 0.386383
0.262438 0.984372 0.385031
0.418149 0.983088 0.383747
0.568570 0.981848 0.382507
0.715124 0.980640 0.381299
0.858645 0.979457 0.380115
0.999678 0.978294 0.378953
1.000000 0.977148 0.377807
0.000000 1.000000 0.384043
0.094607 1.000000 0.382531
0.258587 1.000000 0.381179
0.414298 1.000000 0.379895
0.564718 1.000000 0.378655
0.711273 1.000000 0.377447
0.854793 1.000000 0.376264
0.995826 1.000000 0.375101
1.000000 1.000000 0.373956
0.000000 0.000000 0.564785
0.127604 0.000000 0.563273
0.291583 0.000000 0.561921
0.447294 0.000000 0.560637
0.597715 0.000000 0.559397
0.744269 0.000000 0.558189
0.887790 0.000000 0.557006
1.000000 0.000000 0.555843
1.000000 0.000000 0.554698
0.000000 0.114125 0.559914
0.122733 0.112613 0.558402
0.286713 0.111261 0.557051
0.442424 0.109978 0.555767
0.592845 0.108737 0.554527
0.739399 0.107529 0.553318
0.882919 0.106346 0.552135
1.000000 0.105183 0.550972
1.000000 0.104038 0.549827
0.000000 0.270829 0.555482
0.118300 0.269317 0.553970
0.282280 0.267965 0.552618
0.437991 0.266681 0.551334
0.588412 0.265441 0.550094
0.734966 0.264233 0.548886
0.878487 0.263049 0.547703
1.000000 0.261887 0.546540
1.000000 0.260741 0.545395
0.000000 0.420814 0.551239
0.114058 0.419302 0.549728
0.278038 0.417950 0.548376
0.433749 0.416666 0.547092
0.584170 0.415426 0.545852
0.730724 0.414218 0.544644
0.874244 0.413035 0.543460
1.000000 0.411872 0.542298
1.000000 0.410727 0.541152
0.000000 0.566469 0.547119
0.109938 0.564958 0.545608
0.273918 0.563606 0.544256
0.429629 0.562322 0.542972
0.580050 0.561082 0.541732
0.726604 0.559874 0.540524
0.870124 0.558690 0.539340
1.000000 0.557528 0.538178
1.000000 0.556382 0.537032
0.000000 0.708944 0.543089
0.105908 0.707433 0.541578
0.269888 0.706081 0.540226
0.425599 0.704797 0.538942
0.576020 0.703557 0.537702
0.722574 0.702349 0.536494
0.866094 0.701165 0.535310
1.000000 0.700003 0.534148
1.000000 0.698857 0.533002
0.000000 0.848915 0.539130
0.101949 0.847403 0.537618
0.265929 0.846051 0.536266
0.421640 0.844767 0.534983
0.572061 0.843527 0.533743
0.718615 0.842319 0.532534
0.862135 0.841136 0.531351
1.000000 0.839973 0.530188
1.000000 0.838828 0.529043
0.000000 0.986825 0.535229
0.098048 0.985313 0.533717
0.262028 0.983962 0.532366
0.417739 0.982678 0.531082
0.568160 0.981438 0.529842
0.714714 0.980229 0.528633
0.858234 0.979046 0.527450
0.999267 0.977884 0.526287
1.000000 0.976738 0.525142
0.000000 1.000000 0.531378
0.094196 1.000000 0.529866
0.258176 1.000000 0.528514
0.413887 1.000000 0.527230
0.564308 1.000000 0.525990
0.710862 1.000000 0.524782
0.854383 1.000000 0.523599
0.995416 1.000000 0.522436
1.000000 1.000000 0.521291
0.000000 0.000000 0.709495
0.127201 0.000000 0.707983
0.291180 0.000000 0.706631
0.446891 0.000000 0.705348
0.597312 0.000000 0.704108
0.743866 0.000000 0.702899
0.887387 0.000000 0.701716
1.000000 0.000000 0.700553
1.000000 0.000000 0.699408
0.000000 0.113722 0.704625
0.122330 0.112210 0.703113
0.286310 0.110858 0.701761
0.442021 0.109575 0.700477
0.592442 0.108334 0.699237
0.738996 0.107126 0.698029
0.882516 0.105943 0.696845
1.000000 0.104780 0.695683
1.000000 0.103635 0.694537
0.000000 0.270426 0.700192
0.117897 0.268914 0.698680
0.281877 0.267562 0.697328
0.437588 0.266278 0.696045
0.588009 0.265038 0.694804
0.734563 0.263830 0.693596
0.878084 0.262647 0.692413
1.000000 0.261484 0.691250
1.000000 0.260338 0.690105
0.000000 0.420411 0.695950
0.113655 0.418899 0.694438
0.277635 0.417547 0.693086
0.433346 0.416263 0.691802
0.583767 0.415023 0.690562
0.730321 0.413815 0.689354
0.873841 0.412632 0.688171
1.000000 0.411469 0.687008
1.000000 0.410324 0.685862
0.000000 0.566067 0.691830
0.109535 0.564555 0.690318
0.273515 0.563203 0.688966
0.429226 0.561919 0.687682
0.579647 0.560679 0.686442
0.726201 0.559471 0.685234
0.869721 0.558287 0.684051
1.000000 0.557125 0.682888
1.000000 0.555979 0.681742
0.000000 0.708541 0.687800
0.105505 0.707030 0.686288
0.269485 0.705678 0.684936
0.425196 0.704394 0.683652
0.575617 0.703154 0.682412
0.722171 0.701946 0.681204
0.865691 0.700762 0.680021
1.000000 0.699600 0.678858
1.000000 0.698454 0.677712
0.000000 0.848512 0.683840
0.101546 0.847000 0.682329
0.265526 0.845648 0.680977
0.421237 0.844364 0.679693
0.571658 0.843124 0.678453
0.718212 0.841916 0.677245
0.861732 0.840733 0.676061
1.000000 0.839570 0.674899
1.000000 0.838425 0.673753
0.000000 0.986422 0.679940
0.097645 0.984911 0.678428
0.261625 0.983559 0.677076
0.417336 0.982275 0.675792
0.567757 0.981035 0.674552
0.714311 0.979827 0.673344
0.857831 0.978643 0.672160
0.998864 0.977481 0.670998
1.000000 0.976335 0.669852
0.000000 1.000000 0.676088
0.093793 1.000000 0.674576
0.257773 1.000000 0.673224
0.413484 1.000000 0.671941
0.563905 1.000000 0.670700
0.710459 1.000000 0.669492
0.853980 1.000000 0.668309
0.995013 1.000000 0.667146
1.000000 1.000000 0.666001
0.000000 0.000000 0.852131
0.126803 0.000000 0.850619
0.290783 0.000000 0.849267
0.446494 0.000000 0.847983
0.596915 0.000000 0.846743
0.743469 0.000000 0.845535
0.886990 0.000000 0.844352
1.000000 0.000000 0.843189
1.000000 0.000000 0.842044
0.000000 0.113325 0.847260
0.121933 0.111813 0.845748
0.285913 0.110461 0.844396
0.441624 0.109177 0.843113
0.592045 0.107937 0.841872
0.738599 0.106729 0.840664
0.882119 0.105546 0.839481
1.000000 0.104383 0.838318
1.000000 0.103238 0.837173
0.000000 0.270028 0.842828
0.117500 0.268517 0.841316
0.281480 0.267165 0.839964
0.437191 0.265881 0.838680
0.587612 0.264641 0.837440
0.734166 0.263433 0.836232
0.877687 0.262249 0.835049
1.000000 0.261087 0.833886
1.000000 0.259941 0.832740
0.000000 0.420014 0.838585
0.113258 0.418502 0.837073
0.277238 0.417150 0.835721
0.432949 0.415866 0.834438
0.583370 0.414626 0.833198
0.729924 0.413418 0.831989
0.873444 0.412235 0.830806
1.000000 0.411072 0.829643
1.000000 0.409927 0.828498
0.000000 0.565669 0.834465
0.109138 0.564157 0.832953
0.273118 0.562806 0.831601
0.428829 0.561522 0.830318
0.579250 0.560282 0.829078
0.725804 0.559073 0.827869
0.869324 0.557890 0.826686
1.000000 0.556728 0.825523
1.000000 0.555582 0.824378
0.000000 0.708144 0.830435
0.105108 0.706632 0.828923
0.269088 0.705281 0.827571
0.424799 0.703997 0.826288
0.575220 0.702757 0.825048
0.721774 0.701548 0.823839
0.865294 0.700365 0.822656
1.000000 0.699202 0.821493
1.000000 0.698057 0.820348
0.000000 0.848115 0.826476
0.101149 0.846603 0.824964
0.265128 0.845251 0.823612
0.420840 0.843967 0.822329
0.571260 0.842727 0.821088
0.717815 0.841519 0.819880
0.861335 0.840336 0.818697
1.000000 0.839173 0.817534
1.000000 0.838028 0.816389
0.000000 0.986025 0.822575
0.097248 0.984513 0.821063
0.261228 0.983161 0.819711
0.416939 0.981878 0.818428
0.567360 0.980638 0.817187
0.713914 0.979429 0.815979
0.857434 0.978246 0.814796
0.998467 0.977083 0.813633
1.000000 0.975938 0.812488
0.000000 1.000000 0.818724
0.093396 1.000000 0.817212
0.257376 1.000000 0.815860
0.413087 1.000000 0.814576
0.563508 1.000000 0.813336
0.710062 1.000000 0.812128
0.853583 1.000000 0.810944
0.994616 1.000000 0.809782
1.000000 1.000000 0.808636
0.000000 0.000000 0.993054
0.126411 0.000000 0.991543
0.290391 0.000000 0.990191
0.446102 0.000000 0.988907
0.596523 0.000000 0.987667
0.743077 0.000000 0.986459
0.886597 0.000000 0.985275
1.000000 0.000000 0.984113
1.000000 0.000000 0.982967
0.000000 0.112932 0.988184
0.121540 0.111421 0.986672
0.285520 0.110069 0.985320
0.441231 0.108785 0.984036
0.591652 0.107545 0.982796
0.738206 0.106337 0.981588
0.881727 0.105153 0.980405
1.000000 0.103991 0.979242
1.000000 0.102845 0.978097
0.000000 0.269636 0.983751
0.117108 0.268124 0.982239
0.281088 0.266772 0.980888
0.436799 0.265488 0.979604
0.587220 0.264248 0.978364
0.733774 0.263040 0.977155
0.877294 0.261857 0.975972
1.000000 0.260694 0.974810
1.000000 0.259549 0.973664
0.000000 0.419621 0.979509
0.112865 0.418109 0.977997
0.276845 0.416758 0.976645
0.432556 0.415474 0.975361
0.582977 0.414234 0.974121
0.729531 0.413025 0.972913
0.873052 0.411842 0.971730
1.000000 0.410680 0.970567
1.000000 0.409534 0.969422
0.000000 0.565277 0.975389
0.108745 0.563765 0.973877
0.272725 0.562413 0.972525
0.428436 0.561129 0.971241
0.578857 0.559889 0.970001
0.725411 0.558681 0.968793
0.868932 0.557498 0.967610
1.000000 0.556335 0.966447
1.000000 0.555190 0.965302
0.000000 0.707752 0.971359
0.104715 0.706240 0.969847
0.268695 0.704888 0.968495
0.424406 0.703604 0.967211
0.574827 0.702364 0.965971
0.721381 0.701156 0.964763
0.864902 0.699973 0.963580
1.000000 0.698810 0.962417
1.000000 0.697665 0.961272
0.000000 0.847722 0.967400
0.100756 0.846210 0.965888
0.264736 0.844859 0.964536
0.420447 0.843575 0.963252
0.570868 0.842335 0.962012
0.717422 0.841126 0.960804
0.860943 0.839943 0.959621
1.000000 0.838780 0.958458
1.000000 0.837635 0.957313
0.000000 0.985633 0.963499
0.096855 0.984121 0.961987
0.260835 0.982769 0.960635
0.416546 0.981485 0.959351
0.566967 0.980245 0.958111
0.713521 0.979037 0.956903
0.857042 0.977854 0.955720
0.998075 0.976691 0.954557
1.000000 0.975546 0.953412
0.000000 1.000000 0.959647
0.093004 1.000000 0.958135
0.256984 1.000000 0.956784
0.412695 1.000000 0.955500
0.563116 1.000000 0.954260
0.709670 1.000000 0.953051
0.853190 1.000000 0.951868
0.994223 1.000000 0.950705
1.000000 1.000000 0.949560
0.000000 0.000000 1.000000
0.126023 0.000000 1.000000
0.290002 0.000000 1.000000
0.445713 0.000000 1.000000
0.596134 0.000000 1.000000
0.742688 0.000000 1.000000
0.886209 0.000000 1.000000
1.000000 0.000000 1.000000
1.000000 0.000000 1.000000
0.000000 0.112544 1.000000
0.121152 0.111032 1.000000
0.285132 0.109680 1.000000
0.440843 0.108397 1.000000
0.591264 0.107156 1.000000
0.737818 0.105948 1.000000
0.881338 0.104765 1.000000
1.000000 0.103602 1.000000
1.000000 0.102457 1.000000
0.000000 0.269248 1.000000
0.116719 0.267736 1.000000
0.280699 0.266384 1.000000
0.436410 0.265100 1.000000
0.586831 0.263860 1.000000
0.733385 0.262652 1.000000
0.876906 0.261469 1.000000
1.000000 0.260306 1.000000
1.000000 0.259160 1.000000
0.000000 0.419233 1.000000
0.112477 0.417721 1.000000
0.276457 0.416369 1.000000
0.432168 0.415085 1.000000
0.582589 0.413845 1.000000
0.729143 0.412637 1.000000
0.872663 0.411454 1.000000
1.000000 0.410291 1.000000
1.000000 0.409146 1.000000
0.000000 0.564889 1.000000
0.108357 0.563377 1.000000
0.272337 0.562025 1.000000
0.428048 0.560741 1.000000
0.578469 0.559501 1.000000
0.725023 0.558293 1.000000
0.868543 0.557109 1.000000
1.000000 0.555947 1.000000
1.000000 0.554801 1.000000
0.000000 0.707363 1.000000
0.104327 0.705852 1.000000
0.268307 0.704500 1.000000
0.424018 0.703216 1.000000
0.574439 0.701976 1.000000
0.720993 0.700768 1.000000
0.864513 0.699584 1.000000
1.000000 0.698422 1.000000
1.000000 0.697276 1.000000
0.000000 0.847334 1.000000
0.100368 0.845822 1.000000
0.264348 0.844470 1.000000
0.420059 0.843186 1.000000
0.570480 0.841946 1.000000
0.717034 0.840738 1.000000
0.860554 0.839555 1.000000
1.000000 0.838392 1.000000
1.000000 0.837247 1.000000
0.000000 0.985244 1.000000
0.096467 0.983733 1.000000
0.260447 0.982381 1.000000
0.416158 0.981097 1.000000
0.566579 0.979857 1.000000
0.713133 0.978649 1.000000
0.856653 0.977465 1.000000
0.997686 0.976303 1.000000
1.000000 0.975157 1.000000
0.000000 1.000000 1.000000
0.092615 1.000000 1.000000
0.256595 1.000000 1.000000
0.412306 1.000000 1.000000
0.562727 1.000000 1.000000
0.709281 1.000000 1.000000
0.852802 1.000000 1.000000
0.993835 1.000000 1.000000
1.000000 1.000000 1.000000
