assets/lighting/cinematic/grade-school-fluorescent/lut.cube
TITLE "School Fluorescent"
# TKRS lighting-batch-001 original LUT
# Intended usage: institutional classroom cool-white
# License: CC0-1.0
LUT_3D_SIZE 5
DOMAIN_MIN 0.0 0.0 0.0
DOMAIN_MAX 1.0 1.0 1.0
0.000000 0.000000 0.000000
0.224122 0.000000 0.000000
0.458389 0.003234 0.003055
0.692657 0.010222 0.009655
0.926924 0.017209 0.016256
0.011602 0.248357 0.011602
0.245870 0.255345 0.018202
0.480137 0.262332 0.024803
0.714404 0.269320 0.031403
0.948672 0.276307 0.038003
0.033350 0.507455 0.033350
0.267617 0.514443 0.039950
0.501885 0.521431 0.046550
0.736152 0.528418 0.053151
0.970420 0.535406 0.059751
0.055097 0.766554 0.055097
0.289365 0.773541 0.061698
0.523632 0.780529 0.068298
0.757900 0.787516 0.074898
0.992167 0.794504 0.081499
0.076845 1.000000 0.076845
0.311113 1.000000 0.083445
0.545380 1.000000 0.090046
0.779648 1.000000 0.096646
1.000000 1.000000 0.103246
0.000000 0.000000 0.211651
0.226284 0.000000 0.218251
0.460552 0.005523 0.224852
0.694819 0.012511 0.231452
0.929087 0.019499 0.238052
0.013764 0.250647 0.233399
0.248032 0.257634 0.239999
0.482299 0.264622 0.246599
0.716567 0.271609 0.253200
0.950834 0.278597 0.259800
0.035512 0.509745 0.255147
0.269780 0.516732 0.261747
0.504047 0.523720 0.268347
0.738315 0.530707 0.274947
0.972582 0.537695 0.281548
0.057260 0.768843 0.276894
0.291527 0.775830 0.283494
0.525795 0.782818 0.290095
0.760062 0.789805 0.296695
0.994330 0.796793 0.303295
0.079008 1.000000 0.298642
0.313275 1.000000 0.305242
0.547542 1.000000 0.311842
0.781810 1.000000 0.318443
1.000000 1.000000 0.325043
0.000000 0.000000 0.433448
0.228447 0.000825 0.440048
0.462714 0.007813 0.446648
0.696982 0.014800 0.453249
0.931249 0.021788 0.459849
0.015927 0.252936 0.455196
0.250194 0.259923 0.461796
0.484462 0.266911 0.468396
0.718729 0.273898 0.474996
0.952997 0.280886 0.481597
0.037675 0.512034 0.476943
0.271942 0.519022 0.483544
0.506209 0.526009 0.490144
0.740477 0.532997 0.496744
0.974744 0.539984 0.503344
0.059422 0.771132 0.498691
0.293690 0.778120 0.505291
0.527957 0.785107 0.511891
0.762225 0.792095 0.518492
0.996492 0.799082 0.525092
0.081170 1.000000 0.520439
0.315437 1.000000 0.527039
0.549705 1.000000 0.533639
0.783972 1.000000 0.540239
1.000000 1.000000 0.546840
0.000000 0.000000 0.655245
0.230609 0.003114 0.661845
0.464877 0.010102 0.668445
0.699144 0.017090 0.675045
0.933411 0.024077 0.681646
0.018089 0.255225 0.676992
0.252357 0.262213 0.683593
0.486624 0.269200 0.690193
0.720892 0.276188 0.696793
0.955159 0.283175 0.703393
0.039837 0.514323 0.698740
0.274104 0.521311 0.705340
0.508372 0.528298 0.711941
0.742639 0.535286 0.718541
0.976907 0.542273 0.725141
0.061585 0.773421 0.720488
0.295852 0.780409 0.727088
0.530120 0.787396 0.733688
0.764387 0.794384 0.740289
0.998654 0.801372 0.746889
0.083332 1.000000 0.742235
0.317600 1.000000 0.748836
0.551867 1.000000 0.755436
0.786135 1.000000 0.762036
1.000000 1.000000 0.768636
0.000000 0.000000 0.877041
0.232771 0.005404 0.883642
0.467039 0.012391 0.890242
0.701306 0.019379 0.896842
0.935574 0.026366 0.903442
0.020252 0.257514 0.898789
0.254519 0.264502 0.905389
0.488787 0.271489 0.911990
0.723054 0.278477 0.918590
0.957322 0.285465 0.925190
0.041999 0.516613 0.920537
0.276267 0.523600 0.927137
0.510534 0.530588 0.933737
0.744802 0.537575 0.940338
0.979069 0.544563 0.946938
0.063747 0.775711 0.942284
0.298015 0.782698 0.948885
0.532282 0.789686 0.955485
0.766549 0.796673 0.962085
1.000000 0.803661 0.968686
0.085495 1.000000 0.964032
0.319762 1.000000 0.970632
0.554030 1.000000 0.977233
0.788297 1.000000 0.983833
1.000000 1.000000 0.990433
