assets/lighting/cinematic/grade-school-fluorescent/lut.cube
TITLE "School Fluorescent"
# TKRS lighting-batch-001 original LUT
# Intended usage: institutional classroom cool-white
# License: CC0-1.0
LUT_3D_SIZE 9
DOMAIN_MIN 0.0 0.0 0.0
DOMAIN_MAX 1.0 1.0 1.0
0.000000 0.000000 0.000000
0.106988 0.000000 0.000000
0.224122 0.000000 0.000000
0.341256 0.000000 0.000000
0.458389 0.003234 0.003055
0.575523 0.006728 0.006355
0.692657 0.010222 0.009655
0.809791 0.013716 0.012955
0.926924 0.017209 0.016256
0.000728 0.118808 0.000728
0.117862 0.122302 0.004028
0.234996 0.125796 0.007329
0.352129 0.129290 0.010629
0.469263 0.132783 0.013929
0.586397 0.136277 0.017229
0.703531 0.139771 0.020529
0.820664 0.143265 0.023829
0.937798 0.146758 0.027129
0.011602 0.248357 0.011602
0.128736 0.251851 0.014902
0.245870 0.255345 0.018202
0.363003 0.258839 0.021503
0.480137 0.262332 0.024803
0.597271 0.265826 0.028103
0.714404 0.269320 0.031403
0.831538 0.272814 0.034703
0.948672 0.276307 0.038003
0.022476 0.377906 0.022476
0.139610 0.381400 0.025776
0.256743 0.384894 0.029076
0.373877 0.388388 0.032376
0.491011 0.391881 0.035676
0.608145 0.395375 0.038977
0.725278 0.398869 0.042277
0.842412 0.402363 0.045577
0.959546 0.405857 0.048877
0.033350 0.507455 0.033350
0.150484 0.510949 0.036650
0.267617 0.514443 0.039950
0.384751 0.517937 0.043250
0.501885 0.521431 0.046550
0.619018 0.524924 0.049850
0.736152 0.528418 0.053151
0.853286 0.531912 0.056451
0.970420 0.535406 0.059751
0.044224 0.637005 0.044224
0.161357 0.640498 0.047524
0.278491 0.643992 0.050824
0.395625 0.647486 0.054124
0.512759 0.650980 0.057424
0.629892 0.654473 0.060724
0.747026 0.657967 0.064024
0.864160 0.661461 0.067325
0.981293 0.664955 0.070625
0.055097 0.766554 0.055097
0.172231 0.770047 0.058398
0.289365 0.773541 0.061698
0.406499 0.777035 0.064998
0.523632 0.780529 0.068298
0.640766 0.784022 0.071598
0.757900 0.787516 0.074898
0.875034 0.791010 0.078198
0.992167 0.794504 0.081499
0.065971 0.896103 0.065971
0.183105 0.899596 0.069271
0.300239 0.903090 0.072572
0.417372 0.906584 0.075872
0.534506 0.910078 0.079172
0.651640 0.913572 0.082472
0.768774 0.917065 0.085772
0.885907 0.920559 0.089072
1.000000 0.924053 0.092372
0.076845 1.000000 0.076845
0.193979 1.000000 0.080145
0.311113 1.000000 0.083445
0.428246 1.000000 0.086746
0.545380 1.000000 0.090046
0.662514 1.000000 0.093346
0.779648 1.000000 0.096646
0.896781 1.000000 0.099946
1.000000 1.000000 0.103246
0.000000 0.000000 0.100753
0.108069 0.000000 0.104053
0.225203 0.000000 0.107353
0.342337 0.000885 0.110653
0.459471 0.004379 0.113953
0.576604 0.007873 0.117253
0.693738 0.011366 0.120554
0.810872 0.014860 0.123854
0.928005 0.018354 0.127154
0.001809 0.119953 0.111627
0.118943 0.123447 0.114927
0.236077 0.126940 0.118227
0.353211 0.130434 0.121527
0.470344 0.133928 0.124827
0.587478 0.137422 0.128127
0.704612 0.140915 0.131427
0.821746 0.144409 0.134728
0.938879 0.147903 0.138028
0.012683 0.249502 0.122500
0.129817 0.252996 0.125801
0.246951 0.256489 0.129101
0.364084 0.259983 0.132401
0.481218 0.263477 0.135701
0.598352 0.266971 0.139001
0.715486 0.270465 0.142301
0.832619 0.273958 0.145601
0.949753 0.277452 0.148902
0.023557 0.379051 0.133374
0.140691 0.382545 0.136674
0.257825 0.386039 0.139975
0.374958 0.389532 0.143275
0.492092 0.393026 0.146575
0.609226 0.396520 0.149875
0.726360 0.400014 0.153175
0.843493 0.403507 0.156475
0.960627 0.407001 0.159775
0.034431 0.508600 0.144248
0.151565 0.512094 0.147548
0.268698 0.515588 0.150848
0.385832 0.519081 0.154149
0.502966 0.522575 0.157449
0.620100 0.526069 0.160749
0.737233 0.529563 0.164049
0.854367 0.533056 0.167349
0.971501 0.536550 0.170649
0.045305 0.638149 0.155122
0.162439 0.641643 0.158422
0.279572 0.645137 0.161722
0.396706 0.648630 0.165022
0.513840 0.652124 0.168323
0.630973 0.655618 0.171623
0.748107 0.659112 0.174923
0.865241 0.662606 0.178223
0.982375 0.666099 0.181523
0.056179 0.767698 0.165996
0.173312 0.771192 0.169296
0.290446 0.774686 0.172596
0.407580 0.778180 0.175896
0.524714 0.781673 0.179196
0.641847 0.785167 0.182497
0.758981 0.788661 0.185797
0.876115 0.792155 0.189097
0.993248 0.795648 0.192397
0.067053 0.897247 0.176870
0.184186 0.900741 0.180170
0.301320 0.904235 0.183470
0.418454 0.907729 0.186770
0.535587 0.911222 0.190070
0.652721 0.914716 0.193370
0.769855 0.918210 0.196671
0.886989 0.921704 0.199971
1.000000 0.925197 0.203271
0.077926 1.000000 0.187744
0.195060 1.000000 0.191044
0.312194 1.000000 0.194344
0.429328 1.000000 0.197644
0.546461 1.000000 0.200944
0.663595 1.000000 0.204244
0.780729 1.000000 0.207544
0.897862 1.000000 0.210844
1.000000 1.000000 0.214145
0.000000 0.000000 0.211651
0.109151 0.000000 0.214951
0.226284 0.000000 0.218251
0.343418 0.002030 0.221552
0.460552 0.005523 0.224852
0.577685 0.009017 0.228152
0.694819 0.012511 0.231452
0.811953 0.016005 0.234752
0.929087 0.019499 0.238052
0.002891 0.121097 0.222525
0.120024 0.124591 0.225825
0.237158 0.128085 0.229125
0.354292 0.131579 0.232425
0.471426 0.135073 0.235726
0.588559 0.138566 0.239026
0.705693 0.142060 0.242326
0.822827 0.145554 0.245626
0.939960 0.149048 0.248926
0.013764 0.250647 0.233399
0.130898 0.254140 0.236699
0.248032 0.257634 0.239999
0.365166 0.261128 0.243299
0.482299 0.264622 0.246599
0.599433 0.268115 0.249900
0.716567 0.271609 0.253200
0.833701 0.275103 0.256500
0.950834 0.278597 0.259800
0.024638 0.380196 0.244273
0.141772 0.383689 0.247573
0.258906 0.387183 0.250873
0.376040 0.390677 0.254173
0.493173 0.394171 0.257473
0.610307 0.397664 0.260773
0.727441 0.401158 0.264074
0.844574 0.404652 0.267374
0.961708 0.408146 0.270674
0.035512 0.509745 0.255147
0.152646 0.513238 0.258447
0.269780 0.516732 0.261747
0.386913 0.520226 0.265047
0.504047 0.523720 0.268347
0.621181 0.527214 0.271647
0.738315 0.530707 0.274947
0.855448 0.534201 0.278247
0.972582 0.537695 0.281548
0.046386 0.639294 0.266020
0.163520 0.642788 0.269320
0.280653 0.646281 0.272621
0.397787 0.649775 0.275921
0.514921 0.653269 0.279221
0.632055 0.656763 0.282521
0.749188 0.660256 0.285821
0.866322 0.663750 0.289121
0.983456 0.667244 0.292421
0.057260 0.768843 0.276894
0.174394 0.772337 0.280194
0.291527 0.775830 0.283494
0.408661 0.779324 0.286795
0.525795 0.782818 0.290095
0.642929 0.786312 0.293395
0.760062 0.789805 0.296695
0.877196 0.793299 0.299995
0.994330 0.796793 0.303295
0.068134 0.898392 0.287768
0.185267 0.901886 0.291068
0.302401 0.905379 0.294368
0.419535 0.908873 0.297668
0.536669 0.912367 0.300969
0.653802 0.915861 0.304269
0.770936 0.919355 0.307569
0.888070 0.922848 0.310869
1.000000 0.926342 0.314169
0.079008 1.000000 0.298642
0.196141 1.000000 0.301942
0.313275 1.000000 0.305242
0.430409 1.000000 0.308542
0.547542 1.000000 0.311842
0.664676 1.000000 0.315143
0.781810 1.000000 0.318443
0.898944 1.000000 0.321743
1.000000 1.000000 0.325043
0.000000 0.000000 0.322550
0.110232 0.000000 0.325850
0.227365 0.000000 0.329150
0.344499 0.003174 0.332450
0.461633 0.006668 0.335750
0.578767 0.010162 0.339050
0.695900 0.013656 0.342350
0.813034 0.017149 0.345650
0.930168 0.020643 0.348951
0.003972 0.122242 0.333423
0.121106 0.125736 0.336723
0.238239 0.129230 0.340024
0.355373 0.132723 0.343324
0.472507 0.136217 0.346624
0.589640 0.139711 0.349924
0.706774 0.143205 0.353224
0.823908 0.146699 0.356524
0.941042 0.150192 0.359824
0.014846 0.251791 0.344297
0.131979 0.255285 0.347597
0.249113 0.258779 0.350897
0.366247 0.262273 0.354198
0.483381 0.265766 0.357498
0.600514 0.269260 0.360798
0.717648 0.272754 0.364098
0.834782 0.276248 0.367398
0.951916 0.279741 0.370698
0.025720 0.381340 0.355171
0.142853 0.384834 0.358471
0.259987 0.388328 0.361771
0.377121 0.391822 0.365071
0.494254 0.395315 0.368372
0.611388 0.398809 0.371672
0.728522 0.402303 0.374972
0.845656 0.405797 0.378272
0.962789 0.409290 0.381572
0.036593 0.510889 0.366045
0.153727 0.514383 0.369345
0.270861 0.517877 0.372645
0.387995 0.521371 0.375945
0.505128 0.524864 0.379245
0.622262 0.528358 0.382546
0.739396 0.531852 0.385846
0.856529 0.535346 0.389146
0.973663 0.538840 0.392446
0.047467 0.640438 0.376919
0.164601 0.643932 0.380219
0.281735 0.647426 0.383519
0.398868 0.650920 0.386819
0.516002 0.654414 0.390119
0.633136 0.657907 0.393419
0.750270 0.661401 0.396720
0.867403 0.664895 0.400020
0.984537 0.668389 0.403320
0.058341 0.769987 0.387793
0.175475 0.773481 0.391093
0.292609 0.776975 0.394393
0.409742 0.780469 0.397693
0.526876 0.783963 0.400993
0.644010 0.787456 0.404293
0.761143 0.790950 0.407593
0.878277 0.794444 0.410894
0.995411 0.797938 0.414194
0.069215 0.899537 0.398666
0.186349 0.903030 0.401967
0.303482 0.906524 0.405267
0.420616 0.910018 0.408567
0.537750 0.913512 0.411867
0.654884 0.917005 0.415167
0.772017 0.920499 0.418467
0.889151 0.923993 0.421767
1.000000 0.927487 0.425068
0.080089 1.000000 0.409540
0.197222 1.000000 0.412840
0.314356 1.000000 0.416141
0.431490 1.000000 0.419441
0.548624 1.000000 0.422741
0.665757 1.000000 0.426041
0.782891 1.000000 0.429341
0.900025 1.000000 0.432641
1.000000 1.000000 0.435941
0.000000 0.000000 0.433448
0.111313 0.000000 0.436748
0.228447 0.000825 0.440048
0.345580 0.004319 0.443348
0.462714 0.007813 0.446648
0.579848 0.011307 0.449949
0.696982 0.014800 0.453249
0.814115 0.018294 0.456549
0.931249 0.021788 0.459849
0.005053 0.123387 0.444322
0.122187 0.126881 0.447622
0.239321 0.130374 0.450922
0.356454 0.133868 0.454222
0.473588 0.137362 0.457522
0.590722 0.140856 0.460822
0.707855 0.144349 0.464123
0.824989 0.147843 0.467423
0.942123 0.151337 0.470723
0.015927 0.252936 0.455196
0.133061 0.256430 0.458496
0.250194 0.259923 0.461796
0.367328 0.263417 0.465096
0.484462 0.266911 0.468396
0.601596 0.270405 0.471696
0.718729 0.273898 0.474996
0.835863 0.277392 0.478297
0.952997 0.280886 0.481597
0.026801 0.382485 0.466069
0.143934 0.385979 0.469370
0.261068 0.389472 0.472670
0.378202 0.392966 0.475970
0.495336 0.396460 0.479270
0.612469 0.399954 0.482570
0.729603 0.403448 0.485870
0.846737 0.406941 0.489170
0.963871 0.410435 0.492471
0.037675 0.512034 0.476943
0.154808 0.515528 0.480243
0.271942 0.519022 0.483544
0.389076 0.522515 0.486844
0.506209 0.526009 0.490144
0.623343 0.529503 0.493444
0.740477 0.532997 0.496744
0.857611 0.536490 0.500044
0.974744 0.539984 0.503344
0.048548 0.641583 0.487817
0.165682 0.645077 0.491117
0.282816 0.648571 0.494417
0.399950 0.652064 0.497718
0.517083 0.655558 0.501018
0.634217 0.659052 0.504318
0.751351 0.662546 0.507618
0.868485 0.666039 0.510918
0.985618 0.669533 0.514218
0.059422 0.771132 0.498691
0.176556 0.774626 0.501991
0.293690 0.778120 0.505291
0.410823 0.781613 0.508591
0.527957 0.785107 0.511891
0.645091 0.788601 0.515192
0.762225 0.792095 0.518492
0.879358 0.795589 0.521792
0.996492 0.799082 0.525092
0.070296 0.900681 0.509565
0.187430 0.904175 0.512865
0.304564 0.907669 0.516165
0.421697 0.911163 0.519465
0.538831 0.914656 0.522765
0.655965 0.918150 0.526065
0.773098 0.921644 0.529366
0.890232 0.925138 0.532666
1.000000 0.928631 0.535966
0.081170 1.000000 0.520439
0.198304 1.000000 0.523739
0.315437 1.000000 0.527039
0.432571 1.000000 0.530339
0.549705 1.000000 0.533639
0.666839 1.000000 0.536939
0.783972 1.000000 0.540239
0.901106 1.000000 0.543540
1.000000 1.000000 0.546840
0.000000 0.000000 0.544346
0.112394 0.000000 0.547646
0.229528 0.001970 0.550947
0.346662 0.005464 0.554247
0.463795 0.008957 0.557547
0.580929 0.012451 0.560847
0.698063 0.015945 0.564147
0.815197 0.019439 0.567447
0.932330 0.022932 0.570747
0.006134 0.124531 0.555220
0.123268 0.128025 0.558520
0.240402 0.131519 0.561820
0.357535 0.135013 0.565121
0.474669 0.138506 0.568421
0.591803 0.142000 0.571721
0.708937 0.145494 0.575021
0.826070 0.148988 0.578321
0.943204 0.152482 0.581621
0.017008 0.254080 0.566094
0.134142 0.257574 0.569394
0.251276 0.261068 0.572694
0.368409 0.264562 0.575994
0.485543 0.268056 0.579294
0.602677 0.271549 0.582595
0.719810 0.275043 0.585895
0.836944 0.278537 0.589195
0.954078 0.282031 0.592495
0.027882 0.383630 0.576968
0.145016 0.387123 0.580268
0.262149 0.390617 0.583568
0.379283 0.394111 0.586868
0.496417 0.397605 0.590168
0.613551 0.401098 0.593468
0.730684 0.404592 0.596769
0.847818 0.408086 0.600069
0.964952 0.411580 0.603369
0.038756 0.513179 0.587842
0.155890 0.516672 0.591142
0.273023 0.520166 0.594442
0.390157 0.523660 0.597742
0.507291 0.527154 0.601042
0.624424 0.530647 0.604342
0.741558 0.534141 0.607642
0.858692 0.537635 0.610943
0.975826 0.541129 0.614243
0.049630 0.642728 0.598715
0.166763 0.646221 0.602016
0.283897 0.649715 0.605316
0.401031 0.653209 0.608616
0.518165 0.656703 0.611916
0.635298 0.660197 0.615216
0.752432 0.663690 0.618516
0.869566 0.667184 0.621816
0.986699 0.670678 0.625117
0.060503 0.772277 0.609589
0.177637 0.775771 0.612889
0.294771 0.779264 0.616190
0.411905 0.782758 0.619490
0.529038 0.786252 0.622790
0.646172 0.789746 0.626090
0.763306 0.793239 0.629390
0.880440 0.796733 0.632690
0.997573 0.800227 0.635990
0.071377 0.901826 0.620463
0.188511 0.905320 0.623763
0.305645 0.908813 0.627063
0.422778 0.912307 0.630364
0.539912 0.915801 0.633664
0.657046 0.919295 0.636964
0.774180 0.922788 0.640264
0.891313 0.926282 0.643564
1.000000 0.929776 0.646864
0.082251 1.000000 0.631337
0.199385 1.000000 0.634637
0.316519 1.000000 0.637937
0.433652 1.000000 0.641237
0.550786 1.000000 0.644538
0.667920 1.000000 0.647838
0.785054 1.000000 0.651138
0.902187 1.000000 0.654438
1.000000 1.000000 0.657738
0.000000 0.000000 0.655245
0.113475 0.000000 0.658545
0.230609 0.003114 0.661845
0.347743 0.006608 0.665145
0.464877 0.010102 0.668445
0.582010 0.013596 0.671745
0.699144 0.017090 0.675045
0.816278 0.020583 0.678346
0.933411 0.024077 0.681646
0.007215 0.125676 0.666118
0.124349 0.129170 0.669419
0.241483 0.132664 0.672719
0.358617 0.136157 0.676019
0.475750 0.139651 0.679319
0.592884 0.143145 0.682619
0.710018 0.146639 0.685919
0.827152 0.150132 0.689219
0.944285 0.153626 0.692520
0.018089 0.255225 0.676992
0.135223 0.258719 0.680292
0.252357 0.262213 0.683593
0.369490 0.265706 0.686893
0.486624 0.269200 0.690193
0.603758 0.272694 0.693493
0.720892 0.276188 0.696793
0.838025 0.279681 0.700093
0.955159 0.283175 0.703393
0.028963 0.384774 0.687866
0.146097 0.388268 0.691166
0.263231 0.391762 0.694466
0.380364 0.395255 0.697767
0.497498 0.398749 0.701067
0.614632 0.402243 0.704367
0.731766 0.405737 0.707667
0.848899 0.409231 0.710967
0.966033 0.412724 0.714267
0.039837 0.514323 0.698740
0.156971 0.517817 0.702040
0.274104 0.521311 0.705340
0.391238 0.524805 0.708640
0.508372 0.528298 0.711941
0.625506 0.531792 0.715241
0.742639 0.535286 0.718541
0.859773 0.538780 0.721841
0.976907 0.542273 0.725141
0.050711 0.643872 0.709614
0.167845 0.647366 0.712914
0.284978 0.650860 0.716214
0.402112 0.654354 0.719514
0.519246 0.657847 0.722814
0.636379 0.661341 0.726115
0.753513 0.664835 0.729415
0.870647 0.668329 0.732715
0.987781 0.671822 0.736015
0.061585 0.773421 0.720488
0.178718 0.776915 0.723788
0.295852 0.780409 0.727088
0.412986 0.783903 0.730388
0.530120 0.787396 0.733688
0.647253 0.790890 0.736988
0.764387 0.794384 0.740289
0.881521 0.797878 0.743589
0.998654 0.801372 0.746889
0.072459 0.902970 0.731362
0.189592 0.906464 0.734662
0.306726 0.909958 0.737962
0.423860 0.913452 0.741262
0.540993 0.916946 0.744562
0.658127 0.920439 0.747862
0.775261 0.923933 0.751162
0.892395 0.927427 0.754462
1.000000 0.930921 0.757763
0.083332 1.000000 0.742235
0.200466 1.000000 0.745535
0.317600 1.000000 0.748836
0.434734 1.000000 0.752136
0.551867 1.000000 0.755436
0.669001 1.000000 0.758736
0.786135 1.000000 0.762036
0.903268 1.000000 0.765336
1.000000 1.000000 0.768636
0.000000 0.000000 0.766143
0.114557 0.000765 0.769443
0.231690 0.004259 0.772743
0.348824 0.007753 0.776043
0.465958 0.011247 0.779344
0.583091 0.014740 0.782644
0.700225 0.018234 0.785944
0.817359 0.021728 0.789244
0.934493 0.025222 0.792544
0.008297 0.126821 0.777017
0.125430 0.130314 0.780317
0.242564 0.133808 0.783617
0.359698 0.137302 0.786917
0.476832 0.140796 0.790217
0.593965 0.144290 0.793518
0.711099 0.147783 0.796818
0.828233 0.151277 0.800118
0.945366 0.154771 0.803418
0.019170 0.256370 0.787891
0.136304 0.259864 0.791191
0.253438 0.263357 0.794491
0.370572 0.266851 0.797791
0.487705 0.270345 0.801091
0.604839 0.273839 0.804391
0.721973 0.277332 0.807692
0.839107 0.280826 0.810992
0.956240 0.284320 0.814292
0.030044 0.385919 0.798765
0.147178 0.389413 0.802065
0.264312 0.392906 0.805365
0.381446 0.396400 0.808665
0.498579 0.399894 0.811965
0.615713 0.403388 0.815265
0.732847 0.406881 0.818565
0.849980 0.410375 0.821865
0.967114 0.413869 0.825166
0.040918 0.515468 0.809638
0.158052 0.518962 0.812938
0.275186 0.522455 0.816239
0.392319 0.525949 0.819539
0.509453 0.529443 0.822839
0.626587 0.532937 0.826139
0.743721 0.536431 0.829439
0.860854 0.539924 0.832739
0.977988 0.543418 0.836039
0.051792 0.645017 0.820512
0.168926 0.648511 0.823812
0.286059 0.652005 0.827112
0.403193 0.655498 0.830413
0.520327 0.658992 0.833713
0.637461 0.662486 0.837013
0.754594 0.665980 0.840313
0.871728 0.669473 0.843613
0.988862 0.672967 0.846913
0.062666 0.774566 0.831386
0.179800 0.778060 0.834686
0.296933 0.781554 0.837986
0.414067 0.785047 0.841286
0.531201 0.788541 0.844587
0.648335 0.792035 0.847887
0.765468 0.795529 0.851187
0.882602 0.799022 0.854487
0.999736 0.802516 0.857787
0.073540 0.904115 0.842260
0.190673 0.907609 0.845560
0.307807 0.911103 0.848860
0.424941 0.914596 0.852160
0.542075 0.918090 0.855460
0.659208 0.921584 0.858761
0.776342 0.925078 0.862061
0.893476 0.928572 0.865361
1.000000 0.932065 0.868661
0.084414 1.000000 0.853134
0.201547 1.000000 0.856434
0.318681 1.000000 0.859734
0.435815 1.000000 0.863034
0.552948 1.000000 0.866334
0.670082 1.000000 0.869634
0.787216 1.000000 0.872935
0.904350 1.000000 0.876235
1.000000 1.000000 0.879535
0.000000 0.000000 0.877041
0.115638 0.001910 0.880341
0.232771 0.005404 0.883642
0.349905 0.008898 0.886942
0.467039 0.012391 0.890242
0.584173 0.015885 0.893542
0.701306 0.019379 0.896842
0.818440 0.022873 0.900142
0.935574 0.026366 0.903442
0.009378 0.127965 0.887915
0.126512 0.131459 0.891215
0.243645 0.134953 0.894515
0.360779 0.138447 0.897816
0.477913 0.141940 0.901116
0.595046 0.145434 0.904416
0.712180 0.148928 0.907716
0.829314 0.152422 0.911016
0.946448 0.155915 0.914316
0.020252 0.257514 0.898789
0.137385 0.261008 0.902089
0.254519 0.264502 0.905389
0.371653 0.267996 0.908689
0.488787 0.271489 0.911990
0.605920 0.274983 0.915290
0.723054 0.278477 0.918590
0.840188 0.281971 0.921890
0.957322 0.285465 0.925190
0.031126 0.387063 0.909663
0.148259 0.390557 0.912963
0.265393 0.394051 0.916263
0.382527 0.397545 0.919563
0.499660 0.401039 0.922863
0.616794 0.404532 0.926164
0.733928 0.408026 0.929464
0.851062 0.411520 0.932764
0.968195 0.415014 0.936064
0.041999 0.516613 0.920537
0.159133 0.520106 0.923837
0.276267 0.523600 0.927137
0.393401 0.527094 0.930437
0.510534 0.530588 0.933737
0.627668 0.534081 0.937037
0.744802 0.537575 0.940338
0.861935 0.541069 0.943638
0.979069 0.544563 0.946938
0.052873 0.646162 0.931411
0.170007 0.649655 0.934711
0.287141 0.653149 0.938011
0.404274 0.656643 0.941311
0.521408 0.660137 0.944611
0.638542 0.663630 0.947911
0.755676 0.667124 0.951211
0.872809 0.670618 0.954512
0.989943 0.674112 0.957812
0.063747 0.775711 0.942284
0.180881 0.779204 0.945585
0.298015 0.782698 0.948885
0.415148 0.786192 0.952185
0.532282 0.789686 0.955485
0.649416 0.793180 0.958785
0.766549 0.796673 0.962085
0.883683 0.800167 0.965385
1.000000 0.803661 0.968686
0.074621 0.905260 0.953158
0.191755 0.908754 0.956458
0.308888 0.912247 0.959759
0.426022 0.915741 0.963059
0.543156 0.919235 0.966359
0.660290 0.922729 0.969659
0.777423 0.926222 0.972959
0.894557 0.929716 0.976259
1.000000 0.933210 0.979559
0.085495 1.000000 0.964032
0.202628 1.000000 0.967332
0.319762 1.000000 0.970632
0.436896 1.000000 0.973933
0.554030 1.000000 0.977233
0.671163 1.000000 0.980533
0.788297 1.000000 0.983833
0.905431 1.000000 0.987133
1.000000 1.000000 0.990433
