assets/lighting/cinematic/grade-school-fluorescent/lut.cube
TITLE "School Fluorescent"
# TKRS lighting-batch-001 original LUT
# Intended usage: institutional classroom cool-white
# License: CC0-1.0
LUT_3D_SIZE 17
DOMAIN_MIN 0.0 0.0 0.0
DOMAIN_MAX 1.0 1.0 1.0
0.000000 0.000000 0.000000
0.048421 0.000000 0.000000
0.106988 0.000000 0.000000
0.165555 0.000000 0.000000
0.224122 0.000000 0.000000
0.282689 0.000000 0.000000
0.341256 0.000000 0.000000
0.399822 0.001487 0.001405
0.458389 0.003234 0.003055
0.516956 0.004981 0.004705
0.575523 0.006728 0.006355
0.634090 0.008475 0.008005
0.692657 0.010222 0.009655
0.751224 0.011969 0.011305
0.809791 0.013716 0.012955
0.868357 0.015462 0.014605
0.926924 0.017209 0.016256
0.000000 0.054034 0.000000
0.053858 0.055781 0.000000
0.112425 0.057527 0.000000
0.170992 0.059274 0.000242
0.229559 0.061021 0.001892
0.288126 0.062768 0.003542
0.346693 0.064515 0.005192
0.405259 0.066262 0.006842
0.463826 0.068009 0.008492
0.522393 0.069756 0.010142
0.580960 0.071503 0.011792
0.639527 0.073249 0.013442
0.698094 0.074996 0.015092
0.756661 0.076743 0.016742
0.815227 0.078490 0.018392
0.873794 0.080237 0.020042
0.932361 0.081984 0.021692
0.000728 0.118808 0.000728
0.059295 0.120555 0.002378
0.117862 0.122302 0.004028
0.176429 0.124049 0.005678
0.234996 0.125796 0.007329
0.293563 0.127543 0.008979
0.352129 0.129290 0.010629
0.410696 0.131036 0.012279
0.469263 0.132783 0.013929
0.527830 0.134530 0.015579
0.586397 0.136277 0.017229
0.644964 0.138024 0.018879
0.703531 0.139771 0.020529
0.762097 0.141518 0.022179
0.820664 0.143265 0.023829
0.879231 0.145011 0.025479
0.937798 0.146758 0.027129
0.006165 0.183583 0.006165
0.064732 0.185330 0.007815
0.123299 0.187077 0.009465
0.181866 0.188823 0.011115
0.240433 0.190570 0.012765
0.298999 0.192317 0.014416
0.357566 0.194064 0.016066
0.416133 0.195811 0.017716
0.474700 0.197558 0.019366
0.533267 0.199305 0.021016
0.591834 0.201052 0.022666
0.650401 0.202798 0.024316
0.708968 0.204545 0.025966
0.767534 0.206292 0.027616
0.826101 0.208039 0.029266
0.884668 0.209786 0.030916
0.943235 0.211533 0.032566
0.011602 0.248357 0.011602
0.070169 0.250104 0.013252
0.128736 0.251851 0.014902
0.187303 0.253598 0.016552
0.245870 0.255345 0.018202
0.304436 0.257092 0.019852
0.363003 0.258839 0.021503
0.421570 0.260585 0.023153
0.480137 0.262332 0.024803
0.538704 0.264079 0.026453
0.597271 0.265826 0.028103
0.655838 0.267573 0.029753
0.714404 0.269320 0.031403
0.772971 0.271067 0.033053
0.831538 0.272814 0.034703
0.890105 0.274561 0.036353
0.948672 0.276307 0.038003
0.017039 0.313132 0.017039
0.075606 0.314879 0.018689
0.134173 0.316626 0.020339
0.192740 0.318372 0.021989
0.251306 0.320119 0.023639
0.309873 0.321866 0.025289
0.368440 0.323613 0.026939
0.427007 0.325360 0.028589
0.485574 0.327107 0.030240
0.544141 0.328854 0.031890
0.602708 0.330601 0.033540
0.661275 0.332348 0.035190
0.719841 0.334094 0.036840
0.778408 0.335841 0.038490
0.836975 0.337588 0.040140
0.895542 0.339335 0.041790
0.954109 0.341082 0.043440
0.022476 0.377906 0.022476
0.081043 0.379653 0.024126
0.139610 0.381400 0.025776
0.198177 0.383147 0.027426
0.256743 0.384894 0.029076
0.315310 0.386641 0.030726
0.373877 0.388388 0.032376
0.432444 0.390135 0.034026
0.491011 0.391881 0.035676
0.549578 0.393628 0.037327
0.608145 0.395375 0.038977
0.666711 0.397122 0.040627
0.725278 0.398869 0.042277
0.783845 0.400616 0.043927
0.842412 0.402363 0.045577
0.900979 0.404110 0.047227
0.959546 0.405857 0.048877
0.027913 0.442681 0.027913
0.086480 0.444428 0.029563
0.145047 0.446175 0.031213
0.203613 0.447922 0.032863
0.262180 0.449668 0.034513
0.320747 0.451415 0.036163
0.379314 0.453162 0.037813
0.437881 0.454909 0.039463
0.496448 0.456656 0.041113
0.555015 0.458403 0.042763
0.613581 0.460150 0.044414
0.672148 0.461897 0.046064
0.730715 0.463644 0.047714
0.789282 0.465390 0.049364
0.847849 0.467137 0.051014
0.906416 0.468884 0.052664
0.964983 0.470631 0.054314
0.033350 0.507455 0.033350
0.091917 0.509202 0.035000
0.150484 0.510949 0.036650
0.209050 0.512696 0.038300
0.267617 0.514443 0.039950
0.326184 0.516190 0.041600
0.384751 0.517937 0.043250
0.443318 0.519684 0.044900
0.501885 0.521431 0.046550
0.560452 0.523177 0.048200
0.619018 0.524924 0.049850
0.677585 0.526671 0.051501
0.736152 0.528418 0.053151
0.794719 0.530165 0.054801
0.853286 0.531912 0.056451
0.911853 0.533659 0.058101
0.970420 0.535406 0.059751
0.038787 0.572230 0.038787
0.097354 0.573977 0.040437
0.155920 0.575724 0.042087
0.214487 0.577471 0.043737
0.273054 0.579218 0.045387
0.331621 0.580964 0.047037
0.390188 0.582711 0.048687
0.448755 0.584458 0.050337
0.507322 0.586205 0.051987
0.565888 0.587952 0.053637
0.624455 0.589699 0.055287
0.683022 0.591446 0.056937
0.741589 0.593193 0.058588
0.800156 0.594939 0.060238
0.858723 0.596686 0.061888
0.917290 0.598433 0.063538
0.975857 0.600180 0.065188
0.044224 0.637005 0.044224
0.102790 0.638751 0.045874
0.161357 0.640498 0.047524
0.219924 0.642245 0.049174
0.278491 0.643992 0.050824
0.337058 0.645739 0.052474
0.395625 0.647486 0.054124
0.454192 0.649233 0.055774
0.512759 0.650980 0.057424
0.571325 0.652726 0.059074
0.629892 0.654473 0.060724
0.688459 0.656220 0.062374
0.747026 0.657967 0.064024
0.805593 0.659714 0.065675
0.864160 0.661461 0.067325
0.922727 0.663208 0.068975
0.981293 0.664955 0.070625
0.049661 0.701779 0.049661
0.108227 0.703526 0.051311
0.166794 0.705273 0.052961
0.225361 0.707020 0.054611
0.283928 0.708767 0.056261
0.342495 0.710513 0.057911
0.401062 0.712260 0.059561
0.459629 0.714007 0.061211
0.518195 0.715754 0.062861
0.576762 0.717501 0.064511
0.635329 0.719248 0.066161
0.693896 0.720995 0.067811
0.752463 0.722742 0.069461
0.811030 0.724489 0.071111
0.869597 0.726235 0.072762
0.928164 0.727982 0.074412
0.986730 0.729729 0.076062
0.055097 0.766554 0.055097
0.113664 0.768300 0.056748
0.172231 0.770047 0.058398
0.230798 0.771794 0.060048
0.289365 0.773541 0.061698
0.347932 0.775288 0.063348
0.406499 0.777035 0.064998
0.465066 0.778782 0.066648
0.523632 0.780529 0.068298
0.582199 0.782276 0.069948
0.640766 0.784022 0.071598
0.699333 0.785769 0.073248
0.757900 0.787516 0.074898
0.816467 0.789263 0.076548
0.875034 0.791010 0.078198
0.933600 0.792757 0.079849
0.992167 0.794504 0.081499
0.060534 0.831328 0.060534
0.119101 0.833075 0.062184
0.177668 0.834822 0.063835
0.236235 0.836569 0.065485
0.294802 0.838316 0.067135
0.353369 0.840063 0.068785
0.411936 0.841809 0.070435
0.470502 0.843556 0.072085
0.529069 0.845303 0.073735
0.587636 0.847050 0.075385
0.646203 0.848797 0.077035
0.704770 0.850544 0.078685
0.763337 0.852291 0.080335
0.821904 0.854038 0.081985
0.880470 0.855785 0.083635
0.939037 0.857531 0.085285
0.997604 0.859278 0.086935
0.065971 0.896103 0.065971
0.124538 0.897850 0.067621
0.183105 0.899596 0.069271
0.241672 0.901343 0.070922
0.300239 0.903090 0.072572
0.358806 0.904837 0.074222
0.417372 0.906584 0.075872
0.475939 0.908331 0.077522
0.534506 0.910078 0.079172
0.593073 0.911825 0.080822
0.651640 0.913572 0.082472
0.710207 0.915318 0.084122
0.768774 0.917065 0.085772
0.827341 0.918812 0.087422
0.885907 0.920559 0.089072
0.944474 0.922306 0.090722
1.000000 0.924053 0.092372
0.071408 0.960877 0.071408
0.129975 0.962624 0.073058
0.188542 0.964371 0.074708
0.247109 0.966118 0.076358
0.305676 0.967865 0.078009
0.364243 0.969612 0.079659
0.422809 0.971359 0.081309
0.481376 0.973105 0.082959
0.539943 0.974852 0.084609
0.598510 0.976599 0.086259
0.657077 0.978346 0.087909
0.715644 0.980093 0.089559
0.774211 0.981840 0.091209
0.832777 0.983587 0.092859
0.891344 0.985334 0.094509
0.949911 0.987080 0.096159
1.000000 0.988827 0.097809
0.076845 1.000000 0.076845
0.135412 1.000000 0.078495
0.193979 1.000000 0.080145
0.252546 1.000000 0.081795
0.311113 1.000000 0.083445
0.369679 1.000000 0.085095
0.428246 1.000000 0.086746
0.486813 1.000000 0.088396
0.545380 1.000000 0.090046
0.603947 1.000000 0.091696
0.662514 1.000000 0.093346
0.721081 1.000000 0.094996
0.779648 1.000000 0.096646
0.838214 1.000000 0.098296
0.896781 1.000000 0.099946
0.955348 1.000000 0.101596
1.000000 1.000000 0.103246
0.000000 0.000000 0.045304
0.048962 0.000000 0.046954
0.107529 0.000000 0.048604
0.166096 0.000000 0.050254
0.224662 0.000000 0.051904
0.283229 0.000000 0.053554
0.341796 0.000313 0.055204
0.400363 0.002060 0.056854
0.458930 0.003807 0.058504
0.517497 0.005553 0.060154
0.576064 0.007300 0.061804
0.634631 0.009047 0.063454
0.693197 0.010794 0.065104
0.751764 0.012541 0.066754
0.810331 0.014288 0.068405
0.868898 0.016035 0.070055
0.927465 0.017782 0.071705
0.000000 0.054606 0.050741
0.054399 0.056353 0.052391
0.112966 0.058100 0.054041
0.171533 0.059847 0.055691
0.230099 0.061594 0.057341
0.288666 0.063340 0.058991
0.347233 0.065087 0.060641
0.405800 0.066834 0.062291
0.464367 0.068581 0.063941
0.522934 0.070328 0.065591
0.581501 0.072075 0.067241
0.640067 0.073822 0.068891
0.698634 0.075569 0.070541
0.757201 0.077315 0.072191
0.815768 0.079062 0.073841
0.874335 0.080809 0.075492
0.932902 0.082556 0.077142
0.001269 0.119381 0.056177
0.059836 0.121127 0.057828
0.118403 0.122874 0.059478
0.176969 0.124621 0.061128
0.235536 0.126368 0.062778
0.294103 0.128115 0.064428
0.352670 0.129862 0.066078
0.411237 0.131609 0.067728
0.469804 0.133356 0.069378
0.528371 0.135102 0.071028
0.586937 0.136849 0.072678
0.645504 0.138596 0.074328
0.704071 0.140343 0.075978
0.762638 0.142090 0.077628
0.821205 0.143837 0.079278
0.879772 0.145584 0.080928
0.938339 0.147331 0.082579
0.006706 0.184155 0.061614
0.065273 0.185902 0.063264
0.123839 0.187649 0.064914
0.182406 0.189396 0.066565
0.240973 0.191143 0.068215
0.299540 0.192889 0.069865
0.358107 0.194636 0.071515
0.416674 0.196383 0.073165
0.475241 0.198130 0.074815
0.533808 0.199877 0.076465
0.592374 0.201624 0.078115
0.650941 0.203371 0.079765
0.709508 0.205118 0.081415
0.768075 0.206865 0.083065
0.826642 0.208611 0.084715
0.885209 0.210358 0.086365
0.943776 0.212105 0.088015
0.012143 0.248930 0.067051
0.070710 0.250676 0.068701
0.129276 0.252423 0.070351
0.187843 0.254170 0.072001
0.246410 0.255917 0.073652
0.304977 0.257664 0.075302
0.363544 0.259411 0.076952
0.422111 0.261158 0.078602
0.480678 0.262905 0.080252
0.539244 0.264652 0.081902
0.597811 0.266398 0.083552
0.656378 0.268145 0.085202
0.714945 0.269892 0.086852
0.773512 0.271639 0.088502
0.832079 0.273386 0.090152
0.890646 0.275133 0.091802
0.949213 0.276880 0.093452
0.017580 0.313704 0.072488
0.076146 0.315451 0.074138
0.134713 0.317198 0.075788
0.193280 0.318945 0.077438
0.251847 0.320692 0.079088
0.310414 0.322439 0.080739
0.368981 0.324185 0.082389
0.427548 0.325932 0.084039
0.486115 0.327679 0.085689
0.544681 0.329426 0.087339
0.603248 0.331173 0.088989
0.661815 0.332920 0.090639
0.720382 0.334667 0.092289
0.778949 0.336414 0.093939
0.837516 0.338161 0.095589
0.896083 0.339907 0.097239
0.954649 0.341654 0.098889
0.023017 0.378479 0.077925
0.081583 0.380226 0.079575
0.140150 0.381972 0.081225
0.198717 0.383719 0.082875
0.257284 0.385466 0.084525
0.315851 0.387213 0.086175
0.374418 0.388960 0.087826
0.432985 0.390707 0.089476
0.491551 0.392454 0.091126
0.550118 0.394201 0.092776
0.608685 0.395948 0.094426
0.667252 0.397694 0.096076
0.725819 0.399441 0.097726
0.784386 0.401188 0.099376
0.842953 0.402935 0.101026
0.901520 0.404682 0.102676
0.960086 0.406429 0.104326
0.028453 0.443253 0.083362
0.087020 0.445000 0.085012
0.145587 0.446747 0.086662
0.204154 0.448494 0.088312
0.262721 0.450241 0.089962
0.321288 0.451988 0.091612
0.379855 0.453735 0.093262
0.438422 0.455481 0.094913
0.496988 0.457228 0.096563
0.555555 0.458975 0.098213
0.614122 0.460722 0.099863
0.672689 0.462469 0.101513
0.731256 0.464216 0.103163
0.789823 0.465963 0.104813
0.848390 0.467710 0.106463
0.906956 0.469456 0.108113
0.965523 0.471203 0.109763
0.033890 0.508028 0.088799
0.092457 0.509775 0.090449
0.151024 0.511522 0.092099
0.209591 0.513268 0.093749
0.268158 0.515015 0.095399
0.326725 0.516762 0.097049
0.385292 0.518509 0.098699
0.443858 0.520256 0.100349
0.502425 0.522003 0.102000
0.560992 0.523750 0.103650
0.619559 0.525497 0.105300
0.678126 0.527243 0.106950
0.736693 0.528990 0.108600
0.795260 0.530737 0.110250
0.853826 0.532484 0.111900
0.912393 0.534231 0.113550
0.970960 0.535978 0.115200
0.039327 0.572802 0.094236
0.097894 0.574549 0.095886
0.156461 0.576296 0.097536
0.215028 0.578043 0.099186
0.273595 0.579790 0.100836
0.332162 0.581537 0.102486
0.390728 0.583284 0.104136
0.449295 0.585030 0.105786
0.507862 0.586777 0.107436
0.566429 0.588524 0.109087
0.624996 0.590271 0.110737
0.683563 0.592018 0.112387
0.742130 0.593765 0.114037
0.800697 0.595512 0.115687
0.859263 0.597259 0.117337
0.917830 0.599006 0.118987
0.976397 0.600752 0.120637
0.044764 0.637577 0.099673
0.103331 0.639324 0.101323
0.161898 0.641071 0.102973
0.220465 0.642817 0.104623
0.279032 0.644564 0.106273
0.337599 0.646311 0.107923
0.396165 0.648058 0.109573
0.454732 0.649805 0.111223
0.513299 0.651552 0.112873
0.571866 0.653299 0.114523
0.630433 0.655046 0.116173
0.689000 0.656793 0.117824
0.747567 0.658539 0.119474
0.806133 0.660286 0.121124
0.864700 0.662033 0.122774
0.923267 0.663780 0.124424
0.981834 0.665527 0.126074
0.050201 0.702351 0.105110
0.108768 0.704098 0.106760
0.167335 0.705845 0.108410
0.225902 0.707592 0.110060
0.284469 0.709339 0.111710
0.343035 0.711086 0.113360
0.401602 0.712833 0.115010
0.460169 0.714580 0.116660
0.518736 0.716326 0.118310
0.577303 0.718073 0.119960
0.635870 0.719820 0.121610
0.694437 0.721567 0.123260
0.753004 0.723314 0.124911
0.811570 0.725061 0.126561
0.870137 0.726808 0.128211
0.928704 0.728555 0.129861
0.987271 0.730302 0.131511
0.055638 0.767126 0.110547
0.114205 0.768873 0.112197
0.172772 0.770620 0.113847
0.231339 0.772367 0.115497
0.289906 0.774113 0.117147
0.348472 0.775860 0.118797
0.407039 0.777607 0.120447
0.465606 0.779354 0.122097
0.524173 0.781101 0.123747
0.582740 0.782848 0.125397
0.641307 0.784595 0.127047
0.699874 0.786342 0.128697
0.758440 0.788089 0.130347
0.817007 0.789835 0.131998
0.875574 0.791582 0.133648
0.934141 0.793329 0.135298
0.992708 0.795076 0.136948
0.061075 0.831900 0.115984
0.119642 0.833647 0.117634
0.178209 0.835394 0.119284
0.236776 0.837141 0.120934
0.295342 0.838888 0.122584
0.353909 0.840635 0.124234
0.412476 0.842382 0.125884
0.471043 0.844129 0.127534
0.529610 0.845876 0.129184
0.588177 0.847622 0.130834
0.646744 0.849369 0.132484
0.705310 0.851116 0.134134
0.763877 0.852863 0.135784
0.822444 0.854610 0.137434
0.881011 0.856357 0.139085
0.939578 0.858104 0.140735
0.998145 0.859851 0.142385
0.066512 0.896675 0.121420
0.125079 0.898422 0.123071
0.183646 0.900169 0.124721
0.242212 0.901916 0.126371
0.300779 0.903663 0.128021
0.359346 0.905409 0.129671
0.417913 0.907156 0.131321
0.476480 0.908903 0.132971
0.535047 0.910650 0.134621
0.593614 0.912397 0.136271
0.652181 0.914144 0.137921
0.710747 0.915891 0.139571
0.769314 0.917638 0.141221
0.827881 0.919384 0.142871
0.886448 0.921131 0.144521
0.945015 0.922878 0.146172
1.000000 0.924625 0.147822
0.071949 0.961450 0.126857
0.130516 0.963196 0.128507
0.189083 0.964943 0.130158
0.247649 0.966690 0.131808
0.306216 0.968437 0.133458
0.364783 0.970184 0.135108
0.423350 0.971931 0.136758
0.481917 0.973678 0.138408
0.540484 0.975425 0.140058
0.599051 0.977171 0.141708
0.657617 0.978918 0.143358
0.716184 0.980665 0.145008
0.774751 0.982412 0.146658
0.833318 0.984159 0.148308
0.891885 0.985906 0.149958
0.950452 0.987653 0.151608
1.000000 0.989400 0.153259
0.077386 1.000000 0.132294
0.135953 1.000000 0.133944
0.194519 1.000000 0.135594
0.253086 1.000000 0.137245
0.311653 1.000000 0.138895
0.370220 1.000000 0.140545
0.428787 1.000000 0.142195
0.487354 1.000000 0.143845
0.545921 1.000000 0.145495
0.604488 1.000000 0.147145
0.663054 1.000000 0.148795
0.721621 1.000000 0.150445
0.780188 1.000000 0.152095
0.838755 1.000000 0.153745
0.897322 1.000000 0.155395
0.955889 1.000000 0.157045
1.000000 1.000000 0.158695
0.000000 0.000000 0.100753
0.049502 0.000000 0.102403
0.108069 0.000000 0.104053
0.166636 0.000000 0.105703
0.225203 0.000000 0.107353
0.283770 0.000000 0.109003
0.342337 0.000885 0.110653
0.400904 0.002632 0.112303
0.459471 0.004379 0.113953
0.518037 0.006126 0.115603
0.576604 0.007873 0.117253
0.635171 0.009619 0.118904
0.693738 0.011366 0.120554
0.752305 0.013113 0.122204
0.810872 0.014860 0.123854
0.869439 0.016607 0.125504
0.928005 0.018354 0.127154
0.000000 0.055178 0.106190
0.054939 0.056925 0.107840
0.113506 0.058672 0.109490
0.172073 0.060419 0.111140
0.230640 0.062166 0.112790
0.289207 0.063913 0.114440
0.347774 0.065660 0.116090
0.406341 0.067406 0.117740
0.464907 0.069153 0.119390
0.523474 0.070900 0.121040
0.582041 0.072647 0.122690
0.640608 0.074394 0.124340
0.699175 0.076141 0.125991
0.757742 0.077888 0.127641
0.816309 0.079635 0.129291
0.874875 0.081382 0.130941
0.933442 0.083128 0.132591
0.001809 0.119953 0.111627
0.060376 0.121700 0.113277
0.118943 0.123447 0.114927
0.177510 0.125193 0.116577
0.236077 0.126940 0.118227
0.294644 0.128687 0.119877
0.353211 0.130434 0.121527
0.411777 0.132181 0.123177
0.470344 0.133928 0.124827
0.528911 0.135675 0.126477
0.587478 0.137422 0.128127
0.646045 0.139169 0.129777
0.704612 0.140915 0.131427
0.763179 0.142662 0.133078
0.821746 0.144409 0.134728
0.880312 0.146156 0.136378
0.938879 0.147903 0.138028
0.007246 0.184727 0.117064
0.065813 0.186474 0.118714
0.124380 0.188221 0.120364
0.182947 0.189968 0.122014
0.241514 0.191715 0.123664
0.300081 0.193462 0.125314
0.358648 0.195209 0.126964
0.417214 0.196956 0.128614
0.475781 0.198702 0.130264
0.534348 0.200449 0.131914
0.592915 0.202196 0.133564
0.651482 0.203943 0.135214
0.710049 0.205690 0.136864
0.768616 0.207437 0.138514
0.827182 0.209184 0.140165
0.885749 0.210931 0.141815
0.944316 0.212678 0.143465
0.012683 0.249502 0.122500
0.071250 0.251249 0.124151
0.129817 0.252996 0.125801
0.188384 0.254743 0.127451
0.246951 0.256489 0.129101
0.305518 0.258236 0.130751
0.364084 0.259983 0.132401
0.422651 0.261730 0.134051
0.481218 0.263477 0.135701
0.539785 0.265224 0.137351
0.598352 0.266971 0.139001
0.656919 0.268718 0.140651
0.715486 0.270465 0.142301
0.774053 0.272211 0.143951
0.832619 0.273958 0.145601
0.891186 0.275705 0.147252
0.949753 0.277452 0.148902
0.018120 0.314276 0.127937
0.076687 0.316023 0.129587
0.135254 0.317770 0.131238
0.193821 0.319517 0.132888
0.252388 0.321264 0.134538
0.310955 0.323011 0.136188
0.369521 0.324758 0.137838
0.428088 0.326505 0.139488
0.486655 0.328252 0.141138
0.545222 0.329998 0.142788
0.603789 0.331745 0.144438
0.662356 0.333492 0.146088
0.720923 0.335239 0.147738
0.779489 0.336986 0.149388
0.838056 0.338733 0.151038
0.896623 0.340480 0.152688
0.955190 0.342227 0.154338
0.023557 0.379051 0.133374
0.082124 0.380798 0.135024
0.140691 0.382545 0.136674
0.199258 0.384292 0.138325
0.257825 0.386039 0.139975
0.316391 0.387785 0.141625
0.374958 0.389532 0.143275
0.433525 0.391279 0.144925
0.492092 0.393026 0.146575
0.550659 0.394773 0.148225
0.609226 0.396520 0.149875
0.667793 0.398267 0.151525
0.726360 0.400014 0.153175
0.784926 0.401760 0.154825
0.843493 0.403507 0.156475
0.902060 0.405254 0.158125
0.960627 0.407001 0.159775
0.028994 0.443826 0.138811
0.087561 0.445572 0.140461
0.146128 0.447319 0.142111
0.204695 0.449066 0.143761
0.263262 0.450813 0.145411
0.321828 0.452560 0.147062
0.380395 0.454307 0.148712
0.438962 0.456054 0.150362
0.497529 0.457801 0.152012
0.556096 0.459547 0.153662
0.614663 0.461294 0.155312
0.673230 0.463041 0.156962
0.731796 0.464788 0.158612
0.790363 0.466535 0.160262
0.848930 0.468282 0.161912
0.907497 0.470029 0.163562
0.966064 0.471776 0.165212
0.034431 0.508600 0.144248
0.092998 0.510347 0.145898
0.151565 0.512094 0.147548
0.210132 0.513841 0.149198
0.268698 0.515588 0.150848
0.327265 0.517334 0.152498
0.385832 0.519081 0.154149
0.444399 0.520828 0.155799
0.502966 0.522575 0.157449
0.561533 0.524322 0.159099
0.620100 0.526069 0.160749
0.678666 0.527816 0.162399
0.737233 0.529563 0.164049
0.795800 0.531310 0.165699
0.854367 0.533056 0.167349
0.912934 0.534803 0.168999
0.971501 0.536550 0.170649
0.039868 0.573375 0.149685
0.098435 0.575121 0.151335
0.157002 0.576868 0.152985
0.215568 0.578615 0.154635
0.274135 0.580362 0.156285
0.332702 0.582109 0.157935
0.391269 0.583856 0.159585
0.449836 0.585603 0.161236
0.508403 0.587350 0.162886
0.566970 0.589097 0.164536
0.625537 0.590843 0.166186
0.684103 0.592590 0.167836
0.742670 0.594337 0.169486
0.801237 0.596084 0.171136
0.859804 0.597831 0.172786
0.918371 0.599578 0.174436
0.976938 0.601325 0.176086
0.045305 0.638149 0.155122
0.103872 0.639896 0.156772
0.162439 0.641643 0.158422
0.221005 0.643390 0.160072
0.279572 0.645137 0.161722
0.338139 0.646884 0.163372
0.396706 0.648630 0.165022
0.455273 0.650377 0.166672
0.513840 0.652124 0.168323
0.572407 0.653871 0.169973
0.630973 0.655618 0.171623
0.689540 0.657365 0.173273
0.748107 0.659112 0.174923
0.806674 0.660859 0.176573
0.865241 0.662606 0.178223
0.923808 0.664352 0.179873
0.982375 0.666099 0.181523
0.050742 0.702924 0.160559
0.109309 0.704671 0.162209
0.167875 0.706417 0.163859
0.226442 0.708164 0.165509
0.285009 0.709911 0.167159
0.343576 0.711658 0.168809
0.402143 0.713405 0.170459
0.460710 0.715152 0.172109
0.519277 0.716899 0.173759
0.577844 0.718646 0.175410
0.636410 0.720393 0.177060
0.694977 0.722139 0.178710
0.753544 0.723886 0.180360
0.812111 0.725633 0.182010
0.870678 0.727380 0.183660
0.929245 0.729127 0.185310
0.987812 0.730874 0.186960
0.056179 0.767698 0.165996
0.114746 0.769445 0.167646
0.173312 0.771192 0.169296
0.231879 0.772939 0.170946
0.290446 0.774686 0.172596
0.349013 0.776433 0.174246
0.407580 0.778180 0.175896
0.466147 0.779926 0.177546
0.524714 0.781673 0.179196
0.583280 0.783420 0.180846
0.641847 0.785167 0.182497
0.700414 0.786914 0.184147
0.758981 0.788661 0.185797
0.817548 0.790408 0.187447
0.876115 0.792155 0.189097
0.934682 0.793901 0.190747
0.993248 0.795648 0.192397
0.061616 0.832473 0.171433
0.120182 0.834220 0.173083
0.178749 0.835967 0.174733
0.237316 0.837713 0.176383
0.295883 0.839460 0.178033
0.354450 0.841207 0.179683
0.413017 0.842954 0.181333
0.471584 0.844701 0.182983
0.530150 0.846448 0.184633
0.588717 0.848195 0.186283
0.647284 0.849942 0.187933
0.705851 0.851688 0.189584
0.764418 0.853435 0.191234
0.822985 0.855182 0.192884
0.881552 0.856929 0.194534
0.940119 0.858676 0.196184
0.998685 0.860423 0.197834
0.067053 0.897247 0.176870
0.125619 0.898994 0.178520
0.184186 0.900741 0.180170
0.242753 0.902488 0.181820
0.301320 0.904235 0.183470
0.359887 0.905982 0.185120
0.418454 0.907729 0.186770
0.477021 0.909475 0.188420
0.535587 0.911222 0.190070
0.594154 0.912969 0.191720
0.652721 0.914716 0.193370
0.711288 0.916463 0.195020
0.769855 0.918210 0.196671
0.828422 0.919957 0.198321
0.886989 0.921704 0.199971
0.945555 0.923451 0.201621
1.000000 0.925197 0.203271
0.072489 0.962022 0.182307
0.131056 0.963769 0.183957
0.189623 0.965516 0.185607
0.248190 0.967262 0.187257
0.306757 0.969009 0.188907
0.365324 0.970756 0.190557
0.423891 0.972503 0.192207
0.482457 0.974250 0.193857
0.541024 0.975997 0.195507
0.599591 0.977744 0.197157
0.658158 0.979491 0.198807
0.716725 0.981238 0.200457
0.775292 0.982984 0.202107
0.833859 0.984731 0.203757
0.892426 0.986478 0.205408
0.950992 0.988225 0.207058
1.000000 0.989972 0.208708
0.077926 1.000000 0.187744
0.136493 1.000000 0.189394
0.195060 1.000000 0.191044
0.253627 1.000000 0.192694
0.312194 1.000000 0.194344
0.370761 1.000000 0.195994
0.429328 1.000000 0.197644
0.487894 1.000000 0.199294
0.546461 1.000000 0.200944
0.605028 1.000000 0.202594
0.663595 1.000000 0.204244
0.722162 1.000000 0.205894
0.780729 1.000000 0.207544
0.839296 1.000000 0.209194
0.897862 1.000000 0.210844
0.956429 1.000000 0.212495
1.000000 1.000000 0.214145
0.000000 0.000000 0.156202
0.050043 0.000000 0.157852
0.108610 0.000000 0.159502
0.167177 0.000000 0.161152
0.225744 0.000000 0.162802
0.284311 0.000000 0.164452
0.342877 0.001457 0.166102
0.401444 0.003204 0.167752
0.460011 0.004951 0.169403
0.518578 0.006698 0.171053
0.577145 0.008445 0.172703
0.635712 0.010192 0.174353
0.694279 0.011939 0.176003
0.752845 0.013686 0.177653
