assets/lighting/cinematic/grade-sepia-archive/lut.cube
TITLE "Sepia Archive"
# TKRS lighting-batch-001 original LUT
# Intended usage: aged photo / memory sequence
# License: CC0-1.0
LUT_3D_SIZE 9
DOMAIN_MIN 0.0 0.0 0.0
DOMAIN_MAX 1.0 1.0 1.0
0.000000 0.000000 0.000000
0.012068 0.000000 0.000000
0.055736 0.002250 0.002090
0.099404 0.018126 0.016835
0.143071 0.034001 0.031581
0.186739 0.049876 0.046326
0.230407 0.065751 0.061071
0.274075 0.081627 0.075816
0.317743 0.097502 0.090561
0.025607 0.048796 0.022204
0.069275 0.064671 0.036949
0.112943 0.080546 0.051694
0.156611 0.096422 0.066439
0.200278 0.112297 0.081184
0.243947 0.128173 0.095930
0.289444 0.144940 0.111191
0.336118 0.162196 0.126763
0.383849 0.179861 0.142606
0.082814 0.127092 0.071807
0.126482 0.142967 0.086552
0.170473 0.159136 0.101439
0.215791 0.176288 0.116828
0.262078 0.193903 0.132500
0.309354 0.211943 0.148441
0.357650 0.230399 0.164654
0.407001 0.249273 0.181144
0.457437 0.268569 0.197915
0.141737 0.207838 0.122502
0.187579 0.225827 0.138272
0.234360 0.244251 0.154312
0.282125 0.263105 0.170625
0.330917 0.282389 0.187217
0.380771 0.302105 0.204092
0.431716 0.322259 0.221256
0.483782 0.342853 0.238714
0.536993 0.363893 0.256470
0.206058 0.296052 0.176633
0.254269 0.315753 0.193328
0.303521 0.335897 0.210307
0.353846 0.356487 0.227578
0.405276 0.377527 0.245144
0.457837 0.399021 0.263010
0.511553 0.420974 0.281181
0.566447 0.443390 0.299660
0.622540 0.466273 0.318453
0.275367 0.390979 0.233938
0.326147 0.412470 0.251613
0.378044 0.434423 0.269590
0.431084 0.456842 0.287872
0.485291 0.479731 0.306466
0.540685 0.503093 0.325374
0.597288 0.526933 0.344600
0.655119 0.551255 0.364148
0.714195 0.576063 0.384021
0.349960 0.492991 0.294605
0.403468 0.516357 0.313313
0.458154 0.540203 0.332336
0.514039 0.564532 0.351679
0.571142 0.589349 0.371345
0.629481 0.614657 0.391338
0.689075 0.640459 0.411661
0.749939 0.666760 0.432317
0.812089 0.693563 0.453310
0.430097 0.602426 0.358801
0.486464 0.627741 0.378586
0.544059 0.653553 0.398699
0.602900 0.679864 0.419142
0.663004 0.706679 0.439921
0.724386 0.734000 0.461036
0.784578 0.759476 0.481312
0.838886 0.779118 0.498694
0.893195 0.798761 0.516076
0.516004 0.719576 0.426668
0.575340 0.746907 0.447569
0.635948 0.774749 0.468808
0.692799 0.797424 0.487641
0.747108 0.817066 0.505023
0.801416 0.836708 0.522405
0.855725 0.856351 0.539787
0.910033 0.875993 0.557169
0.964341 0.895635 0.574551
0.000000 0.000000 0.000726
0.017843 0.000000 0.015471
0.061511 0.007642 0.030217
0.105179 0.023517 0.044962
0.148846 0.039392 0.059707
0.192514 0.055268 0.074452
0.236182 0.071143 0.089197
0.279850 0.087018 0.103942
0.323518 0.102893 0.118687
0.031382 0.054187 0.050330
0.075050 0.070062 0.065075
0.118718 0.085938 0.079820
0.162386 0.101813 0.094565
0.206054 0.117688 0.109310
0.250158 0.133791 0.124215
0.296038 0.150753 0.139720
0.342995 0.168150 0.155531
0.391002 0.185952 0.171625
0.088589 0.132483 0.099933
0.132257 0.148358 0.114679
0.176660 0.164902 0.129820
0.222238 0.182221 0.145443
0.268776 0.199983 0.161358
0.316308 0.218164 0.177554
0.364867 0.236762 0.194033
0.414487 0.255778 0.210797
0.465199 0.275218 0.227851
0.148011 0.213897 0.151204
0.194083 0.232035 0.167222
0.241104 0.250606 0.183520
0.289121 0.269606 0.200103
0.338172 0.289036 0.216972
0.388293 0.308900 0.234133
0.439512 0.329203 0.251590
0.491858 0.349948 0.269347
0.545356 0.371141 0.287409
0.212824 0.302693 0.206211
0.261285 0.322544 0.223186
0.310797 0.342839 0.240454
0.361390 0.363582 0.258020
0.413094 0.384775 0.275887
0.465935 0.406425 0.294061
0.519938 0.428534 0.312544
0.575124 0.451108 0.331342
0.631514 0.474151 0.350458
0.282653 0.398226 0.264489
0.333701 0.419874 0.282468
0.385874 0.441984 0.300754
0.439196 0.464562 0.319352
0.493689 0.487611 0.338265
0.549377 0.511135 0.357497
0.606277 0.535139 0.377052
0.664410 0.559625 0.396933
0.723792 0.584599 0.417144
0.357794 0.500873 0.326200
0.411585 0.524401 0.345229
0.466560 0.548410 0.364579
0.522738 0.572905 0.384252
0.580140 0.597888 0.404253
0.638782 0.623364 0.424584
0.698683 0.649335 0.445249
0.759858 0.675806 0.466251
0.822323 0.702780 0.487593
0.438505 0.610968 0.391496
0.495166 0.636451 0.411616
0.553061 0.662432 0.432069
0.612206 0.688914 0.452856
0.672618 0.715900 0.473982
0.734312 0.743394 0.495448
0.791760 0.766147 0.514469
0.846069 0.785789 0.531851
0.900377 0.805431 0.549233
0.525005 0.728801 0.460508
0.584646 0.756305 0.481757
0.645563 0.784321 0.503348
0.699982 0.804095 0.520797
0.754290 0.823737 0.538179
0.808598 0.843379 0.555561
0.862907 0.863021 0.572943
0.917215 0.882664 0.590325
0.971524 0.902306 0.607707
0.000000 0.000000 0.028853
0.023618 0.000000 0.043598
0.067286 0.013033 0.058343
0.110954 0.028908 0.073088
0.154622 0.044784 0.087833
0.198289 0.060659 0.102578
0.241957 0.076534 0.117323
0.285625 0.092409 0.132069
0.329820 0.108453 0.146986
0.037157 0.059579 0.078456
0.080825 0.075454 0.093201
0.124493 0.091329 0.107946
0.168161 0.107204 0.122692
0.211829 0.123080 0.137437
0.256519 0.139496 0.152629
0.302706 0.156615 0.168377
0.349937 0.174150 0.184435
0.398217 0.192089 0.200787
0.094364 0.137875 0.128060
0.138054 0.153773 0.142821
0.182916 0.170730 0.158324
0.228743 0.188206 0.174189
0.275532 0.206111 0.190355
0.323320 0.224433 0.206813
0.372142 0.243173 0.223563
0.422033 0.262332 0.240608
0.473021 0.281917 0.257949
0.154334 0.220008 0.180040
0.200638 0.238294 0.196313
0.247901 0.257010 0.212877
0.296171 0.276156 0.229734
0.345483 0.295733 0.246886
0.395872 0.315746 0.264338
0.447367 0.336198 0.282091
0.499995 0.357095 0.300151
0.553779 0.378441 0.318522
0.219640 0.309385 0.235944
0.268355 0.329387 0.253205
0.318128 0.349833 0.270766
0.368990 0.370728 0.288631
0.420970 0.392076 0.306803
0.474093 0.413882 0.325288
0.528383 0.436148 0.344087
0.583862 0.458881 0.363206
0.640549 0.482084 0.382647
0.289993 0.405526 0.295211
0.341312 0.427330 0.313497
0.393761 0.449599 0.332095
0.447366 0.472337 0.351011
0.502148 0.495547 0.370246
0.558129 0.519233 0.389806
0.615328 0.543400 0.409692
0.673763 0.568052 0.429909
0.733453 0.593191 0.450459
0.365685 0.508809 0.357977
0.419761 0.532501 0.377330
0.475025 0.556674 0.397008
0.531498 0.581335 0.417014
0.589199 0.606485 0.437352
0.648146 0.632128 0.458024
0.708354 0.658269 0.479033
0.769842 0.684910 0.500383
0.832623 0.712055 0.522076
0.446971 0.619566 0.424380
0.503929 0.645218 0.444839
0.562124 0.671369 0.465633
0.621574 0.698022 0.486767
0.682295 0.725180 0.508241
0.744302 0.752847 0.530060
0.798942 0.772817 0.547625
0.853251 0.792459 0.565007
0.907559 0.812102 0.582389
0.534067 0.738084 0.494545
0.594014 0.765762 0.516144
0.652856 0.791123 0.536571
0.707164 0.810765 0.553953
0.761472 0.830407 0.571335
0.815781 0.850050 0.588717
0.870089 0.869692 0.606099
0.924398 0.889334 0.623481
0.978706 0.908976 0.640863
0.000000 0.000000 0.056979
0.029393 0.002549 0.071724
0.073061 0.018424 0.086469
0.116729 0.034300 0.101214
0.160397 0.050175 0.115959
0.204065 0.066050 0.130705
0.247732 0.081925 0.145450
0.291400 0.097801 0.160195
0.336352 0.114100 0.175432
0.042932 0.064970 0.106582
0.086600 0.080845 0.121328
0.130268 0.096720 0.136073
0.173936 0.112596 0.150818
0.217617 0.128478 0.165570
0.262971 0.145260 0.181169
0.309441 0.162524 0.197166
0.356944 0.180197 0.213480
0.405496 0.198272 0.230098
0.100139 0.143266 0.156186
0.144097 0.159454 0.171184
0.189234 0.176615 0.186954
0.235305 0.194239 0.203070
0.282344 0.212286 0.219495
0.330389 0.230750 0.236222
0.379476 0.249632 0.253249
0.429638 0.268936 0.270578
0.480903 0.288666 0.288212
0.160707 0.226169 0.209015
0.207243 0.244602 0.225550
0.254752 0.263464 0.242386
0.303275 0.282756 0.259523
0.352850 0.302481 0.276963
0.403509 0.322642 0.294708
0.455281 0.343245 0.312762
0.508191 0.364294 0.331129
0.562264 0.385794 0.349812
0.226508 0.316128 0.265837
0.275478 0.336280 0.283388
0.325514 0.356879 0.301245
0.376646 0.377927 0.319413
0.428903 0.399430 0.337894
0.482310 0.421391 0.356692
0.536889 0.443816 0.375811
0.592661 0.466708 0.395253
0.649648 0.490072 0.415022
0.297387 0.412879 0.326105
0.348978 0.434841 0.344701
0.401706 0.457268 0.363615
0.455595 0.480166 0.382852
0.510666 0.503537 0.402412
0.566942 0.527386 0.422302
0.624440 0.551717 0.442522
0.683180 0.576534 0.463076
0.743178 0.601840 0.483968
0.373633 0.516801 0.389935
0.427995 0.540656 0.409615
0.483550 0.564994 0.429624
0.540319 0.589820 0.449966
0.598320 0.615138 0.470643
0.657571 0.640950 0.491658
0.718089 0.667260 0.513014
0.779890 0.694072 0.534714
0.842987 0.721389 0.556760
0.455496 0.628222 0.457455
0.512751 0.654043 0.478254
0.571248 0.680364 0.499393
0.631004 0.707188 0.520874
0.692035 0.734519 0.542700
0.751816 0.759846 0.563399
0.806125 0.779488 0.580781
0.860433 0.799130 0.598163
0.914742 0.818772 0.615545
0.543190 0.747426 0.528780
0.603444 0.775278 0.550732
0.660038 0.797794 0.569727
0.714346 0.817436 0.587109
0.768655 0.837078 0.604491
0.822963 0.856720 0.621873
0.877272 0.876362 0.639255
0.931580 0.896005 0.656637
0.985888 0.915647 0.674019
0.000000 0.000000 0.085105
0.035168 0.007940 0.099850
0.078836 0.023816 0.114595
0.122504 0.039691 0.129341
0.166172 0.055566 0.144086
0.209840 0.071441 0.158831
0.253507 0.087317 0.173576
0.297175 0.103192 0.188321
0.342997 0.119800 0.204008
0.048707 0.070361 0.134709
0.092375 0.086236 0.149454
0.136043 0.102112 0.164199
0.179711 0.117987 0.178944
0.223795 0.134105 0.193954
0.269498 0.151076 0.209839
0.316241 0.168481 0.226093
0.364013 0.186291 0.242670
0.412837 0.204503 0.259558
0.105915 0.148657 0.184312
0.150227 0.165223 0.199687
0.195609 0.182552 0.215717
0.241923 0.200321 0.232091
0.289213 0.218510 0.248783
0.337516 0.237116 0.265783
0.386868 0.256140 0.283093
0.437302 0.275588 0.300711
0.488846 0.295465 0.318641
0.167128 0.232381 0.238132
0.213900 0.250959 0.254936
0.261655 0.269967 0.272049
0.310435 0.289406 0.289471
0.360274 0.309278 0.307203
0.411204 0.329589 0.325246
0.463254 0.350343 0.343605
0.516448 0.371544 0.362282
0.570810 0.393199 0.381279
0.233428 0.322922 0.295890
0.282655 0.343225 0.313735
0.332955 0.363976 0.331893
0.384360 0.385179 0.350367
0.436895 0.406837 0.369161
0.490586 0.428955 0.388276
0.545455 0.451538 0.407716
0.601522 0.474589 0.427485
0.658808 0.498114 0.447585
0.304836 0.420285 0.357172
0.356700 0.442405 0.376082
0.409708 0.464992 0.395316
0.463882 0.488049 0.414875
0.519245 0.511583 0.434764
0.575816 0.535595 0.454985
0.633615 0.560091 0.475542
0.692660 0.585073 0.496436
0.752966 0.610546 0.517671
0.381639 0.524848 0.422078
0.436287 0.548867 0.442087
0.492134 0.573371 0.462430
0.549200 0.598363 0.483109
0.607503 0.623848 0.504127
0.667060 0.649829 0.525487
0.727888 0.676309 0.547192
0.790002 0.703292 0.569243
0.850777 0.728568 0.590227
0.464081 0.636935 0.490722
0.521634 0.662926 0.511864
0.580434 0.689417 0.533349
0.640497 0.716413 0.555180
0.701839 0.743916 0.577358
0.758999 0.766516 0.596555
0.813307 0.786158 0.613937
0.867616 0.805801 0.631319
0.921924 0.825443 0.648701
0.552374 0.756827 0.563214
0.612912 0.784822 0.585501
0.667220 0.804464 0.602883
0.721529 0.824106 0.620265
0.775837 0.843749 0.637647
0.830145 0.863391 0.655029
0.884454 0.883033 0.672411
0.938762 0.902675 0.689793
0.993071 0.922318 0.707175
0.000000 0.000000 0.113231
0.040943 0.013332 0.127976
0.084611 0.029207 0.142722
0.128279 0.045082 0.157467
0.171947 0.060958 0.172212
0.215615 0.076833 0.186957
0.259283 0.092708 0.201702
0.303470 0.108764 0.216720
0.349732 0.125547 0.232717
0.054483 0.075752 0.162835
0.098150 0.091628 0.177580
0.141818 0.107503 0.192325
0.185486 0.123378 0.207070
0.230102 0.139814 0.222489
0.276095 0.156941 0.238643
0.323104 0.174484 0.255160
0.371143 0.192430 0.272007
0.420239 0.210780 0.289172
0.111716 0.154084 0.212475
0.156420 0.171055 0.228324
0.202039 0.188539 0.244617
0.248597 0.206451 0.261256
0.296137 0.224782 0.278219
0.344700 0.243529 0.295500
0.394319 0.262697 0.313096
0.445026 0.282290 0.331008
0.496850 0.302313 0.349238
0.173598 0.238642 0.267395
0.220608 0.257367 0.284474
0.268612 0.276520 0.301870
0.317649 0.296106 0.319581
0.367754 0.316126 0.337608
0.418957 0.336587 0.355954
0.471286 0.357492 0.374621
0.524765 0.378847 0.393610
0.579418 0.400656 0.412926
0.240400 0.329767 0.326107
0.289885 0.350222 0.344250
0.340452 0.371126 0.362713
0.392130 0.392482 0.381497
0.444946 0.414296 0.400605
0.498922 0.436572 0.420040
0.554082 0.459313 0.439805
0.610445 0.482525 0.459902
0.668032 0.506212 0.480335
0.312340 0.427745 0.388415
0.364479 0.450023 0.407642
0.417768 0.472769 0.427197
0.472229 0.495988 0.447083
0.527884 0.519683 0.467302
0.584752 0.543860 0.487858
0.642852 0.568520 0.508753
0.702202 0.593669 0.529989
0.762819 0.619310 0.551570
0.389702 0.532951 0.454405
0.444638 0.557134 0.474747
0.500778 0.581803 0.495426
0.558142 0.606962 0.516445
0.616748 0.632615 0.537806
0.676612 0.658765 0.559513
0.737750 0.685416 0.581568
0.800179 0.712570 0.603974
0.857960 0.735239 0.623383
0.472725 0.645706 0.524182
0.530578 0.671866 0.545669
0.589681 0.698528 0.567502
0.650052 0.725696 0.589685
0.711706 0.753372 0.612218
0.766181 0.773187 0.629711
0.820489 0.792829 0.647093
0.874798 0.812471 0.664475
0.929106 0.832114 0.681857
0.561620 0.766288 0.597847
0.620094 0.791492 0.618657
0.674402 0.811135 0.636039
0.728711 0.830777 0.653421
0.783019 0.850419 0.670803
0.837328 0.870061 0.688185
0.891636 0.889704 0.705567
0.945945 0.909346 0.722950
1.000000 0.928988 0.740332
0.003051 0.002848 0.141358
0.046718 0.018723 0.156103
0.090386 0.034598 0.170848
0.134054 0.050474 0.185593
0.177722 0.066349 0.200338
0.221390 0.082224 0.215083
0.265058 0.098099 0.229828
0.309949 0.114414 0.245285
0.356548 0.131341 0.261562
0.060258 0.081144 0.190961
0.103925 0.097019 0.205706
0.147593 0.112894 0.220451
0.191286 0.128786 0.235219
0.236491 0.145581 0.251161
0.282755 0.162853 0.267586
0.330029 0.180534 0.284373
0.378335 0.198616 0.301495
0.427703 0.217104 0.318942
0.117716 0.159772 0.240942
0.162669 0.176942 0.257096
0.208523 0.194575 0.273658
0.255325 0.212630 0.290568
0.303118 0.231102 0.307809
0.351941 0.249991 0.325375
0.401828 0.269303 0.343262
0.452810 0.289041 0.361472
0.504914 0.309212 0.380005
0.180117 0.244953 0.296807
0.227368 0.263823 0.314167
0.275623 0.283123 0.331850
0.324919 0.302856 0.349854
0.375291 0.323025 0.368182
0.426768 0.343637 0.386833
0.479377 0.364694 0.405811
0.533143 0.386202 0.425117
0.588087 0.408167 0.444754
0.247424 0.336664 0.356489
0.297170 0.357271 0.374935
0.348005 0.378328 0.393705
0.399958 0.399839 0.412802
0.453054 0.421809 0.432228
0.507318 0.444242 0.451986
0.562769 0.467143 0.472078
0.619430 0.490516 0.492507
0.677318 0.514364 0.513275
0.319900 0.435258 0.419836
0.372315 0.457695 0.439382
0.425886 0.480601 0.459262
0.480635 0.503981 0.479476
0.536583 0.527840 0.500028
0.593749 0.552180 0.520921
0.652152 0.577006 0.542156
0.711809 0.602321 0.563737
0.772736 0.628130 0.585666
0.397822 0.541109 0.486919
0.453048 0.565457 0.507595
0.509483 0.590292 0.528612
0.567146 0.615619 0.549973
0.626055 0.641440 0.571681
0.686226 0.667760 0.593737
0.747677 0.694581 0.616144
0.810421 0.721907 0.638905
0.865142 0.741909 0.656539
0.481430 0.654534 0.557836
0.539583 0.680864 0.579670
0.598991 0.707698 0.601854
0.659670 0.735038 0.624390
0.719055 0.760215 0.645485
0.773363 0.779857 0.662867
0.827672 0.799500 0.680249
0.881980 0.819142 0.697631
0.936289 0.838784 0.715013
0.570927 0.775807 0.632682
0.627276 0.798163 0.651813
0.681585 0.817805 0.669195
0.735893 0.837448 0.686577
0.790202 0.857090 0.703960
0.844510 0.876732 0.721342
0.898819 0.896374 0.738724
0.953127 0.916017 0.756106
1.000000 0.935659 0.773488
0.008826 0.008239 0.169484
0.052494 0.024114 0.184229
0.096161 0.039990 0.198974
0.139829 0.055865 0.213719
0.183497 0.071740 0.228464
0.227165 0.087615 0.243210
0.270844 0.103495 0.257963
0.316533 0.120117 0.273993
0.363438 0.137179 0.290549
0.066033 0.086535 0.219087
0.109701 0.102410 0.233833
0.153368 0.118286 0.248578
0.197427 0.134420 0.263706
0.242951 0.151400 0.279973
0.289478 0.168812 0.296672
0.337014 0.186630 0.313733
0.385587 0.204849 0.331136
0.435227 0.223475 0.348871
0.123788 0.165545 0.269568
0.168971 0.182882 0.286008
0.215061 0.200659 0.302843
0.262107 0.218856 0.320030
0.310154 0.237470 0.337554
0.359239 0.256502 0.355409
0.409395 0.275958 0.373592
0.460653 0.295843 0.392104
0.513039 0.316161 0.410945
0.186686 0.251313 0.326372
0.234179 0.270329 0.344016
0.282687 0.289776 0.361991
0.332244 0.309656 0.380294
0.382885 0.329975 0.398925
0.434638 0.350737 0.417886
0.487528 0.371947 0.437178
0.541581 0.393610 0.456803
0.596818 0.415731 0.476764
0.254501 0.343612 0.387039
0.304509 0.364371 0.405790
0.355614 0.385582 0.424871
0.407843 0.407248 0.444284
0.461222 0.429375 0.464031
0.515773 0.451967 0.484114
0.571518 0.475027 0.504536
0.628477 0.498561 0.525299
0.686668 0.522572 0.546406
0.327515 0.442825 0.451434
0.380208 0.465421 0.471304
0.434062 0.488488 0.491510
0.489100 0.512030 0.512056
0.545342 0.536051 0.532943
0.602807 0.560556 0.554175
0.661514 0.585548 0.575754
0.721478 0.611030 0.597681
0.782718 0.637008 0.619960
0.406001 0.549323 0.519621
0.461517 0.573836 0.540633
0.518247 0.598838 0.561991
0.576210 0.624332 0.583696
0.635424 0.650322 0.605751
0.695904 0.676812 0.628159
0.757667 0.703804 0.650920
0.818016 0.728938 0.672313
0.872324 0.748580 0.689695
0.490194 0.663420 0.591685
0.548648 0.689920 0.613868
0.608362 0.716925 0.636404
0.669352 0.744438 0.659296
0.726237 0.766886 0.678641
0.780546 0.786528 0.696023
0.834854 0.806170 0.713405
0.889162 0.825812 0.730787
0.943471 0.845455 0.748170
0.580150 0.785191 0.667588
0.634459 0.804834 0.684970
0.688767 0.824476 0.702352
0.743076 0.844118 0.719734
0.797384 0.863760 0.737116
0.851692 0.883403 0.754498
0.906001 0.903045 0.771880
0.960309 0.922687 0.789262
1.000000 0.942329 0.806644
0.014601 0.013630 0.197610
0.058269 0.029506 0.212355
0.101936 0.045381 0.227100
0.145604 0.061256 0.241846
0.189272 0.077131 0.256591
0.232940 0.093007 0.271336
0.277114 0.109076 0.286465
0.323202 0.125867 0.302843
0.370398 0.143061 0.319679
0.071808 0.091926 0.247214
0.115476 0.107802 0.261959
0.159144 0.123677 0.276704
0.203677 0.140132 0.292363
0.249475 0.157267 0.308926
0.296262 0.174818 0.325903
0.344059 0.192772 0.343245
0.392900 0.211129 0.360933
0.442813 0.229894 0.378960
0.129916 0.171380 0.298338
0.175326 0.188872 0.315063
0.221652 0.206792 0.332176
0.268945 0.225131 0.349645
0.317246 0.243886 0.367457
0.366594 0.263062 0.385606
0.417021 0.282663 0.404089
0.468555 0.302694 0.422906
0.521224 0.323162 0.442057
0.193305 0.257723 0.356091
0.241043 0.276885 0.374026
0.289805 0.296478 0.392296
0.339625 0.316507 0.410901
0.390536 0.336976 0.429840
0.442565 0.357890 0.449113
0.495739 0.379253 0.468722
0.550080 0.401071 0.488670
0.605611 0.423348 0.508957
0.261631 0.350611 0.417757
0.311903 0.371523 0.436817
0.363279 0.392889 0.456213
0.415786 0.414711 0.475945
0.469448 0.436995 0.496016
0.524289 0.459746 0.516428
0.580328 0.482966 0.537182
0.637586 0.506662 0.558281
0.696081 0.530836 0.579728
0.335185 0.450446 0.483213
0.388158 0.473202 0.503408
0.442297 0.496429 0.523944
0.497625 0.520134 0.544823
0.554163 0.544319 0.566049
0.611928 0.568989 0.587622
0.670939 0.594147 0.609546
0.731212 0.619797 0.631822
0.792764 0.645943 0.654452
0.414238 0.557594 0.552511
0.470045 0.582272 0.573863
0.527072 0.607441 0.595563
0.585336 0.633103 0.617615
0.644855 0.659262 0.640020
0.705645 0.685922 0.662780
0.767722 0.713086 0.685898
0.825198 0.735608 0.705469
0.879506 0.755251 0.722851
0.499019 0.672363 0.625730
0.557775 0.699035 0.648265
0.617796 0.726212 0.671155
0.679096 0.753898 0.694403
0.733420 0.773556 0.711798
0.787728 0.793199 0.729180
0.842036 0.812841 0.746562
0.896345 0.832483 0.763944
0.950653 0.852125 0.781326
0.587333 0.791862 0.700744
0.641641 0.811504 0.718126
0.695949 0.831147 0.735508
0.750258 0.850789 0.752890
0.804566 0.870431 0.770272
0.858875 0.890073 0.787654
0.913183 0.909716 0.805036
0.967492 0.929358 0.822418
1.000000 0.949000 0.839800
