assets/lighting/cinematic/grade-sepia-archive/lut.cube
TITLE "Sepia Archive"
# TKRS lighting-batch-001 original LUT
# Intended usage: aged photo / memory sequence
# License: CC0-1.0
LUT_3D_SIZE 17
DOMAIN_MIN 0.0 0.0 0.0
DOMAIN_MAX 1.0 1.0 1.0
0.000000 0.000000 0.000000
0.000000 0.000000 0.000000
0.012068 0.000000 0.000000
0.033902 0.000000 0.000000
0.055736 0.002250 0.002090
0.077570 0.010188 0.009463
0.099404 0.018126 0.016835
0.121237 0.026063 0.024208
0.143071 0.034001 0.031581
0.164905 0.041939 0.038953
0.186739 0.049876 0.046326
0.208573 0.057814 0.053698
0.230407 0.065751 0.061071
0.252241 0.073689 0.068443
0.274075 0.081627 0.075816
0.295909 0.089564 0.083189
0.317743 0.097502 0.090561
0.000000 0.009648 0.000000
0.018837 0.017586 0.004774
0.040671 0.025523 0.012147
0.062505 0.033461 0.019520
0.084339 0.041398 0.026892
0.106173 0.049336 0.034265
0.128007 0.057274 0.041637
0.149841 0.065211 0.049010
0.171675 0.073149 0.056382
0.193509 0.081087 0.063755
0.215343 0.089024 0.071127
0.237177 0.096962 0.078500
0.259011 0.104899 0.085873
0.280845 0.112837 0.093245
0.303168 0.120965 0.100737
0.326135 0.129339 0.108387
0.349413 0.137828 0.116113
0.025607 0.048796 0.022204
0.047441 0.056734 0.029576
0.069275 0.064671 0.036949
0.091109 0.072609 0.044321
0.112943 0.080546 0.051694
0.134777 0.088484 0.059066
0.156611 0.096422 0.066439
0.178445 0.104359 0.073812
0.200278 0.112297 0.081184
0.222112 0.120235 0.088557
0.243947 0.128173 0.095930
0.266518 0.136478 0.103512
0.289444 0.144940 0.111191
0.312648 0.153515 0.118943
0.336118 0.162196 0.126763
0.359851 0.170978 0.134651
0.383849 0.179861 0.142606
0.054211 0.087944 0.047005
0.076045 0.095882 0.054378
0.097878 0.103819 0.061751
0.119712 0.111757 0.069123
0.141546 0.119694 0.076496
0.163380 0.127632 0.083868
0.185214 0.135570 0.091241
0.207220 0.143624 0.098674
0.229803 0.152038 0.106299
0.252664 0.160589 0.114005
0.275782 0.169253 0.121782
0.299154 0.178023 0.129627
0.322780 0.186897 0.137539
0.346663 0.195874 0.145519
0.370806 0.204953 0.153567
0.395214 0.214135 0.161683
0.419889 0.223419 0.169867
0.082814 0.127092 0.071807
0.104648 0.135030 0.079180
0.126482 0.142967 0.086552
0.148316 0.150905 0.093925
0.170473 0.159136 0.101439
0.193009 0.167647 0.109096
0.215791 0.176288 0.116828
0.238813 0.185041 0.124630
0.262078 0.193903 0.132500
0.285590 0.202871 0.140437
0.309354 0.211943 0.148441
0.333372 0.221119 0.156514
0.357650 0.230399 0.164654
0.382192 0.239784 0.172864
0.407001 0.249273 0.181144
0.432082 0.258868 0.189494
0.457437 0.268569 0.197915
0.111436 0.166267 0.096621
0.133663 0.174701 0.104217
0.156127 0.183306 0.111903
0.178816 0.192037 0.119661
0.201735 0.200883 0.127488
0.224888 0.209838 0.135382
0.248281 0.218900 0.143343
0.271920 0.228068 0.151372
0.295810 0.237342 0.159469
0.319955 0.246722 0.167635
0.344360 0.256208 0.175871
0.369029 0.265800 0.184176
0.393967 0.275499 0.192552
0.419176 0.285305 0.200999
0.444661 0.295220 0.209518
0.470425 0.305242 0.218110
0.496472 0.315374 0.226775
0.141737 0.207838 0.122502
0.164544 0.216777 0.130354
0.187579 0.225827 0.138272
0.210849 0.234985 0.146258
0.234360 0.244251 0.154312
0.258117 0.253625 0.162434
0.282125 0.263105 0.170625
0.306391 0.272693 0.178886
0.330917 0.282389 0.187217
0.355709 0.292193 0.195619
0.380771 0.302105 0.204092
0.406105 0.312127 0.212638
0.431716 0.322259 0.221256
0.457607 0.332500 0.229948
0.483782 0.342853 0.238714
0.510243 0.353317 0.247555
0.536993 0.363893 0.256470
0.173292 0.251127 0.149183
0.196670 0.260492 0.157261
0.220291 0.269966 0.165408
0.244160 0.279548 0.173625
0.268283 0.289239 0.181911
0.292664 0.299040 0.190268
0.317308 0.308950 0.198695
0.342219 0.318969 0.207195
0.367401 0.329099 0.215767
0.392857 0.339340 0.224412
0.418591 0.349692 0.233131
0.444606 0.360156 0.241924
0.470906 0.370733 0.250792
0.497494 0.381423 0.259735
0.524372 0.392227 0.268754
0.551544 0.403145 0.277850
0.579011 0.414178 0.287023
0.206058 0.296052 0.176633
0.230036 0.305847 0.184945
0.254269 0.315753 0.193328
0.278762 0.325769 0.201782
0.303521 0.335897 0.210307
0.328547 0.346136 0.218906
0.353846 0.356487 0.227578
0.379421 0.366950 0.236323
0.405276 0.377527 0.245144
0.431413 0.388217 0.254039
0.457837 0.399021 0.263010
0.484549 0.409940 0.272057
0.511553 0.420974 0.281181
0.538851 0.432124 0.290382
0.566447 0.443390 0.299660
0.594343 0.454773 0.309017
0.622540 0.466273 0.318453
0.240070 0.342653 0.204877
0.264674 0.352889 0.213429
0.289543 0.363238 0.222054
0.314684 0.373700 0.230753
0.340098 0.384275 0.239526
0.365790 0.394965 0.248373
0.391763 0.405769 0.257296
0.418020 0.416688 0.266295
0.444565 0.427722 0.275370
0.471400 0.438873 0.284521
0.498528 0.450140 0.293751
0.525952 0.461525 0.303058
0.553674 0.473027 0.312444
0.581697 0.484647 0.321908
0.610024 0.496386 0.331452
0.638656 0.508244 0.341076
0.667596 0.520222 0.350780
0.275367 0.390979 0.233938
0.300619 0.401667 0.242738
0.326147 0.412470 0.251613
0.351954 0.423389 0.260563
0.378044 0.434423 0.269590
0.404420 0.445574 0.278692
0.431084 0.456842 0.287872
0.458040 0.468227 0.297130
0.485291 0.479731 0.306466
0.512838 0.491352 0.315880
0.540685 0.503093 0.325374
0.568835 0.514953 0.334947
0.597288 0.526933 0.344600
0.626049 0.539034 0.354333
0.655119 0.551255 0.364148
0.684500 0.563598 0.374044
0.714195 0.576063 0.384021
0.311986 0.441077 0.263841
0.337907 0.452228 0.272895
0.364112 0.463496 0.282026
0.390604 0.474881 0.291234
0.417387 0.486385 0.300520
0.444463 0.498008 0.309884
0.471834 0.509750 0.319327
0.499504 0.521611 0.328850
0.527475 0.533593 0.338452
0.555750 0.545696 0.348134
0.584330 0.557920 0.357897
0.613218 0.570265 0.367741
0.642416 0.582732 0.377667
0.671926 0.595322 0.387674
0.701752 0.608035 0.397764
0.731893 0.620872 0.407937
0.762354 0.633832 0.418193
0.349960 0.492991 0.294605
0.376568 0.504614 0.303920
0.403468 0.516357 0.313313
0.430662 0.528219 0.322785
0.458154 0.540203 0.332336
0.485945 0.552307 0.341967
0.514039 0.564532 0.351679
0.542437 0.576879 0.361472
0.571142 0.589349 0.371345
0.600156 0.601941 0.381301
0.629481 0.614657 0.391338
0.659120 0.627496 0.401458
0.689075 0.640459 0.411661
0.719347 0.653547 0.421947
0.749939 0.666760 0.432317
0.780852 0.680098 0.442771
0.812089 0.693563 0.453310
0.389321 0.546761 0.326253
0.416633 0.558866 0.335833
0.444243 0.571093 0.345494
0.472155 0.583442 0.355235
0.500370 0.595913 0.365057
0.528891 0.608508 0.374960
0.557720 0.621225 0.384945
0.586859 0.634067 0.395013
0.616311 0.647033 0.405163
0.646077 0.660124 0.415396
0.676160 0.673339 0.425713
0.706562 0.686681 0.436113
0.737284 0.700148 0.446598
0.768329 0.713742 0.457167
0.799698 0.727463 0.467822
0.830467 0.740502 0.478148
0.857621 0.750323 0.486839
0.430097 0.602426 0.358801
0.458128 0.615022 0.368653
0.486464 0.627741 0.378586
0.515107 0.640585 0.388601
0.544059 0.653553 0.398699
0.573323 0.666646 0.408879
0.602900 0.679864 0.419142
0.632793 0.693208 0.429490
0.663004 0.706679 0.439921
0.693534 0.720276 0.450436
0.724386 0.734000 0.461036
0.755562 0.747851 0.471722
0.784578 0.759476 0.481312
0.811732 0.769297 0.490003
0.838886 0.779118 0.498694
0.866040 0.788939 0.507385
0.893195 0.798761 0.516076
0.472317 0.660020 0.392268
0.501081 0.673115 0.402395
0.530155 0.686335 0.412606
0.559543 0.699682 0.422900
0.589245 0.713154 0.433277
0.619263 0.726754 0.443739
0.649601 0.740481 0.454286
0.680259 0.754335 0.464917
0.711240 0.768318 0.475633
0.738689 0.778450 0.484476
0.765843 0.788271 0.493168
0.792997 0.798092 0.501859
0.820151 0.807913 0.510550
0.847305 0.817734 0.519241
0.874460 0.827556 0.527932
0.901614 0.837377 0.536623
0.928768 0.847198 0.545314
0.516004 0.719576 0.426668
0.545514 0.733178 0.437076
0.575340 0.746907 0.447569
0.605484 0.760764 0.458146
0.635948 0.774749 0.468808
0.665645 0.787603 0.478950
0.692799 0.797424 0.487641
0.719954 0.807245 0.496332
0.747108 0.817066 0.505023
0.774262 0.826887 0.513714
0.801416 0.836708 0.522405
0.828570 0.846530 0.531096
0.855725 0.856351 0.539787
0.882879 0.866172 0.548478
0.910033 0.875993 0.557169
0.937187 0.885814 0.565860
0.964341 0.895635 0.574551
0.000000 0.000000 0.000000
0.000000 0.000000 0.000000
0.014955 0.000000 0.001408
0.036789 0.000000 0.008781
0.058623 0.004946 0.016153
0.080457 0.012884 0.023526
0.102291 0.020821 0.030899
0.124125 0.028759 0.038271
0.145959 0.036697 0.045644
0.167793 0.044634 0.053016
0.189627 0.052572 0.060389
0.211461 0.060509 0.067761
0.233295 0.068447 0.075134
0.255129 0.076385 0.082507
0.276962 0.084322 0.089879
0.298796 0.092260 0.097252
0.320630 0.100198 0.104624
0.000000 0.012344 0.011465
0.021725 0.020281 0.018837
0.043559 0.028219 0.026210
0.065393 0.036156 0.033583
0.087227 0.044094 0.040955
0.109061 0.052032 0.048328
0.130895 0.059969 0.055700
0.152729 0.067907 0.063073
0.174562 0.075845 0.070445
0.196396 0.083782 0.077818
0.218230 0.091720 0.085191
0.240064 0.099657 0.092563
0.261898 0.107595 0.099936
0.283732 0.115533 0.107308
0.306389 0.123794 0.114908
0.329452 0.132210 0.122615
0.352809 0.140735 0.130399
0.028495 0.051492 0.036267
0.050329 0.059429 0.043639
0.072162 0.067367 0.051012
0.093996 0.075304 0.058384
0.115830 0.083242 0.065757
0.137664 0.091180 0.073130
0.159498 0.099117 0.080502
0.181332 0.107055 0.087875
0.203166 0.114993 0.095247
0.225000 0.122930 0.102620
0.247023 0.130965 0.110054
0.269726 0.139338 0.117704
0.292731 0.147840 0.125440
0.316008 0.156452 0.133250
0.339548 0.165167 0.141130
0.363351 0.173984 0.149080
0.387417 0.182901 0.157098
0.057098 0.090640 0.061069
0.078932 0.098577 0.068441
0.100766 0.106515 0.075814
0.122600 0.114452 0.083186
0.144434 0.122390 0.090559
0.166268 0.130328 0.097931
0.188102 0.138265 0.105304
0.210319 0.146463 0.112827
0.232986 0.154929 0.120512
0.255918 0.163519 0.128275
0.279103 0.172219 0.136111
0.302541 0.181025 0.144016
0.326233 0.189934 0.151991
0.350182 0.198946 0.160034
0.374393 0.208060 0.168146
0.398868 0.217276 0.176328
0.423612 0.226595 0.184581
0.085702 0.129788 0.085870
0.107536 0.137725 0.093243
0.129370 0.145663 0.100615
0.151221 0.153618 0.107997
0.173557 0.162010 0.115615
0.196161 0.170568 0.123329
0.219007 0.179248 0.131120
0.242092 0.188039 0.138981
0.265420 0.196937 0.146912
0.288996 0.205940 0.154911
0.312823 0.215047 0.162979
0.336907 0.224259 0.171117
0.361251 0.233574 0.179325
0.385860 0.242994 0.187602
0.410737 0.252519 0.195951
0.435886 0.262150 0.204371
0.461310 0.271887 0.212863
0.114422 0.169103 0.110755
0.136720 0.177607 0.118414
0.159243 0.186258 0.126157
0.181991 0.195028 0.133974
0.204969 0.203912 0.141860
0.228182 0.212903 0.149816
0.251637 0.222002 0.157840
0.275339 0.231206 0.165934
0.299292 0.240516 0.174097
0.323501 0.249932 0.182330
0.347972 0.259454 0.190634
0.372708 0.269082 0.199008
0.397712 0.278817 0.207454
0.422990 0.288660 0.215973
0.448544 0.298611 0.224564
0.474378 0.308671 0.233229
0.500495 0.318840 0.241968
0.144868 0.210861 0.136837
0.167732 0.219838 0.144749
0.190825 0.228925 0.152729
0.214154 0.238120 0.160779
0.237725 0.247422 0.168898
0.261544 0.256832 0.177086
0.285616 0.266349 0.185345
0.309946 0.275974 0.193674
0.334538 0.285706 0.202075
0.359396 0.295547 0.210547
0.384524 0.305497 0.219092
0.409927 0.315555 0.227710
0.435607 0.325724 0.236402
0.461568 0.336004 0.245168
0.487812 0.346394 0.254009
0.514344 0.356896 0.262925
0.541167 0.367511 0.271918
0.176544 0.254295 0.163727
0.199982 0.263697 0.171871
0.223663 0.273208 0.180085
0.247595 0.282827 0.188369
0.271781 0.292555 0.196724
0.296226 0.302393 0.205151
0.320935 0.312340 0.213650
0.345912 0.322397 0.222221
0.371161 0.332564 0.230866
0.396685 0.342843 0.239585
0.422488 0.353233 0.248378
0.448573 0.363736 0.257246
0.474943 0.374351 0.266190
0.501602 0.385079 0.275210
0.528552 0.395922 0.284307
0.555796 0.406879 0.293481
0.583337 0.417951 0.302733
0.209435 0.299366 0.191403
0.233474 0.309199 0.199784
0.257771 0.319142 0.208237
0.282328 0.329196 0.216762
0.307152 0.339362 0.225360
0.332245 0.349639 0.234032
0.357611 0.360028 0.242778
0.383254 0.370530 0.251598
0.409178 0.381145 0.260494
0.435385 0.391873 0.269465
0.461879 0.402716 0.278513
0.488662 0.413674 0.287638
0.515738 0.424748 0.296840
0.543109 0.435937 0.306120
0.570778 0.447242 0.315479
0.598747 0.458665 0.324916
0.627019 0.470205 0.334433
0.243575 0.346117 0.219884
0.268242 0.356391 0.228509
0.293178 0.366778 0.237207
0.318384 0.377279 0.245980
0.343866 0.387893 0.254828
0.369626 0.398621 0.263751
0.395668 0.409464 0.272751
0.421996 0.420422 0.281826
0.448611 0.431496 0.290979
0.475517 0.442686 0.300210
0.502717 0.453993 0.309518
0.530213 0.465418 0.318905
0.558009 0.476960 0.328371
0.586106 0.488620 0.337917
0.614507 0.500399 0.347543
0.643214 0.512298 0.357249
0.672230 0.524317 0.367036
0.279003 0.394596 0.249193
0.304322 0.405323 0.258068
0.329917 0.416165 0.267019
0.355793 0.427123 0.276046
0.381952 0.438197 0.285150
0.408397 0.449388 0.294331
0.435133 0.460695 0.303590
0.462160 0.472121 0.312927
0.489483 0.483664 0.322342
0.517103 0.495326 0.331837
0.545023 0.507107 0.341412
0.573247 0.519008 0.351067
0.601775 0.531029 0.360802
0.630611 0.543171 0.370619
0.659757 0.555433 0.380517
0.689214 0.567817 0.390497
0.718986 0.580324 0.400559
0.315757 0.444851 0.279351
0.341747 0.456041 0.288483
0.368021 0.467349 0.297692
0.394584 0.478775 0.306980
0.421437 0.490319 0.316345
0.448585 0.501982 0.325790
0.476029 0.513765 0.335314
0.503772 0.525667 0.344918
0.531816 0.537690 0.354602
0.560164 0.549833 0.364367
0.588819 0.562098 0.374213
0.617782 0.574485 0.384141
0.647056 0.586994 0.394150
0.676643 0.599626 0.404242
0.706545 0.612381 0.414417
0.736764 0.625259 0.424675
0.767303 0.638262 0.435017
0.353870 0.496925 0.310380
0.380548 0.508589 0.319775
0.407519 0.520372 0.329248
0.434785 0.532275 0.338801
0.462349 0.544300 0.348434
0.490214 0.556445 0.358148
0.518381 0.568711 0.367942
0.546853 0.581100 0.377818
0.575633 0.593612 0.387775
0.604723 0.606246 0.397815
0.634124 0.619003 0.407937
0.663839 0.631885 0.418142
0.693871 0.644890 0.428431
0.724221 0.658020 0.438803
0.754891 0.671276 0.449260
0.785882 0.684657 0.459801
0.817198 0.698164 0.470427
0.393373 0.550859 0.342299
0.420756 0.563005 0.351961
0.448439 0.575273 0.361704
0.476424 0.587663 0.371528
0.504713 0.600177 0.381433
0.533308 0.612813 0.391421
0.562212 0.625573 0.401490
0.591427 0.638456 0.411643
0.620955 0.651465 0.421878
0.650798 0.664598 0.432197
0.680958 0.677856 0.442600
0.711438 0.691240 0.453088
0.742238 0.704751 0.463659
0.773361 0.718387 0.474316
0.804810 0.732151 0.485059
0.834058 0.743837 0.494726
0.861212 0.753659 0.503417
0.434294 0.606690 0.375125
0.462398 0.619327 0.385060
0.490808 0.632089 0.395077
0.519525 0.644975 0.405177
0.548552 0.657985 0.415360
0.577892 0.671121 0.425625
0.607545 0.684382 0.435975
0.637515 0.697769 0.446409
0.667803 0.711282 0.456927
0.698411 0.724922 0.467529
0.729341 0.738689 0.478217
0.760595 0.752584 0.488991
0.788169 0.762811 0.497890
0.815323 0.772632 0.506581
0.842477 0.782454 0.515273
0.869632 0.792275 0.523964
0.896786 0.802096 0.532655
0.476660 0.664453 0.408874
0.505499 0.677590 0.419087
0.534649 0.690854 0.429384
0.564112 0.704243 0.439764
0.593890 0.717759 0.450228
0.623986 0.731402 0.460777
0.654401 0.745172 0.471411
0.685137 0.759069 0.482130
0.715126 0.771964 0.492364
0.742280 0.781785 0.501055
0.769434 0.791606 0.509746
0.796588 0.801428 0.518437
0.823742 0.811249 0.527128
0.850897 0.821070 0.535819
0.878051 0.830891 0.544510
0.905205 0.840712 0.553201
0.932359 0.850533 0.561892
0.520497 0.724181 0.443564
0.550083 0.737826 0.454059
0.579986 0.751599 0.464638
0.610206 0.765499 0.475303
0.640748 0.779528 0.486053
0.669236 0.790938 0.495528
0.696390 0.800759 0.504219
0.723545 0.810580 0.512910
0.750699 0.820401 0.521601
0.777853 0.830223 0.530292
0.805007 0.840044 0.538983
0.832162 0.849865 0.547674
0.859316 0.859686 0.556365
0.886470 0.869507 0.565056
0.913624 0.879328 0.573747
0.940778 0.889149 0.582438
0.967933 0.898970 0.591129
0.000000 0.000000 0.000726
0.000000 0.000000 0.008099
0.017843 0.000000 0.015471
0.039677 0.000000 0.022844
0.061511 0.007642 0.030217
0.083345 0.015579 0.037589
0.105179 0.023517 0.044962
0.127013 0.031455 0.052334
0.148846 0.039392 0.059707
0.170680 0.047330 0.067079
0.192514 0.055268 0.074452
0.214348 0.063205 0.081825
0.236182 0.071143 0.089197
0.258016 0.079080 0.096570
0.279850 0.087018 0.103942
0.301684 0.094956 0.111315
0.323518 0.102893 0.118687
0.002779 0.015039 0.025528
0.024613 0.022977 0.032901
0.046446 0.030915 0.040273
0.068280 0.038852 0.047646
0.090114 0.046790 0.055018
0.111948 0.054727 0.062391
0.133782 0.062665 0.069763
0.155616 0.070603 0.077136
0.177450 0.078540 0.084509
0.199284 0.086478 0.091881
0.221118 0.094415 0.099254
0.242952 0.102353 0.106626
0.264786 0.110291 0.113999
0.286821 0.118309 0.121434
0.309641 0.126639 0.129108
0.332791 0.135093 0.136874
0.356225 0.143653 0.144716
0.031382 0.054187 0.050330
0.053216 0.062125 0.057702
0.075050 0.070062 0.065075
0.096884 0.078000 0.072448
0.118718 0.085938 0.079820
0.140552 0.093875 0.087193
0.162386 0.101813 0.094565
0.184220 0.109751 0.101938
0.206054 0.117688 0.109310
0.227887 0.125626 0.116683
0.250158 0.133791 0.124215
0.272956 0.142212 0.131926
0.296038 0.150753 0.139720
0.319386 0.159400 0.147590
0.342995 0.168150 0.155531
0.366866 0.177001 0.163543
0.391002 0.185952 0.171625
0.059986 0.093335 0.075132
0.081820 0.101273 0.082504
0.103654 0.109210 0.089877
0.125487 0.117148 0.097249
0.147321 0.125086 0.104622
0.169155 0.133023 0.111995
0.191003 0.140971 0.119373
0.213444 0.149322 0.127011
0.236188 0.157833 0.134755
0.259189 0.166462 0.142577
0.282440 0.175198 0.150473
0.305943 0.184039 0.158440
0.329701 0.192983 0.166477
0.353717 0.202030 0.174585
0.377995 0.211178 0.182763
0.402538 0.220429 0.191012
0.427350 0.229784 0.199332
0.088589 0.132483 0.099933
0.110423 0.140421 0.107306
0.132257 0.148358 0.114679
0.154238 0.156441 0.122136
0.176660 0.164902 0.129820
0.199330 0.173503 0.137594
0.222238 0.182221 0.145443
0.245385 0.191049 0.153365
0.268776 0.199983 0.161358
0.292416 0.209021 0.169421
0.316308 0.218164 0.177554
0.340457 0.227411 0.185758
0.364867 0.236762 0.194033
0.389543 0.246217 0.202379
0.414487 0.255778 0.210797
0.439705 0.265445 0.219288
0.465199 0.275218 0.227851
0.117431 0.171971 0.124922
0.139791 0.180531 0.132641
0.162373 0.189223 0.140443
0.185180 0.198033 0.148319
0.208217 0.206953 0.156267
0.231491 0.215981 0.164285
0.255007 0.225116 0.172373
0.278771 0.234356 0.180532
0.302788 0.243702 0.188762
0.327062 0.253154 0.197063
0.351598 0.262712 0.205435
0.376401 0.272376 0.213880
0.401473 0.282148 0.222397
0.426819 0.292027 0.230987
0.452442 0.302015 0.239651
0.478346 0.312112 0.248390
0.504533 0.322318 0.257203
0.148011 0.213897 0.151204
0.170932 0.222912 0.159178
0.194083 0.232035 0.167222
0.217472 0.241267 0.175336
0.241104 0.250606 0.183520
0.264985 0.260052 0.191776
0.289121 0.269606 0.200103
0.313515 0.279267 0.208501
0.338172 0.289036 0.216972
0.363097 0.298914 0.225516
0.388293 0.308900 0.234133
0.413763 0.318996 0.242824
0.439512 0.329203 0.251590
0.465543 0.339520 0.260431
0.491858 0.349948 0.269347
0.518461 0.360488 0.278339
0.545356 0.371141 0.287409
0.179809 0.257476 0.178307
0.203306 0.266915 0.186518
0.227048 0.276462 0.194799
0.251042 0.286119 0.203152
0.275291 0.295884 0.211577
0.299801 0.305759 0.220074
0.324576 0.315743 0.228644
0.349619 0.325837 0.237289
0.374935 0.336043 0.246007
0.400527 0.346359 0.254800
0.426399 0.356787 0.263668
0.452554 0.367328 0.272612
0.478995 0.377982 0.281632
0.505725 0.388749 0.290730
0.532747 0.399630 0.299904
0.560064 0.410626 0.309157
0.587678 0.421737 0.318487
0.212824 0.302693 0.206211
0.236926 0.312563 0.214662
0.261285 0.322544 0.223186
0.285908 0.332636 0.231783
0.310797 0.342839 0.240454
0.335956 0.353154 0.249199
0.361390 0.363582 0.258020
0.387101 0.374122 0.266915
0.413094 0.384775 0.275887
0.439371 0.395543 0.284935
0.465935 0.406425 0.294061
0.492790 0.417422 0.303264
0.519938 0.428534 0.312544
0.547382 0.439763 0.321904
0.575124 0.451108 0.331342
0.603167 0.462571 0.340860
0.631514 0.474151 0.350458
0.247092 0.349593 0.234931
0.271825 0.359906 0.243629
0.296826 0.370332 0.252402
0.322099 0.380871 0.261249
0.347648 0.391523 0.270173
0.373477 0.402291 0.279172
0.399588 0.413173 0.288249
0.425985 0.424170 0.297402
0.452671 0.435283 0.306633
0.479649 0.446513 0.315943
0.506921 0.457860 0.325331
0.534490 0.469324 0.334798
0.562359 0.480906 0.344345
0.590530 0.492607 0.353972
0.619005 0.504427 0.363680
0.647788 0.516366 0.373468
0.676880 0.528426 0.383338
0.282653 0.398226 0.264489
0.308038 0.408992 0.273440
0.333701 0.419874 0.282468
0.359646 0.430871 0.291572
0.385874 0.441984 0.300754
0.412390 0.453215 0.310013
0.439196 0.464562 0.319352
0.466295 0.476028 0.328768
0.493689 0.487611 0.338265
0.521383 0.499314 0.347841
0.549377 0.511135 0.357497
0.577674 0.523077 0.367234
0.606277 0.535139 0.377052
0.635188 0.547321 0.386952
0.664410 0.559625 0.396933
0.693944 0.572051 0.406997
0.723792 0.584599 0.417144
0.319543 0.448638 0.294906
0.345601 0.459868 0.304116
0.371945 0.471216 0.313404
0.398578 0.482682 0.322771
0.425502 0.494267 0.332216
0.452721 0.505970 0.341742
0.480238 0.517793 0.351347
0.508054 0.529737 0.361032
0.536172 0.541800 0.370799
0.564594 0.553985 0.380647
0.593324 0.566291 0.390576
0.622362 0.578719 0.400588
0.651712 0.591270 0.410682
0.681376 0.603943 0.420858
0.711355 0.616740 0.431119
0.741652 0.629661 0.441463
0.772268 0.642706 0.451891
0.357794 0.500873 0.326200
0.384543 0.512577 0.335675
0.411585 0.524401 0.345229
0.438923 0.536345 0.354864
0.466560 0.548410 0.364579
0.494497 0.560597 0.374375
0.522738 0.572905 0.384252
0.551285 0.585335 0.394211
0.580140 0.597888 0.404253
0.609305 0.610564 0.414377
0.638782 0.623364 0.424584
0.668574 0.636287 0.434875
0.698683 0.649335 0.445249
0.729110 0.662508 0.455708
0.759858 0.675806 0.466251
0.790929 0.689230 0.476880
0.822323 0.702780 0.487593
0.397439 0.554970 0.358391
0.424895 0.567158 0.368136
0.452650 0.579467 0.377961
0.480709 0.591899 0.387868
0.509071 0.604454 0.397858
0.537741 0.617132 0.407929
0.566720 0.629934 0.418083
0.596011 0.642860 0.428321
0.625615 0.655911 0.438642
0.655535 0.669086 0.449047
0.685772 0.682387 0.459537
0.716329 0.695814 0.470111
0.747208 0.709368 0.480770
0.778410 0.723047 0.491515
0.809937 0.736855 0.502345
0.837649 0.747173 0.511304
0.864804 0.756994 0.519995
0.438505 0.610968 0.391496
0.466682 0.623647 0.401515
0.495166 0.636451 0.411616
0.523958 0.649379 0.421801
0.553061 0.662432 0.432069
0.582476 0.675610 0.442421
0.612206 0.688914 0.452856
0.642252 0.702344 0.463377
0.672618 0.715900 0.473982
0.703304 0.729583 0.484672
0.734312 0.743394 0.495448
0.764606 0.756326 0.505778
0.791760 0.766147 0.514469
0.818914 0.775968 0.523160
0.846069 0.785789 0.531851
0.873223 0.795610 0.540542
0.900377 0.805431 0.549233
0.481018 0.668900 0.425529
0.509932 0.682080 0.435828
0.539157 0.695386 0.446210
0.568696 0.708819 0.456677
0.598551 0.722378 0.467228
0.628724 0.736064 0.477864
0.659216 0.749877 0.488585
0.690030 0.763818 0.499392
0.718717 0.775299 0.508942
0.745871 0.785121 0.517633
0.773025 0.794942 0.526324
0.800179 0.804763 0.535015
0.827334 0.814584 0.543706
0.854488 0.824405 0.552397
0.881642 0.834226 0.561088
0.908796 0.844047 0.569779
0.935950 0.853868 0.578470
0.525005 0.728801 0.460508
0.554667 0.742489 0.471090
0.584646 0.756305 0.481757
0.614944 0.770249 0.492510
0.645563 0.784321 0.503348
0.672827 0.794273 0.512106
0.699982 0.804095 0.520797
0.727136 0.813916 0.529488
0.754290 0.823737 0.538179
0.781444 0.833558 0.546870
0.808598 0.843379 0.555561
0.835753 0.853200 0.564252
0.862907 0.863021 0.572943
0.890061 0.872842 0.581634
0.917215 0.882664 0.590325
0.944370 0.892485 0.599016
0.971524 0.902306 0.607707
0.000000 0.000000 0.014789
0.000000 0.000000 0.022162
0.020730 0.000000 0.029535
0.042564 0.002400 0.036907
0.064398 0.010337 0.044280
0.086232 0.018275 0.051652
0.108066 0.026213 0.059025
0.129900 0.034150 0.066397
0.151734 0.042088 0.073770
0.173568 0.050026 0.081143
0.195402 0.057963 0.088515
0.217236 0.065901 0.095888
0.239070 0.073838 0.103260
0.260904 0.081776 0.110633
