assets/lighting/cinematic/grade-sepia-archive/lut.cube
TITLE "Sepia Archive"
# TKRS lighting-batch-001 original LUT
# Intended usage: aged photo / memory sequence
# License: CC0-1.0
LUT_3D_SIZE 5
DOMAIN_MIN 0.0 0.0 0.0
DOMAIN_MAX 1.0 1.0 1.0
0.000000 0.000000 0.000000
0.055736 0.002250 0.002090
0.143071 0.034001 0.031581
0.230407 0.065751 0.061071
0.317743 0.097502 0.090561
0.082814 0.127092 0.071807
0.170473 0.159136 0.101439
0.262078 0.193903 0.132500
0.357650 0.230399 0.164654
0.457437 0.268569 0.197915
0.206058 0.296052 0.176633
0.303521 0.335897 0.210307
0.405276 0.377527 0.245144
0.511553 0.420974 0.281181
0.622540 0.466273 0.318453
0.349960 0.492991 0.294605
0.458154 0.540203 0.332336
0.571142 0.589349 0.371345
0.689075 0.640459 0.411661
0.812089 0.693563 0.453310
0.516004 0.719576 0.426668
0.635948 0.774749 0.468808
0.747108 0.817066 0.505023
0.855725 0.856351 0.539787
0.964341 0.895635 0.574551
0.000000 0.000000 0.028853
0.067286 0.013033 0.058343
0.154622 0.044784 0.087833
0.241957 0.076534 0.117323
0.329820 0.108453 0.146986
0.094364 0.137875 0.128060
0.182916 0.170730 0.158324
0.275532 0.206111 0.190355
0.372142 0.243173 0.223563
0.473021 0.281917 0.257949
0.219640 0.309385 0.235944
0.318128 0.349833 0.270766
0.420970 0.392076 0.306803
0.528383 0.436148 0.344087
0.640549 0.482084 0.382647
0.365685 0.508809 0.357977
0.475025 0.556674 0.397008
0.589199 0.606485 0.437352
0.708354 0.658269 0.479033
0.832623 0.712055 0.522076
0.534067 0.738084 0.494545
0.652856 0.791123 0.536571
0.761472 0.830407 0.571335
0.870089 0.869692 0.606099
0.978706 0.908976 0.640863
0.000000 0.000000 0.085105
0.078836 0.023816 0.114595
0.166172 0.055566 0.144086
0.253507 0.087317 0.173576
0.342997 0.119800 0.204008
0.105915 0.148657 0.184312
0.195609 0.182552 0.215717
0.289213 0.218510 0.248783
0.386868 0.256140 0.283093
0.488846 0.295465 0.318641
0.233428 0.322922 0.295890
0.332955 0.363976 0.331893
0.436895 0.406837 0.369161
0.545455 0.451538 0.407716
0.658808 0.498114 0.447585
0.381639 0.524848 0.422078
0.492134 0.573371 0.462430
0.607503 0.623848 0.504127
0.727888 0.676309 0.547192
0.850777 0.728568 0.590227
0.552374 0.756827 0.563214
0.667220 0.804464 0.602883
0.775837 0.843749 0.637647
0.884454 0.883033 0.672411
0.993071 0.922318 0.707175
0.003051 0.002848 0.141358
0.090386 0.034598 0.170848
0.177722 0.066349 0.200338
0.265058 0.098099 0.229828
0.356548 0.131341 0.261562
0.117716 0.159772 0.240942
0.208523 0.194575 0.273658
0.303118 0.231102 0.307809
0.401828 0.269303 0.343262
0.504914 0.309212 0.380005
0.247424 0.336664 0.356489
0.348005 0.378328 0.393705
0.453054 0.421809 0.432228
0.562769 0.467143 0.472078
0.677318 0.514364 0.513275
0.397822 0.541109 0.486919
0.509483 0.590292 0.528612
0.626055 0.641440 0.571681
0.747677 0.694581 0.616144
0.865142 0.741909 0.656539
0.570927 0.775807 0.632682
0.681585 0.817805 0.669195
0.790202 0.857090 0.703960
0.898819 0.896374 0.738724
1.000000 0.935659 0.773488
0.014601 0.013630 0.197610
0.101936 0.045381 0.227100
0.189272 0.077131 0.256591
0.277114 0.109076 0.286465
0.370398 0.143061 0.319679
0.129916 0.171380 0.298338
0.221652 0.206792 0.332176
0.317246 0.243886 0.367457
0.417021 0.282663 0.404089
0.521224 0.323162 0.442057
0.261631 0.350611 0.417757
0.363279 0.392889 0.456213
0.469448 0.436995 0.496016
0.580328 0.482966 0.537182
0.696081 0.530836 0.579728
0.414238 0.557594 0.552511
0.527072 0.607441 0.595563
0.644855 0.659262 0.640020
0.767722 0.713086 0.685898
0.879506 0.755251 0.722851
0.587333 0.791862 0.700744
0.695949 0.831147 0.735508
0.804566 0.870431 0.770272
0.913183 0.909716 0.805036
1.000000 0.949000 0.839800
