assets/lighting/day-night-palettes/grade-overcast-7000k/lut.cube
TITLE "Overcast 7000K"
# TKRS lighting-batch-001 original LUT
# Intended usage: soft cool overcast daylight, low contrast
# License: CC0-1.0
LUT_3D_SIZE 17
DOMAIN_MIN 0.0 0.0 0.0
DOMAIN_MAX 1.0 1.0 1.0
0.055982 0.055982 0.055982
0.099277 0.057912 0.057912
0.142571 0.059843 0.059843
0.185866 0.061773 0.061773
0.229161 0.063704 0.063704
0.272456 0.065634 0.065634
0.315750 0.067564 0.067564
0.359045 0.069495 0.069495
0.402340 0.071425 0.071425
0.445634 0.073356 0.073356
0.488929 0.075286 0.075286
0.532224 0.077216 0.077216
0.575518 0.079147 0.079147
0.618813 0.081077 0.081077
0.662108 0.083008 0.083008
0.705403 0.084938 0.084938
0.748697 0.086868 0.086868
0.062479 0.103865 0.062479
0.105774 0.105796 0.064410
0.149069 0.107726 0.066340
0.192363 0.109656 0.068271
0.235658 0.111587 0.070201
0.278953 0.113517 0.072131
0.322248 0.115448 0.074062
0.365542 0.117378 0.075992
0.408837 0.119308 0.077923
0.452132 0.121239 0.079853
0.495426 0.123169 0.081783
0.538721 0.125100 0.083714
0.582016 0.127030 0.085644
0.625311 0.128960 0.087575
0.668605 0.130891 0.089505
0.711900 0.132821 0.091435
0.755195 0.134752 0.093366
0.068977 0.151748 0.068977
0.112271 0.153679 0.070907
0.155566 0.155609 0.072838
0.198861 0.157540 0.074768
0.242156 0.159470 0.076698
0.285450 0.161400 0.078629
0.328745 0.163331 0.080559
0.372040 0.165261 0.082490
0.415334 0.167192 0.084420
0.458629 0.169122 0.086350
0.501924 0.171052 0.088281
0.545219 0.172983 0.090211
0.588513 0.174913 0.092142
0.631808 0.176844 0.094072
0.675103 0.178774 0.096002
0.718397 0.180704 0.097933
0.761692 0.182635 0.099863
0.075474 0.199632 0.075474
0.118769 0.201562 0.077405
0.162064 0.203493 0.079335
0.205358 0.205423 0.081265
0.248653 0.207353 0.083196
0.291948 0.209284 0.085126
0.335242 0.211214 0.087057
0.378537 0.213145 0.088987
0.421832 0.215075 0.090917
0.465126 0.217005 0.092848
0.508421 0.218936 0.094778
0.551716 0.220866 0.096709
0.595011 0.222797 0.098639
0.638305 0.224727 0.100569
0.681600 0.226657 0.102500
0.724895 0.228588 0.104430
0.768189 0.230518 0.106361
0.081971 0.247515 0.081971
0.125266 0.249445 0.083902
0.168561 0.251376 0.085832
0.211856 0.253306 0.087763
0.255150 0.255237 0.089693
0.298445 0.257167 0.091624
0.341740 0.259097 0.093554
0.385034 0.261028 0.095484
0.428329 0.262958 0.097415
0.471624 0.264889 0.099345
0.514919 0.266819 0.101276
0.558213 0.268749 0.103206
0.601508 0.270680 0.105136
0.644803 0.272610 0.107067
0.688097 0.274541 0.108997
0.731392 0.276471 0.110928
0.774687 0.278401 0.112858
0.088469 0.295398 0.088469
0.131764 0.297329 0.090399
0.175058 0.299259 0.092330
0.218353 0.301189 0.094260
0.261648 0.303120 0.096190
0.304942 0.305050 0.098121
0.348237 0.306981 0.100051
0.391532 0.308911 0.101982
0.434827 0.310841 0.103912
0.478121 0.312772 0.105842
0.521416 0.314702 0.107773
0.564711 0.316633 0.109703
0.608005 0.318563 0.111634
0.651300 0.320493 0.113564
0.694595 0.322424 0.115494
0.737890 0.324354 0.117425
0.781184 0.326285 0.119355
0.094966 0.343281 0.094966
0.138261 0.345212 0.096897
0.181556 0.347142 0.098827
0.224850 0.349073 0.100757
0.268145 0.351003 0.102688
0.311440 0.352933 0.104618
0.354735 0.354864 0.106549
0.398029 0.356794 0.108479
0.441324 0.358725 0.110409
0.484619 0.360655 0.112340
0.527913 0.362585 0.114270
0.571208 0.364516 0.116201
0.614503 0.366446 0.118131
0.657797 0.368377 0.120061
0.701092 0.370307 0.121992
0.744387 0.372237 0.123922
0.787682 0.374168 0.125853
0.101464 0.391165 0.101464
0.144758 0.393095 0.103394
0.188053 0.395025 0.105324
0.231348 0.396956 0.107255
0.274642 0.398886 0.109185
0.317937 0.400817 0.111116
0.361232 0.402747 0.113046
0.404527 0.404677 0.114976
0.447821 0.406608 0.116907
0.491116 0.408538 0.118837
0.534411 0.410469 0.120768
0.577705 0.412399 0.122698
0.621000 0.414329 0.124628
0.664295 0.416260 0.126559
0.707590 0.418190 0.128489
0.750884 0.420121 0.130420
0.794179 0.422051 0.132350
0.107961 0.439048 0.107961
0.151256 0.440978 0.109891
0.194550 0.442909 0.111822
0.237845 0.444839 0.113752
0.281140 0.446770 0.115683
0.324435 0.448700 0.117613
0.367729 0.450630 0.119543
0.411024 0.452561 0.121474
0.454319 0.454491 0.123404
0.497613 0.456422 0.125335
0.540908 0.458352 0.127265
0.584203 0.460282 0.129195
0.627498 0.462213 0.131126
0.670792 0.464143 0.133056
0.714087 0.466074 0.134987
0.757382 0.468004 0.136917
0.800676 0.469934 0.138847
0.114458 0.486931 0.114458
0.157753 0.488862 0.116389
0.201048 0.490792 0.118319
0.244343 0.492722 0.120250
0.287637 0.494653 0.122180
0.330932 0.496583 0.124110
0.374227 0.498514 0.126041
0.417521 0.500444 0.127971
0.460816 0.502374 0.129902
0.504111 0.504305 0.131832
0.547405 0.506235 0.133762
0.590700 0.508166 0.135693
0.633995 0.510096 0.137623
0.677290 0.512026 0.139554
0.720584 0.513957 0.141484
0.763879 0.515887 0.143414
0.807174 0.517818 0.145345
0.120956 0.534814 0.120956
0.164250 0.536745 0.122886
0.207545 0.538675 0.124817
0.250840 0.540606 0.126747
0.294135 0.542536 0.128677
0.337429 0.544466 0.130608
0.380724 0.546397 0.132538
0.424019 0.548327 0.134469
0.467313 0.550258 0.136399
0.510608 0.552188 0.138329
0.553903 0.554118 0.140260
0.597198 0.556049 0.142190
0.640492 0.557979 0.144121
0.683787 0.559910 0.146051
0.727082 0.561840 0.147981
0.770376 0.563770 0.149912
0.813671 0.565701 0.151842
0.127453 0.582698 0.127453
0.170748 0.584628 0.129384
0.214043 0.586558 0.131314
0.257337 0.588489 0.133244
0.300632 0.590419 0.135175
0.343927 0.592350 0.137105
0.387221 0.594280 0.139036
0.430516 0.596210 0.140966
0.473811 0.598141 0.142896
0.517106 0.600071 0.144827
0.560400 0.602002 0.146757
0.603695 0.603932 0.148688
0.646990 0.605862 0.150618
0.690284 0.607793 0.152548
0.733579 0.609723 0.154479
0.776874 0.611654 0.156409
0.820168 0.613584 0.158340
0.133951 0.630581 0.133951
0.177245 0.632511 0.135881
0.220540 0.634442 0.137811
0.263835 0.636372 0.139742
0.307129 0.638302 0.141672
0.350424 0.640233 0.143603
0.393719 0.642163 0.145533
0.437013 0.644094 0.147463
0.480308 0.646024 0.149394
0.523603 0.647955 0.151324
0.566898 0.649885 0.153255
0.610192 0.651815 0.155185
0.653487 0.653746 0.157115
0.696782 0.655676 0.159046
0.740076 0.657607 0.160976
0.783371 0.659537 0.162907
0.826666 0.661467 0.164837
0.140448 0.678464 0.140448
0.183743 0.680395 0.142378
0.227037 0.682325 0.144309
0.270332 0.684255 0.146239
0.313627 0.686186 0.148170
0.356921 0.688116 0.150100
0.400216 0.690047 0.152030
0.443511 0.691977 0.153961
0.486806 0.693907 0.155891
0.530100 0.695838 0.157822
0.573395 0.697768 0.159752
0.616690 0.699699 0.161682
0.659984 0.701629 0.163613
0.703279 0.703559 0.165543
0.746574 0.705490 0.167474
0.789869 0.707420 0.169404
0.833163 0.709351 0.171334
0.146945 0.726347 0.146945
0.190240 0.728278 0.148876
0.233535 0.730208 0.150806
0.276829 0.732139 0.152736
0.320124 0.734069 0.154667
0.363419 0.735999 0.156597
0.406714 0.737930 0.158528
0.450008 0.739860 0.160458
0.493303 0.741791 0.162388
0.536598 0.743721 0.164319
0.579892 0.745651 0.166249
0.623187 0.747582 0.168180
0.666482 0.749512 0.170110
0.709776 0.751443 0.172041
0.753071 0.753373 0.173971
0.796366 0.755303 0.175901
0.839661 0.757234 0.177832
0.153443 0.774231 0.153443
0.196737 0.776161 0.155373
0.240032 0.778091 0.157303
0.283327 0.780022 0.159234
0.326621 0.781952 0.161164
0.369916 0.783883 0.163095
0.413211 0.785813 0.165025
0.456506 0.787743 0.166955
0.499800 0.789674 0.168886
0.543095 0.791604 0.170816
0.586390 0.793535 0.172747
0.629684 0.795465 0.174677
0.672979 0.797395 0.176607
0.716274 0.799326 0.178538
0.759569 0.801256 0.180468
0.802863 0.803187 0.182399
0.846158 0.805117 0.184329
0.159940 0.822114 0.159940
0.203235 0.824044 0.161870
0.246529 0.825975 0.163801
0.289824 0.827905 0.165731
0.333119 0.829835 0.167662
0.376414 0.831766 0.169592
0.419708 0.833696 0.171522
0.463003 0.835627 0.173453
0.506298 0.837557 0.175383
0.549592 0.839487 0.177314
0.592887 0.841418 0.179244
0.636182 0.843348 0.181174
0.679477 0.845279 0.183105
0.722771 0.847209 0.185035
0.766066 0.849139 0.186966
0.809361 0.851070 0.188896
0.852655 0.853000 0.190826
0.056654 0.056654 0.099025
0.099948 0.058584 0.100956
0.143243 0.060514 0.102886
0.186538 0.062445 0.104817
0.229832 0.064375 0.106747
0.273127 0.066306 0.108677
0.316422 0.068236 0.110608
0.359716 0.070166 0.112538
0.403011 0.072097 0.114469
0.446306 0.074027 0.116399
0.489601 0.075958 0.118329
0.532895 0.077888 0.120260
0.576190 0.079818 0.122190
0.619485 0.081749 0.124121
0.662779 0.083679 0.126051
0.706074 0.085610 0.127981
0.749369 0.087540 0.129912
0.063151 0.104537 0.105523
0.106446 0.106467 0.107453
0.149740 0.108398 0.109384
0.193035 0.110328 0.111314
0.236330 0.112258 0.113244
0.279624 0.114189 0.115175
0.322919 0.116119 0.117105
0.366214 0.118050 0.119036
0.409509 0.119980 0.120966
0.452803 0.121910 0.122896
0.496098 0.123841 0.124827
0.539393 0.125771 0.126757
0.582687 0.127702 0.128688
0.625982 0.129632 0.130618
0.669277 0.131562 0.132548
0.712572 0.133493 0.134479
0.755866 0.135423 0.136409
0.069648 0.152420 0.112020
0.112943 0.154350 0.113951
0.156238 0.156281 0.115881
0.199532 0.158211 0.117811
0.242827 0.160142 0.119742
0.286122 0.162072 0.121672
0.329417 0.164002 0.123603
0.372711 0.165933 0.125533
0.416006 0.167863 0.127463
0.459301 0.169794 0.129394
0.502595 0.171724 0.131324
0.545890 0.173654 0.133255
0.589185 0.175585 0.135185
0.632479 0.177515 0.137115
0.675774 0.179446 0.139046
0.719069 0.181376 0.140976
0.762364 0.183306 0.142907
0.076146 0.200303 0.118517
0.119440 0.202234 0.120448
0.162735 0.204164 0.122378
0.206030 0.206094 0.124309
0.249324 0.208025 0.126239
0.292619 0.209955 0.128169
0.335914 0.211886 0.130100
0.379209 0.213816 0.132030
0.422503 0.215746 0.133961
0.465798 0.217677 0.135891
0.509093 0.219607 0.137822
0.552387 0.221538 0.139752
0.595682 0.223468 0.141682
0.638977 0.225398 0.143613
0.682272 0.227329 0.145543
0.725566 0.229259 0.147474
0.768861 0.231190 0.149404
0.082643 0.248186 0.125015
0.125938 0.250117 0.126945
0.169232 0.252047 0.128876
0.212527 0.253978 0.130806
0.255822 0.255908 0.132736
0.299117 0.257838 0.134667
0.342411 0.259769 0.136597
0.385706 0.261699 0.138528
0.429001 0.263630 0.140458
0.472295 0.265560 0.142388
0.515590 0.267491 0.144319
0.558885 0.269421 0.146249
0.602180 0.271351 0.148180
0.645474 0.273282 0.150110
0.688769 0.275212 0.152040
0.732064 0.277143 0.153971
0.775358 0.279073 0.155901
0.089140 0.296070 0.131512
0.132435 0.298000 0.133443
0.175730 0.299931 0.135373
0.219025 0.301861 0.137303
0.262319 0.303791 0.139234
0.305614 0.305722 0.141164
0.348909 0.307652 0.143095
0.392203 0.309583 0.145025
0.435498 0.311513 0.146955
0.478793 0.313443 0.148886
0.522088 0.315374 0.150816
0.565382 0.317304 0.152747
0.608677 0.319235 0.154677
0.651972 0.321165 0.156607
0.695266 0.323095 0.158538
0.738561 0.325026 0.160468
0.781856 0.326956 0.162399
0.095638 0.343953 0.138010
0.138933 0.345883 0.139940
0.182227 0.347814 0.141870
0.225522 0.349744 0.143801
0.268817 0.351675 0.145731
0.312111 0.353605 0.147662
0.355406 0.355535 0.149592
0.398701 0.357466 0.151522
0.441995 0.359396 0.153453
0.485290 0.361327 0.155383
0.528585 0.363257 0.157314
0.571880 0.365187 0.159244
0.615174 0.367118 0.161174
0.658469 0.369048 0.163105
0.701764 0.370979 0.165035
0.745058 0.372909 0.166966
0.788353 0.374839 0.168896
0.102135 0.391836 0.144507
0.145430 0.393767 0.146437
0.188725 0.395697 0.148368
0.232019 0.397627 0.150298
0.275314 0.399558 0.152229
0.318609 0.401488 0.154159
0.361903 0.403419 0.156089
0.405198 0.405349 0.158020
0.448493 0.407279 0.159950
0.491788 0.409210 0.161881
0.535082 0.411140 0.163811
0.578377 0.413071 0.165741
0.621672 0.415001 0.167672
0.664966 0.416931 0.169602
0.708261 0.418862 0.171533
0.751556 0.420792 0.173463
0.794851 0.422723 0.175393
0.108633 0.439719 0.151004
0.151927 0.441650 0.152935
0.195222 0.443580 0.154865
0.238517 0.445511 0.156796
0.281811 0.447441 0.158726
0.325106 0.449371 0.160656
0.368401 0.451302 0.162587
0.411696 0.453232 0.164517
0.454990 0.455163 0.166448
0.498285 0.457093 0.168378
0.541580 0.459023 0.170308
0.584874 0.460954 0.172239
0.628169 0.462884 0.174169
0.671464 0.464815 0.176100
0.714758 0.466745 0.178030
0.758053 0.468675 0.179960
0.801348 0.470606 0.181891
0.115130 0.487603 0.157502
0.158425 0.489533 0.159432
0.201719 0.491464 0.161363
0.245014 0.493394 0.163293
0.288309 0.495324 0.165223
0.331603 0.497255 0.167154
0.374898 0.499185 0.169084
0.418193 0.501116 0.171015
0.461488 0.503046 0.172945
0.504782 0.504976 0.174875
0.548077 0.506907 0.176806
0.591372 0.508837 0.178736
0.634666 0.510768 0.180667
0.677961 0.512698 0.182597
0.721256 0.514628 0.184527
0.764551 0.516559 0.186458
0.807845 0.518489 0.188388
0.121627 0.535486 0.163999
0.164922 0.537416 0.165930
0.208217 0.539347 0.167860
0.251511 0.541277 0.169790
0.294806 0.543208 0.171721
0.338101 0.545138 0.173651
0.381396 0.547068 0.175582
0.424690 0.548999 0.177512
0.467985 0.550929 0.179442
0.511280 0.552860 0.181373
0.554574 0.554790 0.183303
0.597869 0.556720 0.185234
0.641164 0.558651 0.187164
0.684459 0.560581 0.189094
0.727753 0.562512 0.191025
0.771048 0.564442 0.192955
0.814343 0.566372 0.194886
0.128125 0.583369 0.170497
0.171419 0.585300 0.172427
0.214714 0.587230 0.174357
0.258009 0.589160 0.176288
0.301304 0.591091 0.178218
0.344598 0.593021 0.180149
0.387893 0.594952 0.182079
0.431188 0.596882 0.184009
0.474482 0.598812 0.185940
0.517777 0.600743 0.187870
0.561072 0.602673 0.189801
0.604366 0.604604 0.191731
0.647661 0.606534 0.193661
0.690956 0.608464 0.195592
0.734251 0.610395 0.197522
0.777545 0.612325 0.199453
0.820840 0.614256 0.201383
0.134622 0.631252 0.176994
0.177917 0.633183 0.178924
0.221211 0.635113 0.180855
0.264506 0.637044 0.182785
0.307801 0.638974 0.184716
0.351096 0.640904 0.186646
0.394390 0.642835 0.188576
0.437685 0.644765 0.190507
0.480980 0.646696 0.192437
0.524274 0.648626 0.194368
0.567569 0.650556 0.196298
0.610864 0.652487 0.198228
0.654159 0.654417 0.200159
0.697453 0.656348 0.202089
0.740748 0.658278 0.204020
0.784043 0.660208 0.205950
0.827337 0.662139 0.207880
0.141119 0.679136 0.183491
0.184414 0.681066 0.185422
0.227709 0.682996 0.187352
0.271004 0.684927 0.189282
0.314298 0.686857 0.191213
0.357593 0.688788 0.193143
0.400888 0.690718 0.195074
0.444182 0.692648 0.197004
0.487477 0.694579 0.198934
0.530772 0.696509 0.200865
0.574067 0.698440 0.202795
0.617361 0.700370 0.204726
0.660656 0.702300 0.206656
0.703951 0.704231 0.208586
0.747245 0.706161 0.210517
0.790540 0.708092 0.212447
0.833835 0.710022 0.214378
0.147617 0.727019 0.189989
0.190912 0.728949 0.191919
0.234206 0.730880 0.193849
0.277501 0.732810 0.195780
0.320796 0.734741 0.197710
0.364090 0.736671 0.199641
0.407385 0.738601 0.201571
0.450680 0.740532 0.203501
0.493974 0.742462 0.205432
0.537269 0.744393 0.207362
0.580564 0.746323 0.209293
0.623859 0.748253 0.211223
0.667153 0.750184 0.213153
0.710448 0.752114 0.215084
0.753743 0.754045 0.217014
0.797037 0.755975 0.218945
0.840332 0.757905 0.220875
0.154114 0.774902 0.196486
0.197409 0.776833 0.198416
0.240704 0.778763 0.200347
0.283998 0.780693 0.202277
0.327293 0.782624 0.204208
0.370588 0.784554 0.206138
0.413882 0.786485 0.208068
0.457177 0.788415 0.209999
0.500472 0.790345 0.211929
0.543767 0.792276 0.213860
0.587061 0.794206 0.215790
0.630356 0.796137 0.217720
0.673651 0.798067 0.219651
0.716945 0.799997 0.221581
0.760240 0.801928 0.223512
0.803535 0.803858 0.225442
0.846830 0.805789 0.227372
0.160612 0.822785 0.202983
0.203906 0.824716 0.204914
0.247201 0.826646 0.206844
0.290496 0.828577 0.208775
0.333790 0.830507 0.210705
0.377085 0.832437 0.212635
0.420380 0.834368 0.214566
0.463675 0.836298 0.216496
0.506969 0.838229 0.218427
0.550264 0.840159 0.220357
0.593559 0.842089 0.222287
0.636853 0.844020 0.224218
0.680148 0.845950 0.226148
0.723443 0.847881 0.228079
0.766738 0.849811 0.230009
0.810032 0.851741 0.231939
0.853327 0.853672 0.233870
0.057325 0.057325 0.142069
0.100620 0.059255 0.143999
0.143914 0.061186 0.145930
0.187209 0.063116 0.147860
0.230504 0.065047 0.149790
0.273799 0.066977 0.151721
0.317093 0.068907 0.153651
0.360388 0.070838 0.155582
0.403683 0.072768 0.157512
0.446977 0.074699 0.159442
0.490272 0.076629 0.161373
0.533567 0.078559 0.163303
0.576862 0.080490 0.165234
0.620156 0.082420 0.167164
0.663451 0.084351 0.169094
0.706746 0.086281 0.171025
0.750040 0.088211 0.172955
0.063822 0.105208 0.148566
0.107117 0.107139 0.150497
0.150412 0.109069 0.152427
0.193707 0.111000 0.154357
0.237001 0.112930 0.156288
0.280296 0.114860 0.158218
0.323591 0.116791 0.160149
0.366885 0.118721 0.162079
0.410180 0.120652 0.164009
0.453475 0.122582 0.165940
0.496770 0.124512 0.167870
0.540064 0.126443 0.169801
0.583359 0.128373 0.171731
0.626654 0.130304 0.173661
0.669948 0.132234 0.175592
0.713243 0.134164 0.177522
0.756538 0.136095 0.179453
0.070320 0.153092 0.155063
0.113615 0.155022 0.156994
0.156909 0.156952 0.158924
0.200204 0.158883 0.160855
0.243499 0.160813 0.162785
0.286793 0.162744 0.164715
0.330088 0.164674 0.166646
0.373383 0.166604 0.168576
0.416677 0.168535 0.170507
0.459972 0.170465 0.172437
0.503267 0.172396 0.174367
0.546562 0.174326 0.176298
0.589856 0.176256 0.178228
0.633151 0.178187 0.180159
0.676446 0.180117 0.182089
0.719740 0.182048 0.184020
0.763035 0.183978 0.185950
0.076817 0.200975 0.161561
0.120112 0.202905 0.163491
0.163407 0.204836 0.165422
0.206701 0.206766 0.167352
0.249996 0.208696 0.169282
0.293291 0.210627 0.171213
0.336585 0.212557 0.173143
0.379880 0.214488 0.175074
0.423175 0.216418 0.177004
0.466470 0.218348 0.178934
0.509764 0.220279 0.180865
0.553059 0.222209 0.182795
0.596354 0.224140 0.184726
0.639648 0.226070 0.186656
0.682943 0.228000 0.188586
0.726238 0.229931 0.190517
0.769533 0.231861 0.192447
0.083315 0.248858 0.168058
0.126609 0.250788 0.169989
0.169904 0.252719 0.171919
0.213199 0.254649 0.173849
0.256493 0.256580 0.175780
0.299788 0.258510 0.177710
0.343083 0.260440 0.179641
0.386378 0.262371 0.181571
0.429672 0.264301 0.183501
0.472967 0.266232 0.185432
0.516262 0.268162 0.187362
0.559556 0.270092 0.189293
0.602851 0.272023 0.191223
0.646146 0.273953 0.193153
0.689440 0.275884 0.195084
0.732735 0.277814 0.197014
0.776030 0.279744 0.198945
0.089812 0.296741 0.174556
0.133107 0.298672 0.176486
0.176401 0.300602 0.178416
0.219696 0.302532 0.180347
0.262991 0.304463 0.182277
0.306285 0.306393 0.184208
0.349580 0.308324 0.186138
0.392875 0.310254 0.188068
0.436170 0.312184 0.189999
0.479464 0.314115 0.191929
0.522759 0.316045 0.193860
0.566054 0.317976 0.195790
0.609348 0.319906 0.197720
0.652643 0.321836 0.199651
0.695938 0.323767 0.201581
0.739233 0.325697 0.203512
0.782527 0.327628 0.205442
0.096309 0.344625 0.181053
0.139604 0.346555 0.182983
0.182899 0.348485 0.184914
0.226193 0.350416 0.186844
0.269488 0.352346 0.188775
0.312783 0.354277 0.190705
0.356078 0.356207 0.192635
0.399372 0.358137 0.194566
0.442667 0.360068 0.196496
0.485962 0.361998 0.198427
0.529256 0.363929 0.200357
0.572551 0.365859 0.202287
0.615846 0.367789 0.204218
0.659141 0.369720 0.206148
0.702435 0.371650 0.208079
0.745730 0.373581 0.210009
0.789025 0.375511 0.211939
0.102807 0.392508 0.187550
0.146101 0.394438 0.189481
0.189396 0.396369 0.191411
0.232691 0.398299 0.193342
0.275986 0.400229 0.195272
0.319280 0.402160 0.197202
0.362575 0.404090 0.199133
0.405870 0.406021 0.201063
0.449164 0.407951 0.202994
0.492459 0.409881 0.204924
0.535754 0.411812 0.206854
0.579049 0.413742 0.208785
0.622343 0.415673 0.210715
0.665638 0.417603 0.212646
0.708933 0.419533 0.214576
0.752227 0.421464 0.216506
0.795522 0.423394 0.218437
0.109304 0.440391 0.194048
0.152599 0.442321 0.195978
0.195894 0.444252 0.197909
0.239188 0.446182 0.199839
0.282483 0.448113 0.201769
0.325778 0.450043 0.203700
0.369072 0.451973 0.205630
0.412367 0.453904 0.207561
0.455662 0.455834 0.209491
0.498956 0.457765 0.211421
0.542251 0.459695 0.213352
0.585546 0.461625 0.215282
0.628841 0.463556 0.217213
0.672135 0.465486 0.219143
0.715430 0.467417 0.221073
0.758725 0.469347 0.223004
0.802019 0.471277 0.224934
0.115801 0.488274 0.200545
0.159096 0.490205 0.202476
0.202391 0.492135 0.204406
0.245686 0.494065 0.206336
0.288980 0.495996 0.208267
0.332275 0.497926 0.210197
0.375570 0.499857 0.212128
0.418864 0.501787 0.214058
0.462159 0.503717 0.215988
0.505454 0.505648 0.217919
0.548749 0.507578 0.219849
0.592043 0.509509 0.221780
0.635338 0.511439 0.223710
0.678633 0.513369 0.225640
0.721927 0.515300 0.227571
0.765222 0.517230 0.229501
0.808517 0.519161 0.231432
0.122299 0.536157 0.207043
0.165594 0.538088 0.208973
0.208888 0.540018 0.210903
0.252183 0.541949 0.212834
0.295478 0.543879 0.214764
0.338772 0.545809 0.216695
0.382067 0.547740 0.218625
0.425362 0.549670 0.220555
0.468657 0.551601 0.222486
0.511951 0.553531 0.224416
0.555246 0.555462 0.226347
0.598541 0.557392 0.228277
0.641835 0.559322 0.230207
0.685130 0.561253 0.232138
0.728425 0.563183 0.234068
0.771719 0.565114 0.235999
0.815014 0.567044 0.237929
0.128796 0.584041 0.213540
0.172091 0.585971 0.215470
0.215386 0.587902 0.217401
0.258680 0.589832 0.219331
0.301975 0.591762 0.221261
0.345270 0.593693 0.223192
0.388564 0.595623 0.225122
0.431859 0.597554 0.227053
0.475154 0.599484 0.228983
0.518449 0.601414 0.230914
0.561743 0.603345 0.232844
0.605038 0.605275 0.234774
0.648333 0.607206 0.236705
0.691627 0.609136 0.238635
0.734922 0.611066 0.240566
0.778217 0.612997 0.242496
0.821512 0.614927 0.244426
0.135294 0.631924 0.220037
0.178588 0.633854 0.221968
0.221883 0.635785 0.223898
0.265178 0.637715 0.225828
0.308472 0.639646 0.227759
0.351767 0.641576 0.229689
0.395062 0.643506 0.231620
0.438357 0.645437 0.233550
0.481651 0.647367 0.235480
0.524946 0.649298 0.237411
0.568241 0.651228 0.239341
0.611535 0.653158 0.241272
0.654830 0.655089 0.243202
0.698125 0.657019 0.245132
0.741420 0.658950 0.247063
0.784714 0.660880 0.248993
0.828009 0.662810 0.250924
0.141791 0.679807 0.226535
0.185086 0.681738 0.228465
0.228380 0.683668 0.230395
0.271675 0.685598 0.232326
0.314970 0.687529 0.234256
0.358265 0.689459 0.236187
0.401559 0.691390 0.238117
0.444854 0.693320 0.240047
0.488149 0.695250 0.241978
0.531443 0.697181 0.243908
0.574738 0.699111 0.245839
0.618033 0.701042 0.247769
0.661327 0.702972 0.249699
0.704622 0.704902 0.251630
0.747917 0.706833 0.253560
0.791212 0.708763 0.255491
0.834506 0.710694 0.257421
0.148288 0.727690 0.233032
0.191583 0.729621 0.234962
0.234878 0.731551 0.236893
0.278172 0.733482 0.238823
0.321467 0.735412 0.240754
0.364762 0.737342 0.242684
0.408057 0.739273 0.244614
0.451351 0.741203 0.246545
0.494646 0.743134 0.248475
0.537941 0.745064 0.250406
0.581235 0.746994 0.252336
0.624530 0.748925 0.254266
0.667825 0.750855 0.256197
0.711120 0.752786 0.258127
0.754414 0.754716 0.260058
0.797709 0.756646 0.261988
0.841004 0.758577 0.263918
0.154786 0.775574 0.239529
0.198080 0.777504 0.241460
0.241375 0.779434 0.243390
0.284670 0.781365 0.245321
0.327965 0.783295 0.247251
0.371259 0.785226 0.249181
0.414554 0.787156 0.251112
0.457849 0.789087 0.253042
0.501143 0.791017 0.254973
0.544438 0.792947 0.256903
0.587733 0.794878 0.258833
0.631028 0.796808 0.260764
0.674322 0.798739 0.262694
0.717617 0.800669 0.264625
0.760912 0.802599 0.266555
0.804206 0.804530 0.268485
0.847501 0.806460 0.270416
0.161283 0.823457 0.246027
0.204578 0.825387 0.247957
0.247873 0.827318 0.249888
0.291167 0.829248 0.251818
0.334462 0.831179 0.253748
0.377757 0.833109 0.255679
0.421051 0.835039 0.257609
0.464346 0.836970 0.259540
0.507641 0.838900 0.261470
0.550935 0.840831 0.263400
0.594230 0.842761 0.265331
0.637525 0.844691 0.267261
0.680820 0.846622 0.269192
0.724114 0.848552 0.271122
0.767409 0.850483 0.273052
0.810704 0.852413 0.274983
0.853998 0.854343 0.276913
0.057997 0.057997 0.185112
0.101291 0.059927 0.187042
0.144586 0.061857 0.188973
0.187881 0.063788 0.190903
0.231175 0.065718 0.192834
0.274470 0.067649 0.194764
0.317765 0.069579 0.196695
0.361060 0.071509 0.198625
0.404354 0.073440 0.200555
0.447649 0.075370 0.202486
0.490944 0.077301 0.204416
0.534238 0.079231 0.206347
0.577533 0.081161 0.208277
0.620828 0.083092 0.210207
