assets/lighting/day-night-palettes/grade-overcast-7000k/lut.cube
TITLE "Overcast 7000K"
# TKRS lighting-batch-001 original LUT
# Intended usage: soft cool overcast daylight, low contrast
# License: CC0-1.0
LUT_3D_SIZE 9
DOMAIN_MIN 0.0 0.0 0.0
DOMAIN_MAX 1.0 1.0 1.0
0.055982 0.055982 0.055982
0.142571 0.059843 0.059843
0.229161 0.063704 0.063704
0.315750 0.067564 0.067564
0.402340 0.071425 0.071425
0.488929 0.075286 0.075286
0.575518 0.079147 0.079147
0.662108 0.083008 0.083008
0.748697 0.086868 0.086868
0.068977 0.151748 0.068977
0.155566 0.155609 0.072838
0.242156 0.159470 0.076698
0.328745 0.163331 0.080559
0.415334 0.167192 0.084420
0.501924 0.171052 0.088281
0.588513 0.174913 0.092142
0.675103 0.178774 0.096002
0.761692 0.182635 0.099863
0.081971 0.247515 0.081971
0.168561 0.251376 0.085832
0.255150 0.255237 0.089693
0.341740 0.259097 0.093554
0.428329 0.262958 0.097415
0.514919 0.266819 0.101276
0.601508 0.270680 0.105136
0.688097 0.274541 0.108997
0.774687 0.278401 0.112858
0.094966 0.343281 0.094966
0.181556 0.347142 0.098827
0.268145 0.351003 0.102688
0.354735 0.354864 0.106549
0.441324 0.358725 0.110409
0.527913 0.362585 0.114270
0.614503 0.366446 0.118131
0.701092 0.370307 0.121992
0.787682 0.374168 0.125853
0.107961 0.439048 0.107961
0.194550 0.442909 0.111822
0.281140 0.446770 0.115683
0.367729 0.450630 0.119543
0.454319 0.454491 0.123404
0.540908 0.458352 0.127265
0.627498 0.462213 0.131126
0.714087 0.466074 0.134987
0.800676 0.469934 0.138847
0.120956 0.534814 0.120956
0.207545 0.538675 0.124817
0.294135 0.542536 0.128677
0.380724 0.546397 0.132538
0.467313 0.550258 0.136399
0.553903 0.554118 0.140260
0.640492 0.557979 0.144121
0.727082 0.561840 0.147981
0.813671 0.565701 0.151842
0.133951 0.630581 0.133951
0.220540 0.634442 0.137811
0.307129 0.638302 0.141672
0.393719 0.642163 0.145533
0.480308 0.646024 0.149394
0.566898 0.649885 0.153255
0.653487 0.653746 0.157115
0.740076 0.657607 0.160976
0.826666 0.661467 0.164837
0.146945 0.726347 0.146945
0.233535 0.730208 0.150806
0.320124 0.734069 0.154667
0.406714 0.737930 0.158528
0.493303 0.741791 0.162388
0.579892 0.745651 0.166249
0.666482 0.749512 0.170110
0.753071 0.753373 0.173971
0.839661 0.757234 0.177832
0.159940 0.822114 0.159940
0.246529 0.825975 0.163801
0.333119 0.829835 0.167662
0.419708 0.833696 0.171522
0.506298 0.837557 0.175383
0.592887 0.841418 0.179244
0.679477 0.845279 0.183105
0.766066 0.849139 0.186966
0.852655 0.853000 0.190826
0.057325 0.057325 0.142069
0.143914 0.061186 0.145930
0.230504 0.065047 0.149790
0.317093 0.068907 0.153651
0.403683 0.072768 0.157512
0.490272 0.076629 0.161373
0.576862 0.080490 0.165234
0.663451 0.084351 0.169094
0.750040 0.088211 0.172955
0.070320 0.153092 0.155063
0.156909 0.156952 0.158924
0.243499 0.160813 0.162785
0.330088 0.164674 0.166646
0.416677 0.168535 0.170507
0.503267 0.172396 0.174367
0.589856 0.176256 0.178228
0.676446 0.180117 0.182089
0.763035 0.183978 0.185950
0.083315 0.248858 0.168058
0.169904 0.252719 0.171919
0.256493 0.256580 0.175780
0.343083 0.260440 0.179641
0.429672 0.264301 0.183501
0.516262 0.268162 0.187362
0.602851 0.272023 0.191223
0.689440 0.275884 0.195084
0.776030 0.279744 0.198945
0.096309 0.344625 0.181053
0.182899 0.348485 0.184914
0.269488 0.352346 0.188775
0.356078 0.356207 0.192635
0.442667 0.360068 0.196496
0.529256 0.363929 0.200357
0.615846 0.367789 0.204218
0.702435 0.371650 0.208079
0.789025 0.375511 0.211939
0.109304 0.440391 0.194048
0.195894 0.444252 0.197909
0.282483 0.448113 0.201769
0.369072 0.451973 0.205630
0.455662 0.455834 0.209491
0.542251 0.459695 0.213352
0.628841 0.463556 0.217213
0.715430 0.467417 0.221073
0.802019 0.471277 0.224934
0.122299 0.536157 0.207043
0.208888 0.540018 0.210903
0.295478 0.543879 0.214764
0.382067 0.547740 0.218625
0.468657 0.551601 0.222486
0.555246 0.555462 0.226347
0.641835 0.559322 0.230207
0.728425 0.563183 0.234068
0.815014 0.567044 0.237929
0.135294 0.631924 0.220037
0.221883 0.635785 0.223898
0.308472 0.639646 0.227759
0.395062 0.643506 0.231620
0.481651 0.647367 0.235480
0.568241 0.651228 0.239341
0.654830 0.655089 0.243202
0.741420 0.658950 0.247063
0.828009 0.662810 0.250924
0.148288 0.727690 0.233032
0.234878 0.731551 0.236893
0.321467 0.735412 0.240754
0.408057 0.739273 0.244614
0.494646 0.743134 0.248475
0.581235 0.746994 0.252336
0.667825 0.750855 0.256197
0.754414 0.754716 0.260058
0.841004 0.758577 0.263918
0.161283 0.823457 0.246027
0.247873 0.827318 0.249888
0.334462 0.831179 0.253748
0.421051 0.835039 0.257609
0.507641 0.838900 0.261470
0.594230 0.842761 0.265331
0.680820 0.846622 0.269192
0.767409 0.850483 0.273052
0.853998 0.854343 0.276913
0.058668 0.058668 0.228155
0.145258 0.062529 0.232016
0.231847 0.066390 0.235877
0.318436 0.070251 0.239738
0.405026 0.074111 0.243599
0.491615 0.077972 0.247459
0.578205 0.081833 0.251320
0.664794 0.085694 0.255181
0.751383 0.089555 0.259042
0.071663 0.154435 0.241150
0.158252 0.158295 0.245011
0.244842 0.162156 0.248872
0.331431 0.166017 0.252733
0.418021 0.169878 0.256593
0.504610 0.173739 0.260454
0.591199 0.177599 0.264315
0.677789 0.181460 0.268176
0.764378 0.185321 0.272037
0.084658 0.250201 0.254145
0.171247 0.254062 0.258006
0.257836 0.257923 0.261867
0.344426 0.261784 0.265727
0.431015 0.265644 0.269588
0.517605 0.269505 0.273449
0.604194 0.273366 0.277310
0.690784 0.277227 0.281171
0.777373 0.281088 0.285031
0.097652 0.345968 0.267140
0.184242 0.349828 0.271001
0.270831 0.353689 0.274861
0.357421 0.357550 0.278722
0.444010 0.361411 0.282583
0.530600 0.365272 0.286444
0.617189 0.369132 0.290305
0.703778 0.372993 0.294165
0.790368 0.376854 0.298026
0.110647 0.441734 0.280134
0.197237 0.445595 0.283995
0.283826 0.449456 0.287856
0.370415 0.453316 0.291717
0.457005 0.457177 0.295578
0.543594 0.461038 0.299439
0.630184 0.464899 0.303299
0.716773 0.468760 0.307160
0.803363 0.472621 0.311021
0.123642 0.537501 0.293129
0.210231 0.541361 0.296990
0.296821 0.545222 0.300851
0.383410 0.549083 0.304712
0.470000 0.552944 0.308572
0.556589 0.556805 0.312433
0.643178 0.560665 0.316294
0.729768 0.564526 0.320155
0.816357 0.568387 0.324016
0.136637 0.633267 0.306124
0.223226 0.637128 0.309985
0.309816 0.640989 0.313846
0.396405 0.644849 0.317706
0.482994 0.648710 0.321567
0.569584 0.652571 0.325428
0.656173 0.656432 0.329289
0.742763 0.660293 0.333150
0.829352 0.664153 0.337010
0.149631 0.729034 0.319119
0.236221 0.732894 0.322980
0.322810 0.736755 0.326840
0.409400 0.740616 0.330701
0.495989 0.744477 0.334562
0.582579 0.748338 0.338423
0.669168 0.752198 0.342284
0.755757 0.756059 0.346144
0.842347 0.759920 0.350005
0.162626 0.824800 0.332114
0.249216 0.828661 0.335974
0.335805 0.832522 0.339835
0.422394 0.836382 0.343696
0.508984 0.840243 0.347557
0.595573 0.844104 0.351418
0.682163 0.847965 0.355278
0.768752 0.851826 0.359139
0.855342 0.855686 0.363000
0.060011 0.060011 0.314242
0.146601 0.063872 0.318103
0.233190 0.067733 0.321964
0.319779 0.071594 0.325825
0.406369 0.075454 0.329685
0.492958 0.079315 0.333546
0.579548 0.083176 0.337407
0.666137 0.087037 0.341268
0.752727 0.090898 0.345129
0.073006 0.155778 0.327237
0.159595 0.159639 0.331098
0.246185 0.163499 0.334959
0.332774 0.167360 0.338819
0.419364 0.171221 0.342680
0.505953 0.175082 0.346541
0.592542 0.178943 0.350402
0.679132 0.182803 0.354263
0.765721 0.186664 0.358123
0.086001 0.251544 0.340232
0.172590 0.255405 0.344093
0.259180 0.259266 0.347953
0.345769 0.263127 0.351814
0.432358 0.266987 0.355675
0.518948 0.270848 0.359536
0.605537 0.274709 0.363397
0.692127 0.278570 0.367257
0.778716 0.282431 0.371118
0.098996 0.347311 0.353226
0.185585 0.351171 0.357087
0.272174 0.355032 0.360948
0.358764 0.358893 0.364809
0.445353 0.362754 0.368670
0.531943 0.366615 0.372530
0.618532 0.370476 0.376391
0.705121 0.374336 0.380252
0.791711 0.378197 0.384113
0.111990 0.443077 0.366221
0.198580 0.446938 0.370082
0.285169 0.450799 0.373943
0.371759 0.454660 0.377804
0.458348 0.458520 0.381664
0.544937 0.462381 0.385525
0.631527 0.466242 0.389386
0.718116 0.470103 0.393247
0.804706 0.473964 0.397108
0.124985 0.538844 0.379216
0.211574 0.542704 0.383077
0.298164 0.546565 0.386938
0.384753 0.550426 0.390798
0.471343 0.554287 0.394659
0.557932 0.558148 0.398520
0.644522 0.562008 0.402381
0.731111 0.565869 0.406242
0.817700 0.569730 0.410102
0.137980 0.634610 0.392211
0.224569 0.638471 0.396072
0.311159 0.642332 0.399932
0.397748 0.646193 0.403793
0.484337 0.650053 0.407654
0.570927 0.653914 0.411515
0.657516 0.657775 0.415376
0.744106 0.661636 0.419236
0.830695 0.665497 0.423097
0.150975 0.730377 0.405206
0.237564 0.734237 0.409066
0.324153 0.738098 0.412927
0.410743 0.741959 0.416788
0.497332 0.745820 0.420649
0.583922 0.749681 0.424510
0.670511 0.753541 0.428370
0.757100 0.757402 0.432231
0.843690 0.761263 0.436092
0.163969 0.826143 0.418200
0.250559 0.830004 0.422061
0.337148 0.833865 0.425922
0.423738 0.837726 0.429783
0.510327 0.841586 0.433643
0.596916 0.845447 0.437504
0.683506 0.849308 0.441365
0.770095 0.853169 0.445226
0.856685 0.857030 0.449087
0.061354 0.061354 0.400329
0.147944 0.065215 0.404190
0.234533 0.069076 0.408051
0.321123 0.072937 0.411911
0.407712 0.076798 0.415772
0.494301 0.080658 0.419633
0.580891 0.084519 0.423494
0.667480 0.088380 0.427355
0.754070 0.092241 0.431215
0.074349 0.157121 0.413324
0.160938 0.160982 0.417185
0.247528 0.164842 0.421045
0.334117 0.168703 0.424906
0.420707 0.172564 0.428767
0.507296 0.176425 0.432628
0.593886 0.180286 0.436489
0.680475 0.184146 0.440349
0.767064 0.188007 0.444210
0.087344 0.252887 0.426318
0.173933 0.256748 0.430179
0.260523 0.260609 0.434040
0.347112 0.264470 0.437901
0.433701 0.268330 0.441762
0.520291 0.272191 0.445622
0.606880 0.276052 0.449483
0.693470 0.279913 0.453344
0.780059 0.283774 0.457205
0.100339 0.348654 0.439313
0.186928 0.352515 0.443174
0.273517 0.356375 0.447035
0.360107 0.360236 0.450896
0.446696 0.364097 0.454756
0.533286 0.367958 0.458617
0.619875 0.371819 0.462478
0.706465 0.375679 0.466339
0.793054 0.379540 0.470200
0.113333 0.444420 0.452308
0.199923 0.448281 0.456169
0.286512 0.452142 0.460030
0.373102 0.456003 0.463890
0.459691 0.459863 0.467751
0.546280 0.463724 0.471612
0.632870 0.467585 0.475473
0.719459 0.471446 0.479334
0.806049 0.475307 0.483194
0.126328 0.540187 0.465303
0.212918 0.544048 0.469164
0.299507 0.547908 0.473024
0.386096 0.551769 0.476885
0.472686 0.555630 0.480746
0.559275 0.559491 0.484607
0.645865 0.563352 0.488468
0.732454 0.567212 0.492328
0.819043 0.571073 0.496189
0.139323 0.635953 0.478297
0.225912 0.639814 0.482158
0.312502 0.643675 0.486019
0.399091 0.647536 0.489880
0.485681 0.651396 0.493741
0.572270 0.655257 0.497602
0.658859 0.659118 0.501462
0.745449 0.662979 0.505323
0.832038 0.666840 0.509184
0.152318 0.731720 0.491292
0.238907 0.735581 0.495153
0.325496 0.739441 0.499014
0.412086 0.743302 0.502875
0.498675 0.747163 0.506735
0.585265 0.751024 0.510596
0.671854 0.754885 0.514457
0.758444 0.758745 0.518318
0.845033 0.762606 0.522179
0.165312 0.827486 0.504287
0.251902 0.831347 0.508148
0.338491 0.835208 0.512009
0.425081 0.839069 0.515869
0.511670 0.842929 0.519730
0.598259 0.846790 0.523591
0.684849 0.850651 0.527452
0.771438 0.854512 0.531313
0.858028 0.858373 0.535173
0.062697 0.062697 0.486416
0.149287 0.066558 0.490276
0.235876 0.070419 0.494137
0.322466 0.074280 0.497998
0.409055 0.078141 0.501859
0.495644 0.082001 0.505720
0.582234 0.085862 0.509581
0.668823 0.089723 0.513441
0.755413 0.093584 0.517302
0.075692 0.158464 0.499410
0.162282 0.162325 0.503271
0.248871 0.166185 0.507132
0.335460 0.170046 0.510993
0.422050 0.173907 0.514854
0.508639 0.177768 0.518714
0.595229 0.181629 0.522575
0.681818 0.185490 0.526436
0.768407 0.189350 0.530297
0.088687 0.254230 0.512405
0.175276 0.258091 0.516266
0.261866 0.261952 0.520127
0.348455 0.265813 0.523988
0.435045 0.269674 0.527848
0.521634 0.273534 0.531709
0.608223 0.277395 0.535570
0.694813 0.281256 0.539431
0.781402 0.285117 0.543292
0.101682 0.349997 0.525400
0.188271 0.353858 0.529261
0.274861 0.357718 0.533122
0.361450 0.361579 0.536982
0.448039 0.365440 0.540843
0.534629 0.369301 0.544704
0.621218 0.373162 0.548565
0.707808 0.377022 0.552426
0.794397 0.380883 0.556286
0.114676 0.445763 0.538395
0.201266 0.449624 0.542256
0.287855 0.453485 0.546116
0.374445 0.457346 0.549977
0.461034 0.461207 0.553838
0.547624 0.465067 0.557699
0.634213 0.468928 0.561560
0.720802 0.472789 0.565420
0.807392 0.476650 0.569281
0.127671 0.541530 0.551389
0.214261 0.545391 0.555250
0.300850 0.549251 0.559111
0.387439 0.553112 0.562972
0.474029 0.556973 0.566833
0.560618 0.560834 0.570693
0.647208 0.564695 0.574554
0.733797 0.568555 0.578415
0.820387 0.572416 0.582276
0.140666 0.637296 0.564384
0.227255 0.641157 0.568245
0.313845 0.645018 0.572106
0.400434 0.648879 0.575967
0.487024 0.652740 0.579827
0.573613 0.656600 0.583688
0.660202 0.660461 0.587549
0.746792 0.664322 0.591410
0.833381 0.668183 0.595271
0.153661 0.733063 0.577379
0.240250 0.736924 0.581240
0.326840 0.740784 0.585101
0.413429 0.744645 0.588961
0.500018 0.748506 0.592822
0.586608 0.752367 0.596683
0.673197 0.756228 0.600544
0.759787 0.760088 0.604405
0.846376 0.763949 0.608265
0.166655 0.828829 0.590374
0.253245 0.832690 0.594235
0.339834 0.836551 0.598095
0.426424 0.840412 0.601956
0.513013 0.844272 0.605817
0.599603 0.848133 0.609678
0.686192 0.851994 0.613539
0.772781 0.855855 0.617399
0.859371 0.859716 0.621260
0.064040 0.064040 0.572502
0.150630 0.067901 0.576363
0.237219 0.071762 0.580224
0.323809 0.075623 0.584085
0.410398 0.079484 0.587946
0.496988 0.083344 0.591806
0.583577 0.087205 0.595667
0.670166 0.091066 0.599528
0.756756 0.094927 0.603389
0.077035 0.159807 0.585497
0.163625 0.163668 0.589358
0.250214 0.167529 0.593219
0.336803 0.171389 0.597080
0.423393 0.175250 0.600940
0.509982 0.179111 0.604801
0.596572 0.182972 0.608662
0.683161 0.186833 0.612523
0.769751 0.190693 0.616384
0.090030 0.255573 0.598492
0.176619 0.259434 0.602353
0.263209 0.263295 0.606214
0.349798 0.267156 0.610074
0.436388 0.271017 0.613935
0.522977 0.274877 0.617796
0.609566 0.278738 0.621657
0.696156 0.282599 0.625518
0.782745 0.286460 0.629378
0.103025 0.351340 0.611487
0.189614 0.355201 0.615347
0.276204 0.359062 0.619208
0.362793 0.362922 0.623069
0.449382 0.366783 0.626930
0.535972 0.370644 0.630791
0.622561 0.374505 0.634652
0.709151 0.378366 0.638512
0.795740 0.382226 0.642373
0.116020 0.447106 0.624481
0.202609 0.450967 0.628342
0.289198 0.454828 0.632203
0.375788 0.458689 0.636064
0.462377 0.462550 0.639925
0.548967 0.466410 0.643785
0.635556 0.470271 0.647646
0.722145 0.474132 0.651507
0.808735 0.477993 0.655368
0.129014 0.542873 0.637476
0.215604 0.546734 0.641337
0.302193 0.550595 0.645198
0.388783 0.554455 0.649059
0.475372 0.558316 0.652919
0.561961 0.562177 0.656780
0.648551 0.566038 0.660641
0.735140 0.569899 0.664502
0.821730 0.573759 0.668363
0.142009 0.638639 0.650471
0.228598 0.642500 0.654332
0.315188 0.646361 0.658193
0.401777 0.650222 0.662053
0.488367 0.654083 0.665914
0.574956 0.657943 0.669775
0.661546 0.661804 0.673636
0.748135 0.665665 0.677497
0.834724 0.669526 0.681357
0.155004 0.734406 0.663466
0.241593 0.738267 0.667327
0.328183 0.742127 0.671187
0.414772 0.745988 0.675048
0.501361 0.749849 0.678909
0.587951 0.753710 0.682770
0.674540 0.757571 0.686631
0.761130 0.761431 0.690491
0.847719 0.765292 0.694352
0.167999 0.830172 0.676460
0.254588 0.834033 0.680321
0.341177 0.837894 0.684182
0.427767 0.841755 0.688043
0.514356 0.845616 0.691904
0.600946 0.849476 0.695764
0.687535 0.853337 0.699625
0.774124 0.857198 0.703486
0.860714 0.861059 0.707347
0.065384 0.065384 0.658589
0.151973 0.069244 0.662450
0.238562 0.073105 0.666311
0.325152 0.076966 0.670172
0.411741 0.080827 0.674032
0.498331 0.084688 0.677893
0.584920 0.088548 0.681754
0.671509 0.092409 0.685615
0.758099 0.096270 0.689476
0.078378 0.161150 0.671584
0.164968 0.165011 0.675445
0.251557 0.168872 0.679306
0.338147 0.172732 0.683166
0.424736 0.176593 0.687027
0.511325 0.180454 0.690888
0.597915 0.184315 0.694749
0.684504 0.188176 0.698610
0.771094 0.192036 0.702470
0.091373 0.256917 0.684579
0.177962 0.260777 0.688439
0.264552 0.264638 0.692300
0.351141 0.268499 0.696161
0.437731 0.272360 0.700022
0.524320 0.276221 0.703883
0.610910 0.280081 0.707743
0.697499 0.283942 0.711604
0.784088 0.287803 0.715465
0.104368 0.352683 0.697573
0.190957 0.356544 0.701434
0.277547 0.360405 0.705295
0.364136 0.364265 0.709156
0.450726 0.368126 0.713017
0.537315 0.371987 0.716877
0.623904 0.375848 0.720738
0.710494 0.379709 0.724599
0.797083 0.383569 0.728460
0.117363 0.448450 0.710568
0.203952 0.452310 0.714429
0.290541 0.456171 0.718290
0.377131 0.460032 0.722151
0.463720 0.463893 0.726011
0.550310 0.467754 0.729872
0.636899 0.471614 0.733733
0.723489 0.475475 0.737594
0.810078 0.479336 0.741455
0.130357 0.544216 0.723563
0.216947 0.548077 0.727424
0.303536 0.551938 0.731285
0.390126 0.555798 0.735145
0.476715 0.559659 0.739006
0.563304 0.563520 0.742867
0.649894 0.567381 0.746728
0.736483 0.571242 0.750589
0.823073 0.575102 0.754449
0.143352 0.639982 0.736558
0.229942 0.643843 0.740419
0.316531 0.647704 0.744279
0.403120 0.651565 0.748140
0.489710 0.655426 0.752001
0.576299 0.659286 0.755862
0.662889 0.663147 0.759723
0.749478 0.667008 0.763583
0.836067 0.670869 0.767444
0.156347 0.735749 0.749552
0.242936 0.739610 0.753413
0.329526 0.743471 0.757274
0.416115 0.747331 0.761135
0.502705 0.751192 0.764996
0.589294 0.755053 0.768856
0.675883 0.758914 0.772717
0.762473 0.762775 0.776578
0.849062 0.766635 0.780439
0.169342 0.831515 0.762547
0.255931 0.835376 0.766408
0.342520 0.839237 0.770269
0.429110 0.843098 0.774130
0.515699 0.846959 0.777990
0.602289 0.850819 0.781851
0.688878 0.854680 0.785712
0.775468 0.858541 0.789573
0.862057 0.862402 0.793434
0.066727 0.066727 0.744676
0.153316 0.070587 0.748537
0.239905 0.074448 0.752398
0.326495 0.078309 0.756258
0.413084 0.082170 0.760119
0.499674 0.086031 0.763980
0.586263 0.089891 0.767841
0.672853 0.093752 0.771702
0.759442 0.097613 0.775562
0.079721 0.162493 0.757671
0.166311 0.166354 0.761531
0.252900 0.170215 0.765392
0.339490 0.174076 0.769253
0.426079 0.177936 0.773114
0.512668 0.181797 0.776975
0.599258 0.185658 0.780835
0.685847 0.189519 0.784696
0.772437 0.193380 0.788557
0.092716 0.258260 0.770665
0.179306 0.262120 0.774526
0.265895 0.265981 0.778387
0.352484 0.269842 0.782248
0.439074 0.273703 0.786109
0.525663 0.277564 0.789969
0.612253 0.281424 0.793830
0.698842 0.285285 0.797691
0.785432 0.289146 0.801552
0.105711 0.354026 0.783660
0.192300 0.357887 0.787521
0.278890 0.361748 0.791382
0.365479 0.365609 0.795243
0.452069 0.369469 0.799103
0.538658 0.373330 0.802964
0.625247 0.377191 0.806825
0.711837 0.381052 0.810686
0.798426 0.384913 0.814547
0.118706 0.449793 0.796655
0.205295 0.453653 0.800516
0.291885 0.457514 0.804377
0.378474 0.461375 0.808237
0.465063 0.465236 0.812098
0.551653 0.469097 0.815959
0.638242 0.472957 0.819820
0.724832 0.476818 0.823681
0.811421 0.480679 0.827541
0.131700 0.545559 0.809650
0.218290 0.549420 0.813510
0.304879 0.553281 0.817371
0.391469 0.557141 0.821232
0.478058 0.561002 0.825093
0.564648 0.564863 0.828954
0.651237 0.568724 0.832815
0.737826 0.572585 0.836675
0.824416 0.576445 0.840536
0.144695 0.641326 0.822644
0.231285 0.645186 0.826505
0.317874 0.649047 0.830366
0.404463 0.652908 0.834227
0.491053 0.656769 0.838088
0.577642 0.660630 0.841948
0.664232 0.664490 0.845809
0.750821 0.668351 0.849670
0.837411 0.672212 0.853531
0.157690 0.737092 0.835639
0.244279 0.740953 0.839500
0.330869 0.744814 0.843361
0.417458 0.748674 0.847222
0.504048 0.752535 0.851082
0.590637 0.756396 0.854943
0.677226 0.760257 0.858804
0.763816 0.764118 0.862665
0.850405 0.767978 0.866526
0.170685 0.832859 0.848634
0.257274 0.836719 0.852495
0.343864 0.840580 0.856356
0.430453 0.844441 0.860216
0.517042 0.848302 0.864077
0.603632 0.852163 0.867938
0.690221 0.856023 0.871799
0.776811 0.859884 0.875660
0.863400 0.863745 0.879520
