assets/lighting/day-night-palettes/grade-overcast-7000k/lut.cube
TITLE "Overcast 7000K"
# TKRS lighting-batch-001 original LUT
# Intended usage: soft cool overcast daylight, low contrast
# License: CC0-1.0
LUT_3D_SIZE 5
DOMAIN_MIN 0.0 0.0 0.0
DOMAIN_MAX 1.0 1.0 1.0
0.055982 0.055982 0.055982
0.229161 0.063704 0.063704
0.402340 0.071425 0.071425
0.575518 0.079147 0.079147
0.748697 0.086868 0.086868
0.081971 0.247515 0.081971
0.255150 0.255237 0.089693
0.428329 0.262958 0.097415
0.601508 0.270680 0.105136
0.774687 0.278401 0.112858
0.107961 0.439048 0.107961
0.281140 0.446770 0.115683
0.454319 0.454491 0.123404
0.627498 0.462213 0.131126
0.800676 0.469934 0.138847
0.133951 0.630581 0.133951
0.307129 0.638302 0.141672
0.480308 0.646024 0.149394
0.653487 0.653746 0.157115
0.826666 0.661467 0.164837
0.159940 0.822114 0.159940
0.333119 0.829835 0.167662
0.506298 0.837557 0.175383
0.679477 0.845279 0.183105
0.852655 0.853000 0.190826
0.058668 0.058668 0.228155
0.231847 0.066390 0.235877
0.405026 0.074111 0.243599
0.578205 0.081833 0.251320
0.751383 0.089555 0.259042
0.084658 0.250201 0.254145
0.257836 0.257923 0.261867
0.431015 0.265644 0.269588
0.604194 0.273366 0.277310
0.777373 0.281088 0.285031
0.110647 0.441734 0.280134
0.283826 0.449456 0.287856
0.457005 0.457177 0.295578
0.630184 0.464899 0.303299
0.803363 0.472621 0.311021
0.136637 0.633267 0.306124
0.309816 0.640989 0.313846
0.482994 0.648710 0.321567
0.656173 0.656432 0.329289
0.829352 0.664153 0.337010
0.162626 0.824800 0.332114
0.335805 0.832522 0.339835
0.508984 0.840243 0.347557
0.682163 0.847965 0.355278
0.855342 0.855686 0.363000
0.061354 0.061354 0.400329
0.234533 0.069076 0.408051
0.407712 0.076798 0.415772
0.580891 0.084519 0.423494
0.754070 0.092241 0.431215
0.087344 0.252887 0.426318
0.260523 0.260609 0.434040
0.433701 0.268330 0.441762
0.606880 0.276052 0.449483
0.780059 0.283774 0.457205
0.113333 0.444420 0.452308
0.286512 0.452142 0.460030
0.459691 0.459863 0.467751
0.632870 0.467585 0.475473
0.806049 0.475307 0.483194
0.139323 0.635953 0.478297
0.312502 0.643675 0.486019
0.485681 0.651396 0.493741
0.658859 0.659118 0.501462
0.832038 0.666840 0.509184
0.165312 0.827486 0.504287
0.338491 0.835208 0.512009
0.511670 0.842929 0.519730
0.684849 0.850651 0.527452
0.858028 0.858373 0.535173
0.064040 0.064040 0.572502
0.237219 0.071762 0.580224
0.410398 0.079484 0.587946
0.583577 0.087205 0.595667
0.756756 0.094927 0.603389
0.090030 0.255573 0.598492
0.263209 0.263295 0.606214
0.436388 0.271017 0.613935
0.609566 0.278738 0.621657
0.782745 0.286460 0.629378
0.116020 0.447106 0.624481
0.289198 0.454828 0.632203
0.462377 0.462550 0.639925
0.635556 0.470271 0.647646
0.808735 0.477993 0.655368
0.142009 0.638639 0.650471
0.315188 0.646361 0.658193
0.488367 0.654083 0.665914
0.661546 0.661804 0.673636
0.834724 0.669526 0.681357
0.167999 0.830172 0.676460
0.341177 0.837894 0.684182
0.514356 0.845616 0.691904
0.687535 0.853337 0.699625
0.860714 0.861059 0.707347
0.066727 0.066727 0.744676
0.239905 0.074448 0.752398
0.413084 0.082170 0.760119
0.586263 0.089891 0.767841
0.759442 0.097613 0.775562
0.092716 0.258260 0.770665
0.265895 0.265981 0.778387
0.439074 0.273703 0.786109
0.612253 0.281424 0.793830
0.785432 0.289146 0.801552
0.118706 0.449793 0.796655
0.291885 0.457514 0.804377
0.465063 0.465236 0.812098
0.638242 0.472957 0.819820
0.811421 0.480679 0.827541
0.144695 0.641326 0.822644
0.317874 0.649047 0.830366
0.491053 0.656769 0.838088
0.664232 0.664490 0.845809
0.837411 0.672212 0.853531
0.170685 0.832859 0.848634
0.343864 0.840580 0.856356
0.517042 0.848302 0.864077
0.690221 0.856023 0.871799
0.863400 0.863745 0.879520
