assets/lighting/cinematic/grade-horror-sick-green/lut.cube
TITLE "Horror Sick Green"
# TKRS lighting-batch-001 original LUT
# Intended usage: unwell green-yellow horror interiors
# License: CC0-1.0
LUT_3D_SIZE 5
DOMAIN_MIN 0.0 0.0 0.0
DOMAIN_MAX 1.0 1.0 1.0
0.000000 0.000000 0.000000
0.085583 0.000000 0.000000
0.223589 0.000000 0.000000
0.361595 0.000000 0.000000
0.499601 0.000000 0.000000
0.000000 0.145328 0.000000
0.115577 0.158166 0.000000
0.256648 0.172536 0.000000
0.405901 0.188821 0.005169
0.563676 0.206059 0.014832
0.007899 0.376275 0.007893
0.156153 0.397502 0.017620
0.312854 0.419861 0.027585
0.478663 0.443281 0.037807
0.654096 0.467724 0.048298
0.042997 0.645956 0.040761
0.206925 0.675120 0.051330
0.380539 0.705428 0.062183
0.564241 0.736853 0.073329
0.758382 0.769379 0.084775
0.085108 0.956899 0.076551
0.266593 0.994591 0.088084
0.446269 1.000000 0.098646
0.625529 1.000000 0.109144
0.804790 1.000000 0.119642
0.000000 0.000000 0.075992
0.088558 0.000000 0.085353
0.226564 0.000000 0.094713
0.364570 0.000000 0.104073
0.502576 0.000000 0.113434
0.000000 0.149509 0.106734
0.118552 0.162347 0.116094
0.261575 0.177724 0.126452
0.412443 0.194337 0.137298
0.571937 0.211864 0.148508
0.011100 0.383057 0.140448
0.160792 0.404664 0.151756
0.319090 0.427375 0.163406
0.486614 0.451130 0.175394
0.663853 0.475902 0.187720
0.046844 0.655327 0.178862
0.212442 0.684867 0.191285
0.387820 0.715541 0.204049
0.573365 0.747326 0.217156
0.769418 0.780208 0.230612
0.089700 0.969044 0.220945
0.270872 1.000000 0.233634
0.450132 1.000000 0.244132
0.629393 1.000000 0.254630
0.808654 1.000000 0.265128
0.000000 0.000000 0.205714
0.091532 0.000000 0.215074
0.229538 0.000000 0.224434
0.367544 0.000000 0.233795
0.505685 0.000000 0.243181
0.000000 0.153691 0.236455
0.122123 0.167135 0.246306
0.266681 0.183028 0.258033
0.419153 0.199949 0.270383
0.580368 0.217760 0.283216
0.014359 0.389968 0.273984
0.165519 0.411943 0.286944
0.325434 0.434999 0.300333
0.494685 0.459088 0.314132
0.673742 0.484185 0.328333
0.050761 0.664821 0.318128
0.218047 0.694734 0.332442
0.395202 0.725772 0.347150
0.582602 0.757916 0.362251
0.773557 0.785535 0.376137
0.094370 0.981315 0.366614
0.274735 1.000000 0.379120
0.453996 1.000000 0.389618
0.633257 1.000000 0.400116
0.812517 1.000000 0.410614
0.000000 0.000000 0.335435
0.094507 0.000000 0.344795
0.232513 0.000000 0.354156
0.370519 0.000000 0.363516
0.511426 0.000000 0.373741
0.000000 0.157872 0.366176
0.125943 0.172175 0.377305
0.271942 0.188437 0.390521
0.426021 0.205654 0.404465
0.588962 0.223746 0.418987
0.017676 0.397002 0.408537
0.170333 0.419337 0.423211
0.331884 0.442732 0.438389
0.502877 0.467152 0.454043
0.683763 0.492575 0.470156
0.054749 0.674438 0.458577
0.223739 0.704720 0.474818
0.402685 0.736120 0.491503
0.591950 0.768621 0.508626
0.777421 0.790642 0.521623
0.099118 0.993714 0.513572
0.278599 1.000000 0.524606
0.457860 1.000000 0.535104
0.637120 1.000000 0.545602
0.816381 1.000000 0.556100
0.000000 0.000000 0.465156
0.097481 0.000000 0.474516
0.235487 0.000000 0.483877
0.373493 0.000000 0.493237
0.517891 0.000000 0.505151
0.000000 0.162053 0.495897
0.129899 0.177355 0.509163
0.277345 0.193945 0.523967
0.433038 0.211452 0.539579
0.597712 0.229823 0.555850
0.021054 0.404157 0.544141
0.175235 0.426842 0.560583
0.338438 0.450574 0.577597
0.511187 0.475322 0.595145
0.693912 0.501069 0.613205
0.058809 0.684177 0.600227
0.229519 0.714825 0.618429
0.410269 0.746585 0.637122
0.601410 0.779442 0.656296
0.781284 0.795750 0.667109
0.103202 1.000000 0.659594
0.282463 1.000000 0.670092
0.461723 1.000000 0.680590
0.640984 1.000000 0.691088
0.820245 1.000000 0.701586
