assets/lighting/cinematic/grade-horror-sick-green/lut.cube
TITLE "Horror Sick Green"
# TKRS lighting-batch-001 original LUT
# Intended usage: unwell green-yellow horror interiors
# License: CC0-1.0
LUT_3D_SIZE 17
DOMAIN_MIN 0.0 0.0 0.0
DOMAIN_MAX 1.0 1.0 1.0
0.000000 0.000000 0.000000
0.000000 0.000000 0.000000
0.016580 0.000000 0.000000
0.051082 0.000000 0.000000
0.085583 0.000000 0.000000
0.120085 0.000000 0.000000
0.154586 0.000000 0.000000
0.189088 0.000000 0.000000
0.223589 0.000000 0.000000
0.258091 0.000000 0.000000
0.292592 0.000000 0.000000
0.327094 0.000000 0.000000
0.361595 0.000000 0.000000
0.396097 0.000000 0.000000
0.430598 0.000000 0.000000
0.465100 0.000000 0.000000
0.499601 0.000000 0.000000
0.000000 0.000000 0.000000
0.000000 0.000000 0.000000
0.024079 0.000000 0.000000
0.058580 0.000000 0.000000
0.093082 0.000000 0.000000
0.127583 0.000000 0.000000
0.162085 0.000321 0.000000
0.196586 0.003530 0.000000
0.231088 0.006740 0.000000
0.265589 0.009949 0.000000
0.300091 0.013159 0.000000
0.334592 0.016368 0.000000
0.369094 0.019578 0.000000
0.403595 0.022787 0.000000
0.438097 0.025997 0.000000
0.472598 0.029206 0.000000
0.508537 0.032484 0.000000
0.000000 0.035819 0.000000
0.000000 0.039028 0.000000
0.031577 0.042238 0.000000
0.066079 0.045447 0.000000
0.100580 0.048657 0.000000
0.135082 0.051866 0.000000
0.169583 0.055076 0.000000
0.204085 0.058285 0.000000
0.238586 0.061495 0.000000
0.273088 0.064704 0.000000
0.307589 0.067914 0.000000
0.342091 0.071123 0.000000
0.376653 0.074342 0.000000
0.412779 0.077778 0.000000
0.449622 0.081292 0.000000
0.487056 0.084863 0.000000
0.525058 0.088483 0.000000
0.000000 0.090574 0.000000
0.004574 0.093783 0.000000
0.039076 0.096992 0.000000
0.073577 0.100202 0.000000
0.108079 0.103411 0.000000
0.142580 0.106621 0.000000
0.177082 0.109830 0.000000
0.211583 0.113040 0.000000
0.246085 0.116249 0.000000
0.280893 0.119556 0.000000
0.316800 0.123162 0.000000
0.353275 0.126861 0.000000
0.390282 0.130629 0.000000
0.427818 0.134457 0.000000
0.465890 0.138342 0.002112
0.504505 0.142281 0.004491
0.543673 0.146272 0.006882
0.000000 0.145328 0.000000
0.012073 0.148538 0.000000
0.046574 0.151747 0.000000
0.081076 0.154957 0.000000
0.115577 0.158166 0.000000
0.150079 0.161376 0.000000
0.184988 0.164855 0.000000
0.220578 0.168644 0.000000
0.256648 0.172536 0.000000
0.293204 0.176508 0.000000
0.330256 0.180549 0.000417
0.367818 0.184655 0.002787
0.405901 0.188821 0.005169
0.444519 0.193046 0.007564
0.483680 0.197328 0.009973
0.523396 0.201666 0.012395
0.563676 0.206059 0.014832
0.000000 0.200083 0.000000
0.019571 0.203292 0.000000
0.054073 0.206502 0.000000
0.088878 0.210245 0.000000
0.124094 0.214226 0.000000
0.159730 0.218319 0.000000
0.195814 0.222501 0.000000
0.232366 0.226760 0.001089
0.269404 0.231091 0.003463
0.306944 0.235489 0.005848
0.345000 0.239952 0.008247
0.383585 0.244477 0.010660
0.422711 0.249063 0.013086
0.462389 0.253708 0.015527
0.502627 0.258412 0.017983
0.543436 0.263174 0.020453
0.584825 0.267993 0.022939
0.000000 0.255732 0.000000
0.027334 0.259913 0.000000
0.062512 0.264213 0.000000
0.098104 0.268611 0.000000
0.134140 0.273093 0.001763
0.170642 0.277653 0.004139
0.207627 0.282287 0.006529
0.245113 0.286990 0.008932
0.283113 0.291761 0.011348
0.321641 0.296597 0.013778
0.360708 0.301497 0.016223
0.400325 0.306460 0.018683
0.440502 0.311485 0.021158
0.481249 0.316570 0.023648
0.522574 0.321716 0.026154
0.564485 0.326922 0.028676
0.606991 0.332187 0.031214
0.000068 0.314840 0.000069
0.035574 0.319549 0.002437
0.071527 0.324343 0.004817
0.107947 0.329215 0.007210
0.144852 0.334162 0.009617
0.182259 0.339182 0.012037
0.220181 0.344271 0.014472
0.258630 0.349428 0.016921
0.297619 0.354652 0.019385
0.337158 0.359942 0.021864
0.377257 0.365296 0.024359
0.417926 0.370713 0.026869
0.459172 0.376194 0.029395
0.501005 0.381737 0.031938
0.543433 0.387342 0.034497
0.586461 0.393009 0.037072
0.630099 0.398737 0.039664
0.007899 0.376275 0.007893
0.044216 0.381470 0.010303
0.081020 0.386740 0.012728
0.118328 0.392085 0.015166
0.156153 0.397502 0.017620
0.194507 0.402989 0.020088
0.233401 0.408546 0.022572
0.272847 0.414170 0.025071
0.312854 0.419861 0.027585
0.353430 0.425618 0.030116
0.394585 0.431441 0.032663
0.436327 0.437329 0.035227
0.478663 0.443281 0.037807
0.521602 0.449296 0.040404
0.565149 0.455376 0.043018
0.609311 0.461518 0.045649
0.654096 0.467724 0.048298
0.016079 0.440041 0.015862
0.053273 0.445719 0.018320
0.090986 0.451472 0.020792
0.129230 0.457298 0.023280
0.168016 0.463194 0.025784
0.207355 0.469161 0.028303
0.247257 0.475196 0.030839
0.287729 0.481300 0.033390
0.328781 0.487472 0.035959
0.370420 0.493711 0.038544
0.412654 0.500016 0.041145
0.455491 0.506387 0.043764
0.498938 0.512824 0.046400
0.543000 0.519326 0.049054
0.587685 0.525892 0.051725
0.632998 0.532524 0.054414
0.678946 0.539219 0.057121
0.024640 0.506198 0.023990
0.062762 0.512369 0.026498
0.101429 0.518612 0.029022
0.140649 0.524928 0.031562
0.180434 0.531315 0.034119
0.220791 0.537773 0.036692
0.261729 0.544300 0.039281
0.303256 0.550896 0.041888
0.345378 0.557560 0.044512
0.388105 0.564292 0.047153
0.431441 0.571092 0.049811
0.475394 0.577959 0.052488
0.519970 0.584892 0.055181
0.565175 0.591893 0.057893
0.611015 0.598959 0.060623
0.657496 0.606091 0.063372
0.704623 0.613289 0.066138
0.033607 0.574815 0.032287
0.072699 0.581487 0.034848
0.112357 0.588231 0.037426
0.152589 0.595048 0.040020
0.193403 0.601936 0.042632
0.234808 0.608895 0.045261
0.276810 0.615924 0.047907
0.319416 0.623023 0.050570
0.362634 0.630191 0.053251
0.406469 0.637429 0.055950
0.450928 0.644734 0.058667
0.496017 0.652108 0.061403
0.541742 0.659550 0.064156
0.588108 0.667059 0.066928
0.635121 0.674636 0.069718
0.682785 0.682280 0.072527
0.731107 0.689991 0.075355
0.042997 0.645956 0.040761
0.083096 0.653138 0.043377
0.123778 0.660393 0.046011
0.165052 0.667720 0.048662
0.206925 0.675120 0.051330
0.249404 0.682591 0.054017
0.292495 0.690133 0.056721
0.336204 0.697745 0.059443
0.380539 0.705428 0.062183
0.425504 0.713180 0.064942
0.471106 0.721002 0.067719
0.517350 0.728893 0.070514
0.564241 0.736853 0.073329
0.611785 0.744882 0.076162
0.659987 0.752979 0.079014
0.708851 0.761145 0.081885
0.758382 0.769379 0.084775
0.052829 0.719681 0.049418
0.093965 0.727383 0.052092
0.135701 0.735157 0.054783
0.178044 0.743005 0.057493
0.221001 0.750925 0.060220
0.264578 0.758918 0.062965
0.308781 0.766982 0.065729
0.353616 0.775117 0.068511
0.399088 0.783324 0.071312
0.445203 0.791601 0.074132
0.491966 0.799949 0.076970
0.539383 0.808367 0.079828
0.587458 0.816855 0.082704
0.636196 0.825413 0.085600
0.685602 0.834040 0.088515
0.730754 0.838284 0.091160
0.775570 0.842204 0.093784
0.063117 0.796046 0.058266
0.105318 0.804276 0.060998
0.148134 0.812579 0.063749
0.191571 0.820956 0.066518
0.235635 0.829406 0.069306
0.280333 0.837929 0.072112
0.325669 0.846525 0.074937
0.371649 0.855192 0.077780
0.418278 0.863932 0.080643
0.465561 0.872743 0.083525
0.513503 0.881626 0.086426
0.561234 0.889486 0.089281
0.606049 0.893406 0.091905
0.650864 0.897327 0.094530
0.695679 0.901247 0.097154
0.740495 0.905168 0.099779
0.785310 0.909088 0.102403
0.073873 0.875103 0.067308
0.117164 0.883869 0.070101
0.161084 0.892709 0.072913
0.205638 0.901624 0.075743
0.250831 0.910612 0.078592
0.296670 0.919675 0.081460
0.343159 0.928810 0.084348
0.390303 0.938018 0.087254
0.436529 0.944608 0.090027
0.481344 0.948529 0.092651
0.526159 0.952449 0.095276
0.570974 0.956370 0.097900
0.615789 0.960290 0.100525
0.660604 0.964211 0.103149
0.705419 0.968131 0.105774
0.750235 0.972052 0.108398
0.795050 0.975972 0.111023
0.085108 0.956899 0.076551
0.129513 0.966210 0.079405
0.174558 0.975595 0.082279
0.220250 0.985056 0.085172
0.266593 0.994591 0.088084
0.311823 0.999731 0.090773
0.356638 1.000000 0.093397
0.401454 1.000000 0.096022
0.446269 1.000000 0.098646
0.491084 1.000000 0.101271
0.535899 1.000000 0.103895
0.580714 1.000000 0.106520
0.625529 1.000000 0.109144
0.670344 1.000000 0.111769
0.715160 1.000000 0.114393
0.759975 1.000000 0.117017
0.804790 1.000000 0.119642
0.000000 0.000000 0.000000
0.000000 0.000000 0.000000
0.017324 0.000000 0.000000
0.051825 0.000000 0.000000
0.086327 0.000000 0.000000
0.120828 0.000000 0.000000
0.155330 0.000000 0.000000
0.189831 0.000000 0.000000
0.224333 0.000000 0.000000
0.258834 0.000000 0.000000
0.293336 0.000000 0.002102
0.327837 0.000000 0.004442
0.362339 0.000000 0.006782
0.396840 0.000000 0.009122
0.431342 0.000000 0.011463
0.465844 0.000000 0.013803
0.500345 0.000000 0.016143
0.000000 0.000000 0.000000
0.000000 0.000000 0.000000
0.024822 0.000000 0.000000
0.059324 0.000000 0.000000
0.093825 0.000000 0.000000
0.128327 0.000000 0.000000
0.162828 0.001366 0.000427
0.197330 0.004576 0.002767
0.231831 0.007785 0.005107
0.266333 0.010995 0.007447
0.300834 0.014204 0.009788
0.335336 0.017414 0.012128
0.369837 0.020623 0.014468
0.404339 0.023833 0.016808
0.438841 0.027042 0.019148
0.473474 0.030258 0.021490
0.510022 0.033568 0.023870
0.000000 0.036864 0.000000
0.000000 0.040074 0.000000
0.032321 0.043283 0.000000
0.066822 0.046493 0.001092
0.101324 0.049702 0.003432
0.135825 0.052912 0.005772
0.170327 0.056121 0.008113
0.204828 0.059330 0.010453
0.239330 0.062540 0.012793
0.273831 0.065749 0.015133
0.308333 0.068959 0.017473
0.342834 0.072168 0.019813
0.377807 0.075448 0.022164
0.414158 0.078916 0.024549
0.451145 0.082449 0.026951
0.488706 0.086037 0.029367
0.526830 0.089673 0.031799
0.000000 0.091619 0.001757
0.005318 0.094828 0.004097
0.039819 0.098038 0.006438
0.074321 0.101247 0.008778
0.108822 0.104457 0.011118
0.143324 0.107666 0.013458
0.177825 0.110876 0.015798
0.212327 0.114085 0.018138
0.246828 0.117295 0.020478
0.282000 0.120717 0.022840
0.318054 0.124359 0.025230
0.354647 0.128081 0.027636
0.391766 0.131870 0.030057
0.429413 0.135717 0.032493
0.467595 0.139619 0.034944
0.506321 0.143575 0.037410
0.545600 0.147582 0.039892
0.000000 0.146374 0.009443
0.012816 0.149583 0.011783
0.047318 0.152793 0.014123
0.081819 0.156002 0.016463
0.116321 0.159212 0.018803
0.150822 0.162421 0.021143
0.185995 0.166075 0.023518
0.221691 0.169902 0.025912
0.257861 0.173821 0.028322
0.294516 0.177816 0.030748
0.331669 0.181879 0.033188
0.369333 0.186005 0.035643
0.407520 0.190191 0.038114
0.446243 0.194435 0.040601
0.485511 0.198735 0.043103
0.525335 0.203091 0.045621
0.565725 0.207502 0.048156
0.000000 0.201128 0.017128
0.020315 0.204338 0.019468
0.054856 0.207658 0.021815
0.089758 0.211527 0.024197
0.125055 0.215548 0.026596
0.160776 0.219672 0.029010
0.196948 0.223880 0.031440
0.233592 0.228163 0.033884
0.270724 0.232516 0.036344
0.308362 0.236936 0.038819
0.346517 0.241419 0.041310
0.385204 0.245964 0.043817
0.424434 0.250569 0.046340
0.464217 0.255234 0.048879
0.504562 0.259956 0.051435
0.545480 0.264737 0.054007
0.586979 0.269575 0.056596
0.000000 0.257078 0.024877
0.028133 0.261302 0.027280
0.063384 0.265636 0.029699
0.099055 0.270062 0.032133
0.135175 0.274570 0.034582
0.171764 0.279155 0.037046
0.208841 0.283811 0.039526
0.246420 0.288537 0.042021
0.284517 0.293329 0.044532
0.323144 0.298186 0.047060
0.362313 0.303107 0.049604
0.402033 0.308090 0.052164
0.442315 0.313134 0.054741
0.483169 0.318240 0.057335
0.524603 0.323405 0.059946
0.566624 0.328630 0.062575
0.609242 0.333915 0.065221
0.000830 0.316364 0.032827
0.036413 0.321102 0.035281
0.072447 0.325921 0.037749
0.108953 0.330818 0.040233
0.145947 0.335789 0.042733
0.183446 0.340832 0.045249
0.221463 0.345943 0.047781
0.260009 0.351123 0.050330
0.299098 0.356368 0.052895
0.338739 0.361678 0.055477
0.378941 0.367053 0.058076
0.419715 0.372491 0.060692
0.461069 0.377992 0.063325
0.503011 0.383556 0.065976
0.545549 0.389181 0.068644
0.588689 0.394868 0.071330
0.632440 0.400615 0.074034
0.008694 0.377958 0.040942
0.045095 0.383178 0.043447
0.081987 0.388473 0.045967
0.119386 0.393842 0.048504
0.157304 0.399282 0.051057
0.195754 0.404792 0.053627
0.234747 0.410370 0.056214
0.274294 0.416016 0.058817
0.314403 0.421729 0.061438
0.355083 0.427508 0.064077
0.396344 0.433352 0.066732
0.438194 0.439260 0.069406
0.480639 0.445233 0.072097
0.523688 0.451270 0.074806
0.567347 0.457369 0.077533
0.611623 0.463532 0.080279
0.656523 0.469758 0.083043
0.016911 0.441882 0.049228
0.054194 0.447585 0.051786
0.092000 0.453362 0.054360
0.130339 0.459210 0.056952
0.169223 0.465130 0.059561
0.208662 0.471119 0.062186
0.248664 0.477177 0.064830
0.289240 0.483303 0.067490
0.330397 0.489497 0.070169
0.372143 0.495757 0.072865
0.414486 0.502084 0.075579
0.457433 0.508476 0.078312
0.500990 0.514934 0.081062
0.545165 0.521457 0.083832
0.589964 0.528045 0.086619
0.635392 0.534697 0.089426
0.681456 0.541414 0.092251
0.025511 0.508200 0.057692
0.063727 0.514394 0.060305
0.102490 0.520662 0.062936
0.141810 0.527001 0.065584
0.181696 0.533411 0.068250
0.222155 0.539891 0.070933
0.263198 0.546440 0.073635
0.304830 0.553059 0.076354
0.347060 0.559745 0.079092
0.389896 0.566499 0.081848
0.433342 0.573321 0.084622
0.477407 0.580210 0.087415
0.522096 0.587165 0.090227
0.567416 0.594187 0.093057
0.613372 0.601274 0.095906
0.659969 0.608428 0.098775
0.707214 0.615647 0.101662
0.034519 0.576980 0.066340
0.073709 0.583675 0.069011
0.113467 0.590443 0.071699
0.153801 0.597284 0.074406
0.194720 0.604195 0.077130
0.236230 0.611177 0.079873
0.278338 0.618229 0.082634
0.321053 0.625350 0.085414
0.364381 0.632541 0.088212
0.408327 0.639800 0.091029
0.452899 0.647128 0.093865
0.498102 0.654524 0.096720
0.543941 0.661988 0.099594
0.590423 0.669519 0.102487
0.637553 0.677118 0.105399
0.685336 0.684784 0.108331
0.733777 0.692517 0.111282
0.043953 0.648287 0.075178
0.084152 0.655493 0.077908
0.124938 0.662772 0.080656
0.166317 0.670123 0.083422
0.208296 0.677545 0.086207
0.250883 0.685039 0.089011
0.294083 0.692604 0.091833
0.337903 0.700239 0.094674
0.382350 0.707945 0.097535
0.427428 0.715720 0.100414
0.473144 0.723564 0.103312
0.519504 0.731478 0.106230
0.566512 0.739460 0.109168
0.614173 0.747512 0.112124
0.662494 0.755631 0.115101
0.711477 0.763819 0.118097
0.761129 0.772075 0.121113
0.053829 0.722182 0.084212
0.095069 0.729907 0.087002
0.136911 0.737705 0.089811
0.179362 0.745577 0.092639
0.222427 0.753520 0.095485
0.266114 0.761536 0.098351
0.310429 0.769624 0.101236
0.355376 0.777782 0.104140
0.400962 0.786012 0.107063
0.447192 0.794312 0.110006
0.494072 0.802683 0.112968
0.541606 0.811124 0.115951
0.589799 0.819634 0.118952
0.638656 0.828215 0.121974
0.686905 0.835640 0.124907
0.731720 0.839561 0.127531
0.776536 0.843481 0.130156
0.064163 0.798718 0.093446
0.106470 0.806972 0.096298
0.149395 0.815299 0.099169
0.192942 0.823700 0.102059
0.237117 0.832174 0.104969
0.281927 0.840721 0.107898
0.327376 0.849340 0.110846
0.373471 0.858031 0.113814
0.420215 0.866794 0.116802
0.467615 0.875628 0.119809
0.515676 0.884534 0.122837
0.562200 0.890763 0.125652
0.607015 0.894683 0.128277
0.651830 0.898604 0.130901
0.696645 0.902524 0.133526
0.741460 0.906445 0.136150
0.786276 0.910365 0.138775
0.074965 0.877950 0.102884
0.118366 0.886740 0.105799
0.162396 0.895605 0.108734
0.207062 0.904543 0.111687
0.252369 0.913556 0.114661
0.298322 0.922642 0.117654
0.344926 0.931801 0.120668
0.392186 0.941033 0.123701
0.437494 0.945885 0.126398
0.482310 0.949806 0.129023
0.527125 0.953726 0.131647
0.571940 0.957647 0.134272
0.616755 0.961567 0.136896
0.661570 0.965488 0.139521
0.706385 0.969408 0.142145
0.751201 0.973328 0.144770
0.796016 0.977249 0.147394
0.086249 0.959923 0.112531
0.130765 0.969258 0.115510
0.175924 0.978668 0.118509
0.221729 0.988153 0.121528
0.267974 0.997087 0.124520
0.312789 1.000000 0.127144
0.357604 1.000000 0.129769
0.402419 1.000000 0.132393
0.447235 1.000000 0.135018
0.492050 1.000000 0.137642
0.536865 1.000000 0.140267
0.581680 1.000000 0.142891
0.626495 1.000000 0.145516
0.671310 1.000000 0.148140
0.716125 1.000000 0.150765
0.760941 1.000000 0.153389
0.805756 1.000000 0.156013
0.000000 0.000000 0.011132
0.000000 0.000000 0.013472
0.018067 0.000000 0.015812
0.052569 0.000000 0.018152
0.087070 0.000000 0.020492
0.121572 0.000000 0.022832
0.156073 0.000000 0.025172
0.190575 0.000000 0.027512
0.225076 0.000000 0.029852
0.259578 0.000000 0.032192
0.294080 0.000000 0.034533
0.328581 0.000000 0.036873
0.363083 0.000000 0.039213
0.397584 0.000000 0.041553
0.432086 0.000000 0.043893
0.466587 0.000000 0.046233
0.501089 0.000000 0.048573
0.000000 0.000000 0.018817
0.000000 0.000000 0.021157
0.025566 0.000000 0.023497
0.060067 0.000000 0.025837
0.094569 0.000000 0.028177
0.129070 0.000000 0.030517
0.163572 0.002412 0.032858
0.198073 0.005621 0.035198
0.232575 0.008831 0.037538
0.267077 0.012040 0.039878
0.301578 0.015249 0.042218
0.336080 0.018459 0.044558
0.370581 0.021668 0.046898
0.405083 0.024878 0.049238
0.439584 0.028087 0.051578
0.474752 0.031330 0.053949
0.511556 0.034656 0.056392
0.000000 0.037909 0.026502
0.000000 0.041119 0.028842
0.033064 0.044328 0.031183
0.067566 0.047538 0.033523
0.102067 0.050747 0.035863
0.136569 0.053957 0.038203
0.171070 0.057166 0.040543
0.205572 0.060376 0.042883
0.240074 0.063585 0.045223
0.274575 0.066795 0.047563
0.309077 0.070004 0.049903
0.343578 0.073214 0.052243
0.379047 0.076568 0.054640
0.415570 0.080060 0.057091
0.452691 0.083612 0.059566
0.490376 0.087216 0.062061
0.528619 0.090868 0.064575
0.000000 0.092664 0.034188
0.006061 0.095874 0.036528
0.040563 0.099083 0.038868
0.075064 0.102293 0.041208
0.109566 0.105502 0.043548
0.144067 0.108712 0.045888
0.178569 0.111921 0.048228
0.213071 0.115131 0.050568
0.247575 0.118341 0.052909
0.283147 0.121892 0.055334
0.319330 0.125563 0.057792
0.356038 0.129308 0.060273
0.393267 0.133116 0.062773
0.431023 0.136982 0.065293
0.469314 0.140902 0.067831
0.508150 0.144874 0.070387
0.547540 0.148899 0.072961
0.000000 0.147419 0.041873
0.013560 0.150628 0.044213
0.048061 0.153838 0.046553
0.082563 0.157047 0.048893
0.117064 0.160257 0.051233
0.151697 0.163571 0.053592
0.187022 0.167309 0.056030
0.222819 0.171169 0.058495
0.259087 0.175115 0.060982
0.295841 0.179133 0.063488
0.333094 0.183216 0.066012
0.370859 0.187362 0.068556
0.409150 0.191567 0.071117
0.447978 0.195829 0.073696
0.487353 0.200148 0.076294
0.527285 0.204522 0.078909
0.567785 0.208950 0.081543
0.000000 0.202174 0.049558
0.021058 0.205383 0.051898
0.055668 0.208893 0.054281
0.090648 0.212824 0.056728
0.126025 0.216881 0.059200
0.161831 0.221034 0.061692
0.198092 0.225267 0.064203
0.234827 0.229574 0.066733
0.272054 0.233949 0.069282
0.309789 0.238389 0.071848
0.348044 0.242893 0.074433
0.386833 0.247457 0.077035
0.426166 0.252082 0.079656
0.466054 0.256765 0.082294
0.506507 0.261507 0.084951
0.547534 0.266306 0.087627
0.589143 0.271163 0.090320
0.000000 0.258440 0.057428
0.028937 0.262702 0.059906
0.064261 0.267068 0.062404
0.100012 0.271521 0.064921
0.136216 0.276055 0.067456
0.172893 0.280664 0.070009
0.210061 0.285343 0.072581
0.247735 0.290091 0.075170
0.285929 0.294904 0.077778
0.324656 0.299782 0.080404
0.363926 0.304723 0.083048
0.403750 0.309726 0.085710
0.444137 0.314790 0.088390
0.485098 0.319915 0.091089
0.526640 0.325100 0.093806
0.568772 0.330345 0.096542
0.611502 0.335649 0.099297
0.001596 0.317898 0.065639
0.037256 0.322663 0.068180
0.073372 0.327508 0.070738
0.109964 0.332429 0.073315
0.147048 0.337424 0.075910
0.184639 0.342489 0.078523
0.222751 0.347623 0.081153
0.261396 0.352824 0.083802
0.300584 0.358090 0.086470
0.340327 0.363422 0.089155
0.380633 0.368817 0.091859
0.421513 0.374276 0.094582
0.462974 0.379798 0.097323
0.505025 0.385381 0.100083
0.547673 0.391026 0.102861
0.590925 0.396733 0.105659
0.634789 0.402501 0.108476
0.009493 0.379650 0.074051
0.045978 0.384894 0.076651
0.082959 0.390214 0.079268
0.120449 0.395606 0.081904
0.158461 0.401069 0.084559
0.197008 0.406601 0.087231
0.236100 0.412202 0.089922
0.275747 0.417870 0.092631
0.315958 0.423604 0.095359
0.356744 0.429404 0.098105
0.398111 0.435269 0.100871
0.440068 0.441199 0.103655
0.482623 0.447192 0.106458
0.525783 0.453249 0.109280
0.569554 0.459370 0.112121
0.613944 0.465553 0.114981
0.658958 0.471799 0.117861
0.017746 0.443731 0.082657
0.055120 0.449458 0.085316
0.093019 0.455259 0.087994
0.131453 0.461130 0.090690
0.170435 0.467073 0.093405
0.209974 0.473084 0.096138
0.250078 0.479165 0.098889
0.290758 0.485313 0.101660
0.332020 0.491528 0.104449
0.373873 0.497810 0.107258
0.416324 0.504158 0.110085
0.459381 0.510572 0.112932
0.503050 0.517051 0.115798
0.547337 0.523596 0.118683
0.592250 0.530205 0.121588
0.637793 0.536878 0.124512
0.683974 0.543615 0.127456
0.026386 0.510209 0.091460
0.064697 0.516428 0.094180
0.103557 0.522718 0.096918
0.142976 0.529081 0.099675
0.182962 0.535514 0.102451
0.223525 0.542016 0.105246
0.264672 0.548588 0.108059
0.306411 0.555229 0.110892
0.348749 0.561937 0.113744
0.391693 0.568714 0.116616
0.435251 0.575557 0.119507
0.479428 0.582468 0.122417
0.524230 0.589445 0.125347
0.569664 0.596488 0.128296
0.615735 0.603597 0.131266
0.662450 0.610772 0.134255
0.709812 0.618013 0.137264
0.035435 0.579153 0.100462
0.074724 0.585872 0.103243
0.114583 0.592663 0.106043
0.155019 0.599527 0.108863
0.196041 0.606461 0.111701
0.237657 0.613466 0.114558
0.279873 0.620540 0.117435
0.322696 0.627685 0.120332
0.366134 0.634898 0.123248
0.410192 0.642180 0.126183
0.454876 0.649530 0.129138
0.500192 0.656948 0.132113
0.546147 0.664434 0.135108
0.592745 0.671987 0.138123
0.639993 0.679607 0.141158
0.687894 0.687295 0.144213
0.736454 0.695050 0.147288
0.044912 0.650626 0.109667
0.085214 0.657856 0.112511
0.126103 0.665158 0.115374
0.167587 0.672532 0.118257
0.209673 0.679978 0.121158
0.252367 0.687495 0.124080
0.295677 0.695083 0.127021
0.339608 0.702741 0.129982
0.384167 0.710469 0.132962
0.429359 0.718267 0.135963
0.475189 0.726134 0.138983
0.521664 0.734070 0.142024
0.568789 0.742075 0.145085
0.616569 0.750149 0.148166
0.665008 0.758291 0.151268
0.714112 0.766501 0.154390
0.763885 0.774779 0.157532
0.054833 0.724689 0.119079
0.096178 0.732439 0.121987
0.138126 0.740261 0.124914
0.180684 0.748156 0.127860
0.223859 0.756123 0.130827
0.267657 0.764162 0.133813
0.312083 0.772273 0.136819
0.357143 0.780455 0.139846
0.402843 0.788708 0.142892
0.449188 0.797031 0.145959
0.496184 0.805424 0.149046
0.543835 0.813888 0.152153
0.592147 0.822421 0.155281
0.641124 0.831024 0.158429
0.687871 0.836917 0.161278
0.732686 0.840837 0.163903
0.777501 0.844758 0.166527
0.065213 0.801398 0.128701
0.107628 0.809676 0.131674
0.150661 0.818027 0.134665
0.194318 0.826452 0.137677
0.238604 0.834950 0.140709
0.283527 0.843520 0.143762
0.329090 0.852162 0.146834
0.375299 0.860877 0.149927
0.422160 0.869663 0.153040
0.469677 0.878521 0.156174
0.517855 0.887450 0.159328
0.563166 0.892040 0.162024
0.607981 0.895960 0.164648
0.652796 0.899880 0.167273
0.697611 0.903801 0.169897
0.742426 0.907721 0.172522
0.787242 0.911642 0.175146
0.076063 0.880804 0.138537
0.119573 0.889619 0.141575
0.163714 0.898508 0.144633
0.208492 0.907471 0.147711
0.253912 0.916507 0.150809
0.299980 0.925617 0.153928
0.346699 0.934800 0.157068
0.393645 0.943242 0.160145
0.438460 0.947162 0.162770
0.483276 0.951083 0.165394
0.528091 0.955003 0.168019
0.572906 0.958924 0.170643
0.617721 0.962844 0.173268
0.662536 0.966764 0.175892
0.707351 0.970685 0.178517
0.752166 0.974605 0.181141
0.796982 0.978526 0.183766
0.087395 0.962956 0.148589
0.132023 0.972315 0.151694
0.177294 0.981749 0.154819
0.223214 0.991258 0.157964
0.268940 0.998364 0.160891
0.313755 1.000000 0.163516
0.358570 1.000000 0.166140
0.403385 1.000000 0.168765
0.448200 1.000000 0.171389
0.493016 1.000000 0.174014
0.537831 1.000000 0.176638
0.582646 1.000000 0.179263
0.627461 1.000000 0.181887
0.672276 1.000000 0.184512
0.717091 1.000000 0.187136
0.761907 1.000000 0.189760
0.806722 1.000000 0.192385
0.000000 0.000000 0.043562
0.000000 0.000000 0.045902
0.018811 0.000000 0.048242
0.053312 0.000000 0.050582
0.087814 0.000000 0.052922
0.122315 0.000000 0.055262
0.156817 0.000000 0.057602
0.191319 0.000000 0.059943
0.225820 0.000000 0.062283
0.260322 0.000000 0.064623
0.294823 0.000000 0.066963
0.329325 0.000000 0.069303
0.363826 0.000000 0.071643
0.398328 0.000000 0.073983
