assets/lighting/cinematic/grade-horror-sick-green/lut.cube
TITLE "Horror Sick Green"
# TKRS lighting-batch-001 original LUT
# Intended usage: unwell green-yellow horror interiors
# License: CC0-1.0
LUT_3D_SIZE 9
DOMAIN_MIN 0.0 0.0 0.0
DOMAIN_MAX 1.0 1.0 1.0
0.000000 0.000000 0.000000
0.016580 0.000000 0.000000
0.085583 0.000000 0.000000
0.154586 0.000000 0.000000
0.223589 0.000000 0.000000
0.292592 0.000000 0.000000
0.361595 0.000000 0.000000
0.430598 0.000000 0.000000
0.499601 0.000000 0.000000
0.000000 0.035819 0.000000
0.031577 0.042238 0.000000
0.100580 0.048657 0.000000
0.169583 0.055076 0.000000
0.238586 0.061495 0.000000
0.307589 0.067914 0.000000
0.376653 0.074342 0.000000
0.449622 0.081292 0.000000
0.525058 0.088483 0.000000
0.000000 0.145328 0.000000
0.046574 0.151747 0.000000
0.115577 0.158166 0.000000
0.184988 0.164855 0.000000
0.256648 0.172536 0.000000
0.330256 0.180549 0.000417
0.405901 0.188821 0.005169
0.483680 0.197328 0.009973
0.563676 0.206059 0.014832
0.000000 0.255732 0.000000
0.062512 0.264213 0.000000
0.134140 0.273093 0.001763
0.207627 0.282287 0.006529
0.283113 0.291761 0.011348
0.360708 0.301497 0.016223
0.440502 0.311485 0.021158
0.522574 0.321716 0.026154
0.606991 0.332187 0.031214
0.007899 0.376275 0.007893
0.081020 0.386740 0.012728
0.156153 0.397502 0.017620
0.233401 0.408546 0.022572
0.312854 0.419861 0.027585
0.394585 0.431441 0.032663
0.478663 0.443281 0.037807
0.565149 0.455376 0.043018
0.654096 0.467724 0.048298
0.024640 0.506198 0.023990
0.101429 0.518612 0.029022
0.180434 0.531315 0.034119
0.261729 0.544300 0.039281
0.345378 0.557560 0.044512
0.431441 0.571092 0.049811
0.519970 0.584892 0.055181
0.611015 0.598959 0.060623
0.704623 0.613289 0.066138
0.042997 0.645956 0.040761
0.123778 0.660393 0.046011
0.206925 0.675120 0.051330
0.292495 0.690133 0.056721
0.380539 0.705428 0.062183
0.471106 0.721002 0.067719
0.564241 0.736853 0.073329
0.659987 0.752979 0.079014
0.758382 0.769379 0.084775
0.063117 0.796046 0.058266
0.148134 0.812579 0.063749
0.235635 0.829406 0.069306
0.325669 0.846525 0.074937
0.418278 0.863932 0.080643
0.513503 0.881626 0.086426
0.606049 0.893406 0.091905
0.695679 0.901247 0.097154
0.785310 0.909088 0.102403
0.085108 0.956899 0.076551
0.174558 0.975595 0.082279
0.266593 0.994591 0.088084
0.356638 1.000000 0.093397
0.446269 1.000000 0.098646
0.535899 1.000000 0.103895
0.625529 1.000000 0.109144
0.715160 1.000000 0.114393
0.804790 1.000000 0.119642
0.000000 0.000000 0.011132
0.018067 0.000000 0.015812
0.087070 0.000000 0.020492
0.156073 0.000000 0.025172
0.225076 0.000000 0.029852
0.294080 0.000000 0.034533
0.363083 0.000000 0.039213
0.432086 0.000000 0.043893
0.501089 0.000000 0.048573
0.000000 0.037909 0.026502
0.033064 0.044328 0.031183
0.102067 0.050747 0.035863
0.171070 0.057166 0.040543
0.240074 0.063585 0.045223
0.309077 0.070004 0.049903
0.379047 0.076568 0.054640
0.452691 0.083612 0.059566
0.528619 0.090868 0.064575
0.000000 0.147419 0.041873
0.048061 0.153838 0.046553
0.117064 0.160257 0.051233
0.187022 0.167309 0.056030
0.259087 0.175115 0.060982
0.333094 0.183216 0.066012
0.409150 0.191567 0.071117
0.487353 0.200148 0.076294
0.567785 0.208950 0.081543
0.000000 0.258440 0.057428
0.064261 0.267068 0.062404
0.136216 0.276055 0.067456
0.210061 0.285343 0.072581
0.285929 0.294904 0.077778
0.363926 0.304723 0.083048
0.444137 0.314790 0.088390
0.526640 0.325100 0.093806
0.611502 0.335649 0.099297
0.009493 0.379650 0.074051
0.082959 0.390214 0.079268
0.158461 0.401069 0.084559
0.236100 0.412202 0.089922
0.315958 0.423604 0.095359
0.398111 0.435269 0.100871
0.482623 0.447192 0.106458
0.569554 0.459370 0.112121
0.658958 0.471799 0.117861
0.026386 0.510209 0.091460
0.103557 0.522718 0.096918
0.182962 0.535514 0.102451
0.264672 0.548588 0.108059
0.348749 0.561937 0.113744
0.435251 0.575557 0.119507
0.524230 0.589445 0.125347
0.615735 0.603597 0.131266
0.709812 0.618013 0.137264
0.044912 0.650626 0.109667
0.126103 0.665158 0.115374
0.209673 0.679978 0.121158
0.295677 0.695083 0.127021
0.384167 0.710469 0.132962
0.475189 0.726134 0.138983
0.568789 0.742075 0.145085
0.665008 0.758291 0.151268
0.763885 0.774779 0.157532
0.065213 0.801398 0.128701
0.150661 0.818027 0.134665
0.238604 0.834950 0.140709
0.329090 0.852162 0.146834
0.422160 0.869663 0.153040
0.517855 0.887450 0.159328
0.607981 0.895960 0.164648
0.697611 0.903801 0.169897
0.787242 0.911642 0.175146
0.087395 0.962956 0.148589
0.177294 0.981749 0.154819
0.268940 0.998364 0.160891
0.358570 1.000000 0.166140
0.448200 1.000000 0.171389
0.537831 1.000000 0.176638
0.627461 1.000000 0.181887
0.717091 1.000000 0.187136
0.806722 1.000000 0.192385
0.000000 0.000000 0.075992
0.019555 0.000000 0.080672
0.088558 0.000000 0.085353
0.157561 0.000000 0.090033
0.226564 0.000000 0.094713
0.295567 0.000000 0.099393
0.364570 0.000000 0.104073
0.433573 0.000000 0.108753
0.502576 0.000000 0.113434
0.000000 0.040000 0.091363
0.034552 0.046419 0.096043
0.103555 0.052838 0.100723
0.172558 0.059257 0.105403
0.241561 0.065676 0.110084
0.310564 0.072095 0.114764
0.381664 0.078835 0.119712
0.455848 0.085954 0.124943
0.532250 0.093271 0.130289
0.000000 0.149509 0.106734
0.049549 0.155928 0.111414
0.118552 0.162347 0.116094
0.189124 0.169813 0.121185
0.261575 0.177724 0.126452
0.335977 0.185910 0.131827
0.412443 0.194337 0.137298
0.491069 0.202991 0.142859
0.571937 0.211864 0.148508
0.000000 0.261204 0.122669
0.066029 0.269959 0.127969
0.138316 0.279049 0.133373
0.212524 0.288428 0.138870
0.288777 0.298074 0.144456
0.367176 0.307975 0.150129
0.447807 0.318122 0.155887
0.530742 0.328510 0.161730
0.616048 0.339135 0.167657
0.011100 0.383057 0.140448
0.084916 0.393718 0.146059
0.160792 0.404664 0.151756
0.238823 0.415886 0.157539
0.319090 0.427375 0.163406
0.401666 0.439124 0.169358
0.486614 0.451130 0.175394
0.573992 0.463390 0.181514
0.663853 0.475902 0.187720
0.028147 0.514251 0.159198
0.105705 0.526855 0.165089
0.185513 0.539742 0.171065
0.267639 0.552906 0.177125
0.352145 0.566344 0.183269
0.439088 0.580051 0.189499
0.528519 0.594025 0.195814
0.620486 0.608263 0.202214
0.715033 0.622765 0.208700
0.046844 0.655327 0.178862
0.128447 0.669953 0.185031
0.212442 0.684867 0.191285
0.298883 0.700064 0.197624
0.387820 0.715541 0.204049
0.479299 0.731296 0.210559
0.573365 0.747326 0.217156
0.670059 0.763631 0.223840
0.769418 0.780208 0.230612
0.067327 0.806782 0.199441
0.153208 0.823507 0.205890
0.241596 0.840524 0.212425
0.332534 0.857831 0.219047
0.426067 0.875425 0.225756
0.520282 0.890673 0.232143
0.609913 0.898514 0.237391
0.699543 0.906355 0.242640
0.789173 0.914196 0.247889
0.089700 0.969044 0.220945
0.180050 0.987935 0.227679
0.270872 1.000000 0.233634
0.360502 1.000000 0.238883
0.450132 1.000000 0.244132
0.539763 1.000000 0.249381
0.629393 1.000000 0.254630
0.719023 1.000000 0.259879
0.808654 1.000000 0.265128
0.000000 0.000000 0.140853
0.021042 0.000000 0.145533
0.090045 0.000000 0.150213
0.159048 0.000000 0.154893
0.228051 0.000000 0.159574
0.297054 0.000000 0.164254
0.366057 0.000000 0.168934
0.435060 0.000000 0.173614
0.504063 0.000000 0.178294
0.000000 0.042091 0.156224
0.036039 0.048510 0.160904
0.105042 0.054929 0.165584
0.174045 0.061348 0.170264
0.243048 0.067766 0.174944
0.312066 0.074188 0.179628
0.384406 0.081130 0.184964
0.459081 0.088316 0.190525
0.535945 0.095695 0.196226
0.000000 0.151600 0.171594
0.051036 0.158019 0.176274
0.120282 0.164684 0.181103
0.191279 0.172356 0.186528
0.264107 0.180362 0.192133
0.338902 0.188629 0.197868
0.415777 0.197131 0.203718
0.494827 0.205857 0.209674
0.576132 0.214800 0.215731
0.000000 0.264014 0.188106
0.067817 0.272886 0.193750
0.140441 0.282073 0.199520
0.215013 0.291541 0.205401
0.291654 0.301271 0.211385
0.370458 0.311253 0.217470
0.451509 0.321479 0.223651
0.534879 0.331944 0.229928
0.620631 0.342646 0.236299
0.012722 0.386497 0.207091
0.086892 0.397252 0.213105
0.163145 0.408290 0.219217
0.241570 0.419599 0.225426
0.322249 0.431173 0.231730
0.405249 0.443006 0.238127
0.490634 0.455096 0.244618
0.578461 0.467438 0.251201
0.668781 0.480030 0.257876
0.029925 0.518325 0.227208
0.107872 0.531021 0.233538
0.188085 0.543999 0.239962
0.270629 0.557253 0.246479
0.355567 0.570779 0.253089
0.442953 0.584573 0.259790
0.532837 0.598633 0.266584
0.625266 0.612958 0.273470
0.720285 0.627544 0.280448
0.048794 0.660059 0.248348
0.130812 0.674779 0.254984
0.215234 0.689785 0.261712
0.302113 0.705074 0.268532
0.391498 0.720642 0.275444
0.483436 0.736487 0.282448
0.577969 0.752607 0.289545
0.675138 0.769000 0.296733
0.771625 0.782981 0.303394
0.069460 0.812197 0.270487
0.155776 0.829017 0.277425
0.244609 0.846129 0.284456
0.336003 0.863530 0.291578
0.429999 0.881217 0.298794
0.522214 0.893227 0.304886
0.611845 0.901067 0.310134
0.701475 0.908908 0.315383
0.791105 0.916749 0.320632
0.092026 0.975164 0.293620
0.182828 0.994152 0.300861
0.272804 1.000000 0.306377
0.362434 1.000000 0.311626
0.452064 1.000000 0.316875
0.541694 1.000000 0.322124
0.631325 1.000000 0.327373
0.720955 1.000000 0.332622
0.810585 1.000000 0.337871
0.000000 0.000000 0.205714
0.022529 0.000000 0.210394
0.091532 0.000000 0.215074
0.160535 0.000000 0.219754
0.229538 0.000000 0.224434
0.298541 0.000000 0.229114
0.367544 0.000000 0.233795
0.436547 0.000000 0.238475
0.505685 0.000000 0.243181
0.000000 0.044181 0.221084
0.037526 0.050600 0.225764
0.106529 0.057019 0.230445
0.175532 0.063438 0.235125
0.244535 0.069857 0.239805
0.314280 0.076410 0.244720
0.387243 0.083448 0.250410
0.462383 0.090699 0.256323
0.539700 0.098138 0.262393
0.000000 0.153691 0.236455
0.052523 0.160110 0.241135
0.122123 0.167135 0.246306
0.193480 0.174932 0.252072
0.266681 0.183028 0.258033
0.341868 0.191373 0.264143
0.419153 0.199949 0.270383
0.498626 0.208746 0.276743
0.580368 0.217760 0.283216
0.000000 0.266865 0.253749
0.069624 0.275846 0.259755
0.142589 0.285127 0.265904
0.217530 0.294682 0.272179
0.294560 0.304495 0.278571
0.373772 0.314557 0.285075
0.455245 0.324861 0.291688
0.539050 0.335404 0.298405
0.625249 0.346183 0.305225
0.014359 0.389968 0.273984
0.088887 0.400817 0.280409
0.165519 0.411943 0.286944
0.244342 0.423340 0.293586
0.325434 0.434999 0.300333
0.408861 0.446916 0.307182
0.494685 0.459088 0.314132
0.582962 0.471512 0.321183
0.673742 0.484185 0.328333
0.031719 0.522428 0.295493
0.110058 0.535217 0.302269
0.190678 0.548286 0.309147
0.273644 0.561628 0.316126
0.359015 0.575242 0.323205
0.446845 0.589123 0.330383
0.537183 0.603270 0.337660
0.630077 0.617679 0.345036
0.725569 0.632351 0.352510
0.050761 0.664821 0.318128
0.133196 0.679635 0.325235
0.218047 0.694734 0.332442
0.305366 0.710114 0.339747
0.395202 0.725772 0.347150
0.487600 0.741707 0.354652
0.582602 0.757916 0.362251
0.680248 0.774398 0.369948
0.773557 0.785535 0.376137
0.071611 0.817643 0.341841
0.158365 0.834558 0.349272
0.247645 0.851765 0.356802
0.339495 0.869259 0.364429
0.433957 0.887039 0.372154
0.524146 0.895780 0.377629
0.613776 0.903621 0.382877
0.703407 0.911462 0.388126
0.793037 0.919303 0.393375
0.094370 0.981315 0.366614
0.185105 0.998185 0.373871
0.274735 1.000000 0.379120
0.364366 1.000000 0.384369
0.453996 1.000000 0.389618
0.543626 1.000000 0.394867
0.633257 1.000000 0.400116
0.722887 1.000000 0.405365
0.812517 1.000000 0.410614
0.000000 0.000000 0.270574
0.024016 0.000000 0.275254
0.093019 0.000000 0.279935
0.162022 0.000000 0.284615
0.231025 0.000000 0.289295
0.300028 0.000000 0.293975
0.369032 0.000000 0.298655
0.438035 0.000000 0.303335
0.508415 0.000000 0.308356
0.000000 0.046272 0.285945
0.039013 0.052691 0.290625
0.108016 0.059110 0.295305
0.177019 0.065529 0.299985
0.246022 0.071948 0.304666
0.316697 0.078675 0.310013
0.390158 0.085788 0.316063
0.465747 0.093102 0.322343
0.543512 0.100600 0.328795
0.000000 0.155781 0.301316
0.054010 0.162200 0.305996
0.124014 0.169635 0.311703
0.195719 0.177540 0.317828
0.269293 0.185719 0.324160
0.344873 0.194141 0.330657
0.422567 0.202790 0.337297
0.502466 0.211658 0.344070
0.584645 0.220742 0.350967
0.000004 0.269755 0.319609
0.071450 0.278837 0.325991
0.144761 0.288210 0.332530
0.220073 0.297850 0.339209
0.297495 0.307745 0.346018
0.377116 0.317887 0.352949
0.459014 0.328269 0.359998
0.543256 0.338889 0.367162
0.629903 0.349744 0.374437
0.016010 0.393470 0.341131
0.090901 0.404410 0.347975
0.167915 0.415626 0.354941
0.247139 0.427108 0.362023
0.328645 0.438852 0.369218
0.412501 0.450852 0.376525
0.498766 0.463107 0.383940
0.587494 0.475612 0.391463
0.678736 0.488367 0.399092
0.033530 0.526563 0.364056
0.112264 0.539443 0.371284
0.193293 0.552601 0.378621
0.276682 0.566033 0.386067
0.362488 0.579734 0.393621
0.450764 0.593702 0.401280
0.541558 0.607934 0.409045
0.634917 0.622429 0.416914
0.730884 0.637186 0.424887
0.052746 0.669615 0.388203
0.135600 0.684522 0.395787
0.220882 0.699712 0.403476
0.308643 0.715183 0.411270
0.398931 0.730932 0.419169
0.491790 0.746956 0.427172
0.587262 0.763254 0.435278
0.685386 0.779825 0.443487
0.775489 0.788089 0.448880
0.073781 0.823120 0.413505
0.160974 0.840131 0.421433
0.250703 0.857431 0.429465
0.343011 0.875018 0.437600
0.436448 0.890493 0.445123
0.526078 0.898334 0.450372
0.615708 0.906175 0.455620
0.705339 0.914016 0.460869
0.794969 0.921857 0.466118
0.096734 0.987499 0.439931
0.187037 1.000000 0.446614
0.276667 1.000000 0.451863
0.366298 1.000000 0.457112
0.455928 1.000000 0.462361
0.545558 1.000000 0.467610
0.635188 1.000000 0.472859
0.724819 1.000000 0.478108
0.814449 1.000000 0.483357
0.000000 0.000000 0.335435
0.025503 0.000000 0.340115
0.094507 0.000000 0.344795
0.163510 0.000000 0.349475
0.232513 0.000000 0.354156
0.301516 0.000000 0.358836
0.370519 0.000000 0.363516
0.439522 0.000000 0.368196
0.511426 0.000000 0.373741
0.000000 0.048362 0.350806
0.040501 0.054781 0.355486
0.109504 0.061200 0.360166
0.178507 0.067619 0.364846
0.247510 0.074038 0.369526
0.319222 0.080968 0.375508
0.393140 0.088150 0.381933
0.469170 0.095524 0.388593
0.547377 0.103081 0.395439
0.000000 0.157872 0.366176
0.055600 0.164515 0.371133
0.125943 0.172175 0.377305
0.197995 0.180176 0.383805
0.271942 0.188437 0.390521
0.347916 0.196933 0.397415
0.426021 0.205654 0.404465
0.506344 0.214593 0.411659
0.588962 0.223746 0.418987
0.001532 0.272679 0.385694
0.073295 0.281859 0.392464
0.146956 0.291321 0.399403
0.222643 0.301045 0.406495
0.300459 0.311021 0.413728
0.380491 0.321242 0.421094
0.462814 0.331702 0.428587
0.547495 0.342398 0.436202
0.634592 0.353329 0.443938
0.017676 0.397002 0.408537
0.092933 0.408033 0.415808
0.170333 0.419337 0.423211
0.249960 0.430905 0.430739
0.331884 0.442732 0.438389
0.416170 0.454816 0.446158
0.502877 0.467152 0.454043
0.592058 0.479739 0.462043
0.683763 0.492575 0.470156
0.035358 0.530727 0.432901
0.114489 0.543698 0.440585
0.195930 0.556946 0.448387
0.279744 0.570466 0.456305
0.365987 0.584254 0.464337
0.454710 0.598308 0.472482
0.545962 0.612626 0.480739
0.639788 0.627207 0.489105
0.736230 0.642048 0.497581
0.054749 0.674438 0.458577
0.138024 0.689438 0.466641
0.223739 0.704720 0.474818
0.311944 0.720282 0.483105
0.402685 0.736120 0.491503
0.496007 0.752234 0.500010
0.591950 0.768621 0.508626
0.687790 0.782802 0.516374
0.777421 0.790642 0.521623
0.075971 0.828628 0.485481
0.163604 0.845733 0.493910
0.253783 0.863128 0.502448
0.346550 0.880808 0.511095
0.438379 0.893047 0.517866
0.528010 0.900888 0.523115
0.617640 0.908729 0.528363
0.707270 0.916570 0.533612
0.796901 0.924410 0.538861
0.099118 0.993714 0.513572
0.188969 1.000000 0.519357
0.278599 1.000000 0.524606
0.368229 1.000000 0.529855
0.457860 1.000000 0.535104
0.547490 1.000000 0.540353
0.637120 1.000000 0.545602
0.726751 1.000000 0.550851
0.816381 1.000000 0.556100
0.000000 0.000000 0.400295
0.026991 0.000000 0.404976
0.095994 0.000000 0.409656
0.164997 0.000000 0.414336
0.234000 0.000000 0.419016
0.303003 0.000000 0.423696
0.372006 0.000000 0.428376
0.441070 0.000000 0.433081
0.514598 0.000000 0.439337
0.000000 0.050453 0.415666
0.041988 0.056872 0.420346
0.110991 0.063291 0.425026
0.179994 0.069710 0.429707
0.249538 0.076252 0.434771
0.321828 0.083284 0.441216
0.396183 0.090531 0.448027
0.472646 0.097965 0.455080
0.551294 0.105582 0.462330
0.000000 0.159963 0.431037
0.057252 0.166960 0.436548
0.127906 0.174750 0.443123
0.200306 0.182839 0.450009
0.274626 0.191179 0.457122
0.350995 0.199749 0.464423
0.429511 0.208542 0.471891
0.510261 0.217551 0.479514
0.593318 0.226774 0.487280
0.003071 0.275636 0.452010
0.075158 0.284911 0.459179
0.149173 0.294460 0.466529
0.225238 0.304267 0.474042
0.303451 0.314324 0.481707
0.383897 0.324622 0.489513
0.466647 0.335160 0.497456
0.551767 0.345933 0.505529
0.639315 0.356940 0.513730
0.019357 0.400565 0.476206
0.094984 0.411685 0.483911
0.172773 0.423075 0.491757
0.252804 0.434729 0.499737
0.335148 0.446640 0.507847
0.419866 0.458806 0.516084
0.507017 0.471224 0.524444
0.596653 0.483892 0.532926
0.688821 0.496809 0.541526
0.037202 0.534921 0.502029
0.116733 0.547983 0.510176
0.198589 0.561320 0.518448
0.282830 0.574927 0.526843
0.369511 0.588802 0.535358
0.458683 0.602943 0.543992
0.550394 0.617346 0.552744
0.644688 0.632012 0.561612
0.741606 0.646938 0.570595
0.056770 0.679293 0.529251
0.140469 0.694385 0.537800
0.226618 0.709758 0.546468
0.315268 0.725410 0.555253
0.406464 0.741338 0.564154
0.500250 0.757541 0.573169
0.596666 0.774017 0.582298
0.689722 0.785355 0.589117
0.779352 0.793196 0.594366
0.078179 0.834167 0.557771
0.166254 0.851367 0.566704
0.256885 0.868855 0.575752
0.350114 0.886628 0.584914
0.440311 0.895601 0.590609
0.529942 0.903441 0.595858
0.619572 0.911282 0.601106
0.709202 0.919123 0.606355
0.798833 0.926964 0.611604
0.101270 0.998005 0.586851
0.190901 1.000000 0.592100
0.280531 1.000000 0.597349
0.370161 1.000000 0.602598
0.459791 1.000000 0.607847
0.549422 1.000000 0.613096
0.639052 1.000000 0.618345
0.728682 1.000000 0.623594
0.818313 1.000000 0.628843
0.000000 0.000000 0.465156
0.028478 0.000000 0.469836
0.097481 0.000000 0.474516
0.166484 0.000000 0.479197
0.235487 0.000000 0.483877
0.304490 0.000000 0.488557
0.373493 0.000000 0.493237
0.443612 0.000000 0.498428
0.517891 0.000000 0.505151
0.000000 0.052544 0.480527
0.043475 0.058963 0.485207
0.112478 0.065382 0.489887
0.181481 0.071801 0.494567
0.251758 0.078514 0.500280
0.324502 0.085623 0.507143
0.399282 0.092932 0.514352
0.476174 0.100426 0.521809
0.555260 0.108102 0.529472
0.000000 0.162053 0.495897
0.058934 0.169458 0.502184
0.129899 0.177355 0.509163
0.202648 0.185529 0.516448
0.277345 0.193945 0.523967
0.354109 0.202589 0.531684
0.433038 0.211452 0.539579
0.514215 0.220531 0.547638
0.597712 0.229823 0.555850
0.004623 0.278625 0.518563
0.077039 0.287992 0.526141
0.151413 0.297626 0.533911
0.227859 0.307516 0.541854
0.306472 0.317651 0.549957
0.387332 0.328028 0.558210
0.470511 0.338643 0.566609
0.556072 0.349492 0.575146
0.644073 0.360575 0.583817
0.021054 0.404157 0.544141
0.097054 0.415366 0.552287
0.175235 0.426842 0.560583
0.255674 0.438580 0.569021
0.338438 0.450574 0.577597
0.423591 0.462823 0.586306
0.511187 0.475322 0.595145
0.601278 0.488072 0.604113
0.693912 0.501069 0.613205
0.039064 0.539145 0.571445
0.118997 0.552297 0.580058
0.201270 0.565722 0.588805
0.285939 0.579417 0.597681
0.373061 0.593379 0.606684
0.462684 0.607605 0.615812
0.554855 0.622094 0.625063
0.649618 0.636844 0.634436
0.747014 0.651855 0.643930
0.058809 0.684177 0.600227
0.142933 0.699361 0.609266
0.229519 0.714825 0.618429
0.318616 0.730567 0.627715
0.410269 0.746585 0.637122
0.504520 0.762877 0.646650
0.601410 0.779442 0.656296
0.691654 0.787909 0.661860
0.781284 0.795750 0.667109
0.080406 0.839737 0.630376
0.168925 0.857031 0.639818
0.260010 0.874612 0.649379
0.352613 0.890313 0.658103
0.442243 0.898154 0.663352
0.531873 0.905995 0.668601
0.621504 0.913836 0.673849
0.711134 0.921677 0.679098
0.800764 0.929518 0.684347
0.103202 1.000000 0.659594
0.192832 1.000000 0.664843
0.282463 1.000000 0.670092
0.372093 1.000000 0.675341
0.461723 1.000000 0.680590
0.551354 1.000000 0.685839
0.640984 1.000000 0.691088
0.730614 1.000000 0.696337
0.820245 1.000000 0.701586
