assets/lighting/cinematic/grade-horror-undead/lut.cube
TITLE "Horror Undead"
# TKRS lighting-batch-001 original LUT
# Intended usage: cold dead flesh grade, crushed blacks
# License: CC0-1.0
LUT_3D_SIZE 17
DOMAIN_MIN 0.0 0.0 0.0
DOMAIN_MAX 1.0 1.0 1.0
0.000000 0.000000 0.000000
0.000000 0.000000 0.000000
0.000000 0.000000 0.000000
0.004230 0.000000 0.000000
0.034890 0.000000 0.000000
0.065551 0.000000 0.000000
0.096211 0.000000 0.000000
0.126872 0.000000 0.000000
0.157532 0.000000 0.000000
0.188193 0.000000 0.000000
0.218853 0.000000 0.000000
0.249514 0.000000 0.000000
0.280174 0.000000 0.000000
0.310834 0.000000 0.000000
0.341495 0.000000 0.000000
0.372155 0.000000 0.000000
0.402816 0.000000 0.000000
0.000000 0.000000 0.000000
0.000000 0.000000 0.000000
0.000000 0.000000 0.000000
0.019750 0.000000 0.000000
0.050411 0.000000 0.000000
0.081071 0.000000 0.000000
0.111732 0.000000 0.000000
0.142392 0.000000 0.000000
0.173053 0.000000 0.000000
0.203713 0.000000 0.000000
0.234373 0.000000 0.000000
0.265034 0.004162 0.000000
0.295694 0.008594 0.000000
0.326355 0.013027 0.000000
0.357015 0.017459 0.000000
0.387676 0.021892 0.000000
0.418336 0.026325 0.000490
0.000000 0.000000 0.000000
0.000000 0.000857 0.000000
0.004610 0.005290 0.000000
0.035271 0.009723 0.000000
0.065931 0.014155 0.000000
0.096592 0.018588 0.000000
0.127252 0.023020 0.000000
0.157913 0.027453 0.000000
0.188573 0.031886 0.000000
0.219233 0.036318 0.000000
0.249894 0.040751 0.000000
0.280554 0.045183 0.000000
0.311215 0.049616 0.000000
0.341875 0.054048 0.002520
0.372536 0.058481 0.007394
0.404148 0.063066 0.012283
0.436759 0.067808 0.017201
0.000000 0.037447 0.000000
0.000000 0.041879 0.000000
0.020131 0.046312 0.000000
0.050791 0.050744 0.000000
0.081452 0.055177 0.000000
0.112112 0.059609 0.000000
0.142772 0.064042 0.000000
0.173433 0.068475 0.000000
0.204093 0.072907 0.000000
0.234754 0.077340 0.000000
0.265414 0.081772 0.004549
0.296172 0.086234 0.009425
0.328066 0.091016 0.014327
0.360495 0.095915 0.019256
0.393388 0.100904 0.024214
0.426733 0.105975 0.029202
0.460532 0.111125 0.034221
0.000000 0.078468 0.000000
0.004991 0.082901 0.000000
0.035651 0.087333 0.000000
0.066312 0.091766 0.000000
0.096972 0.096199 0.000000
0.127632 0.100631 0.000000
0.158293 0.105064 0.001704
0.188953 0.109496 0.006578
0.219992 0.114130 0.011463
0.251755 0.119079 0.016376
0.283951 0.124145 0.021317
0.316566 0.129307 0.026287
0.349607 0.134558 0.031288
0.383080 0.139893 0.036320
0.416992 0.145312 0.041386
0.451353 0.150813 0.046486
0.486169 0.156395 0.051620
0.000000 0.119490 0.000000
0.020511 0.123923 0.000000
0.051171 0.128355 0.000000
0.081832 0.132788 0.003733
0.112492 0.137220 0.008608
0.143635 0.142142 0.013505
0.175180 0.147263 0.018430
0.207104 0.152503 0.023382
0.239419 0.157844 0.028365
0.272135 0.163280 0.033379
0.305267 0.168806 0.038425
0.338823 0.174420 0.043505
0.372816 0.180121 0.048619
0.407253 0.185907 0.053768
0.442143 0.191778 0.058954
0.477494 0.197734 0.064176
0.513315 0.203775 0.069435
0.005371 0.160512 0.005763
0.036072 0.165134 0.010643
0.067036 0.170273 0.015552
0.098316 0.175573 0.020488
0.129940 0.180993 0.025453
0.161932 0.186520 0.030449
0.194308 0.192145 0.035476
0.227084 0.197866 0.040536
0.260272 0.203679 0.045630
0.293885 0.209583 0.050759
0.327933 0.215576 0.055923
0.362425 0.221658 0.061123
0.397370 0.227828 0.066360
0.432776 0.234085 0.071635
0.468651 0.240431 0.076949
0.505002 0.246864 0.082300
0.541836 0.253385 0.087691
0.021142 0.204012 0.022552
0.052444 0.209619 0.027529
0.084095 0.215336 0.032538
0.116115 0.221156 0.037578
0.148523 0.227076 0.042653
0.181332 0.233092 0.047761
0.214556 0.239202 0.052904
0.248205 0.245405 0.058083
0.282290 0.251700 0.063299
0.316821 0.258087 0.068552
0.351806 0.264564 0.073843
0.387253 0.271132 0.079172
0.423169 0.277790 0.084540
0.459563 0.284539 0.089948
0.496439 0.291378 0.095395
0.533805 0.298307 0.100883
0.571668 0.305327 0.106412
0.037548 0.250315 0.039687
0.069576 0.256438 0.044775
0.101996 0.262660 0.049898
0.134820 0.268979 0.055056
0.168063 0.275396 0.060250
0.201733 0.281907 0.065481
0.235842 0.288512 0.070750
0.270399 0.295212 0.076057
0.305411 0.302005 0.081402
0.340887 0.308890 0.086787
0.376834 0.315869 0.092211
0.413259 0.322940 0.097675
0.450169 0.330104 0.103180
0.487569 0.337360 0.108726
0.525466 0.344710 0.114313
0.563866 0.352152 0.119943
0.602774 0.359687 0.125614
0.054673 0.298918 0.057214
0.087500 0.305549 0.062424
0.120749 0.312280 0.067670
0.154429 0.319107 0.072955
0.188550 0.326030 0.078277
0.223122 0.333050 0.083639
0.258151 0.340165 0.089040
0.293646 0.347376 0.094481
0.329614 0.354681 0.099962
0.366062 0.362081 0.105484
0.402996 0.369576 0.111047
0.440423 0.377166 0.116652
0.478347 0.384851 0.122299
0.516775 0.392630 0.127988
0.555712 0.400505 0.133720
0.595164 0.408474 0.139496
0.635135 0.416539 0.145314
0.072577 0.349871 0.075166
0.106257 0.357021 0.080505
0.140381 0.364270 0.085883
0.174958 0.371617 0.091300
0.209996 0.379061 0.096758
0.245502 0.386602 0.102256
0.281483 0.394241 0.107795
0.317946 0.401976 0.113375
0.354896 0.409808 0.118998
0.392341 0.417737 0.124662
0.430286 0.425763 0.130369
0.468735 0.433885 0.136119
0.507695 0.442104 0.141913
0.547171 0.450421 0.147750
0.587167 0.458834 0.153631
0.627688 0.467344 0.159556
0.668738 0.475951 0.165526
0.091304 0.403246 0.093567
0.125879 0.410926 0.099042
0.160918 0.418705 0.104557
0.196428 0.426583 0.110113
0.232414 0.434561 0.115711
0.268885 0.442637 0.121351
0.305846 0.450811 0.127033
0.343302 0.459085 0.132758
0.381260 0.467457 0.138526
0.419725 0.475927 0.144338
0.458701 0.484496 0.150193
0.498195 0.493164 0.156092
0.538210 0.501930 0.162036
0.578752 0.510795 0.168025
0.619824 0.519759 0.174059
0.661431 0.528822 0.180138
0.703578 0.537984 0.186262
0.110893 0.459110 0.112439
0.146399 0.467331 0.118054
0.182386 0.475653 0.123711
0.218858 0.484075 0.129411
0.255822 0.492597 0.135154
0.293284 0.501220 0.140940
0.331250 0.509943 0.146770
0.369724 0.518766 0.152644
0.408711 0.527690 0.158562
0.448217 0.536713 0.164524
0.488247 0.545837 0.170531
0.528803 0.555062 0.176584
0.569892 0.564387 0.182682
0.611518 0.573812 0.188826
0.653684 0.583338 0.195015
0.696394 0.592965 0.201251
0.739653 0.602693 0.207534
0.131375 0.517528 0.131797
0.167843 0.526301 0.137558
0.204806 0.535176 0.143362
0.242268 0.544153 0.149210
0.280236 0.553232 0.155102
0.318714 0.562413 0.161038
0.357707 0.571695 0.167020
0.397221 0.581079 0.173046
0.437259 0.590566 0.179117
0.477826 0.600154 0.185234
0.518927 0.609844 0.191397
0.560565 0.619636 0.197606
0.602745 0.629530 0.203861
0.645471 0.639526 0.210163
0.688507 0.649394 0.216470
0.727365 0.655041 0.222006
0.766223 0.660689 0.227543
0.152778 0.578558 0.151658
0.190235 0.587894 0.157568
0.228200 0.597333 0.163523
0.266678 0.606876 0.169523
0.305672 0.616521 0.175568
0.345188 0.626270 0.181658
0.385230 0.636123 0.187794
0.425803 0.646079 0.193976
0.466911 0.656138 0.200205
0.508558 0.666300 0.206479
0.550748 0.676566 0.212801
0.591603 0.684715 0.218775
0.630461 0.690362 0.224311
0.669319 0.696010 0.229848
0.708177 0.701657 0.235385
0.747035 0.707304 0.240922
0.785893 0.712951 0.246459
0.175126 0.642256 0.172034
0.213598 0.652164 0.178098
0.252589 0.662178 0.184207
0.292103 0.672295 0.190362
0.332145 0.682518 0.196564
0.372720 0.692845 0.202811
0.413831 0.703277 0.209105
0.455482 0.713814 0.215447
0.494700 0.720036 0.221080
0.533558 0.725683 0.226617
0.572415 0.731330 0.232153
0.611273 0.736978 0.237690
0.650131 0.742625 0.243227
0.688989 0.748272 0.248764
0.727847 0.753919 0.254301
0.766705 0.759567 0.259837
0.805563 0.765214 0.265374
0.198442 0.708672 0.192939
0.237951 0.719162 0.199159
0.277989 0.729759 0.205426
0.318561 0.740462 0.211740
0.358938 0.749710 0.217848
0.397796 0.755357 0.223385
0.436654 0.761004 0.228922
0.475512 0.766651 0.234459
0.514370 0.772299 0.239995
0.553228 0.777946 0.245532
0.592085 0.783593 0.251069
0.630943 0.789240 0.256606
0.669801 0.794887 0.262142
0.708659 0.800535 0.267679
0.747517 0.806182 0.273216
0.786375 0.811829 0.278753
0.825233 0.817476 0.284290
0.000000 0.000000 0.000000
0.000000 0.000000 0.000000
0.000000 0.000000 0.000000
0.005872 0.000000 0.000000
0.036532 0.000000 0.000000
0.067193 0.000000 0.000000
0.097853 0.000000 0.000000
0.128514 0.000000 0.000000
0.159174 0.000000 0.000000
0.189835 0.000000 0.000000
0.220495 0.000000 0.000000
0.251156 0.000000 0.000000
0.281816 0.000000 0.000000
0.312477 0.000000 0.000802
0.343137 0.000000 0.005676
0.373797 0.000000 0.010551
0.404458 0.000000 0.015425
0.000000 0.000000 0.000000
0.000000 0.000000 0.000000
0.000000 0.000000 0.000000
0.021392 0.000000 0.000000
0.052053 0.000000 0.000000
0.082713 0.000000 0.000000
0.113374 0.000000 0.000000
0.144034 0.000000 0.000000
0.174695 0.000000 0.000000
0.205355 0.000000 0.000000
0.236016 0.001331 0.002831
0.266676 0.005764 0.007706
0.297336 0.010196 0.012580
0.327997 0.014629 0.017454
0.358657 0.019062 0.022328
0.389318 0.023494 0.027203
0.419978 0.027927 0.032077
0.000000 0.000000 0.000000
0.000000 0.002460 0.000000
0.006252 0.006892 0.000000
0.036913 0.011325 0.000000
0.067573 0.015757 0.000000
0.098234 0.020190 0.000000
0.128894 0.024623 0.000000
0.159555 0.029055 0.004861
0.190215 0.033488 0.009735
0.220876 0.037920 0.014609
0.251536 0.042353 0.019483
0.282196 0.046785 0.024358
0.312857 0.051218 0.029232
0.343517 0.055651 0.034106
0.374245 0.060094 0.038984
0.406392 0.064770 0.043940
0.439160 0.069542 0.048937
0.000000 0.039049 0.000000
0.000000 0.043481 0.000000
0.021773 0.047914 0.000000
0.052433 0.052346 0.002016
0.083094 0.056779 0.006890
0.113754 0.061212 0.011764
0.144415 0.065644 0.016638
0.175075 0.070077 0.021513
0.205735 0.074509 0.026387
0.236396 0.078942 0.031261
0.267056 0.083375 0.036136
0.298169 0.087944 0.041042
0.330239 0.092776 0.046016
0.362793 0.097709 0.051028
0.395801 0.102728 0.056076
0.429257 0.107827 0.061158
0.463166 0.113006 0.066276
0.000000 0.080070 0.004045
0.006633 0.084503 0.008919
0.037293 0.088936 0.013793
0.067954 0.093368 0.018668
0.098614 0.097801 0.023542
0.129275 0.102233 0.028416
0.159935 0.106666 0.033291
0.190595 0.111099 0.038165
0.221950 0.115903 0.043108
0.253832 0.120899 0.048099
0.286132 0.126000 0.053125
0.318850 0.131195 0.058187
0.351993 0.136477 0.063285
0.385569 0.141843 0.068418
0.419585 0.147291 0.073588
0.454051 0.152821 0.078794
0.488973 0.158433 0.084039
0.000000 0.121092 0.020697
0.022153 0.125525 0.025571
0.052814 0.129957 0.030446
0.083474 0.134390 0.035320
0.114241 0.138955 0.040213
0.145507 0.143977 0.045181
0.177144 0.149145 0.050187
0.209159 0.154422 0.055228
0.241566 0.159799 0.060305
0.274377 0.165267 0.065417
0.307605 0.170825 0.070566
0.341260 0.176471 0.075751
0.375352 0.182202 0.080973
0.409891 0.188019 0.086233
0.444885 0.193921 0.091532
0.480342 0.199908 0.096869
0.516269 0.205979 0.102246
0.007013 0.162114 0.037349
0.037766 0.166967 0.042276
0.068800 0.172173 0.047261
0.100155 0.177519 0.052282
0.131860 0.182979 0.057338
0.163936 0.188542 0.062429
0.196400 0.194202 0.067556
0.229266 0.199957 0.072720
0.262549 0.205803 0.077920
0.296257 0.211739 0.083158
0.330403 0.217764 0.088434
0.364995 0.223878 0.093749
0.400042 0.230079 0.099103
0.435552 0.236369 0.104496
0.471532 0.242746 0.109929
0.507989 0.249211 0.115403
0.544931 0.255764 0.120917
0.022846 0.206025 0.054382
0.054220 0.211673 0.059453
0.085949 0.217428 0.064559
0.118052 0.223285 0.069702
0.150545 0.229239 0.074881
0.183444 0.235290 0.080097
0.216759 0.241433 0.085350
0.250503 0.247670 0.090642
0.284685 0.253998 0.095973
0.319314 0.260417 0.101343
0.354400 0.266928 0.106753
0.389949 0.273528 0.112203
0.425970 0.280219 0.117694
0.462468 0.287001 0.123225
0.499452 0.293872 0.128799
0.536927 0.300834 0.134414
0.574899 0.307887 0.140071
0.039325 0.252517 0.071853
0.071434 0.258675 0.077048
0.103939 0.264933 0.082279
0.136852 0.271288 0.087549
0.170185 0.277738 0.092857
0.203949 0.284284 0.098204
0.238154 0.290923 0.103591
0.272809 0.297656 0.109017
0.307921 0.304483 0.114484
0.343498 0.311402 0.119992
0.379548 0.318414 0.125541
0.416078 0.325519 0.131131
0.453094 0.332716 0.136764
0.490603 0.340006 0.142439
0.528609 0.347389 0.148157
0.567119 0.354865 0.153918
0.606139 0.362433 0.159723
0.056530 0.301303 0.089754
0.089445 0.307971 0.095078
0.122784 0.314736 0.100442
0.156557 0.321598 0.105845
0.190774 0.328557 0.111288
0.225442 0.335611 0.116772
0.260571 0.342760 0.122297
0.296167 0.350005 0.127863
0.332238 0.357345 0.133471
0.368790 0.364779 0.139122
0.405830 0.372309 0.144815
0.443364 0.379933 0.150550
0.481397 0.387652 0.156330
0.519935 0.395466 0.162153
0.558983 0.403375 0.168019
0.598547 0.411378 0.173930
0.638631 0.419477 0.179886
0.074518 0.352444 0.108106
0.108291 0.359630 0.113566
0.142510 0.366914 0.119067
0.177185 0.374296 0.124609
0.212321 0.381775 0.130193
0.247928 0.389352 0.135819
0.284012 0.397026 0.141487
0.320578 0.404796 0.147197
0.357634 0.412663 0.152951
0.395186 0.420627 0.158749
0.433239 0.428688 0.164590
0.471798 0.436845 0.170475
0.510869 0.445099 0.176404
0.550456 0.453450 0.182379
0.590565 0.461898 0.188398
0.631200 0.470444 0.194463
0.672366 0.479086 0.200573
0.093335 0.406010 0.126929
0.128007 0.413726 0.132530
0.163145 0.421541 0.138173
0.198755 0.429455 0.143859
0.234844 0.437468 0.149588
0.271418 0.445580 0.155360
0.308484 0.453790 0.161175
0.346047 0.462099 0.167034
0.384113 0.470507 0.172938
0.422687 0.479013 0.178886
0.461774 0.487618 0.184879
0.501379 0.496321 0.190918
0.541507 0.505123 0.197001
0.582162 0.514024 0.203131
0.623350 0.523023 0.209306
0.665073 0.532122 0.215528
0.707337 0.541320 0.221796
0.113017 0.462070 0.146239
0.148624 0.470327 0.151985
0.184712 0.478685 0.157775
0.221288 0.487144 0.163609
0.258357 0.495702 0.169487
0.295926 0.504361 0.175409
0.333999 0.513121 0.181376
0.372582 0.521980 0.187388
0.411680 0.530940 0.193445
0.451297 0.540000 0.199547
0.491439 0.549160 0.205696
0.532109 0.558421 0.211891
0.573313 0.567782 0.218131
0.615054 0.577244 0.224419
0.657336 0.586806 0.230754
0.700164 0.596470 0.237135
0.743542 0.606234 0.243564
0.133595 0.520687 0.166051
0.170167 0.529497 0.171947
0.207235 0.538409 0.177888
0.244803 0.547423 0.183873
0.282879 0.556539 0.189904
0.321465 0.565756 0.195980
0.360569 0.575075 0.202102
0.400193 0.584496 0.208269
0.440344 0.594019 0.214483
0.481024 0.603644 0.220743
0.522239 0.613371 0.227051
0.563993 0.623200 0.233405
0.606290 0.633131 0.239806
0.649133 0.643164 0.246255
0.690588 0.651435 0.252349
0.729446 0.657083 0.257886
0.768304 0.662730 0.263423
0.155097 0.581921 0.186379
0.192661 0.591294 0.192428
0.230733 0.600770 0.198523
0.269319 0.610350 0.204664
0.308424 0.620033 0.210851
0.348051 0.629820 0.217084
0.388205 0.639709 0.223364
0.428891 0.649703 0.229690
0.470113 0.659799 0.236064
0.511876 0.669999 0.242485
0.554182 0.680303 0.248954
0.593684 0.686756 0.254655
0.632542 0.692404 0.260191
0.671400 0.698051 0.265728
0.710258 0.703698 0.271265
0.749116 0.709345 0.276802
0.787974 0.714992 0.282339
0.177547 0.645825 0.207234
0.216127 0.655772 0.213440
0.255228 0.665823 0.219693
0.294853 0.675978 0.225992
0.335008 0.686239 0.232338
0.375695 0.696604 0.238731
0.416920 0.707074 0.245172
0.457923 0.716430 0.251423
0.496781 0.722077 0.256960
0.535639 0.727724 0.262496
0.574497 0.733372 0.268033
0.613354 0.739019 0.273570
0.652212 0.744666 0.279107
0.691070 0.750313 0.284644
0.729928 0.755961 0.290180
0.768786 0.761608 0.295717
0.807644 0.767255 0.301254
0.200967 0.712452 0.228628
0.240586 0.722980 0.234994
0.280736 0.733615 0.241407
0.321421 0.744356 0.247868
0.361019 0.751751 0.253728
0.399877 0.757398 0.259265
0.438735 0.763045 0.264802
0.477593 0.768693 0.270338
0.516451 0.774340 0.275875
0.555309 0.779987 0.281412
0.594167 0.785634 0.286949
0.633024 0.791281 0.292486
0.671882 0.796929 0.298022
0.710740 0.802576 0.303559
0.749598 0.808223 0.309096
0.788456 0.813870 0.314633
0.827314 0.819518 0.320170
0.000000 0.000000 0.000000
0.000000 0.000000 0.000000
0.000000 0.000000 0.000000
0.007514 0.000000 0.000000
0.038175 0.000000 0.000000
0.068835 0.000000 0.000000
0.099495 0.000000 0.000000
0.130156 0.000000 0.003143
0.160816 0.000000 0.008017
0.191477 0.000000 0.012891
0.222137 0.000000 0.017766
0.252798 0.000000 0.022640
0.283458 0.000000 0.027514
0.314119 0.000000 0.032389
0.344779 0.000000 0.037263
0.375440 0.000000 0.042137
0.406100 0.000000 0.047011
0.000000 0.000000 0.000000
0.000000 0.000000 0.000000
0.000000 0.000000 0.000000
0.023034 0.000000 0.000298
0.053695 0.000000 0.005172
0.084355 0.000000 0.010047
0.115016 0.000000 0.014921
0.145676 0.000000 0.019795
0.176337 0.000000 0.024669
0.206997 0.000000 0.029544
0.237658 0.002933 0.034418
0.268318 0.007366 0.039292
0.298979 0.011799 0.044166
0.329639 0.016231 0.049041
0.360299 0.020664 0.053915
0.390960 0.025096 0.058789
0.421620 0.029529 0.063663
0.000000 0.000000 0.002327
0.000000 0.004062 0.007202
0.007894 0.008494 0.012076
0.038555 0.012927 0.016950
0.069215 0.017360 0.021824
0.099876 0.021792 0.026699
0.130536 0.026225 0.031573
0.161197 0.030657 0.036447
0.191857 0.035090 0.041321
0.222518 0.039522 0.046196
0.253178 0.043955 0.051070
0.283839 0.048388 0.055944
0.314499 0.052820 0.060819
0.345159 0.057253 0.065693
0.376317 0.061769 0.070614
0.408684 0.066485 0.075649
0.441593 0.071287 0.080731
0.000000 0.040651 0.018979
0.000000 0.045083 0.023854
0.023415 0.049516 0.028728
0.054075 0.053949 0.033602
0.084736 0.058381 0.038476
0.115396 0.062814 0.043351
0.146057 0.067246 0.048225
0.176717 0.071679 0.053099
0.207378 0.076112 0.057974
0.238038 0.080544 0.062848
0.268698 0.084977 0.067722
0.300232 0.089677 0.072704
0.332443 0.094548 0.077760
0.365115 0.099513 0.082860
0.398235 0.104562 0.088000
0.431802 0.109690 0.093181
0.465820 0.114896 0.098401
0.000000 0.081673 0.035631
0.008275 0.086105 0.040506
0.038935 0.090538 0.045380
0.069596 0.094970 0.050254
0.100256 0.099403 0.055129
0.130917 0.103836 0.060003
0.161577 0.108268 0.064877
0.192382 0.112788 0.069778
0.223940 0.117695 0.074803
0.255930 0.122731 0.079878
0.288333 0.127868 0.084995
0.321152 0.133094 0.090152
0.354397 0.138407 0.095349
0.388074 0.143802 0.100586
0.422194 0.149281 0.105861
0.456765 0.154840 0.111177
0.491794 0.160482 0.116533
0.000000 0.122694 0.052284
0.023795 0.127127 0.057158
0.054456 0.131560 0.062032
0.085116 0.135992 0.066906
0.116037 0.140749 0.071863
0.147397 0.145831 0.076911
0.179124 0.151040 0.082003
0.211229 0.156355 0.087137
0.243728 0.161765 0.092311
0.276634 0.167266 0.097524
0.309958 0.172856 0.102777
0.343711 0.178533 0.108070
0.377904 0.184295 0.113402
0.412545 0.190143 0.118775
0.447642 0.196075 0.124188
0.483204 0.202092 0.129642
0.519238 0.208194 0.135138
0.008657 0.163758 0.068944
0.039471 0.168830 0.073958
0.070573 0.174091 0.079026
0.102004 0.179480 0.084136
0.133790 0.184978 0.089287
0.165951 0.190577 0.094477
0.198504 0.196272 0.099707
0.231462 0.202059 0.104976
0.264838 0.207938 0.110285
0.298643 0.213907 0.115634
0.332887 0.219964 0.121023
0.367579 0.226109 0.126454
0.402728 0.232343 0.131925
0.438341 0.238664 0.137438
0.474426 0.245073 0.142992
0.510991 0.251570 0.148589
0.548041 0.258154 0.154228
0.024558 0.208054 0.086275
0.056005 0.213741 0.091443
0.087813 0.219533 0.096649
0.119998 0.225426 0.101895
0.152579 0.231415 0.107181
0.185567 0.237499 0.112507
0.218974 0.243677 0.117873
0.252813 0.249947 0.123279
0.287092 0.256308 0.128726
0.321820 0.262760 0.134215
0.357007 0.269303 0.139745
0.392658 0.275936 0.145317
0.428783 0.282660 0.150932
0.465388 0.289474 0.156589
0.502479 0.296378 0.162289
0.540062 0.303373 0.168032
0.578144 0.310458 0.173819
0.041110 0.254731 0.104091
0.073301 0.260926 0.109394
0.105892 0.267219 0.114736
0.138894 0.273608 0.120119
0.172319 0.280093 0.125542
0.206177 0.286673 0.131006
0.240478 0.293346 0.136512
0.275230 0.300113 0.142060
0.310442 0.306973 0.147649
0.346122 0.313926 0.153282
0.382276 0.320971 0.158956
0.418911 0.328110 0.164675
0.456033 0.335340 0.170436
0.493650 0.342664 0.176241
0.531765 0.350080 0.182091
0.570386 0.357590 0.187984
0.609517 0.365192 0.193923
0.058395 0.303702 0.122372
0.091399 0.310405 0.127812
0.124829 0.317205 0.133294
0.158696 0.324102 0.138817
0.193008 0.331095 0.144382
0.227774 0.338184 0.149989
0.263003 0.345368 0.155639
0.298700 0.352647 0.161332
0.334874 0.360021 0.167068
0.371531 0.367490 0.172848
0.408677 0.375054 0.178671
0.446318 0.382712 0.184539
0.484460 0.390465 0.190451
0.523108 0.398313 0.196408
0.562268 0.406257 0.202411
0.601944 0.414295 0.208458
0.642142 0.422428 0.214551
0.076469 0.355030 0.141129
0.110335 0.362252 0.146711
0.144650 0.369571 0.152336
0.179422 0.376988 0.158004
0.214658 0.384503 0.163715
0.250366 0.392114 0.169469
0.286552 0.399823 0.175267
0.323223 0.407628 0.181109
0.360385 0.415530 0.186995
0.398043 0.423529 0.192926
0.436204 0.431625 0.198902
0.474873 0.439817 0.204923
0.514055 0.448107 0.210989
0.553755 0.456493 0.217102
0.593977 0.464976 0.223260
0.634726 0.473556 0.229465
0.676007 0.482234 0.235716
0.095376 0.408788 0.160376
0.130146 0.416539 0.166105
0.165382 0.424390 0.171877
0.201093 0.432340 0.177694
0.237284 0.440389 0.183554
0.273963 0.448536 0.189459
0.311134 0.456782 0.195408
0.348804 0.465127 0.201403
0.386978 0.473570 0.207443
0.425661 0.482112 0.213529
0.464859 0.490752 0.219660
0.504576 0.499491 0.225838
0.544817 0.508329 0.232062
0.585586 0.517265 0.238333
0.626888 0.526301 0.244650
0.668728 0.535435 0.251015
0.711109 0.544669 0.257427
0.115152 0.465043 0.180128
0.150859 0.473337 0.186007
0.187050 0.481731 0.191930
0.223729 0.490226 0.197899
0.260904 0.498821 0.203912
0.298579 0.507516 0.209971
0.336760 0.516311 0.216076
0.375452 0.525207 0.222226
0.414661 0.534203 0.228423
0.454389 0.543299 0.234667
0.494644 0.552496 0.240957
0.535428 0.561793 0.247294
0.576746 0.571190 0.253679
0.618603 0.580689 0.260111
0.661003 0.590287 0.266591
0.703948 0.599987 0.273119
0.747444 0.609788 0.279694
0.135826 0.523860 0.200397
0.172502 0.532707 0.206429
0.209674 0.541655 0.212507
0.247350 0.550706 0.218631
0.285533 0.559858 0.224801
0.324229 0.569113 0.231017
0.363442 0.578469 0.237280
0.403178 0.587927 0.243590
0.443441 0.597487 0.249947
0.484235 0.607148 0.256351
0.525565 0.616912 0.262803
0.567434 0.626778 0.269303
0.609848 0.636746 0.275850
0.652808 0.646816 0.282446
0.692669 0.653477 0.288229
0.731527 0.659124 0.293766
0.770385 0.664771 0.299303
0.157427 0.585297 0.221194
0.195097 0.594707 0.227383
0.233278 0.604221 0.233619
0.271972 0.613838 0.239901
0.311187 0.623559 0.246231
0.350925 0.633383 0.252607
0.391192 0.643310 0.259031
0.431992 0.653340 0.265503
0.473328 0.663474 0.272023
0.515206 0.673711 0.278591
0.556908 0.683150 0.284998
0.595766 0.688798 0.290534
0.634623 0.694445 0.296071
0.673481 0.700092 0.301608
0.712339 0.705739 0.307145
0.751197 0.711386 0.312682
0.790055 0.717034 0.318218
0.179978 0.649408 0.242531
0.218668 0.659393 0.248880
0.257878 0.669481 0.255276
0.297615 0.679675 0.261720
0.337882 0.689973 0.268212
0.378683 0.700376 0.274751
0.420022 0.710884 0.281339
0.460004 0.718471 0.287303
0.498862 0.724118 0.292840
0.537720 0.729766 0.298376
0.576578 0.735413 0.303913
0.615436 0.741060 0.309450
0.654293 0.746707 0.314987
0.693151 0.752355 0.320523
0.732009 0.758002 0.326060
0.770867 0.763649 0.331597
0.809725 0.769296 0.337134
0.203502 0.716245 0.264417
0.243233 0.726812 0.270928
0.283495 0.737485 0.277488
0.324243 0.748145 0.284071
0.363100 0.753792 0.289608
0.401958 0.759439 0.295145
0.440816 0.765087 0.300681
0.479674 0.770734 0.306218
0.518532 0.776381 0.311755
0.557390 0.782028 0.317292
0.596248 0.787675 0.322829
0.635106 0.793323 0.328365
0.673963 0.798970 0.333902
0.712821 0.804617 0.339439
0.751679 0.810264 0.344976
0.790537 0.815912 0.350513
0.829395 0.821559 0.356049
0.000000 0.000000 0.000610
0.000000 0.000000 0.005484
0.000000 0.000000 0.010358
0.009156 0.000000 0.015232
0.039817 0.000000 0.020107
0.070477 0.000000 0.024981
0.101138 0.000000 0.029855
0.131798 0.000000 0.034729
0.162458 0.000000 0.039604
0.193119 0.000000 0.044478
0.223779 0.000000 0.049352
0.254440 0.000000 0.054227
0.285100 0.000000 0.059101
0.315761 0.000000 0.063975
