assets/lighting/cinematic/grade-horror-undead/lut.cube
TITLE "Horror Undead"
# TKRS lighting-batch-001 original LUT
# Intended usage: cold dead flesh grade, crushed blacks
# License: CC0-1.0
LUT_3D_SIZE 5
DOMAIN_MIN 0.0 0.0 0.0
DOMAIN_MAX 1.0 1.0 1.0
0.000000 0.000000 0.000000
0.034890 0.000000 0.000000
0.157532 0.000000 0.000000
0.280174 0.000000 0.000000
0.402816 0.000000 0.000000
0.000000 0.078468 0.000000
0.096972 0.096199 0.000000
0.219992 0.114130 0.011463
0.349607 0.134558 0.031288
0.486169 0.156395 0.051620
0.037548 0.250315 0.039687
0.168063 0.275396 0.060250
0.305411 0.302005 0.081402
0.450169 0.330104 0.103180
0.602774 0.359687 0.125614
0.110893 0.459110 0.112439
0.255822 0.492597 0.135154
0.408711 0.527690 0.158562
0.569892 0.564387 0.182682
0.739653 0.602693 0.207534
0.198442 0.708672 0.192939
0.358938 0.749710 0.217848
0.514370 0.772299 0.239995
0.669801 0.794887 0.262142
0.825233 0.817476 0.284290
0.000000 0.000000 0.032196
0.041459 0.000000 0.051693
0.164101 0.000000 0.071190
0.286742 0.000000 0.090687
0.409384 0.000000 0.110184
0.000000 0.084877 0.098805
0.103540 0.102607 0.118302
0.227993 0.121325 0.138360
0.359254 0.142299 0.159687
0.497483 0.164610 0.181753
0.044704 0.259199 0.168786
0.176617 0.284840 0.191151
0.315522 0.311990 0.214234
0.461951 0.340625 0.238045
0.616317 0.370745 0.262597
0.119450 0.471028 0.248176
0.266031 0.505096 0.273041
0.420659 0.540769 0.298668
0.583653 0.578047 0.325068
0.754877 0.616591 0.352147
0.208606 0.723874 0.336291
0.367263 0.757875 0.361368
0.522694 0.780463 0.383515
0.678126 0.803052 0.405662
0.833557 0.825641 0.427809
0.000000 0.000000 0.158542
0.048027 0.000000 0.178039
0.170669 0.000000 0.197536
0.293311 0.000000 0.217034
0.415953 0.000000 0.236531
0.000000 0.091286 0.225151
0.110109 0.109016 0.244648
0.236329 0.128743 0.266209
0.369160 0.150213 0.289228
0.509054 0.172995 0.313139
0.051994 0.268290 0.299079
0.185342 0.294481 0.323342
0.325827 0.322169 0.348430
0.473943 0.351341 0.374336
0.630084 0.381999 0.401059
0.128170 0.483157 0.385362
0.276420 0.517805 0.412426
0.432803 0.554057 0.440315
0.597623 0.591917 0.469035
0.763202 0.624756 0.495666
0.218949 0.739297 0.481239
0.375587 0.766039 0.504887
0.531019 0.788628 0.527034
0.686450 0.811217 0.549181
0.841882 0.833806 0.571328
0.000000 0.000000 0.284888
0.054595 0.000000 0.304385
0.177237 0.000000 0.323883
0.299879 0.000000 0.343380
0.422521 0.004529 0.362877
0.000000 0.097694 0.351497
0.117032 0.115785 0.371567
0.244920 0.136349 0.395137
0.379309 0.158298 0.419978
0.520873 0.181550 0.445827
0.059422 0.277582 0.430623
0.194238 0.304318 0.456866
0.336325 0.332542 0.484026
0.486145 0.362250 0.512082
0.644073 0.393448 0.541023
0.137054 0.495496 0.524023
0.286993 0.530724 0.553332
0.445145 0.567556 0.583524
0.611804 0.605998 0.614601
0.771526 0.632921 0.639186
0.228480 0.751615 0.626259
0.383912 0.774204 0.648406
0.539343 0.796793 0.670554
0.694775 0.819382 0.692701
0.850206 0.841971 0.714848
0.000000 0.000000 0.411235
0.061164 0.000000 0.430732
0.183806 0.000000 0.450229
0.306447 0.000000 0.469726
0.430020 0.010962 0.489762
0.000604 0.104103 0.477843
0.124435 0.123039 0.499781
0.253738 0.144131 0.525226
0.389692 0.166552 0.551992
0.532934 0.190277 0.579858
0.066992 0.287073 0.563466
0.203306 0.314348 0.591762
0.347016 0.343109 0.621053
0.498556 0.373355 0.651309
0.658284 0.405094 0.682514
0.146104 0.508044 0.664186
0.297749 0.543851 0.695783
0.457685 0.581265 0.728317
0.624419 0.618497 0.760558
0.779851 0.641085 0.782705
0.236805 0.759780 0.769779
0.392236 0.782369 0.791926
0.547668 0.804958 0.814073
0.703099 0.827547 0.836220
0.858531 0.850136 0.858367
