assets/lighting/cinematic/grade-horror-undead/lut.cube
TITLE "Horror Undead"
# TKRS lighting-batch-001 original LUT
# Intended usage: cold dead flesh grade, crushed blacks
# License: CC0-1.0
LUT_3D_SIZE 9
DOMAIN_MIN 0.0 0.0 0.0
DOMAIN_MAX 1.0 1.0 1.0
0.000000 0.000000 0.000000
0.000000 0.000000 0.000000
0.034890 0.000000 0.000000
0.096211 0.000000 0.000000
0.157532 0.000000 0.000000
0.218853 0.000000 0.000000
0.280174 0.000000 0.000000
0.341495 0.000000 0.000000
0.402816 0.000000 0.000000
0.000000 0.000000 0.000000
0.004610 0.005290 0.000000
0.065931 0.014155 0.000000
0.127252 0.023020 0.000000
0.188573 0.031886 0.000000
0.249894 0.040751 0.000000
0.311215 0.049616 0.000000
0.372536 0.058481 0.007394
0.436759 0.067808 0.017201
0.000000 0.078468 0.000000
0.035651 0.087333 0.000000
0.096972 0.096199 0.000000
0.158293 0.105064 0.001704
0.219992 0.114130 0.011463
0.283951 0.124145 0.021317
0.349607 0.134558 0.031288
0.416992 0.145312 0.041386
0.486169 0.156395 0.051620
0.005371 0.160512 0.005763
0.067036 0.170273 0.015552
0.129940 0.180993 0.025453
0.194308 0.192145 0.035476
0.260272 0.203679 0.045630
0.327933 0.215576 0.055923
0.397370 0.227828 0.066360
0.468651 0.240431 0.076949
0.541836 0.253385 0.087691
0.037548 0.250315 0.039687
0.101996 0.262660 0.049898
0.168063 0.275396 0.060250
0.235842 0.288512 0.070750
0.305411 0.302005 0.081402
0.376834 0.315869 0.092211
0.450169 0.330104 0.103180
0.525466 0.344710 0.114313
0.602774 0.359687 0.125614
0.072577 0.349871 0.075166
0.140381 0.364270 0.085883
0.209996 0.379061 0.096758
0.281483 0.394241 0.107795
0.354896 0.409808 0.118998
0.430286 0.425763 0.130369
0.507695 0.442104 0.141913
0.587167 0.458834 0.153631
0.668738 0.475951 0.165526
0.110893 0.459110 0.112439
0.182386 0.475653 0.123711
0.255822 0.492597 0.135154
0.331250 0.509943 0.146770
0.408711 0.527690 0.158562
0.488247 0.545837 0.170531
0.569892 0.564387 0.182682
0.653684 0.583338 0.195015
0.739653 0.602693 0.207534
0.152778 0.578558 0.151658
0.228200 0.597333 0.163523
0.305672 0.616521 0.175568
0.385230 0.636123 0.187794
0.466911 0.656138 0.200205
0.550748 0.676566 0.212801
0.630461 0.690362 0.224311
0.708177 0.701657 0.235385
0.785893 0.712951 0.246459
0.198442 0.708672 0.192939
0.277989 0.729759 0.205426
0.358938 0.749710 0.217848
0.436654 0.761004 0.228922
0.514370 0.772299 0.239995
0.592085 0.783593 0.251069
0.669801 0.794887 0.262142
0.747517 0.806182 0.273216
0.825233 0.817476 0.284290
0.000000 0.000000 0.000000
0.000000 0.000000 0.000000
0.038175 0.000000 0.000000
0.099495 0.000000 0.000000
0.160816 0.000000 0.008017
0.222137 0.000000 0.017766
0.283458 0.000000 0.027514
0.344779 0.000000 0.037263
0.406100 0.000000 0.047011
0.000000 0.000000 0.002327
0.007894 0.008494 0.012076
0.069215 0.017360 0.021824
0.130536 0.026225 0.031573
0.191857 0.035090 0.041321
0.253178 0.043955 0.051070
0.314499 0.052820 0.060819
0.376317 0.061769 0.070614
0.441593 0.071287 0.080731
0.000000 0.081673 0.035631
0.038935 0.090538 0.045380
0.100256 0.099403 0.055129
0.161577 0.108268 0.064877
0.223940 0.117695 0.074803
0.288333 0.127868 0.084995
0.354397 0.138407 0.095349
0.422194 0.149281 0.105861
0.491794 0.160482 0.116533
0.008657 0.163758 0.068944
0.070573 0.174091 0.079026
0.133790 0.184978 0.089287
0.198504 0.196272 0.099707
0.264838 0.207938 0.110285
0.332887 0.219964 0.121023
0.402728 0.232343 0.131925
0.474426 0.245073 0.142992
0.548041 0.258154 0.154228
0.041110 0.254731 0.104091
0.105892 0.267219 0.114736
0.172319 0.280093 0.125542
0.240478 0.293346 0.136512
0.310442 0.306973 0.147649
0.382276 0.320971 0.158956
0.456033 0.335340 0.170436
0.531765 0.350080 0.182091
0.609517 0.365192 0.193923
0.076469 0.355030 0.141129
0.144650 0.369571 0.152336
0.214658 0.384503 0.163715
0.286552 0.399823 0.175267
0.360385 0.415530 0.186995
0.436204 0.431625 0.198902
0.514055 0.448107 0.210989
0.593977 0.464976 0.223260
0.676007 0.482234 0.235716
0.115152 0.465043 0.180128
0.187050 0.481731 0.191930
0.260904 0.498821 0.203912
0.336760 0.516311 0.216076
0.414661 0.534203 0.228423
0.494644 0.552496 0.240957
0.576746 0.571190 0.253679
0.661003 0.590287 0.266591
0.747444 0.609788 0.279694
0.157427 0.585297 0.221194
0.233278 0.604221 0.233619
0.311187 0.623559 0.246231
0.391192 0.643310 0.259031
0.473328 0.663474 0.272023
0.556908 0.683150 0.284998
0.634623 0.694445 0.296071
0.712339 0.705739 0.307145
0.790055 0.717034 0.318218
0.203502 0.716245 0.264417
0.283495 0.737485 0.277488
0.363100 0.753792 0.289608
0.440816 0.765087 0.300681
0.518532 0.776381 0.311755
0.596248 0.787675 0.322829
0.673963 0.798970 0.333902
0.751679 0.810264 0.344976
0.829395 0.821559 0.356049
0.000000 0.000000 0.032196
0.000000 0.000000 0.041945
0.041459 0.000000 0.051693
0.102780 0.000000 0.061442
0.164101 0.000000 0.071190
0.225421 0.000000 0.080939
0.286742 0.000000 0.090687
0.348063 0.000000 0.100436
0.409384 0.000000 0.110184
0.000000 0.002834 0.065500
0.011179 0.011699 0.075249
0.072500 0.020564 0.084997
0.133820 0.029429 0.094746
0.195141 0.038294 0.104495
0.256462 0.047159 0.114243
0.317783 0.056025 0.123992
0.380696 0.065169 0.134026
0.446545 0.074805 0.144502
0.000000 0.084877 0.098805
0.042219 0.093742 0.108553
0.103540 0.102607 0.118302
0.164862 0.111473 0.128050
0.227993 0.121325 0.138360
0.292788 0.131637 0.148926
0.359254 0.142299 0.159687
0.427462 0.153292 0.170630
0.497483 0.164610 0.181753
0.011973 0.167400 0.132297
0.074151 0.177975 0.142734
0.137685 0.189016 0.153384
0.202748 0.200447 0.164221
0.269454 0.212244 0.175239
0.337893 0.224398 0.186436
0.408140 0.236904 0.197813
0.480258 0.249761 0.209369
0.554304 0.262969 0.221107
0.044704 0.259199 0.168786
0.109827 0.271828 0.179879
0.176617 0.284840 0.191151
0.245159 0.298229 0.202602
0.315522 0.311990 0.214234
0.387768 0.326122 0.226047
0.461951 0.340625 0.238045
0.538119 0.355500 0.250228
0.616317 0.370745 0.262597
0.080399 0.360241 0.207423
0.148960 0.374923 0.219130
0.219364 0.389996 0.231020
0.291667 0.405456 0.243094
0.365921 0.421303 0.255355
0.442174 0.437538 0.267803
0.520467 0.454159 0.280441
0.600841 0.471169 0.293270
0.683332 0.488568 0.306292
0.119450 0.471028 0.248176
0.191756 0.487862 0.260514
0.266031 0.505096 0.273041
0.342318 0.522732 0.285758
0.420659 0.540769 0.298668
0.501092 0.559207 0.311770
0.583653 0.578047 0.325068
0.668375 0.597289 0.338563
0.754877 0.616591 0.352147
0.162119 0.592089 0.291110
0.238399 0.611163 0.304099
0.316748 0.630650 0.317283
0.397202 0.650550 0.330663
0.479795 0.670864 0.344240
0.561070 0.687233 0.356757
0.638786 0.698527 0.367831
0.716501 0.709822 0.378904
0.794217 0.721116 0.389978
0.208606 0.723874 0.336291
0.289048 0.745267 0.349951
0.367263 0.757875 0.361368
0.444978 0.769169 0.372441
0.522694 0.780463 0.383515
0.600410 0.791758 0.394588
0.678126 0.803052 0.405662
0.755841 0.814347 0.416735
0.833557 0.825641 0.427809
0.000000 0.000000 0.095369
0.000000 0.000000 0.105118
0.044743 0.000000 0.114866
0.106064 0.000000 0.124615
0.167385 0.000000 0.134363
0.228706 0.000000 0.144112
0.290027 0.000000 0.153860
0.351347 0.000000 0.163609
0.412668 0.000000 0.173358
0.000000 0.006038 0.128673
0.014463 0.014903 0.138422
0.075784 0.023768 0.148170
0.137105 0.032633 0.157919
0.198426 0.041499 0.167668
0.259746 0.050364 0.177416
0.321067 0.059229 0.187165
0.385249 0.068616 0.197662
0.451598 0.078362 0.208530
0.000000 0.088081 0.161978
0.045504 0.096947 0.171726
0.106825 0.105812 0.181475
0.168543 0.114955 0.191453
0.232126 0.125010 0.202156
0.297312 0.135452 0.213124
0.364175 0.146235 0.224310
0.432794 0.157345 0.235700
0.503237 0.168781 0.247286
0.015314 0.171158 0.195870
0.077766 0.181918 0.206694
0.141624 0.193104 0.217756
0.207039 0.204669 0.229028
0.274120 0.216596 0.240500
0.342952 0.228877 0.252167
0.413607 0.241510 0.264029
0.486146 0.254494 0.276084
0.560624 0.267829 0.288331
0.048332 0.263719 0.233780
0.113800 0.276488 0.245334
0.180958 0.289636 0.257082
0.249886 0.303160 0.269024
0.320650 0.317055 0.281159
0.393311 0.331322 0.293488
0.467921 0.345959 0.306010
0.544527 0.360967 0.318728
0.623172 0.376348 0.331642
0.084367 0.365503 0.274053
0.153312 0.380326 0.286268
0.224114 0.395539 0.298677
0.296829 0.411139 0.311281
0.371507 0.427126 0.324080
0.448194 0.443501 0.337076
0.526931 0.460263 0.350270
0.607759 0.477413 0.363662
0.690712 0.494953 0.377256
0.123790 0.477067 0.316586
0.196506 0.494045 0.329467
0.271203 0.511425 0.342545
0.347923 0.529205 0.355821
0.426706 0.547387 0.369297
0.507591 0.565970 0.382974
0.590612 0.584956 0.396853
0.675802 0.604344 0.410936
0.759039 0.620673 0.423907
0.166853 0.598936 0.361407
0.243566 0.618159 0.374967
0.322356 0.637795 0.388728
0.403261 0.657845 0.402691
0.486313 0.678309 0.416859
0.565232 0.691315 0.428517
0.642948 0.702610 0.439591
0.720664 0.713904 0.450664
0.798379 0.725198 0.461738
0.213755 0.731557 0.408565
0.293709 0.750663 0.422054
0.371425 0.761957 0.433127
0.449141 0.773251 0.444201
0.526856 0.784546 0.455274
0.604572 0.795840 0.466348
0.682288 0.807135 0.477422
0.760004 0.818429 0.488495
0.837719 0.829724 0.499569
0.000000 0.000000 0.158542
0.000000 0.000000 0.168291
0.048027 0.000000 0.178039
0.109348 0.000000 0.187788
0.170669 0.000000 0.197536
0.231990 0.000000 0.207285
0.293311 0.000000 0.217034
0.354632 0.000000 0.226782
0.415953 0.000000 0.236531
0.000000 0.009242 0.191846
0.017747 0.018107 0.201595
0.079068 0.026973 0.211344
0.140389 0.035838 0.221092
0.201710 0.044703 0.230841
0.263031 0.053568 0.240589
0.324982 0.062558 0.250585
0.389927 0.072105 0.261545
0.456744 0.081956 0.272827
0.000000 0.091286 0.225151
0.048788 0.100151 0.234899
0.110109 0.109016 0.244648
0.172360 0.118537 0.255098
0.236329 0.128743 0.266209
0.301899 0.139311 0.277600
0.369160 0.150213 0.289228
0.438189 0.161441 0.301077
0.509054 0.172995 0.313139
0.018681 0.174992 0.259685
0.081420 0.185916 0.270921
0.145606 0.197242 0.282413
0.211378 0.208939 0.294135
0.278836 0.220994 0.306074
0.348064 0.233403 0.318223
0.419128 0.246163 0.330579
0.492090 0.259274 0.343140
0.567002 0.272736 0.355906
0.051994 0.268290 0.299079
0.117812 0.281197 0.311106
0.185342 0.294481 0.323342
0.254658 0.308140 0.335784
0.325827 0.322169 0.348430
0.398905 0.336570 0.361281
0.473943 0.351341 0.374336
0.550988 0.366484 0.387595
0.630084 0.381999 0.401059
0.088373 0.370816 0.341024
0.157704 0.385780 0.353756
0.228907 0.401133 0.366691
0.302037 0.416873 0.379831
0.377140 0.433000 0.393175
0.454264 0.449515 0.406724
0.533448 0.466417 0.420479
0.614730 0.483708 0.434441
0.698147 0.501389 0.448610
0.128170 0.483157 0.385362
0.201300 0.500281 0.398791
0.276420 0.517805 0.412426
0.353575 0.535731 0.426267
0.432803 0.554057 0.440315
0.514141 0.572786 0.454571
0.597623 0.591917 0.469035
0.683283 0.611451 0.483710
0.763202 0.624756 0.495666
0.171631 0.605837 0.432090
0.248778 0.625209 0.446225
0.328011 0.644995 0.460567
0.409368 0.665194 0.475119
0.491679 0.684103 0.489203
0.569394 0.695398 0.500277
0.647110 0.706692 0.511350
0.724826 0.717986 0.522424
0.802542 0.729281 0.533497
0.218949 0.739297 0.481239
0.297871 0.754745 0.493813
0.375587 0.766039 0.504887
0.453303 0.777334 0.515961
0.531019 0.788628 0.527034
0.608734 0.799923 0.538108
0.686450 0.811217 0.549181
0.764166 0.822512 0.560255
0.841882 0.833806 0.571328
0.000000 0.000000 0.221715
0.000000 0.000000 0.231464
0.051311 0.000000 0.241212
0.112632 0.000000 0.250961
0.173953 0.000000 0.260710
0.235274 0.000000 0.270458
0.296595 0.000000 0.280207
0.357916 0.000000 0.289955
0.419237 0.001325 0.299704
0.000000 0.012447 0.255020
0.021031 0.021312 0.264768
0.082352 0.030177 0.274517
0.143673 0.039042 0.284265
0.204994 0.047907 0.294014
0.266315 0.056773 0.303762
0.329253 0.065970 0.314298
0.394708 0.075632 0.325690
0.461974 0.085588 0.337405
0.000000 0.094490 0.288324
0.052072 0.103355 0.298072
0.113440 0.112268 0.307886
0.176255 0.122181 0.318994
0.240594 0.132524 0.330532
0.306547 0.143214 0.342363
0.374205 0.154234 0.354448
0.443645 0.165580 0.366770
0.514933 0.177251 0.379318
0.022076 0.178890 0.323758
0.085110 0.189965 0.335425
0.149631 0.201428 0.347365
0.215763 0.213255 0.359550
0.283602 0.225439 0.371967
0.353227 0.237975 0.384608
0.424703 0.250861 0.397468
0.498090 0.264099 0.410544
0.573438 0.277689 0.423835
0.055690 0.272911 0.364692
0.121864 0.285955 0.377203
0.189768 0.299375 0.389935
0.259477 0.313168 0.402885
0.331052 0.327332 0.416051
0.404549 0.341866 0.429432
0.480018 0.356771 0.443025
0.557505 0.372049 0.456832
0.637050 0.387699 0.470851
0.092417 0.376180 0.408341
0.162138 0.391285 0.421596
0.233745 0.406778 0.435065
0.307291 0.422658 0.448747
0.382823 0.438925 0.462642
0.460385 0.455579 0.476751
0.540016 0.472622 0.491073
0.621756 0.490054 0.505608
0.705638 0.507875 0.520358
0.132591 0.489300 0.454506
0.206136 0.506569 0.468490
0.281684 0.524238 0.482687
0.359275 0.542309 0.497098
0.438949 0.560781 0.511723
0.520742 0.579654 0.526562
0.604687 0.598931 0.541617
0.689648 0.617544 0.556353
0.767364 0.628838 0.567426
0.176452 0.612791 0.503161
0.254035 0.632313 0.517875
0.333713 0.652248 0.532804
0.415523 0.672597 0.547948
0.495841 0.688186 0.560963
0.573557 0.699480 0.572036
0.651272 0.710774 0.583110
0.728988 0.722069 0.594184
0.806704 0.733363 0.605257
0.224188 0.747092 0.554317
0.302034 0.758827 0.565573
0.379749 0.770122 0.576647
0.457465 0.781416 0.587720
0.535181 0.792711 0.598794
0.612897 0.804005 0.609867
0.690612 0.815300 0.620941
0.768328 0.826594 0.632015
0.846044 0.837888 0.643088
0.000000 0.000000 0.284888
0.000000 0.000000 0.294637
0.054595 0.000000 0.304385
0.115916 0.000000 0.314134
0.177237 0.000000 0.323883
0.238558 0.000000 0.333631
0.299879 0.000000 0.343380
0.361200 0.000000 0.353128
0.422521 0.004529 0.362877
0.000000 0.015651 0.318193
0.024315 0.024516 0.327941
0.085636 0.033381 0.337690
0.146957 0.042246 0.347438
0.208278 0.051112 0.357187
0.269632 0.059984 0.366958
0.333663 0.069427 0.378271
0.399579 0.079197 0.390108
0.467283 0.089257 0.402274
0.000000 0.097694 0.351497
0.055356 0.106560 0.361245
0.117032 0.115785 0.371567
0.180215 0.125877 0.383154
0.244920 0.136349 0.395137
0.311254 0.147159 0.407423
0.379309 0.158298 0.419978
0.449161 0.169761 0.432783
0.520873 0.181550 0.445827
0.025499 0.182846 0.388102
0.088838 0.194066 0.400218
0.153698 0.205662 0.412619
0.220194 0.217618 0.425280
0.288417 0.229930 0.438185
0.358441 0.242592 0.451327
0.430332 0.255606 0.464699
0.504145 0.268970 0.478298
0.579930 0.282688 0.492122
0.059422 0.277582 0.430623
0.125954 0.290763 0.443628
0.194238 0.304318 0.456866
0.264341 0.318245 0.470333
0.336325 0.332542 0.484026
0.410243 0.347211 0.497943
0.486145 0.362250 0.512082
0.564075 0.377663 0.526442
0.644073 0.393448 0.541023
0.096500 0.381595 0.476007
0.166614 0.396840 0.489793
0.238628 0.412473 0.503802
0.312592 0.428493 0.518033
0.388554 0.444900 0.532485
0.466556 0.461695 0.547158
0.546637 0.478878 0.562052
0.628835 0.496450 0.577167
0.713183 0.514414 0.592502
0.137054 0.495496 0.524023
0.211017 0.512909 0.538567
0.286993 0.530724 0.553332
0.365023 0.548939 0.568318
0.445145 0.567556 0.583524
0.527394 0.586576 0.598952
0.611804 0.605998 0.614601
0.693810 0.621626 0.628112
0.771526 0.632921 0.639186
0.181316 0.619800 0.574622
0.259337 0.639471 0.589920
0.339463 0.659556 0.605440
0.421728 0.680054 0.621182
0.500003 0.692268 0.632723
0.577719 0.703562 0.643796
0.655435 0.714857 0.654870
0.733150 0.726151 0.665943
0.810866 0.737446 0.677017
0.228480 0.751615 0.626259
0.306196 0.762910 0.637333
0.383912 0.774204 0.648406
0.461627 0.785499 0.659480
0.539343 0.796793 0.670554
0.617059 0.808088 0.681627
0.694775 0.819382 0.692701
0.772490 0.830676 0.703774
0.850206 0.841971 0.714848
0.000000 0.000000 0.348061
0.000000 0.000000 0.357810
0.057880 0.000000 0.367559
0.119201 0.000000 0.377307
0.180521 0.000000 0.387056
0.241842 0.000000 0.396804
0.303163 0.000000 0.406553
0.364484 0.000000 0.416301
0.425805 0.007733 0.426050
0.000000 0.018855 0.381366
0.027600 0.027720 0.391114
0.088920 0.036586 0.400863
0.150241 0.045451 0.410611
0.211562 0.054316 0.420360
0.273592 0.063349 0.430677
0.338179 0.072925 0.442516
0.404533 0.082800 0.454811
0.472668 0.092963 0.467442
0.000000 0.100899 0.414670
0.058640 0.109764 0.424418
0.120704 0.119382 0.435534
0.184233 0.129622 0.447590
0.249301 0.140218 0.460032
0.316018 0.151148 0.472788
0.384472 0.162404 0.485824
0.454736 0.173985 0.499123
0.526873 0.185892 0.512672
0.028952 0.186856 0.452728
0.092604 0.198215 0.465307
0.157808 0.209942 0.478182
0.224671 0.222028 0.491330
0.293281 0.234466 0.504734
0.363708 0.247255 0.518385
0.436014 0.260396 0.532278
0.510255 0.273888 0.546407
0.586479 0.287734 0.560770
0.063189 0.282303 0.496880
0.130085 0.295619 0.510388
0.198750 0.309309 0.524140
0.269251 0.323370 0.538132
0.341646 0.337801 0.552359
0.415988 0.352604 0.566818
0.492324 0.367778 0.581508
0.570699 0.383325 0.596428
0.651151 0.399246 0.611576
0.100621 0.387061 0.544027
0.171131 0.402446 0.558351
0.243554 0.418219 0.572906
0.317940 0.434379 0.587692
0.394334 0.450926 0.602707
0.472778 0.467861 0.617950
0.553311 0.485184 0.633421
0.635968 0.502898 0.649119
0.720784 0.521003 0.665045
0.141558 0.501744 0.593915
0.215941 0.519302 0.609025
0.292348 0.537261 0.624363
0.370818 0.555622 0.639929
0.451390 0.574384 0.655721
0.534097 0.593549 0.671742
0.618973 0.613118 0.687990
0.697973 0.625709 0.699872
0.775688 0.637003 0.710946
0.186224 0.626862 0.646476
0.264685 0.646683 0.662364
0.345259 0.666917 0.678479
0.426450 0.685056 0.693409
0.504165 0.696350 0.704482
0.581881 0.707645 0.715556
0.659597 0.718939 0.726629
0.737313 0.730234 0.737703
0.815028 0.741528 0.748777
0.232642 0.755698 0.698019
0.310358 0.766992 0.709092
0.388074 0.778287 0.720166
0.465790 0.789581 0.731240
0.543505 0.800876 0.742313
0.621221 0.812170 0.753387
0.698937 0.823464 0.764460
0.776653 0.834759 0.775534
0.854368 0.846053 0.786608
0.000000 0.000000 0.411235
0.000000 0.000000 0.420983
0.061164 0.000000 0.430732
0.122485 0.000000 0.440480
0.183806 0.000000 0.450229
0.245127 0.000000 0.459977
0.306447 0.000000 0.469726
0.367768 0.002072 0.479474
0.430020 0.010962 0.489762
0.000000 0.022060 0.444539
0.030884 0.030925 0.454287
0.092205 0.039790 0.464036
0.153526 0.048655 0.473784
0.214846 0.057520 0.483533
0.277740 0.066773 0.494709
0.342783 0.076461 0.507042
0.409563 0.086441 0.519808
0.478124 0.096708 0.532916
0.000604 0.104103 0.477843
0.061983 0.113078 0.487827
0.124435 0.123039 0.499781
0.188306 0.133412 0.512311
0.253738 0.144131 0.525226
0.320839 0.155179 0.538464
0.389692 0.166552 0.551992
0.460370 0.178251 0.565794
0.532934 0.190277 0.579858
0.032436 0.190918 0.517646
0.096407 0.202412 0.530700
0.161960 0.214270 0.544062
0.229195 0.226483 0.557706
0.298193 0.239048 0.571618
0.369025 0.251964 0.585788
0.441749 0.265232 0.600209
0.516420 0.278852 0.614875
0.593085 0.292826 0.629784
0.066992 0.287073 0.563466
0.134255 0.300524 0.577487
0.203306 0.314348 0.591762
0.274207 0.328543 0.606285
0.347016 0.343109 0.621053
0.421783 0.358046 0.636062
0.498556 0.373355 0.651309
0.577377 0.389037 0.666794
0.658284 0.405094 0.682514
0.104782 0.392577 0.612404
0.175691 0.408103 0.627272
0.248526 0.424015 0.642381
0.323335 0.440315 0.657727
0.400163 0.457002 0.673310
0.479051 0.474077 0.689128
0.560036 0.491542 0.705181
0.643155 0.509397 0.721467
0.728440 0.527643 0.737988
0.146104 0.508044 0.664186
0.220910 0.525747 0.679867
0.297749 0.543851 0.695783
0.376662 0.562357 0.711933
0.457685 0.581265 0.728317
0.540852 0.600576 0.744934
0.624419 0.618497 0.760558
0.702135 0.629791 0.771632
0.779851 0.641085 0.782705
0.191176 0.633979 0.718725
0.270078 0.653949 0.735207
0.351103 0.674333 0.751921
0.430612 0.689138 0.765168
0.508328 0.700433 0.776242
0.586043 0.711727 0.787316
0.663759 0.723022 0.798389
0.741475 0.734316 0.809463
0.819191 0.745611 0.820536
0.236805 0.759780 0.769779
0.314520 0.771075 0.780852
0.392236 0.782369 0.791926
0.469952 0.793664 0.802999
0.547668 0.804958 0.814073
0.625383 0.816252 0.825147
0.703099 0.827547 0.836220
0.780815 0.838841 0.847294
0.858531 0.850136 0.858367
