assets/lighting/exposure-references/grade-exposure-plus-2/lut.cube
TITLE "Exposure Reference +2 EV"
# TKRS lighting-batch-001 original LUT
# Intended usage: technical overexposure reference
# License: CC0-1.0
LUT_3D_SIZE 17
DOMAIN_MIN 0.0 0.0 0.0
DOMAIN_MAX 1.0 1.0 1.0
0.000000 0.000000 0.000000
0.250000 0.000000 0.000000
0.500000 0.000000 0.000000
0.750000 0.000000 0.000000
1.000000 0.000000 0.000000
1.000000 0.000000 0.000000
1.000000 0.000000 0.000000
1.000000 0.000000 0.000000
1.000000 0.000000 0.000000
1.000000 0.000000 0.000000
1.000000 0.000000 0.000000
1.000000 0.000000 0.000000
1.000000 0.000000 0.000000
1.000000 0.000000 0.000000
1.000000 0.000000 0.000000
1.000000 0.000000 0.000000
1.000000 0.000000 0.000000
0.000000 0.250000 0.000000
0.250000 0.250000 0.000000
0.500000 0.250000 0.000000
0.750000 0.250000 0.000000
1.000000 0.250000 0.000000
1.000000 0.250000 0.000000
1.000000 0.250000 0.000000
1.000000 0.250000 0.000000
1.000000 0.250000 0.000000
1.000000 0.250000 0.000000
1.000000 0.250000 0.000000
1.000000 0.250000 0.000000
1.000000 0.250000 0.000000
1.000000 0.250000 0.000000
1.000000 0.250000 0.000000
1.000000 0.250000 0.000000
1.000000 0.250000 0.000000
0.000000 0.500000 0.000000
0.250000 0.500000 0.000000
0.500000 0.500000 0.000000
0.750000 0.500000 0.000000
1.000000 0.500000 0.000000
1.000000 0.500000 0.000000
1.000000 0.500000 0.000000
1.000000 0.500000 0.000000
1.000000 0.500000 0.000000
1.000000 0.500000 0.000000
1.000000 0.500000 0.000000
1.000000 0.500000 0.000000
1.000000 0.500000 0.000000
1.000000 0.500000 0.000000
1.000000 0.500000 0.000000
1.000000 0.500000 0.000000
1.000000 0.500000 0.000000
0.000000 0.750000 0.000000
0.250000 0.750000 0.000000
0.500000 0.750000 0.000000
0.750000 0.750000 0.000000
1.000000 0.750000 0.000000
1.000000 0.750000 0.000000
1.000000 0.750000 0.000000
1.000000 0.750000 0.000000
1.000000 0.750000 0.000000
1.000000 0.750000 0.000000
1.000000 0.750000 0.000000
1.000000 0.750000 0.000000
1.000000 0.750000 0.000000
1.000000 0.750000 0.000000
1.000000 0.750000 0.000000
1.000000 0.750000 0.000000
1.000000 0.750000 0.000000
0.000000 1.000000 0.000000
0.250000 1.000000 0.000000
0.500000 1.000000 0.000000
0.750000 1.000000 0.000000
1.000000 1.000000 0.000000
1.000000 1.000000 0.000000
1.000000 1.000000 0.000000
1.000000 1.000000 0.000000
1.000000 1.000000 0.000000
1.000000 1.000000 0.000000
1.000000 1.000000 0.000000
1.000000 1.000000 0.000000
1.000000 1.000000 0.000000
1.000000 1.000000 0.000000
1.000000 1.000000 0.000000
1.000000 1.000000 0.000000
1.000000 1.000000 0.000000
0.000000 1.000000 0.000000
0.250000 1.000000 0.000000
0.500000 1.000000 0.000000
0.750000 1.000000 0.000000
1.000000 1.000000 0.000000
1.000000 1.000000 0.000000
1.000000 1.000000 0.000000
1.000000 1.000000 0.000000
1.000000 1.000000 0.000000
1.000000 1.000000 0.000000
1.000000 1.000000 0.000000
1.000000 1.000000 0.000000
1.000000 1.000000 0.000000
1.000000 1.000000 0.000000
1.000000 1.000000 0.000000
1.000000 1.000000 0.000000
1.000000 1.000000 0.000000
0.000000 1.000000 0.000000
0.250000 1.000000 0.000000
0.500000 1.000000 0.000000
0.750000 1.000000 0.000000
1.000000 1.000000 0.000000
1.000000 1.000000 0.000000
1.000000 1.000000 0.000000
1.000000 1.000000 0.000000
1.000000 1.000000 0.000000
1.000000 1.000000 0.000000
1.000000 1.000000 0.000000
1.000000 1.000000 0.000000
1.000000 1.000000 0.000000
1.000000 1.000000 0.000000
1.000000 1.000000 0.000000
1.000000 1.000000 0.000000
1.000000 1.000000 0.000000
0.000000 1.000000 0.000000
0.250000 1.000000 0.000000
0.500000 1.000000 0.000000
0.750000 1.000000 0.000000
1.000000 1.000000 0.000000
1.000000 1.000000 0.000000
1.000000 1.000000 0.000000
1.000000 1.000000 0.000000
1.000000 1.000000 0.000000
1.000000 1.000000 0.000000
1.000000 1.000000 0.000000
1.000000 1.000000 0.000000
1.000000 1.000000 0.000000
1.000000 1.000000 0.000000
1.000000 1.000000 0.000000
1.000000 1.000000 0.000000
1.000000 1.000000 0.000000
0.000000 1.000000 0.000000
0.250000 1.000000 0.000000
0.500000 1.000000 0.000000
0.750000 1.000000 0.000000
1.000000 1.000000 0.000000
1.000000 1.000000 0.000000
1.000000 1.000000 0.000000
1.000000 1.000000 0.000000
1.000000 1.000000 0.000000
1.000000 1.000000 0.000000
1.000000 1.000000 0.000000
1.000000 1.000000 0.000000
1.000000 1.000000 0.000000
1.000000 1.000000 0.000000
1.000000 1.000000 0.000000
1.000000 1.000000 0.000000
1.000000 1.000000 0.000000
0.000000 1.000000 0.000000
0.250000 1.000000 0.000000
0.500000 1.000000 0.000000
0.750000 1.000000 0.000000
1.000000 1.000000 0.000000
1.000000 1.000000 0.000000
1.000000 1.000000 0.000000
1.000000 1.000000 0.000000
1.000000 1.000000 0.000000
1.000000 1.000000 0.000000
1.000000 1.000000 0.000000
1.000000 1.000000 0.000000
1.000000 1.000000 0.000000
1.000000 1.000000 0.000000
1.000000 1.000000 0.000000
1.000000 1.000000 0.000000
1.000000 1.000000 0.000000
0.000000 1.000000 0.000000
0.250000 1.000000 0.000000
0.500000 1.000000 0.000000
0.750000 1.000000 0.000000
1.000000 1.000000 0.000000
1.000000 1.000000 0.000000
1.000000 1.000000 0.000000
1.000000 1.000000 0.000000
1.000000 1.000000 0.000000
1.000000 1.000000 0.000000
1.000000 1.000000 0.000000
1.000000 1.000000 0.000000
1.000000 1.000000 0.000000
1.000000 1.000000 0.000000
1.000000 1.000000 0.000000
1.000000 1.000000 0.000000
1.000000 1.000000 0.000000
0.000000 1.000000 0.000000
0.250000 1.000000 0.000000
0.500000 1.000000 0.000000
0.750000 1.000000 0.000000
1.000000 1.000000 0.000000
1.000000 1.000000 0.000000
1.000000 1.000000 0.000000
1.000000 1.000000 0.000000
1.000000 1.000000 0.000000
1.000000 1.000000 0.000000
1.000000 1.000000 0.000000
1.000000 1.000000 0.000000
1.000000 1.000000 0.000000
1.000000 1.000000 0.000000
1.000000 1.000000 0.000000
1.000000 1.000000 0.000000
1.000000 1.000000 0.000000
0.000000 1.000000 0.000000
0.250000 1.000000 0.000000
0.500000 1.000000 0.000000
0.750000 1.000000 0.000000
1.000000 1.000000 0.000000
1.000000 1.000000 0.000000
1.000000 1.000000 0.000000
1.000000 1.000000 0.000000
1.000000 1.000000 0.000000
1.000000 1.000000 0.000000
1.000000 1.000000 0.000000
1.000000 1.000000 0.000000
1.000000 1.000000 0.000000
1.000000 1.000000 0.000000
1.000000 1.000000 0.000000
1.000000 1.000000 0.000000
1.000000 1.000000 0.000000
0.000000 1.000000 0.000000
0.250000 1.000000 0.000000
0.500000 1.000000 0.000000
0.750000 1.000000 0.000000
1.000000 1.000000 0.000000
1.000000 1.000000 0.000000
1.000000 1.000000 0.000000
1.000000 1.000000 0.000000
1.000000 1.000000 0.000000
1.000000 1.000000 0.000000
1.000000 1.000000 0.000000
1.000000 1.000000 0.000000
1.000000 1.000000 0.000000
1.000000 1.000000 0.000000
1.000000 1.000000 0.000000
1.000000 1.000000 0.000000
1.000000 1.000000 0.000000
0.000000 1.000000 0.000000
0.250000 1.000000 0.000000
0.500000 1.000000 0.000000
0.750000 1.000000 0.000000
1.000000 1.000000 0.000000
1.000000 1.000000 0.000000
1.000000 1.000000 0.000000
1.000000 1.000000 0.000000
1.000000 1.000000 0.000000
1.000000 1.000000 0.000000
1.000000 1.000000 0.000000
1.000000 1.000000 0.000000
1.000000 1.000000 0.000000
1.000000 1.000000 0.000000
1.000000 1.000000 0.000000
1.000000 1.000000 0.000000
1.000000 1.000000 0.000000
0.000000 1.000000 0.000000
0.250000 1.000000 0.000000
0.500000 1.000000 0.000000
0.750000 1.000000 0.000000
1.000000 1.000000 0.000000
1.000000 1.000000 0.000000
1.000000 1.000000 0.000000
1.000000 1.000000 0.000000
1.000000 1.000000 0.000000
1.000000 1.000000 0.000000
1.000000 1.000000 0.000000
1.000000 1.000000 0.000000
1.000000 1.000000 0.000000
1.000000 1.000000 0.000000
1.000000 1.000000 0.000000
1.000000 1.000000 0.000000
1.000000 1.000000 0.000000
0.000000 1.000000 0.000000
0.250000 1.000000 0.000000
0.500000 1.000000 0.000000
0.750000 1.000000 0.000000
1.000000 1.000000 0.000000
1.000000 1.000000 0.000000
1.000000 1.000000 0.000000
1.000000 1.000000 0.000000
1.000000 1.000000 0.000000
1.000000 1.000000 0.000000
1.000000 1.000000 0.000000
1.000000 1.000000 0.000000
1.000000 1.000000 0.000000
1.000000 1.000000 0.000000
1.000000 1.000000 0.000000
1.000000 1.000000 0.000000
1.000000 1.000000 0.000000
0.000000 0.000000 0.250000
0.250000 0.000000 0.250000
0.500000 0.000000 0.250000
0.750000 0.000000 0.250000
1.000000 0.000000 0.250000
1.000000 0.000000 0.250000
1.000000 0.000000 0.250000
1.000000 0.000000 0.250000
1.000000 0.000000 0.250000
1.000000 0.000000 0.250000
1.000000 0.000000 0.250000
1.000000 0.000000 0.250000
1.000000 0.000000 0.250000
1.000000 0.000000 0.250000
1.000000 0.000000 0.250000
1.000000 0.000000 0.250000
1.000000 0.000000 0.250000
0.000000 0.250000 0.250000
0.250000 0.250000 0.250000
0.500000 0.250000 0.250000
0.750000 0.250000 0.250000
1.000000 0.250000 0.250000
1.000000 0.250000 0.250000
1.000000 0.250000 0.250000
1.000000 0.250000 0.250000
1.000000 0.250000 0.250000
1.000000 0.250000 0.250000
1.000000 0.250000 0.250000
1.000000 0.250000 0.250000
1.000000 0.250000 0.250000
1.000000 0.250000 0.250000
1.000000 0.250000 0.250000
1.000000 0.250000 0.250000
1.000000 0.250000 0.250000
0.000000 0.500000 0.250000
0.250000 0.500000 0.250000
0.500000 0.500000 0.250000
0.750000 0.500000 0.250000
1.000000 0.500000 0.250000
1.000000 0.500000 0.250000
1.000000 0.500000 0.250000
1.000000 0.500000 0.250000
1.000000 0.500000 0.250000
1.000000 0.500000 0.250000
1.000000 0.500000 0.250000
1.000000 0.500000 0.250000
1.000000 0.500000 0.250000
1.000000 0.500000 0.250000
1.000000 0.500000 0.250000
1.000000 0.500000 0.250000
1.000000 0.500000 0.250000
0.000000 0.750000 0.250000
0.250000 0.750000 0.250000
0.500000 0.750000 0.250000
0.750000 0.750000 0.250000
1.000000 0.750000 0.250000
1.000000 0.750000 0.250000
1.000000 0.750000 0.250000
1.000000 0.750000 0.250000
1.000000 0.750000 0.250000
1.000000 0.750000 0.250000
1.000000 0.750000 0.250000
1.000000 0.750000 0.250000
1.000000 0.750000 0.250000
1.000000 0.750000 0.250000
1.000000 0.750000 0.250000
1.000000 0.750000 0.250000
1.000000 0.750000 0.250000
0.000000 1.000000 0.250000
0.250000 1.000000 0.250000
0.500000 1.000000 0.250000
0.750000 1.000000 0.250000
1.000000 1.000000 0.250000
1.000000 1.000000 0.250000
1.000000 1.000000 0.250000
1.000000 1.000000 0.250000
1.000000 1.000000 0.250000
1.000000 1.000000 0.250000
1.000000 1.000000 0.250000
1.000000 1.000000 0.250000
1.000000 1.000000 0.250000
1.000000 1.000000 0.250000
1.000000 1.000000 0.250000
1.000000 1.000000 0.250000
1.000000 1.000000 0.250000
0.000000 1.000000 0.250000
0.250000 1.000000 0.250000
0.500000 1.000000 0.250000
0.750000 1.000000 0.250000
1.000000 1.000000 0.250000
1.000000 1.000000 0.250000
1.000000 1.000000 0.250000
1.000000 1.000000 0.250000
1.000000 1.000000 0.250000
1.000000 1.000000 0.250000
1.000000 1.000000 0.250000
1.000000 1.000000 0.250000
1.000000 1.000000 0.250000
1.000000 1.000000 0.250000
1.000000 1.000000 0.250000
1.000000 1.000000 0.250000
1.000000 1.000000 0.250000
0.000000 1.000000 0.250000
0.250000 1.000000 0.250000
0.500000 1.000000 0.250000
0.750000 1.000000 0.250000
1.000000 1.000000 0.250000
1.000000 1.000000 0.250000
1.000000 1.000000 0.250000
1.000000 1.000000 0.250000
1.000000 1.000000 0.250000
1.000000 1.000000 0.250000
1.000000 1.000000 0.250000
1.000000 1.000000 0.250000
1.000000 1.000000 0.250000
1.000000 1.000000 0.250000
1.000000 1.000000 0.250000
1.000000 1.000000 0.250000
1.000000 1.000000 0.250000
0.000000 1.000000 0.250000
0.250000 1.000000 0.250000
0.500000 1.000000 0.250000
0.750000 1.000000 0.250000
1.000000 1.000000 0.250000
1.000000 1.000000 0.250000
1.000000 1.000000 0.250000
1.000000 1.000000 0.250000
1.000000 1.000000 0.250000
1.000000 1.000000 0.250000
1.000000 1.000000 0.250000
1.000000 1.000000 0.250000
1.000000 1.000000 0.250000
1.000000 1.000000 0.250000
1.000000 1.000000 0.250000
1.000000 1.000000 0.250000
1.000000 1.000000 0.250000
0.000000 1.000000 0.250000
0.250000 1.000000 0.250000
0.500000 1.000000 0.250000
0.750000 1.000000 0.250000
1.000000 1.000000 0.250000
1.000000 1.000000 0.250000
1.000000 1.000000 0.250000
1.000000 1.000000 0.250000
1.000000 1.000000 0.250000
1.000000 1.000000 0.250000
1.000000 1.000000 0.250000
1.000000 1.000000 0.250000
1.000000 1.000000 0.250000
1.000000 1.000000 0.250000
1.000000 1.000000 0.250000
1.000000 1.000000 0.250000
1.000000 1.000000 0.250000
0.000000 1.000000 0.250000
0.250000 1.000000 0.250000
0.500000 1.000000 0.250000
0.750000 1.000000 0.250000
1.000000 1.000000 0.250000
1.000000 1.000000 0.250000
1.000000 1.000000 0.250000
1.000000 1.000000 0.250000
1.000000 1.000000 0.250000
1.000000 1.000000 0.250000
1.000000 1.000000 0.250000
1.000000 1.000000 0.250000
1.000000 1.000000 0.250000
1.000000 1.000000 0.250000
1.000000 1.000000 0.250000
1.000000 1.000000 0.250000
1.000000 1.000000 0.250000
0.000000 1.000000 0.250000
0.250000 1.000000 0.250000
0.500000 1.000000 0.250000
0.750000 1.000000 0.250000
1.000000 1.000000 0.250000
1.000000 1.000000 0.250000
1.000000 1.000000 0.250000
1.000000 1.000000 0.250000
1.000000 1.000000 0.250000
1.000000 1.000000 0.250000
1.000000 1.000000 0.250000
1.000000 1.000000 0.250000
1.000000 1.000000 0.250000
1.000000 1.000000 0.250000
1.000000 1.000000 0.250000
1.000000 1.000000 0.250000
1.000000 1.000000 0.250000
0.000000 1.000000 0.250000
0.250000 1.000000 0.250000
0.500000 1.000000 0.250000
0.750000 1.000000 0.250000
1.000000 1.000000 0.250000
1.000000 1.000000 0.250000
1.000000 1.000000 0.250000
1.000000 1.000000 0.250000
1.000000 1.000000 0.250000
1.000000 1.000000 0.250000
1.000000 1.000000 0.250000
1.000000 1.000000 0.250000
1.000000 1.000000 0.250000
1.000000 1.000000 0.250000
1.000000 1.000000 0.250000
1.000000 1.000000 0.250000
1.000000 1.000000 0.250000
0.000000 1.000000 0.250000
0.250000 1.000000 0.250000
0.500000 1.000000 0.250000
0.750000 1.000000 0.250000
1.000000 1.000000 0.250000
1.000000 1.000000 0.250000
1.000000 1.000000 0.250000
1.000000 1.000000 0.250000
1.000000 1.000000 0.250000
1.000000 1.000000 0.250000
1.000000 1.000000 0.250000
1.000000 1.000000 0.250000
1.000000 1.000000 0.250000
1.000000 1.000000 0.250000
1.000000 1.000000 0.250000
1.000000 1.000000 0.250000
1.000000 1.000000 0.250000
0.000000 1.000000 0.250000
0.250000 1.000000 0.250000
0.500000 1.000000 0.250000
0.750000 1.000000 0.250000
1.000000 1.000000 0.250000
1.000000 1.000000 0.250000
1.000000 1.000000 0.250000
1.000000 1.000000 0.250000
1.000000 1.000000 0.250000
1.000000 1.000000 0.250000
1.000000 1.000000 0.250000
1.000000 1.000000 0.250000
1.000000 1.000000 0.250000
1.000000 1.000000 0.250000
1.000000 1.000000 0.250000
1.000000 1.000000 0.250000
1.000000 1.000000 0.250000
0.000000 1.000000 0.250000
0.250000 1.000000 0.250000
0.500000 1.000000 0.250000
0.750000 1.000000 0.250000
1.000000 1.000000 0.250000
1.000000 1.000000 0.250000
1.000000 1.000000 0.250000
1.000000 1.000000 0.250000
1.000000 1.000000 0.250000
1.000000 1.000000 0.250000
1.000000 1.000000 0.250000
1.000000 1.000000 0.250000
1.000000 1.000000 0.250000
1.000000 1.000000 0.250000
1.000000 1.000000 0.250000
1.000000 1.000000 0.250000
1.000000 1.000000 0.250000
0.000000 1.000000 0.250000
0.250000 1.000000 0.250000
0.500000 1.000000 0.250000
0.750000 1.000000 0.250000
1.000000 1.000000 0.250000
1.000000 1.000000 0.250000
1.000000 1.000000 0.250000
1.000000 1.000000 0.250000
1.000000 1.000000 0.250000
1.000000 1.000000 0.250000
1.000000 1.000000 0.250000
1.000000 1.000000 0.250000
1.000000 1.000000 0.250000
1.000000 1.000000 0.250000
1.000000 1.000000 0.250000
1.000000 1.000000 0.250000
1.000000 1.000000 0.250000
0.000000 1.000000 0.250000
0.250000 1.000000 0.250000
0.500000 1.000000 0.250000
0.750000 1.000000 0.250000
1.000000 1.000000 0.250000
1.000000 1.000000 0.250000
1.000000 1.000000 0.250000
1.000000 1.000000 0.250000
1.000000 1.000000 0.250000
1.000000 1.000000 0.250000
1.000000 1.000000 0.250000
1.000000 1.000000 0.250000
1.000000 1.000000 0.250000
1.000000 1.000000 0.250000
1.000000 1.000000 0.250000
1.000000 1.000000 0.250000
1.000000 1.000000 0.250000
0.000000 0.000000 0.500000
0.250000 0.000000 0.500000
0.500000 0.000000 0.500000
0.750000 0.000000 0.500000
1.000000 0.000000 0.500000
1.000000 0.000000 0.500000
1.000000 0.000000 0.500000
1.000000 0.000000 0.500000
1.000000 0.000000 0.500000
1.000000 0.000000 0.500000
1.000000 0.000000 0.500000
1.000000 0.000000 0.500000
1.000000 0.000000 0.500000
1.000000 0.000000 0.500000
1.000000 0.000000 0.500000
1.000000 0.000000 0.500000
1.000000 0.000000 0.500000
0.000000 0.250000 0.500000
0.250000 0.250000 0.500000
0.500000 0.250000 0.500000
0.750000 0.250000 0.500000
1.000000 0.250000 0.500000
1.000000 0.250000 0.500000
1.000000 0.250000 0.500000
1.000000 0.250000 0.500000
1.000000 0.250000 0.500000
1.000000 0.250000 0.500000
1.000000 0.250000 0.500000
1.000000 0.250000 0.500000
1.000000 0.250000 0.500000
1.000000 0.250000 0.500000
1.000000 0.250000 0.500000
1.000000 0.250000 0.500000
1.000000 0.250000 0.500000
0.000000 0.500000 0.500000
0.250000 0.500000 0.500000
0.500000 0.500000 0.500000
0.750000 0.500000 0.500000
1.000000 0.500000 0.500000
1.000000 0.500000 0.500000
1.000000 0.500000 0.500000
1.000000 0.500000 0.500000
1.000000 0.500000 0.500000
1.000000 0.500000 0.500000
1.000000 0.500000 0.500000
1.000000 0.500000 0.500000
1.000000 0.500000 0.500000
1.000000 0.500000 0.500000
1.000000 0.500000 0.500000
1.000000 0.500000 0.500000
1.000000 0.500000 0.500000
0.000000 0.750000 0.500000
0.250000 0.750000 0.500000
0.500000 0.750000 0.500000
0.750000 0.750000 0.500000
1.000000 0.750000 0.500000
1.000000 0.750000 0.500000
1.000000 0.750000 0.500000
1.000000 0.750000 0.500000
1.000000 0.750000 0.500000
1.000000 0.750000 0.500000
1.000000 0.750000 0.500000
1.000000 0.750000 0.500000
1.000000 0.750000 0.500000
1.000000 0.750000 0.500000
1.000000 0.750000 0.500000
1.000000 0.750000 0.500000
1.000000 0.750000 0.500000
0.000000 1.000000 0.500000
0.250000 1.000000 0.500000
0.500000 1.000000 0.500000
0.750000 1.000000 0.500000
1.000000 1.000000 0.500000
1.000000 1.000000 0.500000
1.000000 1.000000 0.500000
1.000000 1.000000 0.500000
1.000000 1.000000 0.500000
1.000000 1.000000 0.500000
1.000000 1.000000 0.500000
1.000000 1.000000 0.500000
1.000000 1.000000 0.500000
1.000000 1.000000 0.500000
1.000000 1.000000 0.500000
1.000000 1.000000 0.500000
1.000000 1.000000 0.500000
0.000000 1.000000 0.500000
0.250000 1.000000 0.500000
0.500000 1.000000 0.500000
0.750000 1.000000 0.500000
1.000000 1.000000 0.500000
1.000000 1.000000 0.500000
1.000000 1.000000 0.500000
1.000000 1.000000 0.500000
1.000000 1.000000 0.500000
1.000000 1.000000 0.500000
1.000000 1.000000 0.500000
1.000000 1.000000 0.500000
1.000000 1.000000 0.500000
1.000000 1.000000 0.500000
1.000000 1.000000 0.500000
1.000000 1.000000 0.500000
1.000000 1.000000 0.500000
0.000000 1.000000 0.500000
0.250000 1.000000 0.500000
0.500000 1.000000 0.500000
0.750000 1.000000 0.500000
1.000000 1.000000 0.500000
1.000000 1.000000 0.500000
1.000000 1.000000 0.500000
1.000000 1.000000 0.500000
1.000000 1.000000 0.500000
1.000000 1.000000 0.500000
1.000000 1.000000 0.500000
1.000000 1.000000 0.500000
1.000000 1.000000 0.500000
1.000000 1.000000 0.500000
1.000000 1.000000 0.500000
1.000000 1.000000 0.500000
1.000000 1.000000 0.500000
0.000000 1.000000 0.500000
0.250000 1.000000 0.500000
0.500000 1.000000 0.500000
0.750000 1.000000 0.500000
1.000000 1.000000 0.500000
1.000000 1.000000 0.500000
1.000000 1.000000 0.500000
1.000000 1.000000 0.500000
1.000000 1.000000 0.500000
1.000000 1.000000 0.500000
1.000000 1.000000 0.500000
1.000000 1.000000 0.500000
1.000000 1.000000 0.500000
1.000000 1.000000 0.500000
1.000000 1.000000 0.500000
1.000000 1.000000 0.500000
1.000000 1.000000 0.500000
0.000000 1.000000 0.500000
0.250000 1.000000 0.500000
0.500000 1.000000 0.500000
0.750000 1.000000 0.500000
1.000000 1.000000 0.500000
1.000000 1.000000 0.500000
1.000000 1.000000 0.500000
1.000000 1.000000 0.500000
1.000000 1.000000 0.500000
1.000000 1.000000 0.500000
1.000000 1.000000 0.500000
1.000000 1.000000 0.500000
1.000000 1.000000 0.500000
1.000000 1.000000 0.500000
1.000000 1.000000 0.500000
1.000000 1.000000 0.500000
1.000000 1.000000 0.500000
0.000000 1.000000 0.500000
0.250000 1.000000 0.500000
0.500000 1.000000 0.500000
0.750000 1.000000 0.500000
1.000000 1.000000 0.500000
1.000000 1.000000 0.500000
1.000000 1.000000 0.500000
1.000000 1.000000 0.500000
1.000000 1.000000 0.500000
1.000000 1.000000 0.500000
1.000000 1.000000 0.500000
1.000000 1.000000 0.500000
1.000000 1.000000 0.500000
1.000000 1.000000 0.500000
1.000000 1.000000 0.500000
1.000000 1.000000 0.500000
1.000000 1.000000 0.500000
0.000000 1.000000 0.500000
0.250000 1.000000 0.500000
0.500000 1.000000 0.500000
0.750000 1.000000 0.500000
1.000000 1.000000 0.500000
1.000000 1.000000 0.500000
1.000000 1.000000 0.500000
1.000000 1.000000 0.500000
1.000000 1.000000 0.500000
1.000000 1.000000 0.500000
1.000000 1.000000 0.500000
1.000000 1.000000 0.500000
1.000000 1.000000 0.500000
1.000000 1.000000 0.500000
1.000000 1.000000 0.500000
1.000000 1.000000 0.500000
1.000000 1.000000 0.500000
0.000000 1.000000 0.500000
0.250000 1.000000 0.500000
0.500000 1.000000 0.500000
0.750000 1.000000 0.500000
1.000000 1.000000 0.500000
1.000000 1.000000 0.500000
1.000000 1.000000 0.500000
1.000000 1.000000 0.500000
1.000000 1.000000 0.500000
1.000000 1.000000 0.500000
1.000000 1.000000 0.500000
1.000000 1.000000 0.500000
1.000000 1.000000 0.500000
1.000000 1.000000 0.500000
1.000000 1.000000 0.500000
1.000000 1.000000 0.500000
1.000000 1.000000 0.500000
0.000000 1.000000 0.500000
0.250000 1.000000 0.500000
0.500000 1.000000 0.500000
0.750000 1.000000 0.500000
1.000000 1.000000 0.500000
1.000000 1.000000 0.500000
1.000000 1.000000 0.500000
1.000000 1.000000 0.500000
1.000000 1.000000 0.500000
1.000000 1.000000 0.500000
1.000000 1.000000 0.500000
1.000000 1.000000 0.500000
1.000000 1.000000 0.500000
1.000000 1.000000 0.500000
1.000000 1.000000 0.500000
1.000000 1.000000 0.500000
1.000000 1.000000 0.500000
0.000000 1.000000 0.500000
0.250000 1.000000 0.500000
0.500000 1.000000 0.500000
0.750000 1.000000 0.500000
1.000000 1.000000 0.500000
1.000000 1.000000 0.500000
1.000000 1.000000 0.500000
1.000000 1.000000 0.500000
1.000000 1.000000 0.500000
1.000000 1.000000 0.500000
1.000000 1.000000 0.500000
1.000000 1.000000 0.500000
1.000000 1.000000 0.500000
1.000000 1.000000 0.500000
1.000000 1.000000 0.500000
1.000000 1.000000 0.500000
1.000000 1.000000 0.500000
0.000000 1.000000 0.500000
0.250000 1.000000 0.500000
0.500000 1.000000 0.500000
0.750000 1.000000 0.500000
1.000000 1.000000 0.500000
1.000000 1.000000 0.500000
1.000000 1.000000 0.500000
1.000000 1.000000 0.500000
1.000000 1.000000 0.500000
1.000000 1.000000 0.500000
1.000000 1.000000 0.500000
1.000000 1.000000 0.500000
1.000000 1.000000 0.500000
1.000000 1.000000 0.500000
1.000000 1.000000 0.500000
1.000000 1.000000 0.500000
1.000000 1.000000 0.500000
0.000000 1.000000 0.500000
0.250000 1.000000 0.500000
0.500000 1.000000 0.500000
0.750000 1.000000 0.500000
1.000000 1.000000 0.500000
1.000000 1.000000 0.500000
1.000000 1.000000 0.500000
1.000000 1.000000 0.500000
1.000000 1.000000 0.500000
1.000000 1.000000 0.500000
1.000000 1.000000 0.500000
1.000000 1.000000 0.500000
1.000000 1.000000 0.500000
1.000000 1.000000 0.500000
1.000000 1.000000 0.500000
1.000000 1.000000 0.500000
1.000000 1.000000 0.500000
0.000000 1.000000 0.500000
0.250000 1.000000 0.500000
0.500000 1.000000 0.500000
0.750000 1.000000 0.500000
1.000000 1.000000 0.500000
1.000000 1.000000 0.500000
1.000000 1.000000 0.500000
1.000000 1.000000 0.500000
1.000000 1.000000 0.500000
1.000000 1.000000 0.500000
1.000000 1.000000 0.500000
1.000000 1.000000 0.500000
1.000000 1.000000 0.500000
1.000000 1.000000 0.500000
1.000000 1.000000 0.500000
1.000000 1.000000 0.500000
1.000000 1.000000 0.500000
0.000000 0.000000 0.750000
0.250000 0.000000 0.750000
0.500000 0.000000 0.750000
0.750000 0.000000 0.750000
1.000000 0.000000 0.750000
1.000000 0.000000 0.750000
1.000000 0.000000 0.750000
1.000000 0.000000 0.750000
1.000000 0.000000 0.750000
1.000000 0.000000 0.750000
1.000000 0.000000 0.750000
1.000000 0.000000 0.750000
1.000000 0.000000 0.750000
1.000000 0.000000 0.750000
