assets/lighting/cinematic/grade-underwater-cyan/lut.cube
TITLE "Underwater Cyan"
# TKRS lighting-batch-001 original LUT
# Intended usage: submerged cyan-green attenuation
# License: CC0-1.0
LUT_3D_SIZE 9
DOMAIN_MIN 0.0 0.0 0.0
DOMAIN_MAX 1.0 1.0 1.0
0.014527 0.016051 0.017193
0.082337 0.014574 0.015612
0.150146 0.013098 0.014030
0.217955 0.011621 0.012448
0.285765 0.010145 0.010867
0.353574 0.008668 0.009285
0.421383 0.007192 0.007703
0.489193 0.005715 0.006122
0.557474 0.004246 0.004547
0.009896 0.089642 0.011712
0.077705 0.088165 0.010130
0.145514 0.086689 0.008548
0.213324 0.085212 0.006967
0.281133 0.083736 0.005385
0.349701 0.082647 0.003817
0.419043 0.081747 0.002242
0.489029 0.080895 0.000650
0.559673 0.080064 0.000000
0.005264 0.163233 0.006230
0.073122 0.161993 0.004653
0.141398 0.161554 0.003085
0.210193 0.161284 0.001503
0.279558 0.161104 0.000000
0.349530 0.160982 0.000000
0.420139 0.160899 0.000000
0.491412 0.160843 0.000000
0.563369 0.160806 0.000000
0.000638 0.241432 0.000759
0.069327 0.241962 0.000000
0.138586 0.242578 0.000000
0.208452 0.243258 0.000000
0.278953 0.243987 0.000000
0.350116 0.244755 0.000000
0.421962 0.245554 0.000000
0.494511 0.246376 0.000000
0.567780 0.247216 0.000000
0.000000 0.326338 0.000000
0.065610 0.327874 0.000000
0.135955 0.329465 0.000000
0.206965 0.331104 0.000000
0.278661 0.332782 0.000000
0.351060 0.334492 0.000000
0.424181 0.336230 0.000000
0.498040 0.337989 0.000000
0.572649 0.339767 0.000000
0.000000 0.417443 0.000000
0.061846 0.419992 0.000000
0.133359 0.422586 0.000000
0.205580 0.425220 0.000000
0.278525 0.427888 0.000000
0.352210 0.430586 0.000000
0.426648 0.433309 0.000000
0.501852 0.436054 0.000000
0.577835 0.438817 0.000000
0.000000 0.515050 0.000000
0.057988 0.518638 0.000000
0.130734 0.522267 0.000000
0.204222 0.525932 0.000000
0.278466 0.529628 0.000000
0.353479 0.533352 0.000000
0.429273 0.537101 0.000000
0.505859 0.540870 0.000000
0.583248 0.544658 0.000000
0.000000 0.619435 0.000000
0.054009 0.624092 0.000000
0.128040 0.628787 0.000000
0.202843 0.633514 0.000000
0.278430 0.638272 0.000000
0.354811 0.643056 0.000000
0.431997 0.647864 0.000000
0.509998 0.652693 0.000000
0.588823 0.657541 0.000000
0.000000 0.730842 0.000000
0.049888 0.736596 0.000000
0.125252 0.742384 0.000000
0.201412 0.748204 0.000000
0.278379 0.754053 0.000000
0.356164 0.759928 0.000000
0.434710 0.765605 0.000000
0.511408 0.763708 0.000000
0.588106 0.761811 0.000000
0.014024 0.015495 0.107324
0.081834 0.014018 0.105742
0.149643 0.012542 0.104161
0.217452 0.011065 0.102579
0.285262 0.009589 0.100997
0.353071 0.008112 0.099416
0.420880 0.006636 0.097834
0.488690 0.005159 0.096252
0.557558 0.003698 0.094975
0.009392 0.089086 0.101842
0.077202 0.087609 0.100260
0.145011 0.086133 0.098679
0.212820 0.084656 0.097097
0.280758 0.083262 0.095589
0.349612 0.082300 0.094468
0.419105 0.081422 0.093423
0.489237 0.080580 0.092412
0.560026 0.079755 0.091417
0.004761 0.162677 0.096360
0.072694 0.161796 0.095051
0.141073 0.161439 0.093976
0.209982 0.161208 0.092949
0.279469 0.161053 0.091947
0.349569 0.160947 0.090957
0.420311 0.160875 0.089971
0.491721 0.160827 0.088985
0.563819 0.160796 0.087994
0.000130 0.241620 0.092480
0.068923 0.242185 0.091485
0.138296 0.242827 0.090497
0.208282 0.243527 0.089512
0.278910 0.244272 0.088524
0.350205 0.245053 0.087530
0.422188 0.245861 0.086526
0.494877 0.246691 0.085511
0.568290 0.247536 0.084483
0.000000 0.326909 0.089052
0.065205 0.328467 0.088062
0.135673 0.330077 0.087064
0.206812 0.331732 0.086055
0.278640 0.333423 0.085034
0.351177 0.335144 0.083999
0.424439 0.336890 0.082948
0.498442 0.338657 0.081880
0.573199 0.340440 0.080793
0.000000 0.418397 0.085581
0.061432 0.420964 0.084554
0.133076 0.423574 0.083512
0.205432 0.426221 0.082453
0.278516 0.428901 0.081376
0.352343 0.431609 0.080280
0.426926 0.434340 0.079164
0.502279 0.437092 0.078027
0.578413 0.439861 0.076868
0.000000 0.516396 0.081953
0.057562 0.520000 0.080868
0.130445 0.523643 0.079763
0.204074 0.527320 0.078637
0.278462 0.531027 0.077490
0.353622 0.534761 0.076320
0.429565 0.538518 0.075127
0.506303 0.542295 0.073910
0.583847 0.546089 0.072668
0.000000 0.621184 0.078105
0.053568 0.625856 0.076948
0.127742 0.630563 0.075767
0.202691 0.635302 0.074563
0.278426 0.640070 0.073334
0.354957 0.644864 0.072081
0.432297 0.649680 0.070801
0.510453 0.654516 0.069496
0.589437 0.659371 0.068163
0.000000 0.733004 0.073994
0.049432 0.738771 0.072753
0.124942 0.744572 0.071488
0.201252 0.750403 0.070196
0.278372 0.756262 0.068878
0.356311 0.762146 0.067533
0.434140 0.764891 0.065937
0.510839 0.762994 0.064005
0.587537 0.761097 0.062073
0.013521 0.014939 0.197454
0.081330 0.013462 0.195873
0.149140 0.011986 0.194291
0.216949 0.010509 0.192710
0.284758 0.009033 0.191128
0.352568 0.007556 0.189546
0.420377 0.006080 0.187965
0.488311 0.004606 0.186463
0.557705 0.003147 0.185761
0.008889 0.088530 0.191973
0.076699 0.087053 0.190391
0.144508 0.085577 0.188809
0.212317 0.084100 0.187228
0.280531 0.082883 0.186099
0.349548 0.081964 0.185505
0.419185 0.081102 0.185034
0.489459 0.080268 0.184634
0.560393 0.079446 0.184282
0.004258 0.162162 0.186528
0.072273 0.161641 0.185802
0.140755 0.161341 0.185275
0.209778 0.161143 0.184841
0.279386 0.161008 0.184465
0.349614 0.160916 0.184130
0.420490 0.160855 0.183823
0.492038 0.160814 0.183537
0.564278 0.160787 0.183265
0.000000 0.241822 0.184660
0.068520 0.242419 0.184304
0.138007 0.243085 0.183984
0.208114 0.243803 0.183688
0.278870 0.244563 0.183409
0.350298 0.245354 0.183142
0.422417 0.246171 0.182882
0.495248 0.247007 0.182626
0.568805 0.247858 0.182371
0.000000 0.327489 0.183556
0.064798 0.329068 0.183283
0.135391 0.330696 0.183020
0.206659 0.332364 0.182763
0.278621 0.334067 0.182507
0.351296 0.335798 0.182251
0.424700 0.337553 0.181992
0.498847 0.339326 0.181727
0.573752 0.341115 0.181455
0.000000 0.419358 0.182644
0.061017 0.421941 0.182388
0.132793 0.424566 0.182131
0.205285 0.427226 0.181869
0.278508 0.429917 0.181601
0.352478 0.432635 0.181325
0.427207 0.435374 0.181039
0.502709 0.438133 0.180742
0.578994 0.440907 0.180432
0.000000 0.517748 0.181745
0.057134 0.521368 0.181474
0.130155 0.525024 0.181193
0.203925 0.528713 0.180902
0.278458 0.532430 0.180600
0.353765 0.536173 0.180283
0.429858 0.539937 0.179953
0.506749 0.543721 0.179607
0.584447 0.547521 0.179244
0.000000 0.622938 0.180763
0.053126 0.627624 0.180454
0.127443 0.632344 0.180131
0.202538 0.637094 0.179794
0.278421 0.641872 0.179440
0.355104 0.646674 0.179070
0.432597 0.651499 0.178681
0.510910 0.656342 0.178274
0.590051 0.661202 0.177847
0.000000 0.735171 0.179631
0.048973 0.740951 0.179270
0.124631 0.746764 0.178891
0.201091 0.752606 0.178494
0.278363 0.758474 0.178077
0.356457 0.764367 0.177641
0.433571 0.764177 0.176034
0.510270 0.762280 0.174101
0.586968 0.760383 0.172169
0.013018 0.014383 0.287585
0.080827 0.012906 0.286003
0.148637 0.011430 0.284422
0.216446 0.009953 0.282840
0.284255 0.008477 0.281258
0.352065 0.007000 0.279677
0.419874 0.005524 0.278095
0.488266 0.004058 0.277072
0.557896 0.002595 0.276942
0.008386 0.087974 0.282103
0.076195 0.086497 0.280522
0.144005 0.085021 0.278940
0.211814 0.083544 0.277358
0.280343 0.082527 0.276976
0.349504 0.081635 0.276957
0.419281 0.080786 0.277094
0.489696 0.079958 0.277331
0.560773 0.079138 0.277643
0.003758 0.161919 0.277093
0.071857 0.161512 0.276942
0.140443 0.161257 0.277006
0.209580 0.161086 0.277194
0.279311 0.160969 0.277469
0.349667 0.160890 0.277808
0.420676 0.160837 0.278198
0.492362 0.160802 0.278627
0.564744 0.160779 0.279088
0.000000 0.242038 0.277313
0.068116 0.242663 0.277620
0.137719 0.243350 0.277984
0.207949 0.244085 0.278394
0.278834 0.244857 0.278839
0.350394 0.245659 0.279312
0.422651 0.246484 0.279808
0.495623 0.247326 0.280322
0.569325 0.248181 0.280849
0.000000 0.328077 0.278597
0.064391 0.329675 0.279056
0.135109 0.331319 0.279541
0.206507 0.333002 0.280045
0.278604 0.334716 0.280566
0.351417 0.336457 0.281099
0.424963 0.338219 0.281640
0.499256 0.339998 0.282188
0.574309 0.341792 0.282739
0.000000 0.420325 0.280286
0.060601 0.422925 0.280813
0.132509 0.425564 0.281350
0.205137 0.428236 0.281895
0.278501 0.430938 0.282444
0.352614 0.433664 0.282996
0.427489 0.436411 0.283548
0.503140 0.439176 0.284098
0.579578 0.441956 0.284645
0.000000 0.519106 0.282150
0.056706 0.522740 0.282701
0.129865 0.526409 0.283253
0.203777 0.530109 0.283805
0.278454 0.533836 0.284353
0.353908 0.537588 0.284898
0.430152 0.541360 0.285437
0.507196 0.545150 0.285968
0.585050 0.548956 0.286491
0.000000 0.624698 0.284061
0.052682 0.629397 0.284608
0.127143 0.634129 0.285150
0.202384 0.638890 0.285685
0.278416 0.643677 0.286213
0.355251 0.648488 0.286731
0.432898 0.653320 0.287239
0.511367 0.658170 0.287736
0.590667 0.663036 0.288220
0.000000 0.737344 0.285932
0.048513 0.743136 0.286456
0.124319 0.748960 0.286969
0.200929 0.754812 0.287472
0.278355 0.760690 0.287963
0.356304 0.765359 0.288062
0.433002 0.763462 0.286130
0.509700 0.761565 0.284198
0.586399 0.759668 0.282266
0.012515 0.013827 0.377716
0.080324 0.012351 0.376134
0.148133 0.010874 0.374552
0.215943 0.009397 0.372971
0.283752 0.007921 0.371389
0.351561 0.006444 0.369807
0.419371 0.004968 0.368226
0.488299 0.003509 0.368067
0.558120 0.002039 0.368543
0.007883 0.087418 0.372234
0.075692 0.085942 0.370652
0.143502 0.084465 0.369071
0.211475 0.083128 0.367970
0.280179 0.082184 0.368253
0.349477 0.081312 0.368846
0.419390 0.080473 0.369619
0.489945 0.079649 0.370517
0.561164 0.078831 0.371512
0.003258 0.161739 0.368046
0.071444 0.161403 0.368502
0.140135 0.161185 0.369188
0.209388 0.161037 0.370024
0.279241 0.160936 0.370970
0.349726 0.160868 0.372003
0.420869 0.160823 0.373105
0.492693 0.160792 0.374264
0.565217 0.160772 0.375470
0.000000 0.242265 0.370453
0.067713 0.242915 0.371442
0.137433 0.243622 0.372508
0.207786 0.244372 0.373638
0.278799 0.245156 0.374820
0.350494 0.245967 0.376047
0.422889 0.246799 0.377310
0.496002 0.247647 0.378604
0.569849 0.248506 0.379924
0.000000 0.328673 0.374183
0.063984 0.330289 0.375387
0.134828 0.331949 0.376631
0.206356 0.333644 0.377909
0.278588 0.335368 0.379216
0.351541 0.337118 0.380547
0.425229 0.338887 0.381899
0.499667 0.340672 0.383267
0.574870 0.342470 0.384649
0.000000 0.421299 0.378515
0.060183 0.423914 0.379834
0.132225 0.426566 0.381175
0.204990 0.429250 0.382534
0.278494 0.431961 0.383909
0.352751 0.434696 0.385297
0.427773 0.437450 0.386694
0.503573 0.440221 0.388099
0.580163 0.443005 0.389509
0.000000 0.520470 0.383173
0.056275 0.524118 0.384554
0.129573 0.527799 0.385947
0.203627 0.531509 0.387348
0.278450 0.535246 0.388755
0.354053 0.539006 0.390167
0.430447 0.542785 0.391581
0.507644 0.546581 0.392996
0.585654 0.550392 0.394411
0.000000 0.626463 0.388003
0.052237 0.631175 0.389412
0.126841 0.635918 0.390826
0.202229 0.640690 0.392241
0.278411 0.645486 0.393655
0.355398 0.650305 0.395069
0.433200 0.655144 0.396479
0.511825 0.660000 0.397885
0.591068 0.664409 0.399058
0.000000 0.739521 0.392900
0.048050 0.745325 0.394314
0.124005 0.751160 0.395726
0.200767 0.757022 0.397135
0.278345 0.762909 0.398538
0.355735 0.764645 0.398158
0.432433 0.762748 0.396226
0.509131 0.760851 0.394294
0.585830 0.758954 0.392362
0.012012 0.013271 0.467846
0.079821 0.011795 0.466265
0.147630 0.010318 0.464683
0.215440 0.008842 0.463101
0.283249 0.007365 0.461520
0.351058 0.005888 0.459938
0.419099 0.004417 0.458783
0.488379 0.002958 0.459474
0.558374 0.001481 0.460586
0.007380 0.086862 0.462364
0.075189 0.085386 0.460783
0.142998 0.083909 0.459201
0.211192 0.082759 0.459027
0.280034 0.081850 0.459955
0.349464 0.080993 0.461190
0.419513 0.080161 0.462623
0.490206 0.079340 0.464203
0.561567 0.078522 0.465899
0.002757 0.161594 0.459409
0.071034 0.161311 0.460501
0.139832 0.161122 0.461837
0.209200 0.160994 0.463343
0.279176 0.160907 0.464980
0.349790 0.160849 0.466723
0.421068 0.160810 0.468552
0.493030 0.160784 0.470454
0.565697 0.160765 0.472419
0.000000 0.242502 0.464091
0.067310 0.243175 0.465780
0.137147 0.243899 0.467565
0.207625 0.244663 0.469430
0.278768 0.245459 0.471362
0.350597 0.246278 0.473353
0.423130 0.247117 0.475394
0.496385 0.247969 0.477479
0.570379 0.248831 0.479602
0.000000 0.329276 0.470322
0.063575 0.330909 0.472283
0.134546 0.332583 0.474298
0.206206 0.334290 0.476360
0.278574 0.336024 0.478463
0.351666 0.337782 0.480602
0.425497 0.339557 0.482772
0.500082 0.341348 0.484969
0.575433 0.343150 0.487190
0.000000 0.422279 0.477335
0.059764 0.424909 0.479455
0.131940 0.427573 0.481609
0.204843 0.430268 0.483793
0.278488 0.432988 0.486001
0.352889 0.435730 0.488232
0.428058 0.438491 0.490482
0.504009 0.441268 0.492748
0.580751 0.444057 0.495028
0.000000 0.521839 0.484819
0.055843 0.525500 0.487038
0.129281 0.529193 0.489278
0.203478 0.532913 0.491536
0.278446 0.536659 0.493809
0.354198 0.540426 0.496094
0.430743 0.544212 0.498391
0.508094 0.548015 0.500695
0.586259 0.551830 0.503007
0.000000 0.628233 0.492593
0.051789 0.632957 0.494872
0.126539 0.637711 0.497163
0.202074 0.642493 0.499463
0.278406 0.647298 0.501772
0.355545 0.652125 0.504086
0.433501 0.656971 0.506404
0.512284 0.661833 0.508725
0.590499 0.663694 0.509154
0.000000 0.741702 0.500538
0.047586 0.747519 0.502849
0.123690 0.753364 0.505165
0.200603 0.759236 0.507485
0.278335 0.765132 0.509806
0.355166 0.763931 0.508254
0.431864 0.762034 0.506322
0.508562 0.760137 0.504390
0.585260 0.758240 0.502458
0.011508 0.012715 0.557977
0.079318 0.011239 0.556395
0.147127 0.009762 0.554813
0.214936 0.008286 0.553232
0.282746 0.006809 0.551650
0.350555 0.005333 0.550068
0.419017 0.003869 0.549932
0.488494 0.002404 0.551315
0.558651 0.000919 0.553088
0.006877 0.086306 0.552495
0.074686 0.084830 0.550913
0.142523 0.083389 0.549514
0.210932 0.082407 0.550512
0.279903 0.081523 0.552104
0.349463 0.080678 0.554005
0.419646 0.079851 0.556120
0.490477 0.079033 0.558400
0.561981 0.078214 0.560814
0.002255 0.161473 0.551206
0.070626 0.161231 0.552958
0.139531 0.161068 0.554967
0.209016 0.160957 0.557164
0.279116 0.160882 0.559510
0.349860 0.160832 0.561977
0.421272 0.160799 0.564547
0.493373 0.160776 0.567205
0.566183 0.160759 0.569940
0.000000 0.242749 0.558240
0.066906 0.243443 0.560645
0.136863 0.244183 0.563163
0.207466 0.244960 0.565775
0.278739 0.245765 0.568470
0.350703 0.246592 0.571237
0.423375 0.247436 0.574066
0.496773 0.248293 0.576951
0.570912 0.249158 0.579886
0.000000 0.329886 0.567021
0.063166 0.331535 0.569751
0.134264 0.333222 0.572548
0.206056 0.334940 0.575404
0.278561 0.336684 0.578313
0.351792 0.338448 0.581268
0.425767 0.340230 0.584265
0.500499 0.342025 0.587299
0.576000 0.343831 0.590367
0.000000 0.423265 0.576753
0.059344 0.425908 0.579684
0.131654 0.428585 0.582659
0.204695 0.431289 0.585674
0.278482 0.434018 0.588724
0.353028 0.436768 0.591806
0.428345 0.439535 0.594915
0.504446 0.442316 0.598050
0.581342 0.445110 0.601206
0.000000 0.523213 0.587091
0.055409 0.526887 0.590156
0.128988 0.530590 0.593251
0.203328 0.534321 0.596373
0.278442 0.538075 0.599518
0.354343 0.541850 0.602684
0.431040 0.545642 0.605868
0.508545 0.549450 0.609069
0.586867 0.553270 0.612283
0.000000 0.630008 0.597835
0.051340 0.634744 0.600990
0.126235 0.639509 0.604165
0.201918 0.644299 0.607357
0.278400 0.649113 0.610565
0.355692 0.653947 0.613785
0.433804 0.658799 0.617017
0.512744 0.663667 0.620258
0.589930 0.662980 0.619250
0.000000 0.743889 0.608850
0.047120 0.749716 0.612063
0.123373 0.755572 0.615289
0.200438 0.761453 0.618525
0.277899 0.765114 0.620282
0.354597 0.763217 0.618350
0.431295 0.761320 0.616418
0.507993 0.759423 0.614486
0.584691 0.757526 0.612554
0.011005 0.012159 0.648107
0.078815 0.010683 0.646526
0.146624 0.009206 0.644944
0.214433 0.007730 0.643362
0.282243 0.006253 0.641781
0.350064 0.004777 0.640235
0.418989 0.003319 0.641530
0.488637 0.001848 0.643610
0.558950 0.000354 0.646066
0.006373 0.085750 0.642626
0.074183 0.084274 0.641044
0.142151 0.082998 0.640670
0.210689 0.082068 0.642440
0.279784 0.081202 0.644716
0.349474 0.080365 0.647304
0.419790 0.079543 0.650121
0.490759 0.078725 0.653119
0.562404 0.077905 0.656265
0.001752 0.161370 0.643454
0.070220 0.161162 0.645889
0.139234 0.161021 0.648592
0.208836 0.160925 0.651497
0.279061 0.160861 0.654567
0.349935 0.160818 0.657775
0.421482 0.160789 0.661099
0.493722 0.160769 0.664525
0.566675 0.160754 0.668040
0.000000 0.243004 0.652909
0.066502 0.243716 0.656046
0.136579 0.244472 0.659310
0.207308 0.245260 0.662683
0.278712 0.246074 0.666152
0.350811 0.246908 0.669705
0.423623 0.247757 0.673333
0.497164 0.248618 0.677027
0.571449 0.249485 0.680782
0.000000 0.330502 0.664288
0.062755 0.332166 0.667797
0.133982 0.333866 0.671386
0.205907 0.335594 0.675046
0.278548 0.337346 0.678769
0.351921 0.339117 0.682550
0.426040 0.340904 0.686382
0.500918 0.342704 0.690261
0.576569 0.344513 0.694182
0.000000 0.424256 0.676773
0.058922 0.426912 0.680524
0.131368 0.429600 0.684329
0.204548 0.432314 0.688184
0.278477 0.435051 0.692083
0.353168 0.437808 0.696022
0.428633 0.440581 0.699999
0.504885 0.443367 0.704008
0.581934 0.446164 0.708047
0.000000 0.524592 0.689995
0.054974 0.528278 0.693913
0.128693 0.531992 0.697870
0.203177 0.535732 0.701862
0.278439 0.539494 0.705886
0.354488 0.543276 0.709939
0.431338 0.547074 0.714017
0.508997 0.550887 0.718119
0.587476 0.554711 0.722243
0.000000 0.631788 0.703733
0.050889 0.636535 0.707771
0.125929 0.641309 0.711836
0.201761 0.646109 0.715925
0.278394 0.650931 0.720038
0.355840 0.655772 0.724170
0.434106 0.660630 0.728320
0.512663 0.664163 0.731279
0.589361 0.662266 0.729347
0.000000 0.746079 0.717838
0.046652 0.751918 0.721960
0.123055 0.757783 0.726101
0.200272 0.763673 0.730259
0.277329 0.764400 0.730379
0.354028 0.762503 0.728446
0.430726 0.760606 0.726514
0.507424 0.758709 0.724582
0.584122 0.756812 0.722650
0.010502 0.011603 0.738238
0.078311 0.010127 0.736656
0.146121 0.008650 0.735075
0.213930 0.007174 0.733493
0.281739 0.005697 0.731911
0.349856 0.004229 0.731414
0.418997 0.002768 0.733585
0.488803 0.001288 0.736373
0.559267 0.000000 0.739533
0.005870 0.085194 0.732756
0.073680 0.083718 0.731174
0.141802 0.082636 0.732317
0.210458 0.081737 0.734828
0.279676 0.080884 0.737807
0.349494 0.080055 0.741102
0.419943 0.079235 0.744637
0.491050 0.078416 0.748368
0.562836 0.077594 0.752261
0.001248 0.161282 0.736169
0.069815 0.161103 0.739308
0.138939 0.160981 0.742722
0.208660 0.160898 0.746353
0.279010 0.160843 0.750163
0.350015 0.160806 0.754123
0.421697 0.160781 0.758214
0.494077 0.160763 0.762419
0.567173 0.160748 0.766725
0.000000 0.243266 0.748107
0.066098 0.243996 0.751990
0.136296 0.244765 0.756014
0.207152 0.245564 0.760159
0.278688 0.246386 0.764413
0.350923 0.247226 0.768763
0.423874 0.248080 0.773199
0.497559 0.248943 0.777712
0.571991 0.249812 0.782296
0.000000 0.331124 0.762128
0.062343 0.332802 0.766428
0.133700 0.334513 0.770819
0.205759 0.336251 0.775292
0.278537 0.338011 0.779839
0.352051 0.339788 0.784453
0.426314 0.341581 0.789128
0.501340 0.343384 0.793859
0.577141 0.345195 0.798642
0.000000 0.425252 0.777402
0.058500 0.427921 0.781980
0.131081 0.430619 0.786624
0.204400 0.433342 0.791326
0.278472 0.436087 0.796081
0.353308 0.438850 0.800886
0.428922 0.441628 0.805735
0.505326 0.444419 0.810626
0.582529 0.447219 0.815555
0.000000 0.525976 0.793535
0.054537 0.529673 0.798313
0.128398 0.533397 0.803139
0.203026 0.537146 0.808009
0.278435 0.540916 0.812917
0.354634 0.544704 0.817863
0.431636 0.548508 0.822841
0.509450 0.552325 0.827851
0.588086 0.556154 0.832888
0.000000 0.633571 0.810291
0.050437 0.638329 0.815217
0.125623 0.643114 0.820178
0.201603 0.647922 0.825171
0.278388 0.652751 0.830194
0.355987 0.657599 0.835244
0.434409 0.662464 0.840318
0.512094 0.663449 0.841375
0.588792 0.661552 0.839443
0.000000 0.748274 0.827508
0.046182 0.754123 0.832543
0.122735 0.759998 0.837605
0.200062 0.765582 0.842407
0.276760 0.763685 0.840475
0.353458 0.761788 0.838543
0.430157 0.759891 0.836611
0.506855 0.757994 0.834679
0.583553 0.756097 0.832747
