assets/lighting/cinematic/grade-underwater-cyan/lut.cube
TITLE "Underwater Cyan"
# TKRS lighting-batch-001 original LUT
# Intended usage: submerged cyan-green attenuation
# License: CC0-1.0
LUT_3D_SIZE 5
DOMAIN_MIN 0.0 0.0 0.0
DOMAIN_MAX 1.0 1.0 1.0
0.014527 0.016051 0.017193
0.150146 0.013098 0.014030
0.285765 0.010145 0.010867
0.421383 0.007192 0.007703
0.557474 0.004246 0.004547
0.005264 0.163233 0.006230
0.141398 0.161554 0.003085
0.279558 0.161104 0.000000
0.420139 0.160899 0.000000
0.563369 0.160806 0.000000
0.000000 0.326338 0.000000
0.135955 0.329465 0.000000
0.278661 0.332782 0.000000
0.424181 0.336230 0.000000
0.572649 0.339767 0.000000
0.000000 0.515050 0.000000
0.130734 0.522267 0.000000
0.278466 0.529628 0.000000
0.429273 0.537101 0.000000
0.583248 0.544658 0.000000
0.000000 0.730842 0.000000
0.125252 0.742384 0.000000
0.278379 0.754053 0.000000
0.434710 0.765605 0.000000
0.588106 0.761811 0.000000
0.013521 0.014939 0.197454
0.149140 0.011986 0.194291
0.284758 0.009033 0.191128
0.420377 0.006080 0.187965
0.557705 0.003147 0.185761
0.004258 0.162162 0.186528
0.140755 0.161341 0.185275
0.279386 0.161008 0.184465
0.420490 0.160855 0.183823
0.564278 0.160787 0.183265
0.000000 0.327489 0.183556
0.135391 0.330696 0.183020
0.278621 0.334067 0.182507
0.424700 0.337553 0.181992
0.573752 0.341115 0.181455
0.000000 0.517748 0.181745
0.130155 0.525024 0.181193
0.278458 0.532430 0.180600
0.429858 0.539937 0.179953
0.584447 0.547521 0.179244
0.000000 0.735171 0.179631
0.124631 0.746764 0.178891
0.278363 0.758474 0.178077
0.433571 0.764177 0.176034
0.586968 0.760383 0.172169
0.012515 0.013827 0.377716
0.148133 0.010874 0.374552
0.283752 0.007921 0.371389
0.419371 0.004968 0.368226
0.558120 0.002039 0.368543
0.003258 0.161739 0.368046
0.140135 0.161185 0.369188
0.279241 0.160936 0.370970
0.420869 0.160823 0.373105
0.565217 0.160772 0.375470
0.000000 0.328673 0.374183
0.134828 0.331949 0.376631
0.278588 0.335368 0.379216
0.425229 0.338887 0.381899
0.574870 0.342470 0.384649
0.000000 0.520470 0.383173
0.129573 0.527799 0.385947
0.278450 0.535246 0.388755
0.430447 0.542785 0.391581
0.585654 0.550392 0.394411
0.000000 0.739521 0.392900
0.124005 0.751160 0.395726
0.278345 0.762909 0.398538
0.432433 0.762748 0.396226
0.585830 0.758954 0.392362
0.011508 0.012715 0.557977
0.147127 0.009762 0.554813
0.282746 0.006809 0.551650
0.419017 0.003869 0.549932
0.558651 0.000919 0.553088
0.002255 0.161473 0.551206
0.139531 0.161068 0.554967
0.279116 0.160882 0.559510
0.421272 0.160799 0.564547
0.566183 0.160759 0.569940
0.000000 0.329886 0.567021
0.134264 0.333222 0.572548
0.278561 0.336684 0.578313
0.425767 0.340230 0.584265
0.576000 0.343831 0.590367
0.000000 0.523213 0.587091
0.128988 0.530590 0.593251
0.278442 0.538075 0.599518
0.431040 0.545642 0.605868
0.586867 0.553270 0.612283
0.000000 0.743889 0.608850
0.123373 0.755572 0.615289
0.277899 0.765114 0.620282
0.431295 0.761320 0.616418
0.584691 0.757526 0.612554
0.010502 0.011603 0.738238
0.146121 0.008650 0.735075
0.281739 0.005697 0.731911
0.418997 0.002768 0.733585
0.559267 0.000000 0.739533
0.001248 0.161282 0.736169
0.138939 0.160981 0.742722
0.279010 0.160843 0.750163
0.421697 0.160781 0.758214
0.567173 0.160748 0.766725
0.000000 0.331124 0.762128
0.133700 0.334513 0.770819
0.278537 0.338011 0.779839
0.426314 0.341581 0.789128
0.577141 0.345195 0.798642
0.000000 0.525976 0.793535
0.128398 0.533397 0.803139
0.278435 0.540916 0.812917
0.431636 0.548508 0.822841
0.588086 0.556154 0.832888
0.000000 0.748274 0.827508
0.122735 0.759998 0.837605
0.276760 0.763685 0.840475
0.430157 0.759891 0.836611
0.583553 0.756097 0.832747
