assets/lighting/cinematic/grade-underwater-cyan/lut.cube
TITLE "Underwater Cyan"
# TKRS lighting-batch-001 original LUT
# Intended usage: submerged cyan-green attenuation
# License: CC0-1.0
LUT_3D_SIZE 17
DOMAIN_MIN 0.0 0.0 0.0
DOMAIN_MAX 1.0 1.0 1.0
0.014527 0.016051 0.017193
0.048432 0.015313 0.016403
0.082337 0.014574 0.015612
0.116241 0.013836 0.014821
0.150146 0.013098 0.014030
0.184051 0.012359 0.013239
0.217955 0.011621 0.012448
0.251860 0.010883 0.011658
0.285765 0.010145 0.010867
0.319669 0.009406 0.010076
0.353574 0.008668 0.009285
0.387479 0.007930 0.008494
0.421383 0.007192 0.007703
0.455288 0.006453 0.006913
0.489193 0.005715 0.006122
0.523097 0.004977 0.005331
0.557474 0.004246 0.004547
0.012211 0.052846 0.014452
0.046116 0.052108 0.013662
0.080021 0.051370 0.012871
0.113925 0.050631 0.012080
0.147830 0.049893 0.011289
0.181735 0.049155 0.010498
0.215639 0.048417 0.009708
0.249544 0.047678 0.008917
0.283449 0.046940 0.008126
0.317353 0.046202 0.007335
0.351258 0.045464 0.006544
0.385163 0.044725 0.005753
0.419157 0.044007 0.004964
0.453645 0.043388 0.004182
0.488342 0.042788 0.003398
0.523219 0.042197 0.002611
0.558270 0.041610 0.001819
0.009896 0.089642 0.011712
0.043800 0.088904 0.010921
0.077705 0.088165 0.010130
0.111610 0.087427 0.009339
0.145514 0.086689 0.008548
0.179419 0.085950 0.007757
0.213324 0.085212 0.006967
0.247228 0.084474 0.006176
0.281133 0.083736 0.005385
0.315277 0.083134 0.004600
0.349701 0.082647 0.003817
0.384292 0.082189 0.003032
0.419043 0.081747 0.002242
0.453955 0.081317 0.001449
0.489029 0.080895 0.000650
0.524268 0.080478 0.000000
0.559673 0.080064 0.000000
0.007580 0.126437 0.008971
0.041484 0.125699 0.008180
0.075389 0.124961 0.007389
0.109294 0.124222 0.006598
0.143198 0.123484 0.005807
0.177129 0.122784 0.005018
0.211301 0.122375 0.004236
0.245623 0.122033 0.003452
0.280089 0.121726 0.002664
0.314703 0.121442 0.001873
0.349468 0.121174 0.001077
0.384386 0.120920 0.000276
0.419463 0.120676 0.000000
0.454700 0.120440 0.000000
0.490101 0.120210 0.000000
0.525669 0.119985 0.000000
0.561406 0.119763 0.000000
0.005264 0.163233 0.006230
0.039168 0.162495 0.005439
0.073122 0.161993 0.004653
0.107199 0.161742 0.003871
0.141398 0.161554 0.003085
0.175727 0.161405 0.002296
0.210193 0.161284 0.001503
0.244802 0.161186 0.000705
0.279558 0.161104 0.000000
0.314466 0.161037 0.000000
0.349530 0.160982 0.000000
0.384753 0.160936 0.000000
0.420139 0.160899 0.000000
0.455691 0.160868 0.000000
0.491412 0.160843 0.000000
0.527303 0.160823 0.000000
0.563369 0.160806 0.000000
0.002956 0.201241 0.003505
0.037016 0.201215 0.002718
0.071197 0.201231 0.001927
0.105506 0.201280 0.001132
0.139952 0.201355 0.000331
0.174539 0.201451 0.000000
0.209274 0.201565 0.000000
0.244160 0.201694 0.000000
0.279201 0.201836 0.000000
0.314401 0.201989 0.000000
0.349764 0.202152 0.000000
0.385292 0.202323 0.000000
0.420988 0.202502 0.000000
0.456855 0.202687 0.000000
0.492895 0.202877 0.000000
0.529111 0.203071 0.000000
0.565505 0.203270 0.000000
0.000638 0.241432 0.000759
0.034914 0.241685 0.000000
0.069327 0.241962 0.000000
0.103883 0.242261 0.000000
0.138586 0.242578 0.000000
0.173441 0.242911 0.000000
0.208452 0.243258 0.000000
0.243621 0.243617 0.000000
0.278953 0.243987 0.000000
0.314451 0.244367 0.000000
0.350116 0.244755 0.000000
0.385953 0.245151 0.000000
0.421962 0.245554 0.000000
0.458148 0.245962 0.000000
0.494511 0.246376 0.000000
0.531055 0.246794 0.000000
0.567780 0.247216 0.000000
0.000000 0.283129 0.000000
0.032805 0.283637 0.000000
0.067470 0.284164 0.000000
0.102287 0.284707 0.000000
0.137261 0.285265 0.000000
0.172393 0.285837 0.000000
0.207689 0.286420 0.000000
0.243150 0.287015 0.000000
0.278780 0.287618 0.000000
0.314581 0.288231 0.000000
0.350555 0.288852 0.000000
0.386706 0.289479 0.000000
0.423034 0.290113 0.000000
0.459542 0.290753 0.000000
0.496233 0.291397 0.000000
0.533107 0.292047 0.000000
0.570168 0.292700 0.000000
0.000000 0.326338 0.000000
0.030679 0.327098 0.000000
0.065610 0.327874 0.000000
0.100701 0.328663 0.000000
0.135955 0.329465 0.000000
0.171376 0.330279 0.000000
0.206965 0.331104 0.000000
0.242726 0.331939 0.000000
0.278661 0.332782 0.000000
0.314771 0.333634 0.000000
0.351060 0.334492 0.000000
0.387530 0.335358 0.000000
0.424181 0.336230 0.000000
0.461017 0.337107 0.000000
0.498040 0.337989 0.000000
0.535249 0.338876 0.000000
0.572649 0.339767 0.000000
0.000000 0.371097 0.000000
0.028529 0.372110 0.000000
0.063737 0.373136 0.000000
0.099113 0.374175 0.000000
0.134658 0.375225 0.000000
0.170375 0.376286 0.000000
0.206266 0.377357 0.000000
0.242333 0.378437 0.000000
0.278579 0.379525 0.000000
0.315006 0.380621 0.000000
0.351616 0.381724 0.000000
0.388410 0.382833 0.000000
0.425390 0.383948 0.000000
0.462558 0.385069 0.000000
0.499917 0.386195 0.000000
0.537466 0.387326 0.000000
0.575209 0.388460 0.000000
0.000000 0.417443 0.000000
0.026349 0.418712 0.000000
0.061846 0.419992 0.000000
0.097515 0.421284 0.000000
0.133359 0.422586 0.000000
0.169380 0.423899 0.000000
0.205580 0.425220 0.000000
0.241961 0.426550 0.000000
0.278525 0.427888 0.000000
0.315274 0.429234 0.000000
0.352210 0.430586 0.000000
0.389334 0.431945 0.000000
0.426648 0.433309 0.000000
0.464153 0.434679 0.000000
0.501852 0.436054 0.000000
0.539745 0.437433 0.000000
0.577835 0.438817 0.000000
0.000000 0.465416 0.000000
0.024137 0.466943 0.000000
0.059931 0.468481 0.000000
0.095902 0.470030 0.000000
0.132053 0.471588 0.000000
0.168385 0.473157 0.000000
0.204901 0.474734 0.000000
0.241602 0.476319 0.000000
0.278490 0.477911 0.000000
0.315567 0.479511 0.000000
0.352834 0.481118 0.000000
0.390292 0.482730 0.000000
0.427945 0.484349 0.000000
0.465792 0.485973 0.000000
0.503836 0.487601 0.000000
0.542077 0.489235 0.000000
0.580518 0.490872 0.000000
0.000000 0.515050 0.000000
0.021889 0.516839 0.000000
0.057988 0.518638 0.000000
0.094269 0.520448 0.000000
0.130734 0.522267 0.000000
0.167384 0.524096 0.000000
0.204222 0.525932 0.000000
0.241249 0.527777 0.000000
0.278466 0.529628 0.000000
0.315876 0.531487 0.000000
0.353479 0.533352 0.000000
0.391278 0.535224 0.000000
0.429273 0.537101 0.000000
0.467466 0.538983 0.000000
0.505859 0.540870 0.000000
0.544452 0.542762 0.000000
0.583248 0.544658 0.000000
0.000000 0.566379 0.000000
0.019604 0.568434 0.000000
0.056015 0.570499 0.000000
0.092612 0.572573 0.000000
0.129397 0.574657 0.000000
0.166372 0.576749 0.000000
0.203537 0.578849 0.000000
0.240895 0.580957 0.000000
0.278448 0.583072 0.000000
0.316195 0.585194 0.000000
0.354140 0.587322 0.000000
0.392283 0.589456 0.000000
0.430626 0.591596 0.000000
0.469169 0.593741 0.000000
0.507915 0.595891 0.000000
0.546864 0.598046 0.000000
0.586019 0.600205 0.000000
0.000000 0.619435 0.000000
0.017278 0.621759 0.000000
0.054009 0.624092 0.000000
0.090929 0.626435 0.000000
0.128040 0.628787 0.000000
0.165344 0.631147 0.000000
0.202843 0.633514 0.000000
0.240538 0.635890 0.000000
0.278430 0.638272 0.000000
0.316520 0.640661 0.000000
0.354811 0.643056 0.000000
0.393303 0.645457 0.000000
0.431997 0.647864 0.000000
0.470895 0.650276 0.000000
0.509998 0.652693 0.000000
0.549307 0.655115 0.000000
0.588823 0.657541 0.000000
0.000000 0.674247 0.000000
0.014912 0.676843 0.000000
0.051967 0.679449 0.000000
0.089216 0.682064 0.000000
0.126659 0.684687 0.000000
0.164299 0.687318 0.000000
0.202136 0.689957 0.000000
0.240172 0.692604 0.000000
0.278408 0.695257 0.000000
0.316846 0.697917 0.000000
0.355487 0.700583 0.000000
0.394332 0.703255 0.000000
0.433381 0.705932 0.000000
0.472638 0.708615 0.000000
0.512102 0.711303 0.000000
0.551774 0.713995 0.000000
0.590725 0.714538 0.000000
0.000000 0.730842 0.000000
0.012502 0.733714 0.000000
0.049888 0.736596 0.000000
0.087471 0.739486 0.000000
0.125252 0.742384 0.000000
0.163231 0.745291 0.000000
0.201412 0.748204 0.000000
0.239794 0.751125 0.000000
0.278379 0.754053 0.000000
0.317169 0.756987 0.000000
0.356164 0.759928 0.000000
0.395366 0.762874 0.000000
0.434710 0.765605 0.000000
0.473059 0.764657 0.000000
0.511408 0.763708 0.000000
0.549757 0.762760 0.000000
0.588106 0.761811 0.000000
0.014276 0.015773 0.062259
0.048180 0.015035 0.061468
0.082085 0.014296 0.060677
0.115990 0.013558 0.059886
0.149894 0.012820 0.059095
0.183799 0.012081 0.058305
0.217704 0.011343 0.057514
0.251608 0.010605 0.056723
0.285513 0.009867 0.055932
0.319418 0.009128 0.055141
0.353322 0.008390 0.054350
0.387227 0.007652 0.053560
0.421132 0.006914 0.052769
0.455036 0.006175 0.051978
0.488941 0.005437 0.051187
0.522911 0.004700 0.050407
0.557507 0.003972 0.049719
0.011960 0.052568 0.059518
0.045865 0.051830 0.058727
0.079769 0.051092 0.057936
0.113674 0.050354 0.057145
0.147579 0.049615 0.056354
0.181483 0.048877 0.055564
0.215388 0.048139 0.054773
0.249293 0.047400 0.053982
0.283197 0.046662 0.053191
0.317102 0.045924 0.052400
0.351007 0.045186 0.051609
0.384911 0.044447 0.050819
0.419087 0.043770 0.050082
0.453643 0.043161 0.049407
0.488389 0.042565 0.048743
0.523310 0.041976 0.048085
0.558401 0.041389 0.047431
0.009644 0.089364 0.056777
0.043549 0.088626 0.055986
0.077453 0.087887 0.055195
0.111358 0.087149 0.054404
0.145263 0.086411 0.053614
0.179167 0.085672 0.052823
0.213072 0.084934 0.052032
0.246977 0.084196 0.051241
0.280899 0.083469 0.050456
0.315183 0.082946 0.049765
0.349652 0.082472 0.049096
0.384283 0.082021 0.048436
0.419072 0.081584 0.047780
0.454020 0.081157 0.047127
0.489131 0.080737 0.046474
0.524406 0.080322 0.045821
0.559847 0.079910 0.045167
0.007328 0.126159 0.054036
0.041233 0.125421 0.053245
0.075137 0.124683 0.052454
0.109042 0.123945 0.051664
0.142947 0.123206 0.050873
0.176951 0.122618 0.050129
0.211164 0.122241 0.049452
0.245520 0.121914 0.048788
0.280019 0.121617 0.048130
0.314666 0.121339 0.047476
0.349463 0.121077 0.046823
0.384416 0.120827 0.046170
0.419526 0.120586 0.045517
0.454797 0.120352 0.044862
0.490233 0.120124 0.044206
0.525836 0.119901 0.043546
0.561609 0.119681 0.042884
0.005012 0.162955 0.051295
0.038917 0.162220 0.050505
0.072907 0.161888 0.049812
0.107009 0.161665 0.049142
0.141235 0.161494 0.048481
0.175592 0.161357 0.047825
0.210087 0.161245 0.047171
0.244725 0.161153 0.046519
0.279512 0.161078 0.045866
0.314452 0.161015 0.045212
0.349548 0.160964 0.044557
0.384805 0.160921 0.043899
0.420224 0.160887 0.043238
0.455810 0.160858 0.042575
0.491565 0.160835 0.041908
0.527492 0.160816 0.041237
0.563593 0.160801 0.040563
0.002706 0.201225 0.048833
0.036788 0.201216 0.048175
0.070992 0.201246 0.047520
0.105328 0.201305 0.046867
0.139801 0.201389 0.046215
0.174417 0.201492 0.045562
0.209181 0.201612 0.044907
0.244097 0.201746 0.044250
0.279170 0.201892 0.043592
0.314402 0.202050 0.042930
0.349797 0.202216 0.042265
0.385358 0.202390 0.041596
0.421088 0.202571 0.040924
0.456990 0.202758 0.040247
0.493065 0.202949 0.039566
0.529316 0.203145 0.038881
0.565746 0.203345 0.038191
0.000384 0.241524 0.046563
0.034685 0.241787 0.045911
0.069125 0.242072 0.045257
0.103709 0.242378 0.044601
0.138441 0.242702 0.043944
0.173325 0.243040 0.043284
0.208366 0.243392 0.042620
0.243567 0.243755 0.041954
0.278931 0.244129 0.041283
0.314461 0.244512 0.040609
0.350160 0.244904 0.039931
0.386030 0.245302 0.039248
0.422075 0.245707 0.038560
0.458295 0.246118 0.037867
0.494694 0.246533 0.037170
0.531273 0.246953 0.036467
0.568034 0.247376 0.035759
0.000000 0.283318 0.044295
0.032576 0.283833 0.043637
0.067268 0.284366 0.042975
0.102115 0.284916 0.042310
0.137118 0.285479 0.041642
0.172282 0.286055 0.040970
0.207609 0.286643 0.040294
0.243102 0.287241 0.039613
0.278765 0.287848 0.038928
0.314599 0.288464 0.038238
0.350607 0.289087 0.037543
0.386792 0.289717 0.036843
0.423155 0.290353 0.036138
0.459699 0.290995 0.035428
0.496425 0.291641 0.034711
0.533336 0.292292 0.033990
0.570433 0.292947 0.033262
0.000000 0.326623 0.041999
0.030447 0.327388 0.041329
0.065407 0.328169 0.040655
0.100529 0.328964 0.039977
0.135814 0.329771 0.039294
0.171266 0.330589 0.038607
0.206888 0.331417 0.037915
0.242682 0.332255 0.037218
0.278650 0.333102 0.036515
0.314795 0.333956 0.035808
0.351118 0.334818 0.035095
0.387623 0.335686 0.034376
0.424310 0.336559 0.033651
0.461182 0.337439 0.032921
0.498240 0.338323 0.032185
0.535487 0.339211 0.031442
0.572924 0.340103 0.030694
0.000000 0.371477 0.039660
0.028294 0.372494 0.038975
0.063533 0.373525 0.038285
0.098940 0.374569 0.037591
0.134517 0.375623 0.036891
0.170266 0.376688 0.036186
0.206191 0.377762 0.035476
0.242292 0.378845 0.034761
0.278572 0.379936 0.034039
0.315034 0.381035 0.033312
0.351679 0.382141 0.032579
0.388508 0.383252 0.031840
0.425525 0.384370 0.031094
0.462729 0.385493 0.030343
0.500124 0.386620 0.029585
0.537711 0.387752 0.028821
0.575491 0.388888 0.028050
0.000000 0.417919 0.037265
0.026110 0.419192 0.036564
0.061639 0.420477 0.035856
0.097341 0.421773 0.035144
0.133218 0.423079 0.034425
0.169272 0.424395 0.033701
0.205506 0.425720 0.032971
0.241922 0.427053 0.032235
0.278521 0.428394 0.031493
0.315305 0.429742 0.030745
0.352276 0.431097 0.029991
0.389436 0.432458 0.029230
0.426787 0.433824 0.028463
0.464329 0.435196 0.027689
0.502065 0.436573 0.026908
0.539996 0.437954 0.026121
0.578124 0.439339 0.025327
0.000000 0.465989 0.034810
0.023894 0.467520 0.034089
0.059721 0.469063 0.033362
0.095726 0.470615 0.032629
0.131910 0.472178 0.031890
0.168277 0.473749 0.031146
0.204827 0.475329 0.030394
0.241563 0.476917 0.029637
0.278487 0.478513 0.028873
0.315600 0.480115 0.028103
0.352903 0.481724 0.027326
0.390398 0.483339 0.026542
0.428088 0.484960 0.025752
0.465972 0.486585 0.024955
0.504054 0.488216 0.024151
0.542333 0.489851 0.023339
0.580812 0.491490 0.022521
0.000000 0.515722 0.032286
0.021643 0.517515 0.031544
0.057775 0.519319 0.030796
0.094090 0.521132 0.030042
0.130589 0.522955 0.029282
0.167275 0.524786 0.028515
0.204148 0.526626 0.027742
0.241210 0.528473 0.026962
0.278464 0.530327 0.026175
0.315910 0.532189 0.025381
0.353550 0.534056 0.024581
0.391386 0.535930 0.023774
0.429419 0.537809 0.022959
0.467650 0.539693 0.022138
0.506081 0.541582 0.021309
0.544713 0.543476 0.020473
0.583547 0.545373 0.019630
0.000000 0.567151 0.029689
0.019353 0.569210 0.028926
0.055799 0.571279 0.028156
0.092431 0.573356 0.027379
0.129251 0.575443 0.026596
0.166261 0.577539 0.025806
0.203463 0.579642 0.025009
0.240857 0.581752 0.024206
0.278446 0.583870 0.023395
0.316231 0.585994 0.022577
0.354212 0.588125 0.021752
0.392393 0.590261 0.020920
0.430774 0.592403 0.020081
0.469356 0.594550 0.019234
0.508140 0.596702 0.018380
0.547128 0.598859 0.017519
0.586322 0.601019 0.016650
0.000000 0.620309 0.027015
0.017023 0.622636 0.026229
0.053789 0.624973 0.025436
0.090744 0.627319 0.024636
0.127891 0.629674 0.023829
0.165232 0.632037 0.023015
0.202767 0.634408 0.022194
0.240499 0.636786 0.021366
0.278428 0.639171 0.020530
0.316556 0.641562 0.019687
0.354884 0.643960 0.018837
0.393414 0.646363 0.017980
0.432147 0.648772 0.017115
0.471083 0.651186 0.016242
0.510225 0.653605 0.015362
0.549574 0.656028 0.014474
0.589130 0.658456 0.013579
0.000000 0.675223 0.024261
0.014652 0.677823 0.023451
0.051743 0.680432 0.022633
0.089028 0.683050 0.021809
0.126507 0.685677 0.020977
0.164184 0.688311 0.020139
0.202058 0.690953 0.019292
0.240131 0.693602 0.018439
0.278406 0.696257 0.017578
0.316881 0.698920 0.016709
0.355560 0.701588 0.015833
0.394444 0.704262 0.014950
0.433533 0.706942 0.014058
0.472828 0.709626 0.013159
0.512331 0.712316 0.012252
0.552044 0.715010 0.011338
0.590441 0.714181 0.010373
0.000000 0.731922 0.021422
0.012238 0.734798 0.020587
0.049660 0.737683 0.019745
0.087279 0.740576 0.018896
0.125097 0.743478 0.018039
0.163114 0.746387 0.017174
0.201332 0.749303 0.016302
0.239752 0.752227 0.015423
0.278375 0.755157 0.014535
0.317203 0.758094 0.013640
0.356237 0.761036 0.012738
0.395478 0.763985 0.011827
0.434425 0.765248 0.010889
0.472774 0.764299 0.009923
0.511123 0.763351 0.008957
0.549472 0.762403 0.007991
0.587821 0.761454 0.007025
0.014024 0.015495 0.107324
0.047929 0.014757 0.106533
0.081834 0.014018 0.105742
0.115738 0.013280 0.104951
0.149643 0.012542 0.104161
0.183548 0.011803 0.103370
0.217452 0.011065 0.102579
0.251357 0.010327 0.101788
0.285262 0.009589 0.100997
0.319166 0.008850 0.100206
0.353071 0.008112 0.099416
0.386976 0.007374 0.098625
0.420880 0.006636 0.097834
0.454785 0.005897 0.097043
0.488690 0.005159 0.096252
0.522875 0.004426 0.095548
0.557558 0.003698 0.094975
0.011708 0.052290 0.104583
0.045613 0.051552 0.103792
0.079518 0.050814 0.103001
0.113422 0.050076 0.102211
0.147327 0.049337 0.101420
0.181232 0.048599 0.100629
0.215136 0.047861 0.099838
0.249041 0.047122 0.099047
0.282946 0.046384 0.098256
0.316850 0.045646 0.097466
0.350755 0.044908 0.096675
0.384660 0.044169 0.095884
0.419041 0.043539 0.095276
0.453653 0.042936 0.094719
0.488444 0.042343 0.094184
0.523407 0.041755 0.093663
0.558538 0.041169 0.093151
0.009392 0.089086 0.101842
0.043297 0.088348 0.101051
0.077202 0.087609 0.100260
0.111106 0.086871 0.099470
0.145011 0.086133 0.098679
0.178916 0.085394 0.097888
0.212820 0.084656 0.097097
0.246725 0.083918 0.096306
0.280758 0.083262 0.095589
0.315101 0.082764 0.095013
0.349612 0.082300 0.094468
0.384279 0.081855 0.093940
0.419105 0.081422 0.093423
0.454090 0.080998 0.092915
0.489237 0.080580 0.092412
0.524548 0.080166 0.091913
0.560026 0.079755 0.091417
0.007077 0.125881 0.099101
0.040981 0.125143 0.098310
0.074886 0.124405 0.097520
0.108791 0.123667 0.096729
0.142695 0.122928 0.095938
0.176785 0.122468 0.095315
0.211033 0.122114 0.094757
0.245421 0.121799 0.094220
0.279953 0.121510 0.093698
0.314632 0.121239 0.093185
0.349462 0.120982 0.092680
0.384448 0.120735 0.092179
0.419592 0.120497 0.091682
0.454897 0.120266 0.091187
0.490368 0.120040 0.090693
0.526006 0.119818 0.090201
0.561815 0.119598 0.089708
0.004761 0.162677 0.096360
0.038680 0.162071 0.095630
0.072694 0.161796 0.095051
0.106821 0.161596 0.094505
0.141073 0.161439 0.093976
0.175458 0.161312 0.093458
0.209982 0.161208 0.092949
0.244651 0.161123 0.092446
0.279469 0.161053 0.091947
0.314440 0.160995 0.091451
0.349569 0.160947 0.090957
0.384858 0.160907 0.090464
0.420311 0.160875 0.089971
0.455931 0.160849 0.089478
0.491721 0.160827 0.088985
0.527683 0.160810 0.088490
0.563819 0.160796 0.087994
0.002455 0.201217 0.094256
0.036559 0.201224 0.093733
0.070788 0.201265 0.093220
0.105150 0.201334 0.092714
0.139650 0.201425 0.092213
0.174295 0.201535 0.091716
0.209089 0.201661 0.091221
0.244036 0.201800 0.090727
0.279139 0.201950 0.090234
0.314404 0.202111 0.089742
0.349832 0.202280 0.089249
0.385426 0.202457 0.088755
0.421190 0.202640 0.088259
0.457126 0.202829 0.087762
0.493236 0.203023 0.087263
0.529523 0.203220 0.086761
0.565989 0.203421 0.086256
0.000130 0.241620 0.092480
0.034457 0.241892 0.091981
0.068923 0.242185 0.091485
0.103535 0.242498 0.090991
0.138296 0.242827 0.090497
0.173210 0.243171 0.090005
0.208282 0.243527 0.089512
0.243514 0.243895 0.089019
0.278910 0.244272 0.088524
0.314473 0.244659 0.088028
0.350205 0.245053 0.087530
0.386109 0.245454 0.087029
0.422188 0.245861 0.086526
0.458443 0.246273 0.086020
0.494877 0.246691 0.085511
0.531492 0.247112 0.084999
0.568290 0.247536 0.084483
0.000000 0.283509 0.090761
0.032345 0.284032 0.090268
0.067067 0.284571 0.089775
0.101942 0.285126 0.089282
0.136976 0.285695 0.088788
0.172170 0.286275 0.088293
0.207529 0.286867 0.087796
0.243055 0.287468 0.087297
0.278750 0.288079 0.086795
0.314618 0.288698 0.086291
0.350660 0.289324 0.085784
0.386879 0.289956 0.085273
0.423277 0.290594 0.084759
0.459856 0.291238 0.084242
0.496618 0.291886 0.083720
0.533566 0.292538 0.083194
0.570699 0.293194 0.082665
0.000000 0.326909 0.089052
0.030215 0.327681 0.088558
0.065205 0.328467 0.088062
0.100356 0.329266 0.087564
0.135673 0.330077 0.087064
0.171157 0.330900 0.086561
0.206812 0.331732 0.086055
0.242638 0.332573 0.085546
0.278640 0.333423 0.085034
0.314819 0.334280 0.084519
0.351177 0.335144 0.083999
0.387717 0.336014 0.083476
0.424439 0.336890 0.082948
0.461347 0.337771 0.082416
0.498442 0.338657 0.081880
0.535725 0.339547 0.081339
0.573199 0.340440 0.080793
0.000000 0.371858 0.087331
0.028058 0.372881 0.086830
0.063328 0.373917 0.086326
0.098767 0.374964 0.085818
0.134376 0.376023 0.085308
0.170158 0.377091 0.084794
0.206116 0.378169 0.084277
0.242251 0.379255 0.083756
0.278566 0.380349 0.083230
0.315062 0.381451 0.082701
0.351742 0.382558 0.082167
0.388607 0.383672 0.081628
0.425660 0.384792 0.081085
0.462901 0.385917 0.080537
0.500333 0.387046 0.079984
0.537957 0.388179 0.079426
0.575774 0.389317 0.078862
0.000000 0.418397 0.085581
0.025871 0.419675 0.085069
0.061432 0.420964 0.084554
0.097166 0.422264 0.084035
0.133076 0.423574 0.083512
0.169164 0.424893 0.082984
0.205432 0.426221 0.082453
0.241882 0.427557 0.081917
0.278516 0.428901 0.081376
0.315336 0.430252 0.080830
0.352343 0.431609 0.080280
0.389539 0.432972 0.079725
0.426926 0.434340 0.079164
0.464506 0.435714 0.078598
0.502279 0.437092 0.078027
0.540248 0.438475 0.077450
0.578413 0.439861 0.076868
0.000000 0.466564 0.083791
0.023652 0.468100 0.083266
0.059511 0.469646 0.082737
0.095549 0.471202 0.082204
0.131768 0.472768 0.081665
0.168168 0.474343 0.081122
0.204754 0.475926 0.080575
0.241525 0.477517 0.080022
0.278484 0.479115 0.079464
0.315633 0.480720 0.078901
0.352972 0.482332 0.078333
0.390504 0.483949 0.077759
0.428231 0.485571 0.077179
0.466153 0.487199 0.076594
0.504272 0.488831 0.076004
0.542590 0.490467 0.075407
0.581107 0.492108 0.074804
0.000000 0.516396 0.081953
0.021396 0.518193 0.081413
0.057562 0.520000 0.080868
0.093911 0.521817 0.080318
0.130445 0.523643 0.079763
0.167165 0.525478 0.079203
0.204074 0.527320 0.078637
0.241172 0.529170 0.078066
0.278462 0.531027 0.077490
0.315944 0.532891 0.076908
0.353622 0.534761 0.076320
0.391495 0.536637 0.075726
0.429565 0.538518 0.075127
0.467834 0.540404 0.074521
0.506303 0.542295 0.073910
0.544974 0.544190 0.073292
0.583847 0.546089 0.072668
0.000000 0.567925 0.080060
0.019102 0.569988 0.079502
0.055582 0.572060 0.078940
0.092249 0.574141 0.078372
0.129104 0.576231 0.077798
0.166150 0.578329 0.077219
0.203388 0.580435 0.076635
0.240818 0.582549 0.076044
0.278444 0.584669 0.075448
0.316266 0.586796 0.074845
0.354285 0.588929 0.074237
0.392503 0.591067 0.073623
0.430922 0.593211 0.073002
0.469542 0.595360 0.072375
0.508365 0.597514 0.071742
0.547393 0.599672 0.071102
0.586625 0.601834 0.070455
0.000000 0.621184 0.078105
0.016768 0.623515 0.077529
0.053568 0.625856 0.076948
0.090559 0.628205 0.076360
0.127742 0.630563 0.075767
0.165119 0.632929 0.075168
0.202691 0.635302 0.074563
0.240459 0.637683 0.073952
0.278426 0.640070 0.073334
0.316591 0.642464 0.072711
0.354957 0.644864 0.072081
0.393525 0.647269 0.071444
0.432297 0.649680 0.070801
0.471272 0.652096 0.070152
0.510453 0.654516 0.069496
0.549841 0.656941 0.068833
0.589437 0.659371 0.068163
0.000000 0.676201 0.076085
0.014392 0.678804 0.075489
0.051519 0.681417 0.074887
0.088839 0.684038 0.074279
0.126356 0.686668 0.073665
0.164069 0.689305 0.073045
0.201980 0.691949 0.072418
0.240091 0.694601 0.071785
0.278403 0.697259 0.071146
0.316917 0.699924 0.070500
0.355634 0.702594 0.069847
0.394556 0.705270 0.069188
0.433684 0.707952 0.068522
0.473018 0.710638 0.067849
0.512561 0.713330 0.067169
0.551807 0.714773 0.066387
0.590156 0.713824 0.065421
0.000000 0.733004 0.073994
0.011973 0.735883 0.073377
0.049432 0.738771 0.072753
0.087088 0.741668 0.072124
0.124942 0.744572 0.071488
0.162996 0.747484 0.070845
0.201252 0.750403 0.070196
0.239710 0.753329 0.069541
0.278372 0.756262 0.068878
0.317238 0.759201 0.068209
0.356311 0.762146 0.067533
0.395591 0.765096 0.066850
0.434140 0.764891 0.065937
0.472490 0.763942 0.064971
0.510839 0.762994 0.064005
0.549188 0.762045 0.063039
0.587537 0.761097 0.062073
0.013773 0.015217 0.152389
0.047677 0.014479 0.151598
0.081582 0.013740 0.150808
0.115487 0.013002 0.150017
0.149391 0.012264 0.149226
0.183296 0.011526 0.148435
0.217201 0.010787 0.147644
0.251105 0.010049 0.146853
0.285010 0.009311 0.146063
0.318915 0.008572 0.145272
0.352819 0.007834 0.144481
0.386724 0.007096 0.143690
0.420629 0.006358 0.142899
0.454533 0.005619 0.142108
