assets/lighting/cinematic/grade-church-stained-warm/lut.cube
TITLE "Church Stained Warm"
# TKRS lighting-batch-001 original LUT
# Intended usage: interior sacred space warm dust motes feel
# License: CC0-1.0
LUT_3D_SIZE 17
DOMAIN_MIN 0.0 0.0 0.0
DOMAIN_MAX 1.0 1.0 1.0
0.000000 0.000000 0.000000
0.017426 0.000000 0.000000
0.072602 0.000000 0.000000
0.127778 0.000000 0.000000
0.182954 0.000000 0.000000
0.238130 0.000000 0.000000
0.293306 0.000000 0.000000
0.348481 0.000000 0.000000
0.403657 0.000000 0.000000
0.458833 0.000000 0.000000
0.514009 0.000000 0.000000
0.569185 0.000000 0.000000
0.624361 0.000000 0.000000
0.679537 0.000000 0.000000
0.734713 0.000000 0.000000
0.789889 0.000000 0.000000
0.845065 0.000000 0.000000
0.000000 0.009491 0.000000
0.014757 0.008649 0.000000
0.069933 0.007807 0.000000
0.125109 0.006965 0.000000
0.180285 0.006123 0.000000
0.235461 0.005281 0.000000
0.290637 0.004439 0.000000
0.345813 0.003597 0.000000
0.400989 0.002756 0.000000
0.456165 0.001914 0.000000
0.511341 0.001072 0.000000
0.566517 0.000230 0.000000
0.621693 0.000000 0.000000
0.676869 0.000000 0.000000
0.732044 0.000000 0.000000
0.789894 0.000000 0.000000
0.849319 0.000000 0.000000
0.000000 0.054981 0.000000
0.012089 0.054140 0.000000
0.067265 0.053298 0.000000
0.122441 0.052456 0.000000
0.177617 0.051614 0.000000
0.232793 0.050772 0.000000
0.287969 0.049930 0.000000
0.343144 0.049088 0.000000
0.398320 0.048246 0.000000
0.453496 0.047404 0.000000
0.508672 0.046563 0.000000
0.563848 0.045721 0.000000
0.621189 0.045020 0.000000
0.679820 0.044367 0.000000
0.739386 0.043728 0.000000
0.799849 0.043095 0.000000
0.861205 0.042465 0.000000
0.000000 0.100472 0.000000
0.009420 0.099630 0.000000
0.064596 0.098788 0.000000
0.119772 0.097947 0.000000
0.174948 0.097105 0.000000
0.230124 0.096263 0.000000
0.285300 0.095421 0.000000
0.340476 0.094579 0.000000
0.395652 0.093737 0.000000
0.452450 0.093196 0.000000
0.510281 0.092753 0.000000
0.568953 0.092347 0.000000
0.628457 0.091964 0.000000
0.688802 0.091597 0.000000
0.750001 0.091241 0.000000
0.812069 0.090892 0.000000
0.875021 0.090548 0.000000
0.000000 0.145963 0.000000
0.006752 0.145121 0.000000
0.061928 0.144279 0.000000
0.117104 0.143437 0.000000
0.172280 0.142595 0.000000
0.227456 0.141753 0.000000
0.283677 0.141380 0.000000
0.340702 0.141149 0.000000
0.398477 0.140977 0.000000
0.457019 0.140845 0.000000
0.516351 0.140741 0.000000
0.576495 0.140659 0.000000
0.637472 0.140593 0.000000
0.699301 0.140541 0.000000
0.761998 0.140499 0.000000
0.825581 0.140466 0.000000
0.890064 0.140438 0.000000
0.000000 0.191454 0.000000
0.004083 0.190612 0.000000
0.059260 0.189772 0.000000
0.114870 0.189574 0.000000
0.171085 0.189555 0.000000
0.227958 0.189618 0.000000
0.285535 0.189737 0.000000
0.343853 0.189897 0.000000
0.402940 0.190089 0.000000
0.462825 0.190307 0.000000
0.523528 0.190547 0.000000
0.585072 0.190804 0.000000
0.647476 0.191077 0.000000
0.710756 0.191361 0.000000
0.774928 0.191657 0.000000
0.840009 0.191961 0.000000
0.906011 0.192272 0.000000
0.000000 0.237776 0.000000
0.001427 0.237971 0.000000
0.057396 0.238270 0.000000
0.114006 0.238641 0.000000
0.171307 0.239065 0.000000
0.229336 0.239532 0.000000
0.288126 0.240034 0.000000
0.347703 0.240566 0.000000
0.408093 0.241123 0.000000
0.469316 0.241701 0.000000
0.531391 0.242299 0.000000
0.594337 0.242912 0.000000
0.658171 0.243539 0.000000
0.722907 0.244178 0.000000
0.788559 0.244828 0.000000
0.855142 0.245488 0.000000
0.922669 0.246155 0.000000
0.000000 0.287557 0.000000
0.000000 0.288246 0.000000
0.055682 0.288988 0.000000
0.113376 0.289775 0.000000
0.171826 0.290599 0.000000
0.231060 0.291456 0.000000
0.291101 0.292341 0.000000
0.351971 0.293250 0.000000
0.413690 0.294181 0.000000
0.476275 0.295132 0.000000
0.539744 0.296100 0.000000
0.604111 0.297083 0.000000
0.669392 0.298080 0.000000
0.735599 0.299089 0.000000
0.802747 0.300108 0.000000
0.870846 0.301137 0.000000
0.939909 0.302175 0.000000
0.000000 0.339528 0.000000
0.000000 0.340645 0.000000
0.053973 0.341802 0.000000
0.112832 0.342994 0.000000
0.172496 0.344216 0.000000
0.232986 0.345466 0.000000
0.294323 0.346740 0.000000
0.356523 0.348037 0.000000
0.419604 0.349353 0.000000
0.483582 0.350687 0.000000
0.548469 0.352038 0.000000
0.614281 0.353403 0.000000
0.681031 0.354782 0.000000
0.748729 0.356173 0.000000
0.817389 0.357575 0.000000
0.887022 0.358986 0.000000
0.957637 0.360407 0.000000
0.000000 0.393661 0.000000
0.000000 0.395196 0.000000
0.052225 0.396765 0.000000
0.112312 0.398363 0.000000
0.173244 0.399988 0.000000
0.235038 0.401638 0.000000
0.297711 0.403310 0.000000
0.361279 0.405003 0.000000
0.425755 0.406714 0.000000
0.491154 0.408443 0.000000
0.557488 0.410187 0.000000
0.624769 0.411946 0.000000
0.693010 0.413718 0.000000
0.762221 0.415502 0.000000
0.832413 0.417297 0.000000
0.903597 0.419102 0.000000
0.975781 0.420917 0.000000
0.000000 0.450000 0.000000
0.000000 0.451955 0.000000
0.050412 0.453938 0.000000
0.111780 0.455949 0.000000
0.174027 0.457984 0.000000
0.237167 0.460041 0.000000
0.301214 0.462120 0.000000
0.366183 0.464218 0.000000
0.432085 0.466334 0.000000
0.498934 0.468466 0.000000
0.566741 0.470614 0.000000
0.635516 0.472776 0.000000
0.705271 0.474951 0.000000
0.776015 0.477139 0.000000
0.847760 0.479337 0.000000
0.920513 0.481546 0.000000
0.994285 0.483765 0.000000
0.000000 0.508603 0.000000
0.000000 0.510980 0.000000
0.048517 0.513384 0.000000
0.111213 0.515813 0.000000
0.174815 0.518265 0.000000
0.239338 0.520738 0.000000
0.304794 0.523231 0.000000
0.371196 0.525743 0.000000
0.438554 0.528272 0.000000
0.506879 0.530817 0.000000
0.576184 0.533378 0.000000
0.646476 0.535952 0.000000
0.717767 0.538540 0.000000
0.790067 0.541139 0.000000
0.863383 0.543751 0.000000
0.937724 0.546372 0.000000
1.000000 0.549004 0.000000
0.000000 0.569522 0.000000
0.000000 0.572328 0.000000
0.046528 0.575158 0.000000
0.110590 0.578013 0.000000
0.175586 0.580888 0.000000
0.241526 0.583785 0.000000
0.308422 0.586700 0.000000
0.376285 0.589634 0.000000
0.445126 0.592584 0.000000
0.514955 0.595551 0.000000
0.585781 0.598532 0.000000
0.657614 0.601527 0.000000
0.730463 0.604535 0.000000
0.804336 0.607556 0.000000
0.879243 0.610588 0.000000
0.955192 0.613631 0.000000
1.000000 0.616684 0.000000
0.000000 0.632810 0.000000
0.000000 0.636050 0.000000
0.044433 0.639314 0.000000
0.109899 0.642600 0.000000
0.176321 0.645907 0.000000
0.243709 0.649233 0.000000
0.312075 0.652579 0.000000
0.381427 0.655941 0.000000
0.451777 0.659321 0.000000
0.523132 0.662716 0.000000
0.595503 0.666125 0.000000
0.668898 0.669549 0.000000
0.743325 0.672986 0.000000
0.818793 0.676435 0.000000
0.895310 0.679896 0.000000
0.972883 0.683368 0.000000
1.000000 0.686850 0.000000
0.000000 0.698517 0.000000
0.000000 0.702197 0.000000
0.042226 0.705900 0.000000
0.109128 0.709624 0.000000
0.177006 0.713368 0.000000
0.245871 0.717132 0.000000
0.315733 0.720914 0.000000
0.386601 0.724713 0.000000
0.458483 0.728528 0.000000
0.531388 0.732359 0.000000
0.605326 0.736204 0.000000
0.680303 0.740064 0.000000
0.756329 0.743936 0.000000
0.833410 0.747821 0.000000
0.911555 0.751718 0.000000
0.990770 0.755626 0.000000
1.000000 0.758725 0.000000
0.000000 0.766687 0.000000
0.000000 0.770813 0.000000
0.039898 0.774961 0.000000
0.108266 0.779130 0.000000
0.177629 0.783318 0.000000
0.247998 0.787525 0.000000
0.319381 0.791750 0.000000
0.391788 0.795992 0.000000
0.465226 0.800250 0.000000
0.539703 0.804523 0.000000
0.615228 0.808811 0.000000
0.691808 0.813113 0.000000
0.769450 0.817429 0.000000
0.847032 0.820746 0.000000
0.920113 0.819659 0.000000
0.993193 0.818571 0.000000
1.000000 0.817484 0.000000
0.000000 0.837363 0.000000
0.000000 0.841941 0.000000
0.037444 0.846540 0.000000
0.107305 0.851159 0.000000
0.178180 0.855798 0.000000
0.250077 0.860454 0.000000
0.323006 0.865129 0.000000
0.396974 0.869820 0.000000
0.471989 0.874527 0.000000
0.548059 0.879249 0.000000
0.624256 0.882767 0.000000
0.697336 0.881680 0.000000
0.770417 0.880592 0.000000
0.843498 0.879505 0.000000
0.916578 0.878418 0.000000
0.989659 0.877330 0.000000
1.000000 0.876243 0.000000
0.000000 0.000000 0.007583
0.017181 0.000000 0.006720
0.072357 0.000000 0.005858
0.127533 0.000000 0.004996
0.182709 0.000000 0.004133
0.237885 0.000000 0.003271
0.293061 0.000000 0.002409
0.348237 0.000000 0.001546
0.403413 0.000000 0.000684
0.458589 0.000000 0.000000
0.513765 0.000000 0.000000
0.568940 0.000000 0.000000
0.624116 0.000000 0.000000
0.679292 0.000000 0.000000
0.734468 0.000000 0.000000
0.789644 0.000000 0.000000
0.844820 0.000000 0.000000
0.000000 0.009257 0.004976
0.014513 0.008415 0.004114
0.069689 0.007574 0.003251
0.124865 0.006732 0.002389
0.180040 0.005890 0.001527
0.235216 0.005048 0.000664
0.290392 0.004206 0.000000
0.345568 0.003364 0.000000
0.400744 0.002522 0.000000
0.455920 0.001680 0.000000
0.511096 0.000838 0.000000
0.566272 0.000000 0.000000
0.621448 0.000000 0.000000
0.676624 0.000000 0.000000
0.732188 0.000000 0.000000
0.790643 0.000000 0.000000
0.850289 0.000000 0.000000
0.000000 0.054748 0.002369
0.011844 0.053906 0.001507
0.067020 0.053064 0.000645
0.122196 0.052222 0.000000
0.177372 0.051381 0.000000
0.232548 0.050539 0.000000
0.287724 0.049697 0.000000
0.342900 0.048855 0.000000
0.398076 0.048013 0.000000
0.453252 0.047171 0.000000
0.508428 0.046329 0.000000
0.563945 0.045512 0.000000
0.621729 0.044837 0.000000
0.680549 0.044189 0.000000
0.740280 0.043552 0.000000
0.800899 0.042921 0.000000
0.862407 0.042291 0.000000
0.000000 0.100239 0.000000
0.009176 0.099397 0.000000
0.064352 0.098555 0.000000
0.119527 0.097713 0.000000
0.174703 0.096871 0.000000
0.229879 0.096029 0.000000
0.285055 0.095187 0.000000
0.340231 0.094346 0.000000
0.395677 0.093561 0.000000
0.452779 0.093068 0.000000
0.510768 0.092637 0.000000
0.569584 0.092239 0.000000
0.629229 0.091861 0.000000
0.689714 0.091497 0.000000
0.751053 0.091143 0.000000
0.813262 0.090796 0.000000
0.876356 0.090454 0.000000
0.000000 0.145730 0.000000
0.006507 0.144888 0.000000
0.061683 0.144046 0.000000
0.116859 0.143204 0.000000
0.172035 0.142362 0.000000
0.227384 0.141617 0.000000
0.283793 0.141308 0.000000
0.340947 0.141096 0.000000
0.398845 0.140937 0.000000
0.457513 0.140813 0.000000
0.516972 0.140716 0.000000
0.577246 0.140639 0.000000
0.638355 0.140577 0.000000
0.700317 0.140528 0.000000
0.763150 0.140489 0.000000
0.826870 0.140457 0.000000
0.891492 0.140432 0.000000
0.000000 0.191220 0.000000
0.003839 0.190378 0.000000
0.059064 0.189679 0.000000
0.114771 0.189558 0.000000
0.171085 0.189566 0.000000
0.228063 0.189646 0.000000
0.285751 0.189778 0.000000
0.344183 0.189947 0.000000
0.403389 0.190147 0.000000
0.463396 0.190372 0.000000
0.524225 0.190616 0.000000
0.585897 0.190878 0.000000
0.648431 0.191154 0.000000
0.711844 0.191442 0.000000
0.776152 0.191740 0.000000
0.841369 0.192046 0.000000
0.907511 0.192359 0.000000
0.000000 0.237817 0.000000
0.001182 0.238046 0.000000
0.057237 0.238367 0.000000
0.113942 0.238754 0.000000
0.171345 0.239191 0.000000
0.229483 0.239668 0.000000
0.288385 0.240179 0.000000
0.348080 0.240718 0.000000
0.408590 0.241281 0.000000
0.469937 0.241865 0.000000
0.532139 0.242467 0.000000
0.595215 0.243084 0.000000
0.659180 0.243715 0.000000
0.724050 0.244358 0.000000
0.789839 0.245010 0.000000
0.856560 0.245672 0.000000
0.924227 0.246341 0.000000
0.000000 0.287742 0.000000
0.000000 0.288446 0.000000
0.055526 0.289202 0.000000
0.113324 0.290000 0.000000
0.171883 0.290833 0.000000
0.231230 0.291698 0.000000
0.291388 0.292590 0.000000
0.352378 0.293506 0.000000
0.414221 0.294443 0.000000
0.476933 0.295399 0.000000
0.540530 0.296371 0.000000
0.605029 0.297358 0.000000
0.670443 0.298358 0.000000
0.736787 0.299370 0.000000
0.804072 0.300392 0.000000
0.872311 0.301424 0.000000
0.941515 0.302463 0.000000
0.000000 0.339833 0.000000
0.000000 0.340962 0.000000
0.053815 0.342129 0.000000
0.112784 0.343330 0.000000
0.172562 0.344560 0.000000
0.233170 0.345817 0.000000
0.294627 0.347097 0.000000
0.356952 0.348400 0.000000
0.420159 0.349721 0.000000
0.484266 0.351060 0.000000
0.549285 0.352415 0.000000
0.615231 0.353784 0.000000
0.682116 0.355166 0.000000
0.749953 0.356560 0.000000
0.818752 0.357965 0.000000
0.888526 0.359379 0.000000
0.959284 0.360802 0.000000
0.000000 0.394083 0.000000
0.000000 0.395628 0.000000
0.052062 0.397205 0.000000
0.112264 0.398811 0.000000
0.173315 0.400443 0.000000
0.235231 0.402099 0.000000
0.298028 0.403778 0.000000
0.361723 0.405476 0.000000
0.426329 0.407192 0.000000
0.491859 0.408925 0.000000
0.558327 0.410674 0.000000
0.625745 0.412436 0.000000
0.694123 0.414211 0.000000
0.763474 0.415999 0.000000
0.833808 0.417797 0.000000
0.905134 0.419604 0.000000
0.977464 0.421421 0.000000
0.000000 0.450539 0.000000
0.000000 0.452502 0.000000
0.050242 0.454493 0.000000
0.111730 0.456510 0.000000
0.174099 0.458552 0.000000
0.237365 0.460616 0.000000
0.301540 0.462700 0.000000
0.366639 0.464803 0.000000
0.432673 0.466923 0.000000
0.499656 0.469060 0.000000
0.567599 0.471212 0.000000
0.636513 0.473378 0.000000
0.706408 0.475557 0.000000
0.777294 0.477747 0.000000
0.849181 0.479949 0.000000
0.922080 0.482160 0.000000
0.995998 0.484381 0.000000
0.000000 0.509259 0.000000
0.000000 0.511644 0.000000
0.048339 0.514055 0.000000
0.111158 0.516490 0.000000
0.174887 0.518948 0.000000
0.239539 0.521427 0.000000
0.305125 0.523926 0.000000
0.371660 0.526442 0.000000
0.439152 0.528976 0.000000
0.507615 0.531526 0.000000
0.577058 0.534090 0.000000
0.647491 0.536668 0.000000
0.718924 0.539259 0.000000
0.791367 0.541862 0.000000
0.864828 0.544476 0.000000
0.939316 0.547101 0.000000
1.000000 0.549735 0.000000
0.000000 0.570297 0.000000
0.000000 0.573110 0.000000
0.046340 0.575947 0.000000
0.110530 0.578808 0.000000
0.175655 0.581689 0.000000
0.241727 0.584591 0.000000
0.308756 0.587512 0.000000
0.376755 0.590450 0.000000
0.445733 0.593405 0.000000
0.515701 0.596375 0.000000
0.586668 0.599361 0.000000
0.658643 0.602359 0.000000
0.731636 0.605371 0.000000
0.805655 0.608395 0.000000
0.880709 0.611430 0.000000
0.956806 0.614476 0.000000
1.000000 0.617532 0.000000
0.000000 0.633706 0.000000
0.000000 0.636953 0.000000
0.044236 0.640223 0.000000
0.109832 0.643515 0.000000
0.176386 0.646827 0.000000
0.243909 0.650159 0.000000
0.312410 0.653509 0.000000
0.381901 0.656876 0.000000
0.452390 0.660260 0.000000
0.523886 0.663659 0.000000
0.596400 0.667073 0.000000
0.669939 0.670500 0.000000
0.744512 0.673941 0.000000
0.820127 0.677393 0.000000
0.896793 0.680857 0.000000
0.974516 0.684332 0.000000
1.000000 0.687817 0.000000
0.000000 0.699534 0.000000
0.000000 0.703221 0.000000
0.042017 0.706930 0.000000
0.109052 0.710660 0.000000
0.177066 0.714410 0.000000
0.246068 0.718179 0.000000
0.316068 0.721965 0.000000
0.387076 0.725769 0.000000
0.459100 0.729589 0.000000
0.532149 0.733423 0.000000
0.606231 0.737273 0.000000
0.681354 0.741136 0.000000
0.757527 0.745012 0.000000
0.834757 0.748900 0.000000
0.913052 0.752800 0.000000
0.992419 0.756711 0.000000
1.000000 0.758423 0.000000
0.000000 0.767828 0.000000
0.000000 0.771960 0.000000
0.039678 0.776114 0.000000
0.108182 0.780289 0.000000
0.177683 0.784482 0.000000
0.248191 0.788694 0.000000
0.319715 0.792924 0.000000
0.392264 0.797171 0.000000
0.465845 0.801433 0.000000
0.540468 0.805711 0.000000
0.616139 0.810003 0.000000
0.692867 0.814308 0.000000
0.770659 0.818627 0.000000
0.846708 0.820445 0.000000
0.919789 0.819357 0.000000
0.992869 0.818270 0.000000
1.000000 0.817182 0.000000
0.000000 0.838630 0.000000
0.000000 0.843214 0.000000
0.037212 0.847818 0.000000
0.107211 0.852443 0.000000
0.178226 0.857087 0.000000
0.250265 0.861748 0.000000
0.323337 0.866427 0.000000
0.397449 0.871123 0.000000
0.472610 0.875835 0.000000
0.548827 0.880561 0.000000
0.623931 0.882466 0.000000
0.697012 0.881378 0.000000
0.770093 0.880291 0.000000
0.843173 0.879204 0.000000
0.916254 0.878116 0.000000
0.989335 0.877029 0.000000
1.000000 0.875941 0.000000
0.000000 0.000000 0.052040
0.016936 0.000000 0.051178
0.072112 0.000000 0.050316
0.127288 0.000000 0.049453
0.182464 0.000000 0.048591
0.237640 0.000000 0.047729
0.292816 0.000000 0.046866
0.347992 0.000000 0.046004
0.403168 0.000000 0.045142
0.458344 0.000000 0.044279
0.513520 0.000000 0.043417
0.568696 0.000000 0.042554
0.623872 0.000000 0.041692
0.679048 0.000000 0.040830
0.734224 0.000000 0.039967
0.789399 0.000000 0.039105
0.844575 0.000000 0.038243
0.000000 0.009024 0.049434
0.014268 0.008182 0.048571
0.069444 0.007340 0.047709
0.124620 0.006498 0.046847
0.179796 0.005656 0.045984
0.234972 0.004815 0.045122
0.290148 0.003973 0.044260
0.345324 0.003131 0.043397
0.400499 0.002289 0.042535
0.455675 0.001447 0.041672
0.510851 0.000605 0.040810
0.566027 0.000000 0.039948
0.621203 0.000000 0.039085
0.676379 0.000000 0.038223
0.732675 0.000000 0.037382
0.791439 0.000000 0.036578
0.851290 0.000000 0.035781
0.000000 0.054515 0.046827
0.011599 0.053673 0.045965
0.066775 0.052831 0.045102
0.121951 0.051989 0.044240
0.177127 0.051147 0.043378
0.232303 0.050305 0.042515
0.287479 0.049463 0.041653
0.342655 0.048621 0.040791
0.397831 0.047780 0.039928
0.453007 0.046938 0.039066
0.508183 0.046096 0.038203
0.564271 0.045320 0.037363
0.622305 0.044655 0.036560
0.681302 0.044011 0.035763
0.741193 0.043377 0.034969
0.801966 0.042746 0.034175
0.863625 0.042116 0.033380
0.000000 0.100005 0.044220
0.008931 0.099164 0.043358
0.064107 0.098322 0.042496
0.119283 0.097480 0.041633
0.174459 0.096638 0.040771
0.229635 0.095796 0.039909
0.284811 0.094954 0.039046
0.339986 0.094112 0.038184
0.395838 0.093414 0.037345
0.453134 0.092944 0.036542
0.511273 0.092524 0.035745
0.570231 0.092132 0.034951
0.630014 0.091759 0.034157
0.690638 0.091398 0.033362
0.752116 0.091047 0.032567
0.814466 0.090701 0.031769
0.877701 0.090359 0.030970
0.000000 0.145496 0.041614
0.006262 0.144654 0.040751
0.061438 0.143812 0.039889
0.116614 0.142971 0.039027
0.171790 0.142129 0.038164
0.227374 0.141515 0.037326
0.283925 0.141242 0.036524
0.341202 0.141048 0.035727
0.399224 0.140900 0.034932
0.458016 0.140784 0.034139
0.517602 0.140693 0.033344
0.578005 0.140620 0.032548
0.639245 0.140563 0.031751
0.701340 0.140517 0.030951
0.764308 0.140480 0.030149
0.828166 0.140450 0.029344
0.892928 0.140426 0.028536
0.000000 0.190987 0.039007
0.003594 0.190145 0.038145
0.058881 0.189625 0.037308
0.114678 0.189551 0.036506
0.171090 0.189582 0.035709
0.228173 0.189678 0.034914
0.285971 0.189821 0.034120
0.344518 0.190000 0.033326
0.403844 0.190207 0.032530
0.463972 0.190438 0.031733
0.524926 0.190687 0.030933
0.586727 0.190953 0.030131
0.649391 0.191233 0.029326
0.712938 0.191524 0.028517
0.777381 0.191824 0.027706
0.842736 0.192132 0.026891
0.909017 0.192447 0.026072
0.000000 0.237868 0.036487
0.000936 0.238127 0.035691
0.057078 0.238468 0.034896
0.113880 0.238870 0.034102
0.171386 0.239319 0.033308
0.229632 0.239807 0.032512
0.288648 0.240326 0.031715
0.348460 0.240872 0.030915
0.409091 0.241441 0.030113
0.470562 0.242030 0.029307
0.532891 0.242637 0.028499
0.596096 0.243258 0.027687
0.660193 0.243892 0.026872
0.725198 0.244538 0.026053
0.791123 0.245193 0.025230
0.857983 0.245857 0.024403
0.925790 0.246528 0.023572
0.000000 0.287931 0.034084
0.000000 0.288651 0.033290
0.055370 0.289419 0.032494
0.113272 0.290227 0.031697
0.171940 0.291070 0.030897
0.231401 0.291943 0.030094
0.291676 0.292842 0.029289
0.352788 0.293764 0.028481
0.414754 0.294706 0.027669
0.477592 0.295667 0.026854
0.541319 0.296643 0.026034
0.605950 0.297634 0.025212
0.671498 0.298638 0.024385
0.737977 0.299653 0.023553
0.805401 0.300677 0.022718
0.873780 0.301711 0.021878
0.943126 0.302753 0.021034
0.000000 0.340142 0.031678
0.000000 0.341282 0.030879
0.053657 0.342459 0.030076
0.112736 0.343668 0.029271
0.172628 0.344906 0.028462
0.233355 0.346169 0.027650
0.294933 0.347456 0.026835
0.357382 0.348764 0.026016
0.420717 0.350091 0.025193
0.484952 0.351434 0.024366
0.550103 0.352793 0.023534
0.616183 0.354166 0.022699
0.683204 0.355552 0.021859
0.751179 0.356949 0.021014
0.820118 0.358356 0.020165
0.890034 0.359773 0.019311
0.960935 0.361197 0.018453
0.000000 0.394508 0.029252
0.000000 0.396062 0.028444
0.051898 0.397647 0.027632
0.112216 0.399261 0.026816
0.173386 0.400900 0.025997
0.235424 0.402563 0.025174
0.298346 0.404246 0.024347
0.362168 0.405950 0.023516
0.426904 0.407671 0.022680
0.492566 0.409408 0.021840
0.559169 0.411161 0.020995
0.626722 0.412927 0.020146
0.695239 0.414706 0.019292
0.764730 0.416496 0.018433
0.835205 0.418297 0.017570
0.906675 0.420107 0.016701
0.979149 0.421926 0.015827
0.000000 0.451080 0.026798
0.000000 0.453051 0.025979
0.050071 0.455050 0.025155
0.111680 0.457074 0.024328
0.174172 0.459122 0.023497
0.237563 0.461191 0.022661
0.301866 0.463281 0.021821
0.367095 0.465389 0.020976
0.433263 0.467514 0.020127
0.500380 0.469655 0.019273
0.568459 0.471811 0.018414
0.637511 0.473981 0.017550
0.707546 0.476163 0.016681
0.778575 0.478356 0.015807
0.850606 0.480561 0.014928
0.923649 0.482775 0.014044
0.997714 0.484998 0.013155
0.000000 0.509917 0.024309
0.000000 0.512310 0.023478
0.048160 0.514728 0.022642
0.111103 0.517170 0.021802
0.174959 0.519633 0.020957
0.239739 0.522118 0.020107
0.305457 0.524622 0.019253
0.372124 0.527143 0.018394
0.439752 0.529681 0.017530
0.508352 0.532235 0.016661
0.577933 0.534803 0.015787
0.648507 0.537385 0.014908
0.720082 0.539980 0.014024
0.792668 0.542586 0.013134
0.866275 0.545203 0.012240
0.940910 0.547830 0.011339
1.000000 0.550467 0.010433
0.000000 0.571074 0.021782
0.000000 0.573894 0.020937
0.046152 0.576738 0.020088
0.110469 0.579604 0.019234
0.175724 0.582492 0.018375
0.241927 0.585399 0.017511
0.309091 0.588324 0.016642
0.377225 0.591267 0.015767
0.446341 0.594227 0.014888
0.516448 0.597201 0.014004
0.587555 0.600191 0.013114
0.659673 0.603193 0.012219
0.732810 0.606208 0.011319
0.806975 0.609235 0.010413
0.882176 0.612273 0.009501
0.958421 0.615322 0.008584
1.000000 0.618380 0.007662
0.000000 0.634604 0.019214
0.000000 0.637857 0.018355
0.044037 0.641133 0.017491
0.109764 0.644431 0.016622
0.176451 0.647749 0.015748
0.244108 0.651086 0.014868
0.312746 0.654441 0.013984
0.382374 0.657813 0.013094
0.453003 0.661201 0.012199
0.524641 0.664604 0.011298
0.597298 0.668022 0.010392
0.670981 0.671453 0.009481
0.745700 0.674897 0.008563
0.821463 0.678352 0.007641
0.898277 0.681819 0.006712
0.976150 0.685297 0.005778
1.000000 0.688784 0.004838
0.000000 0.700554 0.016602
0.000000 0.704247 0.015728
0.041808 0.707962 0.014848
0.108976 0.711697 0.013964
0.177125 0.715453 0.013074
0.246265 0.719226 0.012178
0.316403 0.723018 0.011278
0.387551 0.726826 0.010372
0.459717 0.730650 0.009460
0.532909 0.734489 0.008543
0.607136 0.738342 0.007620
0.682406 0.742209 0.006691
0.758727 0.746089 0.005757
0.836106 0.749980 0.004817
0.914551 0.753884 0.003871
0.994070 0.757797 0.002919
1.000000 0.758122 0.001957
0.000000 0.768971 0.013943
0.000000 0.773110 0.013053
0.039458 0.777269 0.012158
0.108097 0.781449 0.011257
0.177736 0.785648 0.010351
0.248383 0.789865 0.009439
0.320048 0.794100 0.008522
0.392739 0.798351 0.007599
0.466465 0.802617 0.006670
0.541233 0.806899 0.005736
0.617051 0.811195 0.004795
0.693927 0.815504 0.003849
0.771868 0.819826 0.002897
0.846384 0.820143 0.001935
0.919465 0.819056 0.000970
0.992545 0.817968 0.000006
1.000000 0.816881 0.000000
0.000000 0.839898 0.011237
0.000000 0.844488 0.010330
0.036980 0.849098 0.009418
0.107117 0.853728 0.008501
0.178272 0.858377 0.007578
0.250453 0.863044 0.006649
0.323667 0.867727 0.005714
0.397924 0.872428 0.004774
0.473230 0.877143 0.003828
0.549595 0.881874 0.002876
0.623607 0.882164 0.001913
0.696688 0.881077 0.000948
0.769769 0.879990 0.000000
0.842849 0.878902 0.000000
0.915930 0.877815 0.000000
0.989011 0.876727 0.000000
1.000000 0.875640 0.000000
0.000000 0.000000 0.096498
0.016692 0.000000 0.095636
0.071868 0.000000 0.094773
0.127044 0.000000 0.093911
0.182220 0.000000 0.093049
0.237395 0.000000 0.092186
0.292571 0.000000 0.091324
0.347747 0.000000 0.090462
0.402923 0.000000 0.089599
0.458099 0.000000 0.088737
0.513275 0.000000 0.087874
0.568451 0.000000 0.087012
0.623627 0.000000 0.086150
0.678803 0.000000 0.085287
