assets/lighting/cinematic/grade-church-stained-warm/lut.cube
TITLE "Church Stained Warm"
# TKRS lighting-batch-001 original LUT
# Intended usage: interior sacred space warm dust motes feel
# License: CC0-1.0
LUT_3D_SIZE 5
DOMAIN_MIN 0.0 0.0 0.0
DOMAIN_MAX 1.0 1.0 1.0
0.000000 0.000000 0.000000
0.182954 0.000000 0.000000
0.403657 0.000000 0.000000
0.624361 0.000000 0.000000
0.845065 0.000000 0.000000
0.000000 0.145963 0.000000
0.172280 0.142595 0.000000
0.398477 0.140977 0.000000
0.637472 0.140593 0.000000
0.890064 0.140438 0.000000
0.000000 0.339528 0.000000
0.172496 0.344216 0.000000
0.419604 0.349353 0.000000
0.681031 0.354782 0.000000
0.957637 0.360407 0.000000
0.000000 0.569522 0.000000
0.175586 0.580888 0.000000
0.445126 0.592584 0.000000
0.730463 0.604535 0.000000
1.000000 0.616684 0.000000
0.000000 0.837363 0.000000
0.178180 0.855798 0.000000
0.471989 0.874527 0.000000
0.770417 0.880592 0.000000
1.000000 0.876243 0.000000
0.000000 0.000000 0.140956
0.181975 0.000000 0.137506
0.402679 0.000000 0.134057
0.623382 0.000000 0.130607
0.844091 0.000000 0.127158
0.000000 0.145029 0.130529
0.171339 0.141690 0.127090
0.400008 0.140832 0.124553
0.641047 0.140536 0.122213
0.895821 0.140414 0.119927
0.000000 0.340769 0.122161
0.172763 0.345603 0.119876
0.421836 0.350834 0.117600
0.685389 0.356325 0.115310
0.964247 0.361991 0.112990
0.000000 0.572635 0.115258
0.175861 0.584101 0.112937
0.447558 0.595874 0.110573
0.735163 0.607885 0.108158
1.000000 0.620080 0.105685
0.000000 0.842440 0.108103
0.178362 0.860962 0.105628
0.474472 0.879764 0.103089
0.769120 0.879387 0.099448
1.000000 0.875037 0.095590
0.000000 0.000000 0.318787
0.180996 0.000000 0.315337
0.401700 0.000000 0.311888
0.622403 0.000000 0.308438
0.846714 0.000000 0.305466
0.000000 0.144096 0.308360
0.171122 0.141323 0.305434
0.401669 0.140721 0.304461
0.644735 0.140491 0.303890
0.901687 0.140393 0.303522
0.000000 0.342059 0.303880
0.173039 0.347020 0.303515
0.424097 0.352334 0.303273
0.689789 0.357881 0.303108
0.970911 0.363583 0.302991
0.000000 0.575778 0.303105
0.176130 0.587337 0.302989
0.449999 0.599182 0.302899
0.739884 0.611249 0.302819
1.000000 0.623486 0.302736
0.000000 0.847543 0.302817
0.178532 0.866148 0.302734
0.475501 0.882531 0.302236
0.767824 0.878181 0.298378
1.000000 0.873831 0.294519
0.000000 0.000000 0.496617
0.180017 0.000000 0.493168
0.400721 0.000000 0.489718
0.621425 0.000000 0.486269
0.850384 0.000000 0.484550
0.000000 0.143162 0.486191
0.171085 0.141087 0.484557
0.403432 0.140635 0.485306
0.648522 0.140456 0.486602
0.907654 0.140375 0.488222
0.000000 0.343389 0.486636
0.173321 0.348464 0.488261
0.426384 0.353852 0.490108
0.694230 0.359449 0.492115
0.977625 0.365183 0.494242
0.000000 0.578949 0.492162
0.176392 0.590595 0.494292
0.452448 0.602507 0.496512
0.744626 0.614626 0.498799
1.000000 0.626903 0.501135
0.000000 0.852671 0.498851
0.178691 0.871354 0.501189
0.474205 0.881325 0.501166
0.766527 0.876975 0.497307
1.000000 0.872625 0.493448
0.000000 0.000000 0.674448
0.179038 0.000000 0.670999
0.399742 0.000000 0.667549
0.620446 0.000000 0.664100
0.854552 0.000000 0.664499
0.000000 0.142229 0.664021
0.171135 0.140915 0.664547
0.405281 0.140569 0.667135
0.652399 0.140428 0.670381
0.913715 0.140358 0.674052
0.000000 0.344757 0.670460
0.173607 0.349932 0.674139
0.428693 0.355386 0.678126
0.698707 0.361027 0.682349
0.984386 0.366790 0.686759
0.000000 0.582146 0.682447
0.176648 0.593873 0.686861
0.454905 0.605848 0.691425
0.749385 0.618015 0.696110
1.000000 0.630329 0.700895
0.000000 0.857822 0.696218
0.178838 0.876580 0.701005
0.472908 0.880119 0.700095
0.765231 0.875769 0.696236
1.000000 0.871420 0.692378
