assets/lighting/cinematic/grade-church-stained-warm/lut.cube
TITLE "Church Stained Warm"
# TKRS lighting-batch-001 original LUT
# Intended usage: interior sacred space warm dust motes feel
# License: CC0-1.0
LUT_3D_SIZE 9
DOMAIN_MIN 0.0 0.0 0.0
DOMAIN_MAX 1.0 1.0 1.0
0.000000 0.000000 0.000000
0.072602 0.000000 0.000000
0.182954 0.000000 0.000000
0.293306 0.000000 0.000000
0.403657 0.000000 0.000000
0.514009 0.000000 0.000000
0.624361 0.000000 0.000000
0.734713 0.000000 0.000000
0.845065 0.000000 0.000000
0.000000 0.054981 0.000000
0.067265 0.053298 0.000000
0.177617 0.051614 0.000000
0.287969 0.049930 0.000000
0.398320 0.048246 0.000000
0.508672 0.046563 0.000000
0.621189 0.045020 0.000000
0.739386 0.043728 0.000000
0.861205 0.042465 0.000000
0.000000 0.145963 0.000000
0.061928 0.144279 0.000000
0.172280 0.142595 0.000000
0.283677 0.141380 0.000000
0.398477 0.140977 0.000000
0.516351 0.140741 0.000000
0.637472 0.140593 0.000000
0.761998 0.140499 0.000000
0.890064 0.140438 0.000000
0.000000 0.237776 0.000000
0.057396 0.238270 0.000000
0.171307 0.239065 0.000000
0.288126 0.240034 0.000000
0.408093 0.241123 0.000000
0.531391 0.242299 0.000000
0.658171 0.243539 0.000000
0.788559 0.244828 0.000000
0.922669 0.246155 0.000000
0.000000 0.339528 0.000000
0.053973 0.341802 0.000000
0.172496 0.344216 0.000000
0.294323 0.346740 0.000000
0.419604 0.349353 0.000000
0.548469 0.352038 0.000000
0.681031 0.354782 0.000000
0.817389 0.357575 0.000000
0.957637 0.360407 0.000000
0.000000 0.450000 0.000000
0.050412 0.453938 0.000000
0.174027 0.457984 0.000000
0.301214 0.462120 0.000000
0.432085 0.466334 0.000000
0.566741 0.470614 0.000000
0.705271 0.474951 0.000000
0.847760 0.479337 0.000000
0.994285 0.483765 0.000000
0.000000 0.569522 0.000000
0.046528 0.575158 0.000000
0.175586 0.580888 0.000000
0.308422 0.586700 0.000000
0.445126 0.592584 0.000000
0.585781 0.598532 0.000000
0.730463 0.604535 0.000000
0.879243 0.610588 0.000000
1.000000 0.616684 0.000000
0.000000 0.698517 0.000000
0.042226 0.705900 0.000000
0.177006 0.713368 0.000000
0.315733 0.720914 0.000000
0.458483 0.728528 0.000000
0.605326 0.736204 0.000000
0.756329 0.743936 0.000000
0.911555 0.751718 0.000000
1.000000 0.758725 0.000000
0.000000 0.837363 0.000000
0.037444 0.846540 0.000000
0.178180 0.855798 0.000000
0.323006 0.865129 0.000000
0.471989 0.874527 0.000000
0.624256 0.882767 0.000000
0.770417 0.880592 0.000000
0.916578 0.878418 0.000000
1.000000 0.876243 0.000000
0.000000 0.000000 0.052040
0.072112 0.000000 0.050316
0.182464 0.000000 0.048591
0.292816 0.000000 0.046866
0.403168 0.000000 0.045142
0.513520 0.000000 0.043417
0.623872 0.000000 0.041692
0.734224 0.000000 0.039967
0.844575 0.000000 0.038243
0.000000 0.054515 0.046827
0.066775 0.052831 0.045102
0.177127 0.051147 0.043378
0.287479 0.049463 0.041653
0.397831 0.047780 0.039928
0.508183 0.046096 0.038203
0.622305 0.044655 0.036560
0.741193 0.043377 0.034969
0.863625 0.042116 0.033380
0.000000 0.145496 0.041614
0.061438 0.143812 0.039889
0.171790 0.142129 0.038164
0.283925 0.141242 0.036524
0.399224 0.140900 0.034932
0.517602 0.140693 0.033344
0.639245 0.140563 0.031751
0.764308 0.140480 0.030149
0.892928 0.140426 0.028536
0.000000 0.237868 0.036487
0.057078 0.238468 0.034896
0.171386 0.239319 0.033308
0.288648 0.240326 0.031715
0.409091 0.241441 0.030113
0.532891 0.242637 0.028499
0.660193 0.243892 0.026872
0.791123 0.245193 0.025230
0.925790 0.246528 0.023572
0.000000 0.340142 0.031678
0.053657 0.342459 0.030076
0.172628 0.344906 0.028462
0.294933 0.347456 0.026835
0.420717 0.350091 0.025193
0.550103 0.352793 0.023534
0.683204 0.355552 0.021859
0.820118 0.358356 0.020165
0.960935 0.361197 0.018453
0.000000 0.451080 0.026798
0.050071 0.455050 0.025155
0.174172 0.459122 0.023497
0.301866 0.463281 0.021821
0.433263 0.467514 0.020127
0.568459 0.471811 0.018414
0.707546 0.476163 0.016681
0.850606 0.480561 0.014928
0.997714 0.484998 0.013155
0.000000 0.571074 0.021782
0.046152 0.576738 0.020088
0.175724 0.582492 0.018375
0.309091 0.588324 0.016642
0.446341 0.594227 0.014888
0.587555 0.600191 0.013114
0.732810 0.606208 0.011319
0.882176 0.612273 0.009501
1.000000 0.618380 0.007662
0.000000 0.700554 0.016602
0.041808 0.707962 0.014848
0.177125 0.715453 0.013074
0.316403 0.723018 0.011278
0.459717 0.730650 0.009460
0.607136 0.738342 0.007620
0.758727 0.746089 0.005757
0.914551 0.753884 0.003871
1.000000 0.758122 0.001957
0.000000 0.839898 0.011237
0.036980 0.849098 0.009418
0.178272 0.858377 0.007578
0.323667 0.867727 0.005714
0.473230 0.877143 0.003828
0.623607 0.882164 0.001913
0.769769 0.879990 0.000000
0.915930 0.877815 0.000000
1.000000 0.875640 0.000000
0.000000 0.000000 0.140956
0.071623 0.000000 0.139231
0.181975 0.000000 0.137506
0.292327 0.000000 0.135782
0.402679 0.000000 0.134057
0.513030 0.000000 0.132332
0.623382 0.000000 0.130607
0.733734 0.000000 0.128883
0.844091 0.000000 0.127158
0.000000 0.054048 0.135742
0.066286 0.052364 0.134018
0.176638 0.050680 0.132293
0.286990 0.048997 0.130568
0.397342 0.047313 0.128844
0.507746 0.045633 0.127124
0.623545 0.044297 0.125802
0.743071 0.043027 0.124580
0.866100 0.041767 0.123399
0.000000 0.145029 0.130529
0.060949 0.143346 0.128804
0.171339 0.141690 0.127090
0.284226 0.141128 0.125774
0.400008 0.140832 0.124553
0.518886 0.140651 0.123372
0.641047 0.140536 0.122213
0.766648 0.140462 0.121067
0.895821 0.140414 0.119927
0.000000 0.238000 0.125745
0.056762 0.238685 0.124526
0.171473 0.239585 0.123346
0.289182 0.240626 0.122187
0.410103 0.241766 0.121041
0.534406 0.242979 0.119901
0.662232 0.244249 0.118764
0.793705 0.245560 0.117626
0.928930 0.246902 0.116484
0.000000 0.340769 0.122161
0.053338 0.343125 0.121015
0.172763 0.345603 0.119876
0.295549 0.348179 0.118738
0.421836 0.350834 0.117600
0.551747 0.353553 0.116458
0.685389 0.356325 0.115310
0.822859 0.359140 0.114154
0.964247 0.361991 0.112990
0.000000 0.452169 0.118713
0.049727 0.456169 0.117574
0.174317 0.460267 0.116432
0.302520 0.464447 0.115284
0.434444 0.468699 0.114128
0.570184 0.473012 0.112963
0.709830 0.477377 0.111788
0.853461 0.481787 0.110600
1.000000 0.486235 0.109400
0.000000 0.572635 0.115258
0.045772 0.578324 0.114102
0.175861 0.584101 0.112937
0.309760 0.589954 0.111761
0.447558 0.595874 0.110573
0.589334 0.601853 0.109373
0.735163 0.607885 0.108158
0.885115 0.613962 0.106930
1.000000 0.620080 0.105685
0.000000 0.702599 0.111734
0.041386 0.710030 0.110546
0.177242 0.717543 0.109345
0.317073 0.725127 0.108131
0.460953 0.732777 0.106901
0.608950 0.740485 0.105657
0.761129 0.748245 0.104396
0.917553 0.756052 0.103118
1.000000 0.757519 0.101421
0.000000 0.842440 0.108103
0.036511 0.851663 0.106873
0.178362 0.860962 0.105628
0.324327 0.870331 0.104367
0.474472 0.879764 0.103089
0.622959 0.881562 0.101378
0.769120 0.879387 0.099448
0.915282 0.877212 0.097519
1.000000 0.875037 0.095590
0.000000 0.000000 0.229871
0.071134 0.000000 0.228146
0.181485 0.000000 0.226422
0.291837 0.000000 0.224697
0.402189 0.000000 0.222972
0.512541 0.000000 0.221248
0.622893 0.000000 0.219523
0.733245 0.000000 0.217798
0.845175 0.000000 0.216221
0.000000 0.053581 0.224658
0.065797 0.051897 0.222933
0.176148 0.050214 0.221208
0.286500 0.048530 0.219484
0.396852 0.046846 0.217759
0.508246 0.045246 0.216197
0.624880 0.043942 0.215239
0.745013 0.042677 0.214411
0.868628 0.041417 0.213653
0.000000 0.144563 0.219444
0.060459 0.142879 0.217720
0.171194 0.141480 0.216172
0.284568 0.141030 0.215219
0.400824 0.140773 0.214393
0.520199 0.140613 0.213636
0.642878 0.140512 0.212925
0.769015 0.140447 0.212245
0.898741 0.140403 0.211588
0.000000 0.238161 0.215199
0.056448 0.238917 0.214376
0.171568 0.239862 0.213620
0.289726 0.240933 0.212909
0.411127 0.242096 0.212230
0.535935 0.243326 0.211573
0.664288 0.244608 0.210934
0.796304 0.245929 0.210306
0.932089 0.247279 0.209687
0.000000 0.341408 0.212893
0.053018 0.343801 0.212215
0.172901 0.346308 0.211559
0.296170 0.348907 0.210920
0.422963 0.351581 0.210292
0.553399 0.354316 0.209673
0.687584 0.357101 0.209059
0.825613 0.359927 0.208447
0.967573 0.362786 0.207835
0.000000 0.453267 0.210905
0.049380 0.457296 0.210278
0.174462 0.461418 0.209659
0.303177 0.465619 0.209045
0.435630 0.469889 0.208433
0.571915 0.474217 0.207821
0.712120 0.478596 0.207207
0.856324 0.483016 0.206590
1.000000 0.487473 0.205968
0.000000 0.574202 0.209031
0.045389 0.579917 0.208419
0.175996 0.585716 0.207807
0.310430 0.591589 0.207193
0.448777 0.597526 0.206576
0.591116 0.603520 0.205954
0.737521 0.609565 0.205325
0.888060 0.615654 0.204688
1.000000 0.621782 0.204043
0.000000 0.704650 0.207179
0.040960 0.712105 0.206562
0.177357 0.719638 0.205939
0.317743 0.727241 0.205310
0.462189 0.734908 0.204674
0.610765 0.742631 0.204028
0.763535 0.750405 0.203373
0.920560 0.758224 0.202707
1.000000 0.756916 0.200886
0.000000 0.844989 0.205296
0.036038 0.854233 0.204659
0.178448 0.863552 0.204013
0.324986 0.872940 0.203358
0.475714 0.882389 0.202691
0.622311 0.880959 0.200842
0.768472 0.878784 0.198913
0.914634 0.876609 0.196984
1.000000 0.874434 0.195054
0.000000 0.000000 0.318787
0.070644 0.000000 0.317062
0.180996 0.000000 0.315337
0.291348 0.000000 0.313612
0.401700 0.000000 0.311888
0.512052 0.000000 0.310163
0.622403 0.000000 0.308438
0.732755 0.000000 0.306714
0.846714 0.000000 0.305466
0.000000 0.053114 0.313573
0.065307 0.051431 0.311848
0.175659 0.049747 0.310124
0.286011 0.048063 0.308399
0.396363 0.046379 0.306674
0.508989 0.044876 0.305450
0.626292 0.043590 0.304882
0.747010 0.042328 0.304469
0.871203 0.041066 0.304149
0.000000 0.144096 0.308360
0.059970 0.142412 0.306635
0.171122 0.141323 0.305434
0.284943 0.140945 0.304872
0.401669 0.140721 0.304461
0.521538 0.140581 0.304143
0.644735 0.140491 0.303890
0.771408 0.140433 0.303687
0.901687 0.140393 0.303522
0.000000 0.238346 0.304861
0.056136 0.239163 0.304453
0.171669 0.240148 0.304137
0.290280 0.241247 0.303885
0.412164 0.242431 0.303683
0.537479 0.243677 0.303519
0.666359 0.244971 0.303385
0.798920 0.246301 0.303275
0.935265 0.247657 0.303184
0.000000 0.342059 0.303880
0.052696 0.344486 0.303679
0.173039 0.347020 0.303515
0.296795 0.349642 0.303382
0.424097 0.352334 0.303273
0.555060 0.355084 0.303182
0.689789 0.357881 0.303108
0.828378 0.360717 0.303045
0.970911 0.363583 0.302991
0.000000 0.454374 0.303379
0.049031 0.458430 0.303270
0.174606 0.462575 0.303181
0.303835 0.466797 0.303106
0.436819 0.471084 0.303043
0.573652 0.475426 0.302990
0.714418 0.479817 0.302943
0.859197 0.484248 0.302900
1.000000 0.488714 0.302860
0.000000 0.575778 0.303105
0.045002 0.581517 0.303042
0.176130 0.587337 0.302989
0.311101 0.593228 0.302942
0.449999 0.599182 0.302899
0.592903 0.605191 0.302859
0.739884 0.611249 0.302819
0.891012 0.617349 0.302779
1.000000 0.623486 0.302736
0.000000 0.706708 0.302941
0.040530 0.714186 0.302898
0.177470 0.721739 0.302858
0.318412 0.729360 0.302818
0.463427 0.737043 0.302778
0.612583 0.744781 0.302735
0.765945 0.752568 0.302689
0.921054 0.758488 0.302280
1.000000 0.756313 0.300351
0.000000 0.847543 0.302817
0.035560 0.856809 0.302777
0.178532 0.866148 0.302734
0.325643 0.875553 0.302688
0.475501 0.882531 0.302236
0.621662 0.880356 0.300307
0.767824 0.878181 0.298378
0.913985 0.876006 0.296448
1.000000 0.873831 0.294519
0.000000 0.000000 0.407702
0.070155 0.000000 0.405977
0.180507 0.000000 0.404252
0.290858 0.000000 0.402528
0.401210 0.000000 0.400803
0.511562 0.000000 0.399078
0.621914 0.000000 0.397354
0.732266 0.000000 0.395629
0.848471 0.000000 0.394905
0.000000 0.052648 0.402489
0.064818 0.050964 0.400764
0.175169 0.049280 0.399039
0.285521 0.047596 0.397314
0.395873 0.045913 0.395590
0.509857 0.044514 0.394898
0.627769 0.043239 0.394743
0.749059 0.041979 0.394761
0.873823 0.040714 0.394893
0.000000 0.143629 0.397275
0.059481 0.141945 0.395551
0.171090 0.141195 0.394892
0.285345 0.140872 0.394742
0.402539 0.140676 0.394763
0.522903 0.140552 0.394897
0.646617 0.140473 0.395115
0.773827 0.140421 0.395397
0.904659 0.140384 0.395732
0.000000 0.238551 0.394741
0.055823 0.239422 0.394765
0.171776 0.240443 0.394901
0.290844 0.241568 0.395120
0.413212 0.242771 0.395404
0.539036 0.244032 0.395740
0.668444 0.245337 0.396119
0.801551 0.246674 0.396534
0.938459 0.248036 0.396978
0.000000 0.342719 0.395126
0.052372 0.345179 0.395411
0.173180 0.347739 0.395748
0.297425 0.350382 0.396128
0.425237 0.353091 0.396543
0.556730 0.355855 0.396989
0.692005 0.358663 0.397459
0.831154 0.361508 0.397950
0.974262 0.364383 0.398459
0.000000 0.455488 0.396137
0.048678 0.459570 0.396553
0.174750 0.463738 0.396999
0.304495 0.467979 0.397470
0.438013 0.472282 0.397962
0.575394 0.476639 0.398471
0.716723 0.481042 0.398995
0.862077 0.485483 0.399531
1.000000 0.489958 0.400077
0.000000 0.577360 0.397481
0.044611 0.583123 0.397973
0.176262 0.588963 0.398483
0.311771 0.594873 0.399007
0.451223 0.600843 0.399544
0.594692 0.606866 0.400090
0.742252 0.612936 0.400643
0.893970 0.619047 0.401203
1.000000 0.625194 0.401766
0.000000 0.708773 0.399019
0.040096 0.716272 0.399556
0.177580 0.723845 0.400102
0.319080 0.731484 0.400656
0.464665 0.739183 0.401216
0.614404 0.746935 0.401779
0.768358 0.754734 0.402346
0.920406 0.757885 0.401745
1.000000 0.755711 0.399815
0.000000 0.850104 0.400669
0.035078 0.859391 0.401228
0.178613 0.868749 0.401792
0.326299 0.878171 0.402358
0.474853 0.881928 0.401701
0.621014 0.879753 0.399772
0.767176 0.877578 0.397842
0.913337 0.875403 0.395913
1.000000 0.873228 0.393984
0.000000 0.000000 0.496617
0.069665 0.000000 0.494893
0.180017 0.000000 0.493168
0.290369 0.000000 0.491443
0.400721 0.000000 0.489718
0.511073 0.000000 0.487994
0.621425 0.000000 0.486269
0.732229 0.000000 0.484654
0.850384 0.000000 0.484550
0.000000 0.052181 0.491404
0.064328 0.050497 0.489679
0.174680 0.048813 0.487955
0.285032 0.047130 0.486230
0.395689 0.045477 0.484642
0.510815 0.044157 0.484553
0.629304 0.042890 0.484829
0.751154 0.041630 0.485293
0.876484 0.040361 0.485889
0.000000 0.143162 0.486191
0.059046 0.141597 0.484631
0.171085 0.141087 0.484557
0.285772 0.140808 0.484837
0.403432 0.140635 0.485306
0.524291 0.140526 0.485904
0.648522 0.140456 0.486602
0.776269 0.140410 0.487379
0.907654 0.140375 0.488222
0.000000 0.238774 0.484846
0.055511 0.239692 0.485318
0.171888 0.240745 0.485919
0.291415 0.241894 0.486619
0.414272 0.243115 0.487398
0.540605 0.244390 0.488242
0.670544 0.245705 0.489140
0.804198 0.247050 0.490086
0.941669 0.248417 0.491071
0.000000 0.343389 0.486636
0.052046 0.345879 0.487416
0.173321 0.348464 0.488261
0.298059 0.351126 0.489161
0.426384 0.353852 0.490108
0.558407 0.356629 0.491094
0.694230 0.359449 0.492115
0.833941 0.362303 0.493165
0.977625 0.365183 0.494242
0.000000 0.456610 0.489182
0.048322 0.460718 0.490130
0.174894 0.464907 0.491117
0.305157 0.469166 0.492138
0.439210 0.473485 0.493190
0.577141 0.477855 0.494267
0.719034 0.482269 0.495367
0.864966 0.486720 0.496486
1.000000 0.491203 0.497622
0.000000 0.578949 0.492162
0.044217 0.584734 0.493214
0.176392 0.590595 0.494292
0.312442 0.596522 0.495392
0.452448 0.602507 0.496512
0.596486 0.608544 0.497648
0.744626 0.614626 0.498799
0.896934 0.620747 0.499962
1.000000 0.626903 0.501135
0.000000 0.710844 0.495417
0.039657 0.718364 0.496537
0.177688 0.725956 0.497674
0.319747 0.733612 0.498825
0.465904 0.741326 0.499989
0.616226 0.749092 0.501162
0.770774 0.756904 0.502344
0.919758 0.757283 0.501209
1.000000 0.755108 0.499280
0.000000 0.852671 0.498851
0.034591 0.861978 0.500015
0.178691 0.871354 0.501189
0.326953 0.880794 0.502371
0.474205 0.881325 0.501166
0.620366 0.879150 0.499236
0.766527 0.876975 0.497307
0.912689 0.874800 0.495378
1.000000 0.872625 0.493448
0.000000 0.000000 0.585533
0.069176 0.000000 0.583808
0.179528 0.000000 0.582083
0.289880 0.000000 0.580359
0.400231 0.000000 0.578634
0.510583 0.000000 0.576909
0.620935 0.000000 0.575184
0.733317 0.000000 0.574042
0.852418 0.000000 0.574412
0.000000 0.051714 0.580319
0.063839 0.050030 0.578595
0.174191 0.048347 0.576870
0.284542 0.046663 0.575145
0.396068 0.045099 0.574044
0.511844 0.043803 0.574425
0.630888 0.042540 0.575147
0.753292 0.041279 0.576072
0.879185 0.040007 0.577143
0.000000 0.142696 0.575106
0.058687 0.141414 0.574046
0.171101 0.140995 0.574439
0.286219 0.140752 0.575166
0.404347 0.140600 0.576094
0.525701 0.140504 0.577168
0.650450 0.140441 0.578356
0.778734 0.140399 0.579636
0.910673 0.140367 0.580994
0.000000 0.239012 0.575185
0.055199 0.239973 0.576117
0.172005 0.241055 0.577194
0.291995 0.242226 0.578384
0.415341 0.243464 0.579666
0.542187 0.244750 0.581026
0.672657 0.246075 0.582451
0.806861 0.247427 0.583933
0.944895 0.248798 0.585466
0.000000 0.344069 0.578412
0.051718 0.346587 0.579696
0.173464 0.349195 0.581057
0.298696 0.351876 0.582484
0.427536 0.354617 0.583968
0.560093 0.357407 0.585501
0.696464 0.360237 0.587077
0.836739 0.363099 0.588693
0.980999 0.365986 0.590342
0.000000 0.457740 0.582517
0.047963 0.461871 0.584002
0.175037 0.466081 0.585536
0.305820 0.470357 0.587114
0.440410 0.474691 0.588730
0.578894 0.479075 0.590379
0.721353 0.483500 0.592059
0.867862 0.487960 0.593766
1.000000 0.492450 0.595496
0.000000 0.580544 0.587150
0.043818 0.586352 0.588767
0.176521 0.592232 0.590417
0.313113 0.598176 0.592098
0.453676 0.604176 0.593805
0.598282 0.610226 0.595536
0.747003 0.616319 0.597287
0.899904 0.622451 0.599058
1.000000 0.628615 0.600844
0.000000 0.712921 0.592136
0.039215 0.720462 0.593844
0.177793 0.728072 0.595575
0.320413 0.735745 0.597327
0.467144 0.743474 0.599098
0.618050 0.751253 0.600885
0.772948 0.758855 0.602603
0.919109 0.756680 0.600674
1.000000 0.754505 0.598745
0.000000 0.855244 0.597367
0.034100 0.864571 0.599139
0.178766 0.873965 0.600926
0.327395 0.882897 0.602560
0.473556 0.880722 0.600630
0.619718 0.878547 0.598701
0.765879 0.876372 0.596772
0.912041 0.874197 0.594842
1.000000 0.872023 0.592913
0.000000 0.000000 0.674448
0.068686 0.000000 0.672723
0.179038 0.000000 0.670999
0.289390 0.000000 0.669274
0.399742 0.000000 0.667549
0.510094 0.000000 0.665824
0.620446 0.000000 0.664100
0.734670 0.000000 0.663658
0.854552 0.000000 0.664499
0.000000 0.051248 0.669235
0.063349 0.049564 0.667510
0.173701 0.047880 0.665785
0.284053 0.046196 0.664061
0.396581 0.044733 0.663672
0.512931 0.043452 0.664523
0.632518 0.042191 0.665705
0.755470 0.040928 0.667101
0.881922 0.039650 0.668657
0.000000 0.142229 0.664021
0.058345 0.141270 0.663686
0.171135 0.140915 0.664547
0.286684 0.140703 0.665734
0.405281 0.140569 0.667135
0.527132 0.140484 0.668694
0.652399 0.140428 0.670381
0.781221 0.140390 0.672172
0.913715 0.140358 0.674052
0.000000 0.239264 0.665764
0.054887 0.240262 0.667168
0.172126 0.241372 0.668731
0.292581 0.242564 0.670420
0.416420 0.243816 0.672214
0.543780 0.245114 0.674096
0.674784 0.246447 0.676054
0.809537 0.247805 0.678079
0.948137 0.249181 0.680164
0.000000 0.344757 0.670460
0.051387 0.347302 0.672255
0.173607 0.349932 0.674139
0.299336 0.352630 0.676099
0.428693 0.355386 0.678126
0.561785 0.358188 0.680212
0.698707 0.361027 0.682349
0.839547 0.363897 0.684533
0.984386 0.366790 0.686759
0.000000 0.458876 0.676145
0.047600 0.463031 0.678173
0.175179 0.467260 0.680260
0.306485 0.471553 0.682398
0.441614 0.475902 0.684584
0.580651 0.480297 0.686810
0.723677 0.484733 0.689075
0.870767 0.489202 0.691372
1.000000 0.493699 0.693701
0.000000 0.582146 0.682447
0.043416 0.587975 0.684634
0.176648 0.593873 0.686861
0.313785 0.599833 0.689126
0.454905 0.605848 0.691425
0.600082 0.611911 0.693754
0.749385 0.618015 0.696110
0.902880 0.624156 0.698492
1.000000 0.630329 0.700895
0.000000 0.715004 0.689178
0.038767 0.722565 0.691478
0.177896 0.730193 0.693807
0.321079 0.737882 0.696164
0.468384 0.745626 0.698546
0.619877 0.753418 0.700950
0.772300 0.758252 0.702068
0.918461 0.756077 0.700139
1.000000 0.753902 0.698209
0.000000 0.857822 0.696218
0.033603 0.867168 0.698600
0.178838 0.876580 0.701005
0.326747 0.882294 0.702024
0.472908 0.880119 0.700095
0.619069 0.877944 0.698166
0.765231 0.875769 0.696236
0.911392 0.873595 0.694307
1.000000 0.871420 0.692378
