assets/lighting/cinematic/grade-mercury-vapor/lut.cube
TITLE "Mercury Vapor Street"
# TKRS lighting-batch-001 original LUT
# Intended usage: green-cyan street / parking mercury vapor
# License: CC0-1.0
LUT_3D_SIZE 5
DOMAIN_MIN 0.0 0.0 0.0
DOMAIN_MAX 1.0 1.0 1.0
0.000000 0.000000 0.000000
0.102426 0.000000 0.000000
0.241001 0.000000 0.000000
0.379576 0.000000 0.000000
0.518151 0.000000 0.000000
0.000000 0.162691 0.000000
0.126048 0.172206 0.000000
0.268487 0.184294 0.001625
0.417651 0.197884 0.009572
0.574044 0.212349 0.017823
0.011590 0.390754 0.012650
0.159997 0.409783 0.021026
0.315626 0.429858 0.029748
0.478994 0.450905 0.038837
0.650513 0.472878 0.048310
0.039328 0.661986 0.042368
0.201276 0.689300 0.051990
0.371443 0.717659 0.062015
0.550152 0.747031 0.072456
0.737685 0.777393 0.083323
0.071932 0.978740 0.076510
0.248958 1.000000 0.087540
0.427420 1.000000 0.097550
0.603967 1.000000 0.106983
0.780515 1.000000 0.116415
0.000000 0.000000 0.112378
0.104879 0.000000 0.120069
0.243454 0.000000 0.127759
0.382029 0.000000 0.135450
0.520604 0.000000 0.143140
0.000000 0.166028 0.138354
0.128903 0.176075 0.146422
0.272869 0.188951 0.156491
0.423473 0.202864 0.167288
0.581407 0.217611 0.178667
0.014265 0.397302 0.171521
0.163982 0.416710 0.183106
0.321052 0.437132 0.195224
0.485961 0.458507 0.207860
0.659100 0.480799 0.221010
0.042476 0.671444 0.212766
0.205929 0.699129 0.226109
0.377681 0.727846 0.239964
0.558043 0.757568 0.254332
0.747290 0.788273 0.269214
0.075619 0.991308 0.259892
0.253998 1.000000 0.274709
0.430545 1.000000 0.284142
0.607092 1.000000 0.293574
0.783640 1.000000 0.303007
0.000000 0.000000 0.264507
0.107332 0.000000 0.272198
0.245907 0.000000 0.279888
0.384482 0.000000 0.287579
0.524483 0.000000 0.295935
0.000000 0.169365 0.290483
0.132131 0.180440 0.300390
0.277397 0.193729 0.313245
0.429440 0.207945 0.327106
0.588916 0.222969 0.341764
0.016985 0.403988 0.332554
0.168038 0.423761 0.347487
0.326566 0.444523 0.363110
0.493028 0.466223 0.379387
0.667798 0.488829 0.396294
0.045678 0.681034 0.385699
0.210652 0.709085 0.402840
0.384000 0.738157 0.420594
0.566026 0.768226 0.438951
0.756670 0.798939 0.457739
0.079365 1.000000 0.446040
0.257123 1.000000 0.461301
0.433670 1.000000 0.470734
0.610217 1.000000 0.480166
0.786765 1.000000 0.489599
0.000000 0.000000 0.416636
0.109785 0.000000 0.424327
0.248360 0.000000 0.432017
0.386935 0.000000 0.439707
0.529981 0.000000 0.450545
0.000000 0.172702 0.442612
0.135491 0.184979 0.456119
0.282054 0.198619 0.472014
0.435541 0.213126 0.489112
0.596566 0.228421 0.507178
0.019751 0.410805 0.495828
0.172164 0.430933 0.514229
0.332167 0.452029 0.533458
0.500195 0.474049 0.553461
0.676606 0.496968 0.574202
0.048934 0.690754 0.561209
0.215443 0.719166 0.582222
0.390401 0.748591 0.603940
0.574100 0.779004 0.626347
0.759795 0.803163 0.644330
0.083170 1.000000 0.634985
0.260247 1.000000 0.647893
0.436795 1.000000 0.657325
0.613342 1.000000 0.666758
0.789890 1.000000 0.676190
0.000000 0.000000 0.568765
0.112238 0.000000 0.576455
0.250813 0.000000 0.584146
0.389388 0.000000 0.591836
0.535933 0.002260 0.607009
0.000000 0.176711 0.596674
0.138955 0.189654 0.613777
0.286828 0.203614 0.632900
0.441770 0.218402 0.653379
0.604352 0.233965 0.674972
0.022565 0.417751 0.661411
0.176360 0.438224 0.683388
0.337855 0.459648 0.706315
0.507461 0.481986 0.730125
0.685523 0.505216 0.754771
0.052245 0.700602 0.739336
0.220303 0.729372 0.764289
0.396882 0.759146 0.790034
0.582264 0.789902 0.816547
0.762920 0.807387 0.830922
0.086825 1.000000 0.825052
0.263372 1.000000 0.834484
0.439920 1.000000 0.843917
0.616467 1.000000 0.853350
0.793015 1.000000 0.862782
