assets/lighting/cinematic/grade-mercury-vapor/lut.cube
TITLE "Mercury Vapor Street"
# TKRS lighting-batch-001 original LUT
# Intended usage: green-cyan street / parking mercury vapor
# License: CC0-1.0
LUT_3D_SIZE 17
DOMAIN_MIN 0.0 0.0 0.0
DOMAIN_MAX 1.0 1.0 1.0
0.000000 0.000000 0.000000
0.000000 0.000000 0.000000
0.033139 0.000000 0.000000
0.067783 0.000000 0.000000
0.102426 0.000000 0.000000
0.137070 0.000000 0.000000
0.171714 0.000000 0.000000
0.206358 0.000000 0.000000
0.241001 0.000000 0.000000
0.275645 0.000000 0.000000
0.310289 0.000000 0.000000
0.344933 0.000000 0.000000
0.379576 0.000000 0.000000
0.414220 0.000000 0.000000
0.448864 0.000000 0.000000
0.483508 0.000000 0.000000
0.518151 0.000000 0.000000
0.000000 0.003789 0.000000
0.004401 0.006168 0.000000
0.039044 0.008546 0.000000
0.073688 0.010925 0.000000
0.108332 0.013304 0.000000
0.142976 0.015682 0.000000
0.177619 0.018061 0.000000
0.212263 0.020439 0.000000
0.246907 0.022818 0.000000
0.281551 0.025197 0.000000
0.316194 0.027575 0.000000
0.350838 0.029954 0.000000
0.385482 0.032332 0.000000
0.420126 0.034711 0.000000
0.454769 0.037090 0.000000
0.490018 0.039515 0.000000
0.526653 0.042048 0.000000
0.000000 0.056757 0.000000
0.010306 0.059135 0.000000
0.044950 0.061514 0.000000
0.079594 0.063892 0.000000
0.114237 0.066271 0.000000
0.148881 0.068650 0.000000
0.183525 0.071028 0.000000
0.218169 0.073407 0.000000
0.252812 0.075785 0.000000
0.287456 0.078164 0.000000
0.322100 0.080543 0.000000
0.356744 0.082921 0.000000
0.392382 0.085510 0.000000
0.428813 0.088234 0.000000
0.465742 0.091018 0.000155
0.503146 0.093853 0.002104
0.541021 0.096733 0.004068
0.000000 0.109724 0.000000
0.016212 0.112103 0.000000
0.050855 0.114481 0.000000
0.085499 0.116860 0.000000
0.120143 0.119238 0.000000
0.154787 0.121617 0.000000
0.189430 0.123996 0.000000
0.224074 0.126374 0.000000
0.258846 0.128815 0.000000
0.294527 0.131637 0.000000
0.330686 0.134568 0.000000
0.367284 0.137573 0.000889
0.404320 0.140640 0.002844
0.441801 0.143762 0.004814
0.479733 0.146935 0.006803
0.518124 0.150159 0.008809
0.556981 0.153430 0.010835
0.000000 0.162691 0.000000
0.022117 0.165070 0.000000
0.056761 0.167449 0.000000
0.091405 0.169827 0.000000
0.126048 0.172206 0.000000
0.160962 0.174869 0.000000
0.196410 0.177907 0.000000
0.232250 0.181059 0.000000
0.268487 0.184294 0.001625
0.305135 0.187600 0.003586
0.342204 0.190970 0.005563
0.379706 0.194399 0.007558
0.417651 0.197884 0.009572
0.456049 0.201423 0.011605
0.494908 0.205014 0.013657
0.534238 0.208657 0.015730
0.574044 0.212349 0.017823
0.000000 0.215659 0.000000
0.028023 0.218037 0.000000
0.062856 0.221065 0.000000
0.098001 0.224329 0.000000
0.133487 0.227712 0.000413
0.169340 0.231186 0.002364
0.205580 0.234739 0.004331
0.242222 0.238363 0.006315
0.279280 0.242052 0.008317
0.316768 0.245804 0.010337
0.354696 0.249615 0.012378
0.393074 0.253484 0.014438
0.431911 0.257409 0.016518
0.471216 0.261388 0.018619
0.510998 0.265420 0.020742
0.551263 0.269505 0.022886
0.592018 0.273642 0.025052
0.000000 0.270910 0.000000
0.034383 0.274532 0.001148
0.069831 0.278252 0.003105
0.105645 0.282059 0.005078
0.141845 0.285942 0.007068
0.178448 0.289898 0.009078
0.215467 0.293921 0.011106
0.252915 0.298008 0.013153
0.290802 0.302159 0.015221
0.329139 0.306369 0.017309
0.367935 0.310638 0.019419
0.407199 0.314965 0.021549
0.446939 0.319348 0.023702
0.487161 0.323787 0.025876
0.527873 0.328281 0.028073
0.569083 0.332828 0.030293
0.610795 0.337430 0.032536
0.005322 0.329563 0.005827
0.041068 0.333712 0.007825
0.077203 0.337938 0.009841
0.113743 0.342237 0.011877
0.150701 0.346605 0.013932
0.188089 0.351040 0.016007
0.225918 0.355540 0.018103
0.264197 0.360103 0.020221
0.302936 0.364727 0.022360
0.342143 0.369411 0.024520
0.381827 0.374155 0.026703
0.421993 0.378956 0.028909
0.462650 0.383815 0.031137
0.503804 0.388731 0.033389
0.545461 0.393703 0.035664
0.587627 0.398730 0.037962
0.630309 0.403813 0.040285
0.011590 0.390754 0.012650
0.048049 0.395407 0.014713
0.084929 0.400131 0.016796
0.122242 0.404923 0.018900
0.159997 0.409783 0.021026
0.198205 0.414707 0.023173
0.236873 0.419696 0.025342
0.276011 0.424746 0.027534
0.315626 0.429858 0.029748
0.355725 0.435031 0.031985
0.396315 0.440264 0.034245
0.437403 0.445555 0.036529
0.478994 0.450905 0.038837
0.521096 0.456312 0.041168
0.563712 0.461777 0.043524
0.606850 0.467299 0.045905
0.650513 0.472878 0.048310
0.018107 0.454521 0.019701
0.055331 0.459680 0.021834
0.093001 0.464908 0.023990
0.131125 0.470203 0.026167
0.169711 0.475564 0.028367
0.208768 0.480989 0.030590
0.248304 0.486477 0.032836
0.288325 0.492029 0.035105
0.328839 0.497642 0.037398
0.369851 0.503316 0.039714
0.411367 0.509051 0.042055
0.453394 0.514846 0.044420
0.495938 0.520700 0.046810
0.539002 0.526613 0.049224
0.582594 0.532585 0.051664
0.626716 0.538615 0.054128
0.671375 0.544702 0.056619
0.024893 0.520935 0.026995
0.062923 0.526608 0.029204
0.101417 0.532348 0.031435
0.140385 0.538156 0.033690
0.179832 0.544028 0.035968
0.219766 0.549966 0.038270
0.260194 0.555967 0.040596
0.301121 0.562031 0.042945
0.342554 0.568157 0.045320
0.384499 0.574345 0.047719
0.426961 0.580595 0.050143
0.469945 0.586905 0.052592
0.513456 0.593276 0.055066
0.557499 0.599707 0.057566
0.602080 0.606197 0.060091
0.647202 0.612746 0.062642
0.692870 0.619355 0.065219
0.031963 0.590067 0.034547
0.070831 0.596263 0.036834
0.110181 0.602526 0.039145
0.150020 0.608856 0.041480
0.190354 0.615251 0.043839
0.231189 0.621711 0.046223
0.272531 0.628236 0.048631
0.314386 0.634823 0.051065
0.356759 0.641474 0.053523
0.399655 0.648188 0.056007
0.443079 0.654963 0.058516
0.487036 0.661800 0.061051
0.531532 0.668699 0.063612
0.576569 0.675658 0.066199
0.622153 0.682678 0.068813
0.668289 0.689759 0.071452
0.714979 0.696899 0.074119
0.039328 0.661986 0.042368
0.079064 0.668714 0.044737
0.119297 0.675510 0.047130
0.160032 0.682372 0.049547
0.201276 0.689300 0.051990
0.243034 0.696293 0.054458
0.285311 0.703351 0.056952
0.328112 0.710473 0.059471
0.371443 0.717659 0.062015
0.415307 0.724908 0.064586
0.459711 0.732220 0.067183
0.504658 0.739594 0.069806
0.550152 0.747031 0.072456
0.596197 0.754529 0.075133
0.642799 0.762089 0.077836
0.689960 0.769711 0.080566
0.737685 0.777393 0.083323
0.046999 0.736756 0.050467
0.087628 0.744026 0.052919
0.128767 0.751363 0.055397
0.170421 0.758766 0.057900
0.212596 0.766237 0.060429
0.255297 0.773772 0.062983
0.298528 0.781373 0.065564
0.342294 0.789039 0.068171
0.386600 0.796770 0.070804
0.431450 0.804564 0.073464
0.476848 0.812422 0.076150
0.522799 0.820343 0.078864
0.569306 0.828327 0.081604
0.616374 0.836375 0.084371
0.664006 0.844484 0.087166
0.712206 0.852656 0.089988
0.757944 0.857538 0.092520
0.054984 0.814435 0.058852
0.096529 0.822255 0.061390
0.138596 0.830142 0.063955
0.181190 0.838097 0.066545
0.224316 0.846118 0.069162
0.267978 0.854206 0.071805
0.312180 0.862359 0.074475
0.356928 0.870578 0.077172
0.402225 0.878862 0.079895
0.448075 0.887211 0.082646
0.494483 0.895624 0.085424
0.541452 0.904101 0.088229
0.588920 0.912542 0.091053
0.633057 0.915553 0.093411
0.677194 0.918563 0.095769
0.721331 0.921574 0.098127
0.765468 0.924585 0.100485
0.063293 0.895080 0.067531
0.105775 0.903458 0.070157
0.148789 0.911904 0.072811
0.192342 0.920418 0.075490
0.236436 0.928999 0.078197
0.281076 0.937647 0.080931
0.326267 0.946361 0.083692
0.372012 0.955142 0.086480
0.418315 0.963988 0.089295
0.464033 0.970556 0.091943
0.508170 0.973567 0.094301
0.552307 0.976578 0.096660
0.596444 0.979589 0.099018
0.640581 0.982600 0.101376
0.684718 0.985611 0.103734
0.728854 0.988622 0.106092
0.772991 0.991632 0.108450
0.071932 0.978740 0.076510
0.115370 0.987685 0.079226
0.159350 0.996698 0.081970
0.203878 1.000000 0.084742
0.248958 1.000000 0.087540
0.294592 1.000000 0.090366
0.339146 1.000000 0.092834
0.383283 1.000000 0.095192
0.427420 1.000000 0.097550
0.471557 1.000000 0.099908
0.515694 1.000000 0.102266
0.559831 1.000000 0.104625
0.603967 1.000000 0.106983
0.648104 1.000000 0.109341
0.692241 1.000000 0.111699
0.736378 1.000000 0.114057
0.780515 1.000000 0.116415
0.000000 0.000000 0.000000
0.000000 0.000000 0.000204
0.033752 0.000000 0.002127
0.068396 0.000000 0.004050
0.103040 0.000000 0.005972
0.137683 0.000000 0.007895
0.172327 0.000000 0.009817
0.206971 0.000000 0.011740
0.241615 0.000000 0.013663
0.276258 0.000000 0.015585
0.310902 0.000000 0.017508
0.345546 0.000000 0.019430
0.380190 0.000000 0.021353
0.414833 0.000000 0.023276
0.449477 0.000000 0.025198
0.484121 0.000000 0.027121
0.518765 0.000000 0.029043
0.000000 0.004624 0.004776
0.005014 0.007002 0.006698
0.039658 0.009381 0.008621
0.074301 0.011759 0.010543
0.108945 0.014138 0.012466
0.143589 0.016516 0.014389
0.178233 0.018895 0.016311
0.212876 0.021274 0.018234
0.247520 0.023652 0.020157
0.282164 0.026031 0.022079
0.316808 0.028409 0.024002
0.351451 0.030788 0.025924
0.386095 0.033167 0.027847
0.420739 0.035545 0.029770
0.455383 0.037924 0.031692
0.491224 0.040398 0.033683
0.528035 0.042947 0.035726
0.000000 0.057591 0.011270
0.010919 0.059969 0.013192
0.045563 0.062348 0.015115
0.080207 0.064727 0.017037
0.114851 0.067105 0.018960
0.149494 0.069484 0.020883
0.184138 0.071862 0.022805
0.218782 0.074241 0.024728
0.253426 0.076620 0.026650
0.288069 0.078998 0.028573
0.322713 0.081377 0.030496
0.357508 0.083790 0.032430
0.393517 0.086457 0.034451
0.430080 0.089204 0.036505
0.467124 0.092007 0.038585
0.504637 0.094858 0.040691
0.542617 0.097754 0.042820
0.000000 0.110558 0.017764
0.016825 0.112937 0.019686
0.051469 0.115315 0.021609
0.086112 0.117694 0.023531
0.120756 0.120073 0.025454
0.155400 0.122451 0.027377
0.190044 0.124830 0.029299
0.224687 0.127208 0.031222
0.259743 0.129786 0.033188
0.295559 0.132655 0.035223
0.331822 0.135615 0.037288
0.368519 0.138642 0.039378
0.405653 0.141728 0.041492
0.443231 0.144869 0.043630
0.481260 0.148060 0.045792
0.519749 0.151301 0.047978
0.558706 0.154588 0.050187
0.000000 0.163526 0.024257
0.022730 0.165904 0.026180
0.057374 0.168283 0.028103
0.092018 0.170661 0.030025
0.126662 0.173040 0.031948
0.161778 0.175918 0.033953
0.197318 0.179002 0.036000
0.233243 0.182185 0.038074
0.269568 0.185446 0.040173
0.306303 0.188775 0.042297
0.343462 0.192166 0.044444
0.381055 0.195615 0.046615
0.419092 0.199119 0.048809
0.457584 0.202677 0.051028
0.496539 0.206286 0.053270
0.535966 0.209946 0.055536
0.575871 0.213655 0.057827
0.000000 0.216493 0.030751
0.028659 0.219042 0.032696
0.063558 0.222193 0.034722
0.098770 0.225504 0.036780
0.134329 0.228921 0.038864
0.170258 0.232423 0.040972
0.206577 0.236002 0.043105
0.243302 0.239649 0.045261
0.280446 0.243361 0.047441
0.318021 0.247134 0.049644
0.356038 0.250966 0.051872
0.394507 0.254854 0.054123
0.433438 0.258798 0.056399
0.472838 0.262796 0.058699
0.512715 0.266847 0.061023
0.553077 0.270950 0.063372
0.593932 0.275105 0.065746
0.000000 0.272168 0.037564
0.035064 0.275826 0.039657
0.070579 0.279578 0.041775
0.106466 0.283412 0.043916
0.142743 0.287321 0.046081
0.179426 0.291301 0.048270
0.216528 0.295347 0.050483
0.254060 0.299457 0.052719
0.292035 0.303629 0.054980
0.330461 0.307860 0.057264
0.369349 0.312149 0.059574
0.408705 0.316496 0.061907
0.448539 0.320899 0.064266
0.488858 0.325357 0.066649
0.529668 0.329870 0.069058
0.570976 0.334436 0.071491
0.612788 0.339056 0.073951
0.005962 0.331009 0.044731
0.041779 0.335186 0.046905
0.077989 0.339437 0.049103
0.114607 0.343761 0.051325
0.151646 0.348153 0.053570
0.189118 0.352611 0.055840
0.227033 0.357133 0.058134
0.265400 0.361718 0.060452
0.304229 0.366363 0.062795
0.343528 0.371068 0.065163
0.383304 0.375832 0.067556
0.423565 0.380654 0.069974
0.464318 0.385533 0.072417
0.505570 0.390468 0.074886
0.547326 0.395460 0.077381
0.589593 0.400507 0.079902
0.632375 0.405608 0.082448
0.012255 0.392378 0.052170
0.048791 0.397056 0.054424
0.085751 0.401804 0.056703
0.123147 0.406620 0.059006
0.160987 0.411503 0.061334
0.199281 0.416450 0.063686
0.238039 0.421460 0.066064
0.277267 0.426532 0.068466
0.316974 0.431666 0.070894
0.357167 0.436860 0.073347
0.397852 0.442113 0.075825
0.439037 0.447425 0.078330
0.480726 0.452795 0.080860
0.522927 0.458223 0.083417
0.565644 0.463708 0.086000
0.608883 0.469250 0.088609
0.652649 0.474848 0.091244
0.018799 0.456323 0.059882
0.056105 0.461506 0.062219
0.093859 0.466757 0.064581
0.132069 0.472076 0.066968
0.170743 0.477459 0.069380
0.209890 0.482907 0.071817
0.249518 0.488417 0.074280
0.289632 0.493991 0.076768
0.330240 0.499625 0.079282
0.371348 0.505321 0.081823
0.412962 0.511077 0.084389
0.455087 0.516893 0.086982
0.497730 0.522767 0.089601
0.540896 0.528701 0.092247
0.584589 0.534693 0.094920
0.628815 0.540743 0.097619
0.673578 0.546851 0.100346
0.025614 0.522917 0.067876
0.063729 0.528614 0.070297
0.102311 0.534378 0.072744
0.141368 0.540208 0.075217
0.180906 0.546103 0.077715
0.220932 0.552063 0.080239
0.261454 0.558086 0.082789
0.302477 0.564172 0.085365
0.344007 0.570320 0.087968
0.386049 0.576530 0.090597
0.428610 0.582801 0.093253
0.471694 0.589133 0.095936
0.515307 0.595525 0.098646
0.559453 0.601976 0.101383
0.604137 0.608487 0.104147
0.649364 0.615058 0.106939
0.695138 0.621687 0.109758
0.032714 0.592232 0.076157
0.071671 0.598452 0.078665
0.111112 0.604739 0.081199
0.151042 0.611092 0.083759
0.191470 0.617510 0.086345
0.232399 0.623992 0.088958
0.273838 0.630539 0.091597
0.315790 0.637149 0.094263
0.358261 0.643822 0.096956
0.401257 0.650557 0.099676
0.444782 0.657354 0.102423
0.488842 0.664213 0.105198
0.533440 0.671133 0.108000
0.578582 0.678114 0.110830
0.624271 0.685155 0.113687
0.670512 0.692256 0.116572
0.717309 0.699418 0.119486
0.040110 0.664338 0.084732
0.079938 0.671090 0.087329
0.120263 0.677909 0.089951
0.161093 0.684794 0.092601
0.202433 0.691745 0.095277
0.244287 0.698761 0.097980
0.286663 0.705841 0.100711
0.329563 0.712986 0.103468
0.372995 0.720194 0.106253
0.416961 0.727465 0.109066
0.461467 0.734799 0.111906
0.506517 0.742195 0.114774
0.552116 0.749653 0.117669
0.598267 0.757174 0.120593
0.644975 0.764755 0.123545
0.692244 0.772398 0.126526
0.740077 0.780102 0.129535
0.047813 0.739298 0.093608
0.088536 0.746591 0.096295
0.129771 0.753952 0.099008
0.171522 0.761379 0.101749
0.213794 0.768872 0.104517
0.256594 0.776431 0.107312
0.299925 0.784055 0.110135
0.343792 0.791743 0.112985
0.388200 0.799496 0.115864
0.433153 0.807313 0.118770
0.478656 0.815193 0.121705
0.524712 0.823136 0.124668
0.571325 0.831143 0.127659
0.618500 0.839212 0.130678
0.666240 0.847343 0.133727
0.714549 0.855537 0.136804
0.758725 0.858594 0.139168
0.055832 0.817170 0.102791
0.097473 0.825014 0.105569
0.139638 0.832925 0.108375
0.182330 0.840903 0.111208
0.225556 0.848947 0.114069
0.269318 0.857058 0.116958
0.313623 0.865234 0.119875
0.358473 0.873476 0.122821
0.403874 0.881783 0.125794
0.449829 0.890154 0.128796
0.496343 0.898590 0.131826
0.543418 0.907089 0.134885
0.589701 0.913598 0.137701
0.633838 0.916609 0.140059
0.677975 0.919619 0.142417
0.722112 0.922630 0.144775
0.766249 0.925641 0.147133
0.064175 0.898010 0.112285
0.106755 0.906412 0.115157
0.149869 0.914882 0.118057
0.193522 0.923420 0.120984
0.237717 0.932025 0.123940
0.282460 0.940696 0.126924
0.327754 0.949433 0.129937
0.373604 0.958237 0.132978
0.420012 0.967106 0.136048
0.464814 0.971612 0.138591
0.508951 0.974623 0.140949
0.553088 0.977634 0.143308
0.597225 0.980645 0.145666
0.641362 0.983656 0.148024
0.685499 0.986667 0.150382
0.729636 0.989678 0.152740
0.773772 0.992688 0.155098
0.072848 0.981870 0.122097
0.116386 0.990839 0.125064
0.160468 0.999876 0.128059
0.205098 1.000000 0.131082
0.250281 1.000000 0.134134
0.295791 1.000000 0.137124
0.339928 1.000000 0.139482
0.384064 1.000000 0.141840
0.428201 1.000000 0.144198
0.472338 1.000000 0.146556
0.516475 1.000000 0.148914
0.560612 1.000000 0.151273
0.604749 1.000000 0.153631
0.648886 1.000000 0.155989
0.693022 1.000000 0.158347
0.737159 1.000000 0.160705
0.781296 1.000000 0.163063
0.000000 0.000000 0.036314
0.000000 0.000000 0.038237
0.034365 0.000000 0.040159
0.069009 0.000000 0.042082
0.103653 0.000000 0.044004
0.138297 0.000000 0.045927
0.172940 0.000000 0.047850
0.207584 0.000000 0.049772
0.242228 0.000000 0.051695
0.276872 0.000000 0.053617
0.311515 0.000000 0.055540
0.346159 0.000000 0.057463
0.380803 0.000000 0.059385
0.415447 0.000000 0.061308
0.450090 0.000000 0.063230
0.484734 0.000000 0.065153
0.519378 0.000000 0.067076
0.000000 0.005458 0.042808
0.005627 0.007836 0.044730
0.040271 0.010215 0.046653
0.074915 0.012594 0.048576
0.109558 0.014972 0.050498
0.144202 0.017351 0.052421
0.178846 0.019729 0.054344
0.213490 0.022108 0.056266
0.248133 0.024486 0.058189
0.282777 0.026865 0.060111
0.317421 0.029244 0.062034
0.352065 0.031622 0.063957
0.386708 0.034001 0.065879
0.421352 0.036379 0.067802
0.456156 0.038771 0.069745
0.492486 0.041287 0.071870
0.529451 0.043850 0.074052
0.000000 0.058425 0.049302
0.011533 0.060804 0.051224
0.046176 0.063182 0.053147
0.080820 0.065561 0.055070
0.115464 0.067939 0.056992
0.150108 0.070318 0.058915
0.184751 0.072697 0.060837
0.219395 0.075075 0.062760
0.254039 0.077454 0.064683
0.288683 0.079832 0.066605
0.323326 0.082211 0.068528
0.358506 0.084712 0.070538
0.394686 0.087413 0.072689
0.431370 0.090181 0.074887
0.468525 0.093001 0.077122
0.506144 0.095869 0.079390
0.544229 0.098780 0.081688
0.000000 0.111392 0.055796
0.017438 0.113771 0.057718
0.052082 0.116150 0.059641
0.086726 0.118528 0.061564
0.121369 0.120907 0.063486
0.156013 0.123285 0.065409
0.190657 0.125664 0.067331
0.225301 0.128043 0.069254
0.260681 0.130780 0.071343
0.296611 0.133685 0.073514
0.332975 0.136669 0.075727
0.369769 0.139718 0.077975
0.406999 0.142824 0.080254
0.444673 0.145983 0.082564
0.482800 0.149191 0.084904
0.521387 0.152448 0.087272
0.560442 0.155752 0.089668
0.000000 0.164360 0.062290
0.023344 0.166738 0.064212
0.057987 0.169117 0.066135
0.092631 0.171496 0.068057
0.127367 0.173996 0.070022
0.162613 0.176986 0.072157
0.198238 0.180108 0.074345
0.234248 0.183320 0.076572
0.270658 0.186606 0.078832
0.307481 0.189958 0.081123
0.344729 0.193369 0.083444
0.382413 0.196838 0.085795
0.420543 0.200361 0.088173
0.459129 0.203937 0.090580
0.498180 0.207564 0.093015
0.537703 0.211241 0.095478
0.577707 0.214968 0.097968
0.000000 0.217327 0.068784
0.029306 0.220122 0.070820
0.064265 0.223340 0.072979
0.099545 0.226691 0.075182
0.135176 0.230140 0.077422
0.171183 0.233670 0.079694
0.207582 0.237274 0.081996
0.244389 0.240944 0.084329
0.281618 0.244678 0.086690
0.319281 0.248471 0.089079
0.357388 0.252323 0.091497
0.395949 0.256231 0.093942
0.434972 0.260194 0.096415
0.474467 0.264211 0.098916
0.514441 0.268280 0.101444
0.554901 0.272402 0.104000
0.595854 0.276575 0.106584
0.000517 0.273439 0.076024
0.035747 0.277132 0.078276
0.071332 0.280914 0.080560
0.107292 0.284775 0.082874
0.143646 0.288709 0.085217
0.180409 0.292713 0.087589
0.217594 0.296781 0.089989
0.255212 0.300913 0.092417
0.293274 0.305106 0.094873
0.331790 0.309358 0.097356
0.370769 0.313667 0.099868
0.410219 0.318034 0.102406
0.450147 0.322456 0.104973
0.490562 0.326933 0.107567
0.531469 0.331465 0.110189
0.572876 0.336050 0.112839
0.614789 0.340689 0.115516
0.006605 0.332465 0.083755
0.042493 0.336668 0.086109
0.078779 0.340946 0.088492
0.115476 0.345294 0.090903
0.152596 0.349709 0.093341
0.190152 0.354190 0.095808
0.228153 0.358734 0.098302
0.266608 0.363340 0.100823
0.305527 0.368007 0.103372
0.344918 0.372732 0.105949
0.384788 0.377517 0.108554
0.425144 0.382359 0.111186
0.465994 0.387257 0.113847
0.507343 0.392213 0.116535
0.549198 0.397223 0.119251
0.591565 0.402290 0.121995
0.634449 0.407411 0.124767
0.012922 0.394010 0.091820
0.049536 0.398713 0.094269
0.086577 0.403486 0.096746
0.124055 0.408325 0.099251
0.161981 0.413230 0.101783
0.200362 0.418200 0.104342
0.239209 0.423232 0.106930
0.278528 0.428326 0.109545
0.318328 0.433481 0.112188
0.358615 0.438695 0.114858
0.399396 0.443969 0.117557
0.440677 0.449302 0.120284
0.482465 0.454692 0.123038
0.524765 0.460140 0.125821
0.567583 0.465645 0.128632
0.610924 0.471207 0.131471
0.654793 0.476824 0.134339
0.019494 0.458133 0.100204
0.056882 0.463340 0.102746
0.094720 0.468615 0.105316
0.133017 0.473956 0.107914
0.171780 0.479362 0.110540
0.211017 0.484832 0.113193
0.250736 0.490365 0.115874
0.290944 0.495960 0.118583
0.331646 0.501616 0.121321
0.372850 0.507333 0.124086
0.414562 0.513110 0.126879
0.456786 0.518946 0.129701
0.499529 0.524842 0.132551
0.542796 0.530796 0.135429
0.586591 0.536808 0.138337
0.630920 0.542879 0.141272
0.675788 0.549007 0.144237
0.026338 0.524907 0.108902
0.064539 0.530628 0.111539
0.103209 0.536415 0.114202
0.142355 0.542268 0.116894
0.181984 0.548186 0.119614
0.222103 0.554168 0.122362
0.262719 0.560214 0.125137
0.303838 0.566321 0.127942
0.345464 0.572491 0.130774
0.387605 0.578723 0.133635
0.430265 0.585015 0.136524
0.473450 0.591368 0.139442
0.517164 0.597781 0.142389
0.561413 0.604253 0.145364
0.606201 0.610785 0.148368
0.651532 0.617376 0.151401
0.697412 0.624026 0.154464
0.033468 0.594406 0.117918
0.072514 0.600649 0.120648
0.112045 0.606959 0.123407
0.152068 0.613335 0.126193
0.192589 0.619776 0.129008
0.233614 0.626281 0.131851
0.275149 0.632850 0.134723
0.317199 0.639482 0.137623
0.359769 0.646177 0.140551
0.402865 0.652934 0.143509
0.446491 0.659753 0.146495
0.490653 0.666633 0.149510
0.535354 0.673574 0.152555
0.580600 0.680576 0.155628
0.626394 0.687639 0.158730
0.672741 0.694761 0.161862
0.719646 0.701944 0.165024
0.040896 0.666699 0.127253
0.080815 0.673474 0.130078
0.121234 0.680316 0.132932
0.162158 0.687225 0.135814
0.203594 0.694198 0.138725
0.245546 0.701237 0.141665
0.288019 0.708340 0.144633
0.331020 0.715507 0.147630
0.374552 0.722737 0.150657
0.418620 0.730030 0.153712
0.463229 0.737386 0.156796
0.508382 0.744804 0.159910
0.554086 0.752284 0.163053
0.600343 0.759826 0.166225
0.647157 0.767429 0.169427
0.694533 0.775093 0.172659
0.742475 0.782818 0.175920
0.048631 0.741848 0.136910
0.089448 0.749165 0.139832
0.130778 0.756549 0.142783
0.172626 0.763999 0.145762
0.214997 0.771516 0.148770
0.257896 0.779097 0.151807
0.301327 0.786744 0.154873
0.345296 0.794455 0.157969
0.389806 0.802230 0.161093
0.434863 0.810069 0.164247
0.480469 0.817972 0.167431
0.526630 0.825937 0.170644
0.573350 0.833966 0.173887
0.620632 0.842057 0.177160
0.668480 0.850210 0.180462
0.715369 0.856639 0.183458
0.759506 0.859650 0.185816
0.056683 0.819913 0.146894
0.098421 0.827781 0.149913
0.140683 0.835715 0.152962
0.183474 0.843717 0.156039
0.226800 0.851785 0.159145
0.270663 0.859918 0.162281
0.315070 0.868118 0.165446
0.360023 0.876382 0.168641
0.405528 0.884712 0.171865
0.451588 0.893105 0.175119
0.498208 0.901564 0.178403
0.545390 0.910086 0.181717
0.590483 0.914654 0.184349
0.634619 0.917665 0.186707
0.678756 0.920675 0.189065
0.722893 0.923686 0.191423
0.767030 0.926697 0.193781
0.065060 0.900949 0.157209
0.107738 0.909375 0.160326
0.150952 0.917869 0.163473
0.194706 0.926430 0.166649
0.239003 0.935058 0.169855
0.283849 0.943753 0.173091
0.329246 0.952513 0.176356
0.375200 0.961340 0.179651
0.421459 0.969658 0.182881
0.465596 0.972668 0.185239
0.509733 0.975679 0.187597
0.553869 0.978690 0.189955
0.598006 0.981701 0.192314
0.642143 0.984712 0.194672
0.686280 0.987723 0.197030
0.730417 0.990734 0.199388
0.774554 0.993744 0.201746
0.073768 0.985008 0.167857
0.117407 0.994000 0.171074
0.161590 1.000000 0.174320
0.206323 1.000000 0.177597
0.251609 1.000000 0.180903
0.296572 1.000000 0.183772
0.340709 1.000000 0.186130
0.384846 1.000000 0.188488
0.428983 1.000000 0.190846
0.473119 1.000000 0.193204
0.517256 1.000000 0.195562
0.561393 1.000000 0.197920
0.605530 1.000000 0.200279
0.649667 1.000000 0.202637
0.693804 1.000000 0.204995
0.737941 1.000000 0.207353
0.782077 1.000000 0.209711
0.000000 0.000000 0.074346
0.000335 0.000000 0.076269
0.034979 0.000000 0.078191
0.069622 0.000000 0.080114
0.104266 0.000000 0.082037
0.138910 0.000000 0.083959
0.173554 0.000000 0.085882
0.208197 0.000000 0.087804
0.242841 0.000000 0.089727
0.277485 0.000000 0.091650
0.312129 0.000000 0.093572
0.346772 0.000000 0.095495
0.381416 0.000000 0.097417
0.416060 0.000000 0.099340
