assets/lighting/cinematic/grade-mercury-vapor/lut.cube
TITLE "Mercury Vapor Street"
# TKRS lighting-batch-001 original LUT
# Intended usage: green-cyan street / parking mercury vapor
# License: CC0-1.0
LUT_3D_SIZE 9
DOMAIN_MIN 0.0 0.0 0.0
DOMAIN_MAX 1.0 1.0 1.0
0.000000 0.000000 0.000000
0.033139 0.000000 0.000000
0.102426 0.000000 0.000000
0.171714 0.000000 0.000000
0.241001 0.000000 0.000000
0.310289 0.000000 0.000000
0.379576 0.000000 0.000000
0.448864 0.000000 0.000000
0.518151 0.000000 0.000000
0.000000 0.056757 0.000000
0.044950 0.061514 0.000000
0.114237 0.066271 0.000000
0.183525 0.071028 0.000000
0.252812 0.075785 0.000000
0.322100 0.080543 0.000000
0.392382 0.085510 0.000000
0.465742 0.091018 0.000155
0.541021 0.096733 0.004068
0.000000 0.162691 0.000000
0.056761 0.167449 0.000000
0.126048 0.172206 0.000000
0.196410 0.177907 0.000000
0.268487 0.184294 0.001625
0.342204 0.190970 0.005563
0.417651 0.197884 0.009572
0.494908 0.205014 0.013657
0.574044 0.212349 0.017823
0.000000 0.270910 0.000000
0.069831 0.278252 0.003105
0.141845 0.285942 0.007068
0.215467 0.293921 0.011106
0.290802 0.302159 0.015221
0.367935 0.310638 0.019419
0.446939 0.319348 0.023702
0.527873 0.328281 0.028073
0.610795 0.337430 0.032536
0.011590 0.390754 0.012650
0.084929 0.400131 0.016796
0.159997 0.409783 0.021026
0.236873 0.419696 0.025342
0.315626 0.429858 0.029748
0.396315 0.440264 0.034245
0.478994 0.450905 0.038837
0.563712 0.461777 0.043524
0.650513 0.472878 0.048310
0.024893 0.520935 0.026995
0.101417 0.532348 0.031435
0.179832 0.544028 0.035968
0.260194 0.555967 0.040596
0.342554 0.568157 0.045320
0.426961 0.580595 0.050143
0.513456 0.593276 0.055066
0.602080 0.606197 0.060091
0.692870 0.619355 0.065219
0.039328 0.661986 0.042368
0.119297 0.675510 0.047130
0.201276 0.689300 0.051990
0.285311 0.703351 0.056952
0.371443 0.717659 0.062015
0.459711 0.732220 0.067183
0.550152 0.747031 0.072456
0.642799 0.762089 0.077836
0.737685 0.777393 0.083323
0.054984 0.814435 0.058852
0.138596 0.830142 0.063955
0.224316 0.846118 0.069162
0.312180 0.862359 0.074475
0.402225 0.878862 0.079895
0.494483 0.895624 0.085424
0.588920 0.912542 0.091053
0.677194 0.918563 0.095769
0.765468 0.924585 0.100485
0.071932 0.978740 0.076510
0.159350 0.996698 0.081970
0.248958 1.000000 0.087540
0.339146 1.000000 0.092834
0.427420 1.000000 0.097550
0.515694 1.000000 0.102266
0.603967 1.000000 0.106983
0.692241 1.000000 0.111699
0.780515 1.000000 0.116415
0.000000 0.000000 0.036314
0.034365 0.000000 0.040159
0.103653 0.000000 0.044004
0.172940 0.000000 0.047850
0.242228 0.000000 0.051695
0.311515 0.000000 0.055540
0.380803 0.000000 0.059385
0.450090 0.000000 0.063230
0.519378 0.000000 0.067076
0.000000 0.058425 0.049302
0.046176 0.063182 0.053147
0.115464 0.067939 0.056992
0.184751 0.072697 0.060837
0.254039 0.077454 0.064683
0.323326 0.082211 0.068528
0.394686 0.087413 0.072689
0.468525 0.093001 0.077122
0.544229 0.098780 0.081688
0.000000 0.164360 0.062290
0.057987 0.169117 0.066135
0.127367 0.173996 0.070022
0.198238 0.180108 0.074345
0.270658 0.186606 0.078832
0.344729 0.193369 0.083444
0.420543 0.200361 0.088173
0.498180 0.207564 0.093015
0.577707 0.214968 0.097968
0.000517 0.273439 0.076024
0.071332 0.280914 0.080560
0.143646 0.288709 0.085217
0.217594 0.296781 0.089989
0.293274 0.305106 0.094873
0.370769 0.313667 0.099868
0.450147 0.322456 0.104973
0.531469 0.331465 0.110189
0.614789 0.340689 0.115516
0.012922 0.394010 0.091820
0.086577 0.403486 0.096746
0.161981 0.413230 0.101783
0.239209 0.423232 0.106930
0.318328 0.433481 0.112188
0.399396 0.443969 0.117557
0.482465 0.454692 0.123038
0.567583 0.465645 0.128632
0.654793 0.476824 0.134339
0.026338 0.524907 0.108902
0.103209 0.536415 0.114202
0.181984 0.548186 0.119614
0.262719 0.560214 0.125137
0.345464 0.572491 0.130774
0.430265 0.585015 0.136524
0.517164 0.597781 0.142389
0.606201 0.610785 0.148368
0.697412 0.624026 0.154464
0.040896 0.666699 0.127253
0.121234 0.680316 0.132932
0.203594 0.694198 0.138725
0.288019 0.708340 0.144633
0.374552 0.722737 0.150657
0.463229 0.737386 0.156796
0.554086 0.752284 0.163053
0.647157 0.767429 0.169427
0.742475 0.782818 0.175920
0.056683 0.819913 0.146894
0.140683 0.835715 0.152962
0.226800 0.851785 0.159145
0.315070 0.868118 0.165446
0.405528 0.884712 0.171865
0.498208 0.901564 0.178403
0.590483 0.914654 0.184349
0.678756 0.920675 0.189065
0.767030 0.926697 0.193781
0.073768 0.985008 0.167857
0.161590 1.000000 0.174320
0.251609 1.000000 0.180903
0.340709 1.000000 0.186130
0.428983 1.000000 0.190846
0.517256 1.000000 0.195562
0.605530 1.000000 0.200279
0.693804 1.000000 0.204995
0.782077 1.000000 0.209711
0.000000 0.000000 0.112378
0.035592 0.000000 0.116224
0.104879 0.000000 0.120069
0.174167 0.000000 0.123914
0.243454 0.000000 0.127759
0.312742 0.000000 0.131604
0.382029 0.000000 0.135450
0.451317 0.000000 0.139295
0.520604 0.000000 0.143140
0.000000 0.060094 0.125366
0.047403 0.064851 0.129211
0.116690 0.069608 0.133057
0.185978 0.074365 0.136902
0.255265 0.079122 0.140747
0.324737 0.083926 0.144660
0.397103 0.089349 0.149454
0.471379 0.095008 0.154526
0.547497 0.100848 0.159784
0.000000 0.166028 0.138354
0.059214 0.170785 0.142199
0.128903 0.176075 0.146422
0.200111 0.182353 0.151344
0.272869 0.188951 0.156491
0.347292 0.195797 0.161813
0.423473 0.202864 0.167288
0.501489 0.210138 0.172909
0.581407 0.217611 0.178667
0.001764 0.276020 0.153266
0.072849 0.283614 0.158482
0.145468 0.291511 0.163863
0.219744 0.299673 0.169394
0.295772 0.308082 0.175067
0.373630 0.316724 0.180877
0.453385 0.325591 0.186821
0.535095 0.334676 0.192896
0.618814 0.343975 0.199100
0.014265 0.397302 0.171521
0.088240 0.406873 0.177246
0.163982 0.416710 0.183106
0.241565 0.426799 0.189100
0.321052 0.437132 0.195224
0.402500 0.447703 0.201477
0.485961 0.458507 0.207860
0.571480 0.469540 0.214371
0.659100 0.480799 0.221010
0.027795 0.528913 0.191397
0.105015 0.540514 0.197570
0.184154 0.552376 0.203873
0.265264 0.564491 0.210304
0.348395 0.576856 0.216863
0.433592 0.589465 0.223550
0.520897 0.602314 0.230365
0.610347 0.615402 0.237308
0.701980 0.628725 0.244380
0.042476 0.671444 0.212766
0.123187 0.685155 0.219373
0.205929 0.699129 0.226109
0.290747 0.713360 0.232972
0.377681 0.727846 0.239964
0.466768 0.742583 0.247083
0.558043 0.757568 0.254332
0.651540 0.772799 0.261708
0.747290 0.788273 0.269214
0.058396 0.825425 0.235598
0.142786 0.841321 0.242638
0.229301 0.857483 0.249806
0.317978 0.873908 0.257102
0.408852 0.890593 0.264528
0.501953 0.907535 0.272082
0.592045 0.916766 0.277644
0.680319 0.922787 0.282361
0.768593 0.928809 0.287077
0.075619 0.991308 0.259892
0.163846 1.000000 0.267366
0.253998 1.000000 0.274709
0.342271 1.000000 0.279426
0.430545 1.000000 0.284142
0.518819 1.000000 0.288858
0.607092 1.000000 0.293574
0.695366 1.000000 0.298291
0.783640 1.000000 0.303007
0.000000 0.000000 0.188443
0.036818 0.000000 0.192288
0.106106 0.000000 0.196133
0.175393 0.000000 0.199978
0.244681 0.000000 0.203824
0.313968 0.000000 0.207669
0.383256 0.000000 0.211514
0.452543 0.000000 0.215359
0.522048 0.000000 0.219280
0.000000 0.061762 0.201431
0.048629 0.066519 0.205276
0.117917 0.071276 0.209121
0.187204 0.076034 0.212966
0.256492 0.080791 0.216811
0.326733 0.085791 0.221191
0.399605 0.091311 0.226634
0.474295 0.097037 0.232389
0.550819 0.102937 0.238371
0.000000 0.167697 0.214418
0.060440 0.172454 0.218264
0.130498 0.178231 0.223199
0.202023 0.184636 0.228777
0.275116 0.191325 0.234624
0.349891 0.198251 0.240683
0.426439 0.205392 0.246929
0.504835 0.212737 0.253348
0.585143 0.220278 0.259930
0.003020 0.278646 0.230958
0.074381 0.286352 0.236889
0.147309 0.294344 0.243021
0.221917 0.302595 0.249333
0.298294 0.311087 0.255815
0.376518 0.319809 0.262456
0.456651 0.328753 0.269253
0.538751 0.337913 0.276200
0.622869 0.347286 0.283295
0.015620 0.400628 0.251762
0.089918 0.410294 0.258304
0.166001 0.420220 0.265005
0.243940 0.430395 0.271859
0.323798 0.440813 0.278862
0.405628 0.451466 0.286012
0.489482 0.462351 0.293307
0.575404 0.473463 0.300746
0.663435 0.484800 0.308326
0.029264 0.532951 0.274486
0.106837 0.544645 0.281545
0.186340 0.556596 0.288751
0.267828 0.568800 0.296100
0.351347 0.581251 0.303592
0.436942 0.593944 0.311226
0.524653 0.606878 0.319001
0.614518 0.620048 0.326916
0.706573 0.633453 0.334971
0.044071 0.676223 0.298913
0.125155 0.690027 0.306458
0.208282 0.704091 0.314146
0.293494 0.718412 0.321974
0.380831 0.732986 0.329942
0.470329 0.747810 0.338049
0.562023 0.762882 0.346296
0.655946 0.778198 0.354683
0.752129 0.793758 0.363208
0.060122 0.830970 0.324966
0.144904 0.846959 0.332987
0.231820 0.863214 0.341148
0.320905 0.879730 0.349447
0.412195 0.896506 0.357886
0.505334 0.912856 0.366224
0.593608 0.918878 0.370940
0.681881 0.924899 0.375657
0.770155 0.930921 0.380373
0.077485 0.997643 0.352618
0.166118 1.000000 0.361110
0.255560 1.000000 0.368005
0.343834 1.000000 0.372721
0.432107 1.000000 0.377438
0.520381 1.000000 0.382154
0.608655 1.000000 0.386870
0.696929 1.000000 0.391587
0.785202 1.000000 0.396303
0.000000 0.000000 0.264507
0.038045 0.000000 0.268352
0.107332 0.000000 0.272198
0.176620 0.000000 0.276043
0.245907 0.000000 0.279888
0.315195 0.000000 0.283733
0.384482 0.000000 0.287579
0.453770 0.000000 0.291424
0.524483 0.000000 0.295935
0.000000 0.063431 0.277495
0.049856 0.068188 0.281340
0.119143 0.072945 0.285185
0.188431 0.077702 0.289031
0.257718 0.082459 0.292876
0.328873 0.087700 0.298122
0.402177 0.093298 0.304256
0.477269 0.099087 0.310730
0.554194 0.105045 0.317465
0.000000 0.169365 0.290483
0.061731 0.174298 0.294582
0.132131 0.180440 0.300390
0.203969 0.186953 0.306667
0.277397 0.193729 0.313245
0.352524 0.200732 0.320068
0.429440 0.207945 0.327106
0.508216 0.215360 0.334342
0.588916 0.222969 0.341764
0.004284 0.281313 0.309120
0.075930 0.289124 0.315795
0.149170 0.297210 0.322702
0.224112 0.305547 0.329817
0.300842 0.314120 0.337124
0.379432 0.322921 0.344613
0.459944 0.331941 0.352276
0.542436 0.341176 0.360109
0.626955 0.350623 0.368106
0.016985 0.403988 0.332554
0.091610 0.413746 0.339931
0.168038 0.423761 0.347487
0.246336 0.434022 0.355215
0.326566 0.444523 0.363110
0.408780 0.455258 0.371168
0.493028 0.466223 0.379387
0.579354 0.477414 0.387763
0.667798 0.488829 0.396294
0.030746 0.537023 0.358177
0.108673 0.548808 0.366134
0.188545 0.560848 0.374253
0.270411 0.573139 0.382531
0.354320 0.585675 0.390966
0.440314 0.598453 0.399556
0.528433 0.611470 0.408300
0.618714 0.624723 0.417195
0.711193 0.638210 0.426242
0.045678 0.681034 0.385699
0.127138 0.694930 0.394192
0.210652 0.709085 0.402840
0.296259 0.723495 0.411641
0.384000 0.738157 0.420594
0.473911 0.753068 0.429698
0.566026 0.768226 0.438951
0.660377 0.783628 0.448355
0.756670 0.798939 0.457739
0.061863 0.836547 0.415005
0.147038 0.852630 0.424015
0.234356 0.868977 0.433175
0.323851 0.885585 0.442485
0.415558 0.902450 0.451945
0.506896 0.914968 0.459520
0.595170 0.920990 0.464236
0.683444 0.927011 0.468952
0.771717 0.933033 0.473669
0.079365 1.000000 0.446040
0.168406 1.000000 0.455556
0.257123 1.000000 0.461301
0.345396 1.000000 0.466017
0.433670 1.000000 0.470734
0.521944 1.000000 0.475450
0.610217 1.000000 0.480166
0.698491 1.000000 0.484882
0.786765 1.000000 0.489599
0.000000 0.000000 0.340572
0.039271 0.000000 0.344417
0.108559 0.000000 0.348262
0.177846 0.000000 0.352107
0.247134 0.000000 0.355953
0.316421 0.000000 0.359798
0.385708 0.000000 0.363643
0.454996 0.000000 0.367488
0.527160 0.000000 0.373017
0.000000 0.065099 0.353560
0.051082 0.069856 0.357405
0.120369 0.074613 0.361250
0.189657 0.079371 0.365095
0.259171 0.084199 0.369207
0.331104 0.089639 0.375482
0.404811 0.095308 0.382342
0.480296 0.101158 0.389565
0.557617 0.107174 0.397077
0.000000 0.171034 0.366547
0.063115 0.176392 0.371472
0.133797 0.182691 0.378022
0.205947 0.189302 0.385033
0.279710 0.196160 0.392371
0.355191 0.203239 0.399980
0.432474 0.210523 0.407831
0.511631 0.218007 0.415901
0.592724 0.225683 0.424177
0.005559 0.284019 0.387769
0.077493 0.291930 0.395215
0.151050 0.300106 0.402918
0.226329 0.308527 0.410853
0.303413 0.317182 0.419003
0.382372 0.326060 0.427354
0.463266 0.335156 0.435899
0.546149 0.344466 0.444629
0.631072 0.353985 0.453539
0.018363 0.407380 0.413907
0.093317 0.417230 0.422134
0.170092 0.427332 0.430559
0.248752 0.437678 0.439174
0.329356 0.448262 0.447973
0.411956 0.459078 0.456951
0.496599 0.470122 0.466103
0.583330 0.481392 0.475426
0.672189 0.492885 0.484918
0.032240 0.541127 0.442476
0.110525 0.553002 0.451343
0.190766 0.565131 0.460387
0.273013 0.577508 0.469604
0.357313 0.590129 0.478991
0.443708 0.602992 0.488546
0.532236 0.616091 0.498266
0.622935 0.629427 0.508150
0.715839 0.642995 0.518197
0.047299 0.685878 0.473129
0.129137 0.699865 0.482580
0.213038 0.714110 0.492198
0.299044 0.728609 0.501980
0.387191 0.743359 0.511925
0.477515 0.758356 0.522033
0.570051 0.773600 0.532300
0.664831 0.789087 0.542727
0.758233 0.801051 0.551034
0.063618 0.842158 0.505717
0.149188 0.858334 0.515724
0.236909 0.874772 0.525892
0.326816 0.891471 0.536220
0.418942 0.908426 0.546707
0.508459 0.917080 0.552816
0.596733 0.923102 0.557532
0.685006 0.929123 0.562248
0.773280 0.935145 0.566965
0.081260 1.000000 0.540161
0.170411 1.000000 0.549881
0.258685 1.000000 0.554597
0.346959 1.000000 0.559313
0.435232 1.000000 0.564029
0.523506 1.000000 0.568746
0.611780 1.000000 0.573462
0.700054 1.000000 0.578178
0.788327 1.000000 0.582895
0.000000 0.000000 0.416636
0.040498 0.000000 0.420481
0.109785 0.000000 0.424327
0.179072 0.000000 0.428172
0.248360 0.000000 0.432017
0.317647 0.000000 0.435862
0.386935 0.000000 0.439707
0.456548 0.000000 0.443814
0.529981 0.000000 0.450545
0.000000 0.066767 0.429624
0.052308 0.071525 0.433469
0.121596 0.076282 0.437314
0.190883 0.081039 0.441160
0.261035 0.086073 0.446226
0.333405 0.091606 0.453295
0.407499 0.097340 0.460911
0.483371 0.103249 0.468909
0.561087 0.109323 0.477220
0.000000 0.172702 0.442612
0.064528 0.178557 0.448810
0.135491 0.184979 0.456119
0.207955 0.191681 0.463891
0.282054 0.198619 0.472014
0.357889 0.205771 0.480431
0.435541 0.213126 0.489112
0.515081 0.220677 0.498032
0.596566 0.228421 0.507178
0.006843 0.286762 0.466921
0.079072 0.294769 0.475160
0.152949 0.303032 0.483680
0.228568 0.311537 0.492453
0.306009 0.320270 0.501461
0.385338 0.329225 0.510689
0.466614 0.338397 0.520126
0.549892 0.347781 0.529766
0.635217 0.357373 0.539601
0.019751 0.410805 0.495828
0.095040 0.420745 0.504920
0.172164 0.430933 0.514229
0.251188 0.441363 0.523744
0.332167 0.452029 0.533458
0.415155 0.462925 0.543365
0.500195 0.474049 0.553461
0.587333 0.485398 0.563741
0.676606 0.496968 0.574202
0.033747 0.545262 0.527389
0.112392 0.557227 0.537177
0.193004 0.569444 0.547156
0.275635 0.581907 0.557322
0.360327 0.594613 0.567671
0.447124 0.607559 0.578199
0.536063 0.620742 0.588905
0.627181 0.634159 0.599786
0.720511 0.647809 0.610839
0.048934 0.690754 0.561209
0.131152 0.704832 0.571626
0.215443 0.719166 0.582222
0.301846 0.733754 0.592994
0.390401 0.748591 0.603940
0.481141 0.763675 0.615058
0.574100 0.779004 0.626347
0.669309 0.794577 0.637804
0.759795 0.803163 0.644330
0.065388 0.847801 0.597107
0.151354 0.864069 0.608119
0.239479 0.880599 0.619301
0.329799 0.897388 0.630654
0.421748 0.913170 0.641395
0.510021 0.919192 0.646112
0.598295 0.925214 0.650828
0.686569 0.931235 0.655544
0.774842 0.937257 0.660260
0.083170 1.000000 0.634985
0.171974 1.000000 0.643176
0.260247 1.000000 0.647893
0.348521 1.000000 0.652609
0.436795 1.000000 0.657325
0.525069 1.000000 0.662042
0.613342 1.000000 0.666758
0.701616 1.000000 0.671474
0.789890 1.000000 0.676190
0.000000 0.000000 0.492701
0.041724 0.000000 0.496546
0.111011 0.000000 0.500391
0.180299 0.000000 0.504236
0.249586 0.000000 0.508081
0.318874 0.000000 0.511927
0.388161 0.000000 0.515772
0.458874 0.000000 0.520956
0.532912 0.000565 0.528536
0.000000 0.068436 0.505688
0.053535 0.073193 0.509534
0.122822 0.077950 0.513379
0.192110 0.082707 0.517224
0.263004 0.087986 0.523718
0.335764 0.093596 0.531580
0.410237 0.099393 0.539978
0.486493 0.105361 0.548775
0.564601 0.111491 0.557905
0.000000 0.174604 0.519267
0.065964 0.180772 0.526609
0.137211 0.187301 0.534699
0.209990 0.194089 0.543258
0.284427 0.201103 0.552187
0.360617 0.208327 0.561431
0.438640 0.215752 0.570958
0.518562 0.223371 0.580745
0.600443 0.231181 0.590774
0.008136 0.289539 0.546590
0.080666 0.297639 0.555643
0.154866 0.305988 0.564997
0.230828 0.314574 0.574625
0.308627 0.323386 0.584505
0.388329 0.332418 0.594622
0.469990 0.341664 0.604966
0.553662 0.351121 0.615526
0.639393 0.360787 0.626297
0.021152 0.414262 0.578327
0.096777 0.424290 0.588299
0.174253 0.434564 0.598503
0.253643 0.445077 0.608929
0.335000 0.455824 0.619570
0.418376 0.466801 0.630417
0.503816 0.478004 0.641467
0.591361 0.489431 0.652713
0.681051 0.501078 0.664152
0.035267 0.549430 0.612923
0.114273 0.561483 0.623642
0.195260 0.573787 0.634567
0.278275 0.586336 0.645691
0.363362 0.599127 0.657010
0.450562 0.612156 0.668521
0.539913 0.625421 0.680220
0.631451 0.638920 0.692105
0.725208 0.652651 0.704173
0.050583 0.695662 0.649943
0.133182 0.709831 0.661335
0.217864 0.724254 0.672918
0.304668 0.738929 0.684687
0.393631 0.753853 0.696641
0.484788 0.769024 0.708778
0.578171 0.784438 0.721094
0.673084 0.799253 0.732910
0.761358 0.805275 0.737626
0.067171 0.853477 0.689180
0.153535 0.869837 0.701203
0.242067 0.886458 0.713408
0.332801 0.903337 0.725792
0.423310 0.915282 0.734691
0.511584 0.921304 0.739407
0.599857 0.927326 0.744124
0.688131 0.933347 0.748840
0.776405 0.939369 0.753556
0.085094 1.000000 0.730516
0.173536 1.000000 0.736472
0.261810 1.000000 0.741189
0.350084 1.000000 0.745905
0.438357 1.000000 0.750621
0.526631 1.000000 0.755337
0.614905 1.000000 0.760054
0.703179 1.000000 0.764770
0.791452 1.000000 0.769486
0.000000 0.000000 0.568765
0.042950 0.000000 0.572610
0.112238 0.000000 0.576455
0.181525 0.000000 0.580301
0.250813 0.000000 0.584146
0.320100 0.000000 0.587991
0.389388 0.000000 0.591836
0.461391 0.000000 0.598597
0.535933 0.002260 0.607009
0.000000 0.070104 0.581753
0.054761 0.074862 0.585598
0.124049 0.079619 0.589443
0.193569 0.084474 0.593878
0.265045 0.089930 0.601684
0.338175 0.095609 0.610356
0.413021 0.101467 0.619558
0.489659 0.107492 0.629175
0.568158 0.113679 0.639142
0.000000 0.176711 0.596674
0.067420 0.183029 0.604885
0.138955 0.189654 0.613777
0.212052 0.196524 0.623146
0.286828 0.203614 0.632900
0.363376 0.210909 0.642989
0.441770 0.218402 0.653379
0.522077 0.226089 0.664046
0.604352 0.233965 0.674972
0.009441 0.292350 0.626788
0.082274 0.300540 0.636673
0.156802 0.308973 0.646879
0.233109 0.317639 0.657376
0.311269 0.326529 0.668142
0.391345 0.335636 0.679162
0.473392 0.344957 0.690423
0.557460 0.354488 0.701916
0.643597 0.364226 0.713631
0.022565 0.417751 0.661411
0.098529 0.427866 0.672275
0.176360 0.438224 0.683388
0.256117 0.448820 0.694737
0.337855 0.459648 0.706315
0.421621 0.470705 0.718112
0.507461 0.481986 0.730125
0.595415 0.493491 0.742346
0.685523 0.505216 0.754771
0.036801 0.553628 0.699083
0.116171 0.565770 0.710745
0.197533 0.578161 0.722624
0.280934 0.590795 0.734716
0.366417 0.603669 0.747014
0.454022 0.616782 0.759516
0.543787 0.630129 0.772216
0.635745 0.643709 0.785113
0.729931 0.657521 0.798202
0.052245 0.700602 0.739336
0.135228 0.714860 0.751712
0.220303 0.729372 0.764289
0.307509 0.744135 0.777064
0.396882 0.759146 0.790034
0.488456 0.774402 0.803195
0.582264 0.789902 0.816547
0.674646 0.801365 0.826206
0.762920 0.807387 0.830922
0.068969 0.859185 0.781939
0.155733 0.875637 0.794982
0.244673 0.892349 0.808215
0.335821 0.909318 0.821638
0.424872 0.917394 0.827987
0.513146 0.923416 0.832703
0.601420 0.929438 0.837419
0.689694 0.935459 0.842136
0.777967 0.941481 0.846852
0.086825 1.000000 0.825052
0.175099 1.000000 0.829768
0.263372 1.000000 0.834484
0.351646 1.000000 0.839201
0.439920 1.000000 0.843917
0.528194 1.000000 0.848633
0.616467 1.000000 0.853350
0.704741 1.000000 0.858066
0.793015 1.000000 0.862782
