assets/lighting/exposure-references/grade-exposure-minus-2/lut.cube
TITLE "Exposure Reference -2 EV"
# TKRS lighting-batch-001 original LUT
# Intended usage: technical underexposure reference
# License: CC0-1.0
LUT_3D_SIZE 9
DOMAIN_MIN 0.0 0.0 0.0
DOMAIN_MAX 1.0 1.0 1.0
0.000000 0.000000 0.000000
0.031250 0.000000 0.000000
0.062500 0.000000 0.000000
0.093750 0.000000 0.000000
0.125000 0.000000 0.000000
0.156250 0.000000 0.000000
0.187500 0.000000 0.000000
0.218750 0.000000 0.000000
0.250000 0.000000 0.000000
0.000000 0.031250 0.000000
0.031250 0.031250 0.000000
0.062500 0.031250 0.000000
0.093750 0.031250 0.000000
0.125000 0.031250 0.000000
0.156250 0.031250 0.000000
0.187500 0.031250 0.000000
0.218750 0.031250 0.000000
0.250000 0.031250 0.000000
0.000000 0.062500 0.000000
0.031250 0.062500 0.000000
0.062500 0.062500 0.000000
0.093750 0.062500 0.000000
0.125000 0.062500 0.000000
0.156250 0.062500 0.000000
0.187500 0.062500 0.000000
0.218750 0.062500 0.000000
0.250000 0.062500 0.000000
0.000000 0.093750 0.000000
0.031250 0.093750 0.000000
0.062500 0.093750 0.000000
0.093750 0.093750 0.000000
0.125000 0.093750 0.000000
0.156250 0.093750 0.000000
0.187500 0.093750 0.000000
0.218750 0.093750 0.000000
0.250000 0.093750 0.000000
0.000000 0.125000 0.000000
0.031250 0.125000 0.000000
0.062500 0.125000 0.000000
0.093750 0.125000 0.000000
0.125000 0.125000 0.000000
0.156250 0.125000 0.000000
0.187500 0.125000 0.000000
0.218750 0.125000 0.000000
0.250000 0.125000 0.000000
0.000000 0.156250 0.000000
0.031250 0.156250 0.000000
0.062500 0.156250 0.000000
0.093750 0.156250 0.000000
0.125000 0.156250 0.000000
0.156250 0.156250 0.000000
0.187500 0.156250 0.000000
0.218750 0.156250 0.000000
0.250000 0.156250 0.000000
0.000000 0.187500 0.000000
0.031250 0.187500 0.000000
0.062500 0.187500 0.000000
0.093750 0.187500 0.000000
0.125000 0.187500 0.000000
0.156250 0.187500 0.000000
0.187500 0.187500 0.000000
0.218750 0.187500 0.000000
0.250000 0.187500 0.000000
0.000000 0.218750 0.000000
0.031250 0.218750 0.000000
0.062500 0.218750 0.000000
0.093750 0.218750 0.000000
0.125000 0.218750 0.000000
0.156250 0.218750 0.000000
0.187500 0.218750 0.000000
0.218750 0.218750 0.000000
0.250000 0.218750 0.000000
0.000000 0.250000 0.000000
0.031250 0.250000 0.000000
0.062500 0.250000 0.000000
0.093750 0.250000 0.000000
0.125000 0.250000 0.000000
0.156250 0.250000 0.000000
0.187500 0.250000 0.000000
0.218750 0.250000 0.000000
0.250000 0.250000 0.000000
0.000000 0.000000 0.031250
0.031250 0.000000 0.031250
0.062500 0.000000 0.031250
0.093750 0.000000 0.031250
0.125000 0.000000 0.031250
0.156250 0.000000 0.031250
0.187500 0.000000 0.031250
0.218750 0.000000 0.031250
0.250000 0.000000 0.031250
0.000000 0.031250 0.031250
0.031250 0.031250 0.031250
0.062500 0.031250 0.031250
0.093750 0.031250 0.031250
0.125000 0.031250 0.031250
0.156250 0.031250 0.031250
0.187500 0.031250 0.031250
0.218750 0.031250 0.031250
0.250000 0.031250 0.031250
0.000000 0.062500 0.031250
0.031250 0.062500 0.031250
0.062500 0.062500 0.031250
0.093750 0.062500 0.031250
0.125000 0.062500 0.031250
0.156250 0.062500 0.031250
0.187500 0.062500 0.031250
0.218750 0.062500 0.031250
0.250000 0.062500 0.031250
0.000000 0.093750 0.031250
0.031250 0.093750 0.031250
0.062500 0.093750 0.031250
0.093750 0.093750 0.031250
0.125000 0.093750 0.031250
0.156250 0.093750 0.031250
0.187500 0.093750 0.031250
0.218750 0.093750 0.031250
0.250000 0.093750 0.031250
0.000000 0.125000 0.031250
0.031250 0.125000 0.031250
0.062500 0.125000 0.031250
0.093750 0.125000 0.031250
0.125000 0.125000 0.031250
0.156250 0.125000 0.031250
0.187500 0.125000 0.031250
0.218750 0.125000 0.031250
0.250000 0.125000 0.031250
0.000000 0.156250 0.031250
0.031250 0.156250 0.031250
0.062500 0.156250 0.031250
0.093750 0.156250 0.031250
0.125000 0.156250 0.031250
0.156250 0.156250 0.031250
0.187500 0.156250 0.031250
0.218750 0.156250 0.031250
0.250000 0.156250 0.031250
0.000000 0.187500 0.031250
0.031250 0.187500 0.031250
0.062500 0.187500 0.031250
0.093750 0.187500 0.031250
0.125000 0.187500 0.031250
0.156250 0.187500 0.031250
0.187500 0.187500 0.031250
0.218750 0.187500 0.031250
0.250000 0.187500 0.031250
0.000000 0.218750 0.031250
0.031250 0.218750 0.031250
0.062500 0.218750 0.031250
0.093750 0.218750 0.031250
0.125000 0.218750 0.031250
0.156250 0.218750 0.031250
0.187500 0.218750 0.031250
0.218750 0.218750 0.031250
0.250000 0.218750 0.031250
0.000000 0.250000 0.031250
0.031250 0.250000 0.031250
0.062500 0.250000 0.031250
0.093750 0.250000 0.031250
0.125000 0.250000 0.031250
0.156250 0.250000 0.031250
0.187500 0.250000 0.031250
0.218750 0.250000 0.031250
0.250000 0.250000 0.031250
0.000000 0.000000 0.062500
0.031250 0.000000 0.062500
0.062500 0.000000 0.062500
0.093750 0.000000 0.062500
0.125000 0.000000 0.062500
0.156250 0.000000 0.062500
0.187500 0.000000 0.062500
0.218750 0.000000 0.062500
0.250000 0.000000 0.062500
0.000000 0.031250 0.062500
0.031250 0.031250 0.062500
0.062500 0.031250 0.062500
0.093750 0.031250 0.062500
0.125000 0.031250 0.062500
0.156250 0.031250 0.062500
0.187500 0.031250 0.062500
0.218750 0.031250 0.062500
0.250000 0.031250 0.062500
0.000000 0.062500 0.062500
0.031250 0.062500 0.062500
0.062500 0.062500 0.062500
0.093750 0.062500 0.062500
0.125000 0.062500 0.062500
0.156250 0.062500 0.062500
0.187500 0.062500 0.062500
0.218750 0.062500 0.062500
0.250000 0.062500 0.062500
0.000000 0.093750 0.062500
0.031250 0.093750 0.062500
0.062500 0.093750 0.062500
0.093750 0.093750 0.062500
0.125000 0.093750 0.062500
0.156250 0.093750 0.062500
0.187500 0.093750 0.062500
0.218750 0.093750 0.062500
0.250000 0.093750 0.062500
0.000000 0.125000 0.062500
0.031250 0.125000 0.062500
0.062500 0.125000 0.062500
0.093750 0.125000 0.062500
0.125000 0.125000 0.062500
0.156250 0.125000 0.062500
0.187500 0.125000 0.062500
0.218750 0.125000 0.062500
0.250000 0.125000 0.062500
0.000000 0.156250 0.062500
0.031250 0.156250 0.062500
0.062500 0.156250 0.062500
0.093750 0.156250 0.062500
0.125000 0.156250 0.062500
0.156250 0.156250 0.062500
0.187500 0.156250 0.062500
0.218750 0.156250 0.062500
0.250000 0.156250 0.062500
0.000000 0.187500 0.062500
0.031250 0.187500 0.062500
0.062500 0.187500 0.062500
0.093750 0.187500 0.062500
0.125000 0.187500 0.062500
0.156250 0.187500 0.062500
0.187500 0.187500 0.062500
0.218750 0.187500 0.062500
0.250000 0.187500 0.062500
0.000000 0.218750 0.062500
0.031250 0.218750 0.062500
0.062500 0.218750 0.062500
0.093750 0.218750 0.062500
0.125000 0.218750 0.062500
0.156250 0.218750 0.062500
0.187500 0.218750 0.062500
0.218750 0.218750 0.062500
0.250000 0.218750 0.062500
0.000000 0.250000 0.062500
0.031250 0.250000 0.062500
0.062500 0.250000 0.062500
0.093750 0.250000 0.062500
0.125000 0.250000 0.062500
0.156250 0.250000 0.062500
0.187500 0.250000 0.062500
0.218750 0.250000 0.062500
0.250000 0.250000 0.062500
0.000000 0.000000 0.093750
0.031250 0.000000 0.093750
0.062500 0.000000 0.093750
0.093750 0.000000 0.093750
0.125000 0.000000 0.093750
0.156250 0.000000 0.093750
0.187500 0.000000 0.093750
0.218750 0.000000 0.093750
0.250000 0.000000 0.093750
0.000000 0.031250 0.093750
0.031250 0.031250 0.093750
0.062500 0.031250 0.093750
0.093750 0.031250 0.093750
0.125000 0.031250 0.093750
0.156250 0.031250 0.093750
0.187500 0.031250 0.093750
0.218750 0.031250 0.093750
0.250000 0.031250 0.093750
0.000000 0.062500 0.093750
0.031250 0.062500 0.093750
0.062500 0.062500 0.093750
0.093750 0.062500 0.093750
0.125000 0.062500 0.093750
0.156250 0.062500 0.093750
0.187500 0.062500 0.093750
0.218750 0.062500 0.093750
0.250000 0.062500 0.093750
0.000000 0.093750 0.093750
0.031250 0.093750 0.093750
0.062500 0.093750 0.093750
0.093750 0.093750 0.093750
0.125000 0.093750 0.093750
0.156250 0.093750 0.093750
0.187500 0.093750 0.093750
0.218750 0.093750 0.093750
0.250000 0.093750 0.093750
0.000000 0.125000 0.093750
0.031250 0.125000 0.093750
0.062500 0.125000 0.093750
0.093750 0.125000 0.093750
0.125000 0.125000 0.093750
0.156250 0.125000 0.093750
0.187500 0.125000 0.093750
0.218750 0.125000 0.093750
0.250000 0.125000 0.093750
0.000000 0.156250 0.093750
0.031250 0.156250 0.093750
0.062500 0.156250 0.093750
0.093750 0.156250 0.093750
0.125000 0.156250 0.093750
0.156250 0.156250 0.093750
0.187500 0.156250 0.093750
0.218750 0.156250 0.093750
0.250000 0.156250 0.093750
0.000000 0.187500 0.093750
0.031250 0.187500 0.093750
0.062500 0.187500 0.093750
0.093750 0.187500 0.093750
0.125000 0.187500 0.093750
0.156250 0.187500 0.093750
0.187500 0.187500 0.093750
0.218750 0.187500 0.093750
0.250000 0.187500 0.093750
0.000000 0.218750 0.093750
0.031250 0.218750 0.093750
0.062500 0.218750 0.093750
0.093750 0.218750 0.093750
0.125000 0.218750 0.093750
0.156250 0.218750 0.093750
0.187500 0.218750 0.093750
0.218750 0.218750 0.093750
0.250000 0.218750 0.093750
0.000000 0.250000 0.093750
0.031250 0.250000 0.093750
0.062500 0.250000 0.093750
0.093750 0.250000 0.093750
0.125000 0.250000 0.093750
0.156250 0.250000 0.093750
0.187500 0.250000 0.093750
0.218750 0.250000 0.093750
0.250000 0.250000 0.093750
0.000000 0.000000 0.125000
0.031250 0.000000 0.125000
0.062500 0.000000 0.125000
0.093750 0.000000 0.125000
0.125000 0.000000 0.125000
0.156250 0.000000 0.125000
0.187500 0.000000 0.125000
0.218750 0.000000 0.125000
0.250000 0.000000 0.125000
0.000000 0.031250 0.125000
0.031250 0.031250 0.125000
0.062500 0.031250 0.125000
0.093750 0.031250 0.125000
0.125000 0.031250 0.125000
0.156250 0.031250 0.125000
0.187500 0.031250 0.125000
0.218750 0.031250 0.125000
0.250000 0.031250 0.125000
0.000000 0.062500 0.125000
0.031250 0.062500 0.125000
0.062500 0.062500 0.125000
0.093750 0.062500 0.125000
0.125000 0.062500 0.125000
0.156250 0.062500 0.125000
0.187500 0.062500 0.125000
0.218750 0.062500 0.125000
0.250000 0.062500 0.125000
0.000000 0.093750 0.125000
0.031250 0.093750 0.125000
0.062500 0.093750 0.125000
0.093750 0.093750 0.125000
0.125000 0.093750 0.125000
0.156250 0.093750 0.125000
0.187500 0.093750 0.125000
0.218750 0.093750 0.125000
0.250000 0.093750 0.125000
0.000000 0.125000 0.125000
0.031250 0.125000 0.125000
0.062500 0.125000 0.125000
0.093750 0.125000 0.125000
0.125000 0.125000 0.125000
0.156250 0.125000 0.125000
0.187500 0.125000 0.125000
0.218750 0.125000 0.125000
0.250000 0.125000 0.125000
0.000000 0.156250 0.125000
0.031250 0.156250 0.125000
0.062500 0.156250 0.125000
0.093750 0.156250 0.125000
0.125000 0.156250 0.125000
0.156250 0.156250 0.125000
0.187500 0.156250 0.125000
0.218750 0.156250 0.125000
0.250000 0.156250 0.125000
0.000000 0.187500 0.125000
0.031250 0.187500 0.125000
0.062500 0.187500 0.125000
0.093750 0.187500 0.125000
0.125000 0.187500 0.125000
0.156250 0.187500 0.125000
0.187500 0.187500 0.125000
0.218750 0.187500 0.125000
0.250000 0.187500 0.125000
0.000000 0.218750 0.125000
0.031250 0.218750 0.125000
0.062500 0.218750 0.125000
0.093750 0.218750 0.125000
0.125000 0.218750 0.125000
0.156250 0.218750 0.125000
0.187500 0.218750 0.125000
0.218750 0.218750 0.125000
0.250000 0.218750 0.125000
0.000000 0.250000 0.125000
0.031250 0.250000 0.125000
0.062500 0.250000 0.125000
0.093750 0.250000 0.125000
0.125000 0.250000 0.125000
0.156250 0.250000 0.125000
0.187500 0.250000 0.125000
0.218750 0.250000 0.125000
0.250000 0.250000 0.125000
0.000000 0.000000 0.156250
0.031250 0.000000 0.156250
0.062500 0.000000 0.156250
0.093750 0.000000 0.156250
0.125000 0.000000 0.156250
0.156250 0.000000 0.156250
0.187500 0.000000 0.156250
0.218750 0.000000 0.156250
0.250000 0.000000 0.156250
0.000000 0.031250 0.156250
0.031250 0.031250 0.156250
0.062500 0.031250 0.156250
0.093750 0.031250 0.156250
0.125000 0.031250 0.156250
0.156250 0.031250 0.156250
0.187500 0.031250 0.156250
0.218750 0.031250 0.156250
0.250000 0.031250 0.156250
0.000000 0.062500 0.156250
0.031250 0.062500 0.156250
0.062500 0.062500 0.156250
0.093750 0.062500 0.156250
0.125000 0.062500 0.156250
0.156250 0.062500 0.156250
0.187500 0.062500 0.156250
0.218750 0.062500 0.156250
0.250000 0.062500 0.156250
0.000000 0.093750 0.156250
0.031250 0.093750 0.156250
0.062500 0.093750 0.156250
0.093750 0.093750 0.156250
0.125000 0.093750 0.156250
0.156250 0.093750 0.156250
0.187500 0.093750 0.156250
0.218750 0.093750 0.156250
0.250000 0.093750 0.156250
0.000000 0.125000 0.156250
0.031250 0.125000 0.156250
0.062500 0.125000 0.156250
0.093750 0.125000 0.156250
0.125000 0.125000 0.156250
0.156250 0.125000 0.156250
0.187500 0.125000 0.156250
0.218750 0.125000 0.156250
0.250000 0.125000 0.156250
0.000000 0.156250 0.156250
0.031250 0.156250 0.156250
0.062500 0.156250 0.156250
0.093750 0.156250 0.156250
0.125000 0.156250 0.156250
0.156250 0.156250 0.156250
0.187500 0.156250 0.156250
0.218750 0.156250 0.156250
0.250000 0.156250 0.156250
0.000000 0.187500 0.156250
0.031250 0.187500 0.156250
0.062500 0.187500 0.156250
0.093750 0.187500 0.156250
0.125000 0.187500 0.156250
0.156250 0.187500 0.156250
0.187500 0.187500 0.156250
0.218750 0.187500 0.156250
0.250000 0.187500 0.156250
0.000000 0.218750 0.156250
0.031250 0.218750 0.156250
0.062500 0.218750 0.156250
0.093750 0.218750 0.156250
0.125000 0.218750 0.156250
0.156250 0.218750 0.156250
0.187500 0.218750 0.156250
0.218750 0.218750 0.156250
0.250000 0.218750 0.156250
0.000000 0.250000 0.156250
0.031250 0.250000 0.156250
0.062500 0.250000 0.156250
0.093750 0.250000 0.156250
0.125000 0.250000 0.156250
0.156250 0.250000 0.156250
0.187500 0.250000 0.156250
0.218750 0.250000 0.156250
0.250000 0.250000 0.156250
0.000000 0.000000 0.187500
0.031250 0.000000 0.187500
0.062500 0.000000 0.187500
0.093750 0.000000 0.187500
0.125000 0.000000 0.187500
0.156250 0.000000 0.187500
0.187500 0.000000 0.187500
0.218750 0.000000 0.187500
0.250000 0.000000 0.187500
0.000000 0.031250 0.187500
0.031250 0.031250 0.187500
0.062500 0.031250 0.187500
0.093750 0.031250 0.187500
0.125000 0.031250 0.187500
0.156250 0.031250 0.187500
0.187500 0.031250 0.187500
0.218750 0.031250 0.187500
0.250000 0.031250 0.187500
0.000000 0.062500 0.187500
0.031250 0.062500 0.187500
0.062500 0.062500 0.187500
0.093750 0.062500 0.187500
0.125000 0.062500 0.187500
0.156250 0.062500 0.187500
0.187500 0.062500 0.187500
0.218750 0.062500 0.187500
0.250000 0.062500 0.187500
0.000000 0.093750 0.187500
0.031250 0.093750 0.187500
0.062500 0.093750 0.187500
0.093750 0.093750 0.187500
0.125000 0.093750 0.187500
0.156250 0.093750 0.187500
0.187500 0.093750 0.187500
0.218750 0.093750 0.187500
0.250000 0.093750 0.187500
0.000000 0.125000 0.187500
0.031250 0.125000 0.187500
0.062500 0.125000 0.187500
0.093750 0.125000 0.187500
0.125000 0.125000 0.187500
0.156250 0.125000 0.187500
0.187500 0.125000 0.187500
0.218750 0.125000 0.187500
0.250000 0.125000 0.187500
0.000000 0.156250 0.187500
0.031250 0.156250 0.187500
0.062500 0.156250 0.187500
0.093750 0.156250 0.187500
0.125000 0.156250 0.187500
0.156250 0.156250 0.187500
0.187500 0.156250 0.187500
0.218750 0.156250 0.187500
0.250000 0.156250 0.187500
0.000000 0.187500 0.187500
0.031250 0.187500 0.187500
0.062500 0.187500 0.187500
0.093750 0.187500 0.187500
0.125000 0.187500 0.187500
0.156250 0.187500 0.187500
0.187500 0.187500 0.187500
0.218750 0.187500 0.187500
0.250000 0.187500 0.187500
0.000000 0.218750 0.187500
0.031250 0.218750 0.187500
0.062500 0.218750 0.187500
0.093750 0.218750 0.187500
0.125000 0.218750 0.187500
0.156250 0.218750 0.187500
0.187500 0.218750 0.187500
0.218750 0.218750 0.187500
0.250000 0.218750 0.187500
0.000000 0.250000 0.187500
0.031250 0.250000 0.187500
0.062500 0.250000 0.187500
0.093750 0.250000 0.187500
0.125000 0.250000 0.187500
0.156250 0.250000 0.187500
0.187500 0.250000 0.187500
0.218750 0.250000 0.187500
0.250000 0.250000 0.187500
0.000000 0.000000 0.218750
0.031250 0.000000 0.218750
0.062500 0.000000 0.218750
0.093750 0.000000 0.218750
0.125000 0.000000 0.218750
0.156250 0.000000 0.218750
0.187500 0.000000 0.218750
0.218750 0.000000 0.218750
0.250000 0.000000 0.218750
0.000000 0.031250 0.218750
0.031250 0.031250 0.218750
0.062500 0.031250 0.218750
0.093750 0.031250 0.218750
0.125000 0.031250 0.218750
0.156250 0.031250 0.218750
0.187500 0.031250 0.218750
0.218750 0.031250 0.218750
0.250000 0.031250 0.218750
0.000000 0.062500 0.218750
0.031250 0.062500 0.218750
0.062500 0.062500 0.218750
0.093750 0.062500 0.218750
0.125000 0.062500 0.218750
0.156250 0.062500 0.218750
0.187500 0.062500 0.218750
0.218750 0.062500 0.218750
0.250000 0.062500 0.218750
0.000000 0.093750 0.218750
0.031250 0.093750 0.218750
0.062500 0.093750 0.218750
0.093750 0.093750 0.218750
0.125000 0.093750 0.218750
0.156250 0.093750 0.218750
0.187500 0.093750 0.218750
0.218750 0.093750 0.218750
0.250000 0.093750 0.218750
0.000000 0.125000 0.218750
0.031250 0.125000 0.218750
0.062500 0.125000 0.218750
0.093750 0.125000 0.218750
0.125000 0.125000 0.218750
0.156250 0.125000 0.218750
0.187500 0.125000 0.218750
0.218750 0.125000 0.218750
0.250000 0.125000 0.218750
0.000000 0.156250 0.218750
0.031250 0.156250 0.218750
0.062500 0.156250 0.218750
0.093750 0.156250 0.218750
0.125000 0.156250 0.218750
0.156250 0.156250 0.218750
0.187500 0.156250 0.218750
0.218750 0.156250 0.218750
0.250000 0.156250 0.218750
0.000000 0.187500 0.218750
0.031250 0.187500 0.218750
0.062500 0.187500 0.218750
0.093750 0.187500 0.218750
0.125000 0.187500 0.218750
0.156250 0.187500 0.218750
0.187500 0.187500 0.218750
0.218750 0.187500 0.218750
0.250000 0.187500 0.218750
0.000000 0.218750 0.218750
0.031250 0.218750 0.218750
0.062500 0.218750 0.218750
0.093750 0.218750 0.218750
0.125000 0.218750 0.218750
0.156250 0.218750 0.218750
0.187500 0.218750 0.218750
0.218750 0.218750 0.218750
0.250000 0.218750 0.218750
0.000000 0.250000 0.218750
0.031250 0.250000 0.218750
0.062500 0.250000 0.218750
0.093750 0.250000 0.218750
0.125000 0.250000 0.218750
0.156250 0.250000 0.218750
0.187500 0.250000 0.218750
0.218750 0.250000 0.218750
0.250000 0.250000 0.218750
0.000000 0.000000 0.250000
0.031250 0.000000 0.250000
0.062500 0.000000 0.250000
0.093750 0.000000 0.250000
0.125000 0.000000 0.250000
0.156250 0.000000 0.250000
0.187500 0.000000 0.250000
0.218750 0.000000 0.250000
0.250000 0.000000 0.250000
0.000000 0.031250 0.250000
0.031250 0.031250 0.250000
0.062500 0.031250 0.250000
0.093750 0.031250 0.250000
0.125000 0.031250 0.250000
0.156250 0.031250 0.250000
0.187500 0.031250 0.250000
0.218750 0.031250 0.250000
0.250000 0.031250 0.250000
0.000000 0.062500 0.250000
0.031250 0.062500 0.250000
0.062500 0.062500 0.250000
0.093750 0.062500 0.250000
0.125000 0.062500 0.250000
0.156250 0.062500 0.250000
0.187500 0.062500 0.250000
0.218750 0.062500 0.250000
0.250000 0.062500 0.250000
0.000000 0.093750 0.250000
0.031250 0.093750 0.250000
0.062500 0.093750 0.250000
0.093750 0.093750 0.250000
0.125000 0.093750 0.250000
0.156250 0.093750 0.250000
0.187500 0.093750 0.250000
0.218750 0.093750 0.250000
0.250000 0.093750 0.250000
0.000000 0.125000 0.250000
0.031250 0.125000 0.250000
0.062500 0.125000 0.250000
0.093750 0.125000 0.250000
0.125000 0.125000 0.250000
0.156250 0.125000 0.250000
0.187500 0.125000 0.250000
0.218750 0.125000 0.250000
0.250000 0.125000 0.250000
0.000000 0.156250 0.250000
0.031250 0.156250 0.250000
0.062500 0.156250 0.250000
0.093750 0.156250 0.250000
0.125000 0.156250 0.250000
0.156250 0.156250 0.250000
0.187500 0.156250 0.250000
0.218750 0.156250 0.250000
0.250000 0.156250 0.250000
0.000000 0.187500 0.250000
0.031250 0.187500 0.250000
0.062500 0.187500 0.250000
0.093750 0.187500 0.250000
0.125000 0.187500 0.250000
0.156250 0.187500 0.250000
0.187500 0.187500 0.250000
0.218750 0.187500 0.250000
0.250000 0.187500 0.250000
0.000000 0.218750 0.250000
0.031250 0.218750 0.250000
0.062500 0.218750 0.250000
0.093750 0.218750 0.250000
0.125000 0.218750 0.250000
0.156250 0.218750 0.250000
0.187500 0.218750 0.250000
0.218750 0.218750 0.250000
0.250000 0.218750 0.250000
0.000000 0.250000 0.250000
0.031250 0.250000 0.250000
0.062500 0.250000 0.250000
0.093750 0.250000 0.250000
0.125000 0.250000 0.250000
0.156250 0.250000 0.250000
0.187500 0.250000 0.250000
0.218750 0.250000 0.250000
0.250000 0.250000 0.250000
