assets/lighting/exposure-references/grade-exposure-minus-2/lut.cube
TITLE "Exposure Reference -2 EV"
# TKRS lighting-batch-001 original LUT
# Intended usage: technical underexposure reference
# License: CC0-1.0
LUT_3D_SIZE 17
DOMAIN_MIN 0.0 0.0 0.0
DOMAIN_MAX 1.0 1.0 1.0
0.000000 0.000000 0.000000
0.015625 0.000000 0.000000
0.031250 0.000000 0.000000
0.046875 0.000000 0.000000
0.062500 0.000000 0.000000
0.078125 0.000000 0.000000
0.093750 0.000000 0.000000
0.109375 0.000000 0.000000
0.125000 0.000000 0.000000
0.140625 0.000000 0.000000
0.156250 0.000000 0.000000
0.171875 0.000000 0.000000
0.187500 0.000000 0.000000
0.203125 0.000000 0.000000
0.218750 0.000000 0.000000
0.234375 0.000000 0.000000
0.250000 0.000000 0.000000
0.000000 0.015625 0.000000
0.015625 0.015625 0.000000
0.031250 0.015625 0.000000
0.046875 0.015625 0.000000
0.062500 0.015625 0.000000
0.078125 0.015625 0.000000
0.093750 0.015625 0.000000
0.109375 0.015625 0.000000
0.125000 0.015625 0.000000
0.140625 0.015625 0.000000
0.156250 0.015625 0.000000
0.171875 0.015625 0.000000
0.187500 0.015625 0.000000
0.203125 0.015625 0.000000
0.218750 0.015625 0.000000
0.234375 0.015625 0.000000
0.250000 0.015625 0.000000
0.000000 0.031250 0.000000
0.015625 0.031250 0.000000
0.031250 0.031250 0.000000
0.046875 0.031250 0.000000
0.062500 0.031250 0.000000
0.078125 0.031250 0.000000
0.093750 0.031250 0.000000
0.109375 0.031250 0.000000
0.125000 0.031250 0.000000
0.140625 0.031250 0.000000
0.156250 0.031250 0.000000
0.171875 0.031250 0.000000
0.187500 0.031250 0.000000
0.203125 0.031250 0.000000
0.218750 0.031250 0.000000
0.234375 0.031250 0.000000
0.250000 0.031250 0.000000
0.000000 0.046875 0.000000
0.015625 0.046875 0.000000
0.031250 0.046875 0.000000
0.046875 0.046875 0.000000
0.062500 0.046875 0.000000
0.078125 0.046875 0.000000
0.093750 0.046875 0.000000
0.109375 0.046875 0.000000
0.125000 0.046875 0.000000
0.140625 0.046875 0.000000
0.156250 0.046875 0.000000
0.171875 0.046875 0.000000
0.187500 0.046875 0.000000
0.203125 0.046875 0.000000
0.218750 0.046875 0.000000
0.234375 0.046875 0.000000
0.250000 0.046875 0.000000
0.000000 0.062500 0.000000
0.015625 0.062500 0.000000
0.031250 0.062500 0.000000
0.046875 0.062500 0.000000
0.062500 0.062500 0.000000
0.078125 0.062500 0.000000
0.093750 0.062500 0.000000
0.109375 0.062500 0.000000
0.125000 0.062500 0.000000
0.140625 0.062500 0.000000
0.156250 0.062500 0.000000
0.171875 0.062500 0.000000
0.187500 0.062500 0.000000
0.203125 0.062500 0.000000
0.218750 0.062500 0.000000
0.234375 0.062500 0.000000
0.250000 0.062500 0.000000
0.000000 0.078125 0.000000
0.015625 0.078125 0.000000
0.031250 0.078125 0.000000
0.046875 0.078125 0.000000
0.062500 0.078125 0.000000
0.078125 0.078125 0.000000
0.093750 0.078125 0.000000
0.109375 0.078125 0.000000
0.125000 0.078125 0.000000
0.140625 0.078125 0.000000
0.156250 0.078125 0.000000
0.171875 0.078125 0.000000
0.187500 0.078125 0.000000
0.203125 0.078125 0.000000
0.218750 0.078125 0.000000
0.234375 0.078125 0.000000
0.250000 0.078125 0.000000
0.000000 0.093750 0.000000
0.015625 0.093750 0.000000
0.031250 0.093750 0.000000
0.046875 0.093750 0.000000
0.062500 0.093750 0.000000
0.078125 0.093750 0.000000
0.093750 0.093750 0.000000
0.109375 0.093750 0.000000
0.125000 0.093750 0.000000
0.140625 0.093750 0.000000
0.156250 0.093750 0.000000
0.171875 0.093750 0.000000
0.187500 0.093750 0.000000
0.203125 0.093750 0.000000
0.218750 0.093750 0.000000
0.234375 0.093750 0.000000
0.250000 0.093750 0.000000
0.000000 0.109375 0.000000
0.015625 0.109375 0.000000
0.031250 0.109375 0.000000
0.046875 0.109375 0.000000
0.062500 0.109375 0.000000
0.078125 0.109375 0.000000
0.093750 0.109375 0.000000
0.109375 0.109375 0.000000
0.125000 0.109375 0.000000
0.140625 0.109375 0.000000
0.156250 0.109375 0.000000
0.171875 0.109375 0.000000
0.187500 0.109375 0.000000
0.203125 0.109375 0.000000
0.218750 0.109375 0.000000
0.234375 0.109375 0.000000
0.250000 0.109375 0.000000
0.000000 0.125000 0.000000
0.015625 0.125000 0.000000
0.031250 0.125000 0.000000
0.046875 0.125000 0.000000
0.062500 0.125000 0.000000
0.078125 0.125000 0.000000
0.093750 0.125000 0.000000
0.109375 0.125000 0.000000
0.125000 0.125000 0.000000
0.140625 0.125000 0.000000
0.156250 0.125000 0.000000
0.171875 0.125000 0.000000
0.187500 0.125000 0.000000
0.203125 0.125000 0.000000
0.218750 0.125000 0.000000
0.234375 0.125000 0.000000
0.250000 0.125000 0.000000
0.000000 0.140625 0.000000
0.015625 0.140625 0.000000
0.031250 0.140625 0.000000
0.046875 0.140625 0.000000
0.062500 0.140625 0.000000
0.078125 0.140625 0.000000
0.093750 0.140625 0.000000
0.109375 0.140625 0.000000
0.125000 0.140625 0.000000
0.140625 0.140625 0.000000
0.156250 0.140625 0.000000
0.171875 0.140625 0.000000
0.187500 0.140625 0.000000
0.203125 0.140625 0.000000
0.218750 0.140625 0.000000
0.234375 0.140625 0.000000
0.250000 0.140625 0.000000
0.000000 0.156250 0.000000
0.015625 0.156250 0.000000
0.031250 0.156250 0.000000
0.046875 0.156250 0.000000
0.062500 0.156250 0.000000
0.078125 0.156250 0.000000
0.093750 0.156250 0.000000
0.109375 0.156250 0.000000
0.125000 0.156250 0.000000
0.140625 0.156250 0.000000
0.156250 0.156250 0.000000
0.171875 0.156250 0.000000
0.187500 0.156250 0.000000
0.203125 0.156250 0.000000
0.218750 0.156250 0.000000
0.234375 0.156250 0.000000
0.250000 0.156250 0.000000
0.000000 0.171875 0.000000
0.015625 0.171875 0.000000
0.031250 0.171875 0.000000
0.046875 0.171875 0.000000
0.062500 0.171875 0.000000
0.078125 0.171875 0.000000
0.093750 0.171875 0.000000
0.109375 0.171875 0.000000
0.125000 0.171875 0.000000
0.140625 0.171875 0.000000
0.156250 0.171875 0.000000
0.171875 0.171875 0.000000
0.187500 0.171875 0.000000
0.203125 0.171875 0.000000
0.218750 0.171875 0.000000
0.234375 0.171875 0.000000
0.250000 0.171875 0.000000
0.000000 0.187500 0.000000
0.015625 0.187500 0.000000
0.031250 0.187500 0.000000
0.046875 0.187500 0.000000
0.062500 0.187500 0.000000
0.078125 0.187500 0.000000
0.093750 0.187500 0.000000
0.109375 0.187500 0.000000
0.125000 0.187500 0.000000
0.140625 0.187500 0.000000
0.156250 0.187500 0.000000
0.171875 0.187500 0.000000
0.187500 0.187500 0.000000
0.203125 0.187500 0.000000
0.218750 0.187500 0.000000
0.234375 0.187500 0.000000
0.250000 0.187500 0.000000
0.000000 0.203125 0.000000
0.015625 0.203125 0.000000
0.031250 0.203125 0.000000
0.046875 0.203125 0.000000
0.062500 0.203125 0.000000
0.078125 0.203125 0.000000
0.093750 0.203125 0.000000
0.109375 0.203125 0.000000
0.125000 0.203125 0.000000
0.140625 0.203125 0.000000
0.156250 0.203125 0.000000
0.171875 0.203125 0.000000
0.187500 0.203125 0.000000
0.203125 0.203125 0.000000
0.218750 0.203125 0.000000
0.234375 0.203125 0.000000
0.250000 0.203125 0.000000
0.000000 0.218750 0.000000
0.015625 0.218750 0.000000
0.031250 0.218750 0.000000
0.046875 0.218750 0.000000
0.062500 0.218750 0.000000
0.078125 0.218750 0.000000
0.093750 0.218750 0.000000
0.109375 0.218750 0.000000
0.125000 0.218750 0.000000
0.140625 0.218750 0.000000
0.156250 0.218750 0.000000
0.171875 0.218750 0.000000
0.187500 0.218750 0.000000
0.203125 0.218750 0.000000
0.218750 0.218750 0.000000
0.234375 0.218750 0.000000
0.250000 0.218750 0.000000
0.000000 0.234375 0.000000
0.015625 0.234375 0.000000
0.031250 0.234375 0.000000
0.046875 0.234375 0.000000
0.062500 0.234375 0.000000
0.078125 0.234375 0.000000
0.093750 0.234375 0.000000
0.109375 0.234375 0.000000
0.125000 0.234375 0.000000
0.140625 0.234375 0.000000
0.156250 0.234375 0.000000
0.171875 0.234375 0.000000
0.187500 0.234375 0.000000
0.203125 0.234375 0.000000
0.218750 0.234375 0.000000
0.234375 0.234375 0.000000
0.250000 0.234375 0.000000
0.000000 0.250000 0.000000
0.015625 0.250000 0.000000
0.031250 0.250000 0.000000
0.046875 0.250000 0.000000
0.062500 0.250000 0.000000
0.078125 0.250000 0.000000
0.093750 0.250000 0.000000
0.109375 0.250000 0.000000
0.125000 0.250000 0.000000
0.140625 0.250000 0.000000
0.156250 0.250000 0.000000
0.171875 0.250000 0.000000
0.187500 0.250000 0.000000
0.203125 0.250000 0.000000
0.218750 0.250000 0.000000
0.234375 0.250000 0.000000
0.250000 0.250000 0.000000
0.000000 0.000000 0.015625
0.015625 0.000000 0.015625
0.031250 0.000000 0.015625
0.046875 0.000000 0.015625
0.062500 0.000000 0.015625
0.078125 0.000000 0.015625
0.093750 0.000000 0.015625
0.109375 0.000000 0.015625
0.125000 0.000000 0.015625
0.140625 0.000000 0.015625
0.156250 0.000000 0.015625
0.171875 0.000000 0.015625
0.187500 0.000000 0.015625
0.203125 0.000000 0.015625
0.218750 0.000000 0.015625
0.234375 0.000000 0.015625
0.250000 0.000000 0.015625
0.000000 0.015625 0.015625
0.015625 0.015625 0.015625
0.031250 0.015625 0.015625
0.046875 0.015625 0.015625
0.062500 0.015625 0.015625
0.078125 0.015625 0.015625
0.093750 0.015625 0.015625
0.109375 0.015625 0.015625
0.125000 0.015625 0.015625
0.140625 0.015625 0.015625
0.156250 0.015625 0.015625
0.171875 0.015625 0.015625
0.187500 0.015625 0.015625
0.203125 0.015625 0.015625
0.218750 0.015625 0.015625
0.234375 0.015625 0.015625
0.250000 0.015625 0.015625
0.000000 0.031250 0.015625
0.015625 0.031250 0.015625
0.031250 0.031250 0.015625
0.046875 0.031250 0.015625
0.062500 0.031250 0.015625
0.078125 0.031250 0.015625
0.093750 0.031250 0.015625
0.109375 0.031250 0.015625
0.125000 0.031250 0.015625
0.140625 0.031250 0.015625
0.156250 0.031250 0.015625
0.171875 0.031250 0.015625
0.187500 0.031250 0.015625
0.203125 0.031250 0.015625
0.218750 0.031250 0.015625
0.234375 0.031250 0.015625
0.250000 0.031250 0.015625
0.000000 0.046875 0.015625
0.015625 0.046875 0.015625
0.031250 0.046875 0.015625
0.046875 0.046875 0.015625
0.062500 0.046875 0.015625
0.078125 0.046875 0.015625
0.093750 0.046875 0.015625
0.109375 0.046875 0.015625
0.125000 0.046875 0.015625
0.140625 0.046875 0.015625
0.156250 0.046875 0.015625
0.171875 0.046875 0.015625
0.187500 0.046875 0.015625
0.203125 0.046875 0.015625
0.218750 0.046875 0.015625
0.234375 0.046875 0.015625
0.250000 0.046875 0.015625
0.000000 0.062500 0.015625
0.015625 0.062500 0.015625
0.031250 0.062500 0.015625
0.046875 0.062500 0.015625
0.062500 0.062500 0.015625
0.078125 0.062500 0.015625
0.093750 0.062500 0.015625
0.109375 0.062500 0.015625
0.125000 0.062500 0.015625
0.140625 0.062500 0.015625
0.156250 0.062500 0.015625
0.171875 0.062500 0.015625
0.187500 0.062500 0.015625
0.203125 0.062500 0.015625
0.218750 0.062500 0.015625
0.234375 0.062500 0.015625
0.250000 0.062500 0.015625
0.000000 0.078125 0.015625
0.015625 0.078125 0.015625
0.031250 0.078125 0.015625
0.046875 0.078125 0.015625
0.062500 0.078125 0.015625
0.078125 0.078125 0.015625
0.093750 0.078125 0.015625
0.109375 0.078125 0.015625
0.125000 0.078125 0.015625
0.140625 0.078125 0.015625
0.156250 0.078125 0.015625
0.171875 0.078125 0.015625
0.187500 0.078125 0.015625
0.203125 0.078125 0.015625
0.218750 0.078125 0.015625
0.234375 0.078125 0.015625
0.250000 0.078125 0.015625
0.000000 0.093750 0.015625
0.015625 0.093750 0.015625
0.031250 0.093750 0.015625
0.046875 0.093750 0.015625
0.062500 0.093750 0.015625
0.078125 0.093750 0.015625
0.093750 0.093750 0.015625
0.109375 0.093750 0.015625
0.125000 0.093750 0.015625
0.140625 0.093750 0.015625
0.156250 0.093750 0.015625
0.171875 0.093750 0.015625
0.187500 0.093750 0.015625
0.203125 0.093750 0.015625
0.218750 0.093750 0.015625
0.234375 0.093750 0.015625
0.250000 0.093750 0.015625
0.000000 0.109375 0.015625
0.015625 0.109375 0.015625
0.031250 0.109375 0.015625
0.046875 0.109375 0.015625
0.062500 0.109375 0.015625
0.078125 0.109375 0.015625
0.093750 0.109375 0.015625
0.109375 0.109375 0.015625
0.125000 0.109375 0.015625
0.140625 0.109375 0.015625
0.156250 0.109375 0.015625
0.171875 0.109375 0.015625
0.187500 0.109375 0.015625
0.203125 0.109375 0.015625
0.218750 0.109375 0.015625
0.234375 0.109375 0.015625
0.250000 0.109375 0.015625
0.000000 0.125000 0.015625
0.015625 0.125000 0.015625
0.031250 0.125000 0.015625
0.046875 0.125000 0.015625
0.062500 0.125000 0.015625
0.078125 0.125000 0.015625
0.093750 0.125000 0.015625
0.109375 0.125000 0.015625
0.125000 0.125000 0.015625
0.140625 0.125000 0.015625
0.156250 0.125000 0.015625
0.171875 0.125000 0.015625
0.187500 0.125000 0.015625
0.203125 0.125000 0.015625
0.218750 0.125000 0.015625
0.234375 0.125000 0.015625
0.250000 0.125000 0.015625
0.000000 0.140625 0.015625
0.015625 0.140625 0.015625
0.031250 0.140625 0.015625
0.046875 0.140625 0.015625
0.062500 0.140625 0.015625
0.078125 0.140625 0.015625
0.093750 0.140625 0.015625
0.109375 0.140625 0.015625
0.125000 0.140625 0.015625
0.140625 0.140625 0.015625
0.156250 0.140625 0.015625
0.171875 0.140625 0.015625
0.187500 0.140625 0.015625
0.203125 0.140625 0.015625
0.218750 0.140625 0.015625
0.234375 0.140625 0.015625
0.250000 0.140625 0.015625
0.000000 0.156250 0.015625
0.015625 0.156250 0.015625
0.031250 0.156250 0.015625
0.046875 0.156250 0.015625
0.062500 0.156250 0.015625
0.078125 0.156250 0.015625
0.093750 0.156250 0.015625
0.109375 0.156250 0.015625
0.125000 0.156250 0.015625
0.140625 0.156250 0.015625
0.156250 0.156250 0.015625
0.171875 0.156250 0.015625
0.187500 0.156250 0.015625
0.203125 0.156250 0.015625
0.218750 0.156250 0.015625
0.234375 0.156250 0.015625
0.250000 0.156250 0.015625
0.000000 0.171875 0.015625
0.015625 0.171875 0.015625
0.031250 0.171875 0.015625
0.046875 0.171875 0.015625
0.062500 0.171875 0.015625
0.078125 0.171875 0.015625
0.093750 0.171875 0.015625
0.109375 0.171875 0.015625
0.125000 0.171875 0.015625
0.140625 0.171875 0.015625
0.156250 0.171875 0.015625
0.171875 0.171875 0.015625
0.187500 0.171875 0.015625
0.203125 0.171875 0.015625
0.218750 0.171875 0.015625
0.234375 0.171875 0.015625
0.250000 0.171875 0.015625
0.000000 0.187500 0.015625
0.015625 0.187500 0.015625
0.031250 0.187500 0.015625
0.046875 0.187500 0.015625
0.062500 0.187500 0.015625
0.078125 0.187500 0.015625
0.093750 0.187500 0.015625
0.109375 0.187500 0.015625
0.125000 0.187500 0.015625
0.140625 0.187500 0.015625
0.156250 0.187500 0.015625
0.171875 0.187500 0.015625
0.187500 0.187500 0.015625
0.203125 0.187500 0.015625
0.218750 0.187500 0.015625
0.234375 0.187500 0.015625
0.250000 0.187500 0.015625
0.000000 0.203125 0.015625
0.015625 0.203125 0.015625
0.031250 0.203125 0.015625
0.046875 0.203125 0.015625
0.062500 0.203125 0.015625
0.078125 0.203125 0.015625
0.093750 0.203125 0.015625
0.109375 0.203125 0.015625
0.125000 0.203125 0.015625
0.140625 0.203125 0.015625
0.156250 0.203125 0.015625
0.171875 0.203125 0.015625
0.187500 0.203125 0.015625
0.203125 0.203125 0.015625
0.218750 0.203125 0.015625
0.234375 0.203125 0.015625
0.250000 0.203125 0.015625
0.000000 0.218750 0.015625
0.015625 0.218750 0.015625
0.031250 0.218750 0.015625
0.046875 0.218750 0.015625
0.062500 0.218750 0.015625
0.078125 0.218750 0.015625
0.093750 0.218750 0.015625
0.109375 0.218750 0.015625
0.125000 0.218750 0.015625
0.140625 0.218750 0.015625
0.156250 0.218750 0.015625
0.171875 0.218750 0.015625
0.187500 0.218750 0.015625
0.203125 0.218750 0.015625
0.218750 0.218750 0.015625
0.234375 0.218750 0.015625
0.250000 0.218750 0.015625
0.000000 0.234375 0.015625
0.015625 0.234375 0.015625
0.031250 0.234375 0.015625
0.046875 0.234375 0.015625
0.062500 0.234375 0.015625
0.078125 0.234375 0.015625
0.093750 0.234375 0.015625
0.109375 0.234375 0.015625
0.125000 0.234375 0.015625
0.140625 0.234375 0.015625
0.156250 0.234375 0.015625
0.171875 0.234375 0.015625
0.187500 0.234375 0.015625
0.203125 0.234375 0.015625
0.218750 0.234375 0.015625
0.234375 0.234375 0.015625
0.250000 0.234375 0.015625
0.000000 0.250000 0.015625
0.015625 0.250000 0.015625
0.031250 0.250000 0.015625
0.046875 0.250000 0.015625
0.062500 0.250000 0.015625
0.078125 0.250000 0.015625
0.093750 0.250000 0.015625
0.109375 0.250000 0.015625
0.125000 0.250000 0.015625
0.140625 0.250000 0.015625
0.156250 0.250000 0.015625
0.171875 0.250000 0.015625
0.187500 0.250000 0.015625
0.203125 0.250000 0.015625
0.218750 0.250000 0.015625
0.234375 0.250000 0.015625
0.250000 0.250000 0.015625
0.000000 0.000000 0.031250
0.015625 0.000000 0.031250
0.031250 0.000000 0.031250
0.046875 0.000000 0.031250
0.062500 0.000000 0.031250
0.078125 0.000000 0.031250
0.093750 0.000000 0.031250
0.109375 0.000000 0.031250
0.125000 0.000000 0.031250
0.140625 0.000000 0.031250
0.156250 0.000000 0.031250
0.171875 0.000000 0.031250
0.187500 0.000000 0.031250
0.203125 0.000000 0.031250
0.218750 0.000000 0.031250
0.234375 0.000000 0.031250
0.250000 0.000000 0.031250
0.000000 0.015625 0.031250
0.015625 0.015625 0.031250
0.031250 0.015625 0.031250
0.046875 0.015625 0.031250
0.062500 0.015625 0.031250
0.078125 0.015625 0.031250
0.093750 0.015625 0.031250
0.109375 0.015625 0.031250
0.125000 0.015625 0.031250
0.140625 0.015625 0.031250
0.156250 0.015625 0.031250
0.171875 0.015625 0.031250
0.187500 0.015625 0.031250
0.203125 0.015625 0.031250
0.218750 0.015625 0.031250
0.234375 0.015625 0.031250
0.250000 0.015625 0.031250
0.000000 0.031250 0.031250
0.015625 0.031250 0.031250
0.031250 0.031250 0.031250
0.046875 0.031250 0.031250
0.062500 0.031250 0.031250
0.078125 0.031250 0.031250
0.093750 0.031250 0.031250
0.109375 0.031250 0.031250
0.125000 0.031250 0.031250
0.140625 0.031250 0.031250
0.156250 0.031250 0.031250
0.171875 0.031250 0.031250
0.187500 0.031250 0.031250
0.203125 0.031250 0.031250
0.218750 0.031250 0.031250
0.234375 0.031250 0.031250
0.250000 0.031250 0.031250
0.000000 0.046875 0.031250
0.015625 0.046875 0.031250
0.031250 0.046875 0.031250
0.046875 0.046875 0.031250
0.062500 0.046875 0.031250
0.078125 0.046875 0.031250
0.093750 0.046875 0.031250
0.109375 0.046875 0.031250
0.125000 0.046875 0.031250
0.140625 0.046875 0.031250
0.156250 0.046875 0.031250
0.171875 0.046875 0.031250
0.187500 0.046875 0.031250
0.203125 0.046875 0.031250
0.218750 0.046875 0.031250
0.234375 0.046875 0.031250
0.250000 0.046875 0.031250
0.000000 0.062500 0.031250
0.015625 0.062500 0.031250
0.031250 0.062500 0.031250
0.046875 0.062500 0.031250
0.062500 0.062500 0.031250
0.078125 0.062500 0.031250
0.093750 0.062500 0.031250
0.109375 0.062500 0.031250
0.125000 0.062500 0.031250
0.140625 0.062500 0.031250
0.156250 0.062500 0.031250
0.171875 0.062500 0.031250
0.187500 0.062500 0.031250
0.203125 0.062500 0.031250
0.218750 0.062500 0.031250
0.234375 0.062500 0.031250
0.250000 0.062500 0.031250
0.000000 0.078125 0.031250
0.015625 0.078125 0.031250
0.031250 0.078125 0.031250
0.046875 0.078125 0.031250
0.062500 0.078125 0.031250
0.078125 0.078125 0.031250
0.093750 0.078125 0.031250
0.109375 0.078125 0.031250
0.125000 0.078125 0.031250
0.140625 0.078125 0.031250
0.156250 0.078125 0.031250
0.171875 0.078125 0.031250
0.187500 0.078125 0.031250
0.203125 0.078125 0.031250
0.218750 0.078125 0.031250
0.234375 0.078125 0.031250
0.250000 0.078125 0.031250
0.000000 0.093750 0.031250
0.015625 0.093750 0.031250
0.031250 0.093750 0.031250
0.046875 0.093750 0.031250
0.062500 0.093750 0.031250
0.078125 0.093750 0.031250
0.093750 0.093750 0.031250
0.109375 0.093750 0.031250
0.125000 0.093750 0.031250
0.140625 0.093750 0.031250
0.156250 0.093750 0.031250
0.171875 0.093750 0.031250
0.187500 0.093750 0.031250
0.203125 0.093750 0.031250
0.218750 0.093750 0.031250
0.234375 0.093750 0.031250
0.250000 0.093750 0.031250
0.000000 0.109375 0.031250
0.015625 0.109375 0.031250
0.031250 0.109375 0.031250
0.046875 0.109375 0.031250
0.062500 0.109375 0.031250
0.078125 0.109375 0.031250
0.093750 0.109375 0.031250
0.109375 0.109375 0.031250
0.125000 0.109375 0.031250
0.140625 0.109375 0.031250
0.156250 0.109375 0.031250
0.171875 0.109375 0.031250
0.187500 0.109375 0.031250
0.203125 0.109375 0.031250
0.218750 0.109375 0.031250
0.234375 0.109375 0.031250
0.250000 0.109375 0.031250
0.000000 0.125000 0.031250
0.015625 0.125000 0.031250
0.031250 0.125000 0.031250
0.046875 0.125000 0.031250
0.062500 0.125000 0.031250
0.078125 0.125000 0.031250
0.093750 0.125000 0.031250
0.109375 0.125000 0.031250
0.125000 0.125000 0.031250
0.140625 0.125000 0.031250
0.156250 0.125000 0.031250
0.171875 0.125000 0.031250
0.187500 0.125000 0.031250
0.203125 0.125000 0.031250
0.218750 0.125000 0.031250
0.234375 0.125000 0.031250
0.250000 0.125000 0.031250
0.000000 0.140625 0.031250
0.015625 0.140625 0.031250
0.031250 0.140625 0.031250
0.046875 0.140625 0.031250
0.062500 0.140625 0.031250
0.078125 0.140625 0.031250
0.093750 0.140625 0.031250
0.109375 0.140625 0.031250
0.125000 0.140625 0.031250
0.140625 0.140625 0.031250
0.156250 0.140625 0.031250
0.171875 0.140625 0.031250
0.187500 0.140625 0.031250
0.203125 0.140625 0.031250
0.218750 0.140625 0.031250
0.234375 0.140625 0.031250
0.250000 0.140625 0.031250
0.000000 0.156250 0.031250
0.015625 0.156250 0.031250
0.031250 0.156250 0.031250
0.046875 0.156250 0.031250
0.062500 0.156250 0.031250
0.078125 0.156250 0.031250
0.093750 0.156250 0.031250
0.109375 0.156250 0.031250
0.125000 0.156250 0.031250
0.140625 0.156250 0.031250
0.156250 0.156250 0.031250
0.171875 0.156250 0.031250
0.187500 0.156250 0.031250
0.203125 0.156250 0.031250
0.218750 0.156250 0.031250
0.234375 0.156250 0.031250
0.250000 0.156250 0.031250
0.000000 0.171875 0.031250
0.015625 0.171875 0.031250
0.031250 0.171875 0.031250
0.046875 0.171875 0.031250
0.062500 0.171875 0.031250
0.078125 0.171875 0.031250
0.093750 0.171875 0.031250
0.109375 0.171875 0.031250
0.125000 0.171875 0.031250
0.140625 0.171875 0.031250
0.156250 0.171875 0.031250
0.171875 0.171875 0.031250
0.187500 0.171875 0.031250
0.203125 0.171875 0.031250
0.218750 0.171875 0.031250
0.234375 0.171875 0.031250
0.250000 0.171875 0.031250
0.000000 0.187500 0.031250
0.015625 0.187500 0.031250
0.031250 0.187500 0.031250
0.046875 0.187500 0.031250
0.062500 0.187500 0.031250
0.078125 0.187500 0.031250
0.093750 0.187500 0.031250
0.109375 0.187500 0.031250
0.125000 0.187500 0.031250
0.140625 0.187500 0.031250
0.156250 0.187500 0.031250
0.171875 0.187500 0.031250
0.187500 0.187500 0.031250
0.203125 0.187500 0.031250
0.218750 0.187500 0.031250
0.234375 0.187500 0.031250
0.250000 0.187500 0.031250
0.000000 0.203125 0.031250
0.015625 0.203125 0.031250
0.031250 0.203125 0.031250
0.046875 0.203125 0.031250
0.062500 0.203125 0.031250
0.078125 0.203125 0.031250
0.093750 0.203125 0.031250
0.109375 0.203125 0.031250
0.125000 0.203125 0.031250
0.140625 0.203125 0.031250
0.156250 0.203125 0.031250
0.171875 0.203125 0.031250
0.187500 0.203125 0.031250
0.203125 0.203125 0.031250
0.218750 0.203125 0.031250
0.234375 0.203125 0.031250
0.250000 0.203125 0.031250
0.000000 0.218750 0.031250
0.015625 0.218750 0.031250
0.031250 0.218750 0.031250
0.046875 0.218750 0.031250
0.062500 0.218750 0.031250
0.078125 0.218750 0.031250
0.093750 0.218750 0.031250
0.109375 0.218750 0.031250
0.125000 0.218750 0.031250
0.140625 0.218750 0.031250
0.156250 0.218750 0.031250
0.171875 0.218750 0.031250
0.187500 0.218750 0.031250
0.203125 0.218750 0.031250
0.218750 0.218750 0.031250
0.234375 0.218750 0.031250
0.250000 0.218750 0.031250
0.000000 0.234375 0.031250
0.015625 0.234375 0.031250
0.031250 0.234375 0.031250
0.046875 0.234375 0.031250
0.062500 0.234375 0.031250
0.078125 0.234375 0.031250
0.093750 0.234375 0.031250
0.109375 0.234375 0.031250
0.125000 0.234375 0.031250
0.140625 0.234375 0.031250
0.156250 0.234375 0.031250
0.171875 0.234375 0.031250
0.187500 0.234375 0.031250
0.203125 0.234375 0.031250
0.218750 0.234375 0.031250
0.234375 0.234375 0.031250
0.250000 0.234375 0.031250
0.000000 0.250000 0.031250
0.015625 0.250000 0.031250
0.031250 0.250000 0.031250
0.046875 0.250000 0.031250
0.062500 0.250000 0.031250
0.078125 0.250000 0.031250
0.093750 0.250000 0.031250
0.109375 0.250000 0.031250
0.125000 0.250000 0.031250
0.140625 0.250000 0.031250
0.156250 0.250000 0.031250
0.171875 0.250000 0.031250
0.187500 0.250000 0.031250
0.203125 0.250000 0.031250
0.218750 0.250000 0.031250
0.234375 0.250000 0.031250
0.250000 0.250000 0.031250
0.000000 0.000000 0.046875
0.015625 0.000000 0.046875
0.031250 0.000000 0.046875
0.046875 0.000000 0.046875
0.062500 0.000000 0.046875
0.078125 0.000000 0.046875
0.093750 0.000000 0.046875
0.109375 0.000000 0.046875
0.125000 0.000000 0.046875
0.140625 0.000000 0.046875
0.156250 0.000000 0.046875
0.171875 0.000000 0.046875
0.187500 0.000000 0.046875
0.203125 0.000000 0.046875
