assets/lighting/cinematic/grade-industrial-grime/lut.cube
TITLE "Industrial Grime"
# TKRS lighting-batch-001 original LUT
# Intended usage: oily dirty factory, low sat brown-green
# License: CC0-1.0
LUT_3D_SIZE 9
DOMAIN_MIN 0.0 0.0 0.0
DOMAIN_MAX 1.0 1.0 1.0
0.000000 0.000000 0.000000
0.026340 0.000000 0.000000
0.100152 0.000000 0.000000
0.173964 0.000000 0.000000
0.247777 0.000000 0.000000
0.321589 0.000000 0.000000
0.395401 0.000000 0.000000
0.469214 0.000000 0.000000
0.543026 0.001961 0.001750
0.000000 0.039637 0.000000
0.046189 0.046216 0.000000
0.120001 0.052795 0.000000
0.193813 0.059374 0.000000
0.267626 0.065954 0.000000
0.341438 0.072533 0.003044
0.416050 0.079249 0.008925
0.494404 0.086530 0.014885
0.575027 0.094055 0.020930
0.000000 0.129946 0.000000
0.066038 0.136525 0.000000
0.139850 0.143104 0.004337
0.214449 0.150177 0.010231
0.291259 0.158106 0.016209
0.369989 0.166356 0.022274
0.450731 0.174875 0.028434
0.533578 0.183644 0.034693
0.618609 0.192655 0.041056
0.012142 0.221359 0.011541
0.087216 0.229979 0.017537
0.163951 0.238982 0.023623
0.242533 0.248301 0.029804
0.323093 0.257909 0.036086
0.405734 0.267791 0.042472
0.490541 0.277938 0.048968
0.577588 0.288346 0.055575
0.666941 0.299010 0.062296
0.033244 0.322079 0.031179
0.111465 0.332541 0.037484
0.191671 0.343308 0.043894
0.273961 0.354367 0.050413
0.358419 0.365711 0.057045
0.445117 0.377333 0.063793
0.534120 0.389230 0.070658
0.625486 0.401399 0.077644
0.719268 0.413838 0.084752
0.056142 0.431192 0.051865
0.137978 0.443482 0.058522
0.221991 0.456071 0.065295
0.308252 0.468954 0.072187
0.396824 0.482127 0.079199
0.487763 0.495587 0.086334
0.581121 0.509332 0.093594
0.676947 0.523359 0.100981
0.775284 0.537668 0.108497
0.081047 0.549105 0.073721
0.166800 0.563290 0.080760
0.254873 0.577778 0.087923
0.345320 0.592566 0.095211
0.438193 0.607651 0.102626
0.533538 0.623031 0.110170
0.631399 0.638705 0.117845
0.731817 0.654671 0.125652
0.834831 0.670928 0.133594
0.108105 0.676249 0.096833
0.198006 0.692399 0.104277
0.290340 0.708856 0.111850
0.385153 0.725620 0.119554
0.482489 0.742688 0.127390
0.582387 0.760060 0.135361
0.684885 0.777732 0.143467
0.781328 0.787670 0.150589
0.876158 0.795928 0.157484
0.137431 0.813005 0.121268
0.231667 0.831181 0.129135
0.328433 0.849671 0.137135
0.427508 0.867990 0.145213
0.522338 0.876248 0.152108
0.617168 0.884506 0.159003
0.711998 0.892764 0.165898
0.806829 0.901022 0.172793
0.901659 0.909280 0.179688
0.000000 0.000000 0.016229
0.028276 0.000000 0.022101
0.102088 0.000000 0.027972
0.175901 0.000000 0.033843
0.249713 0.000000 0.039714
0.323525 0.000000 0.045586
0.397338 0.000000 0.051457
0.471150 0.000000 0.057328
0.544962 0.004028 0.063199
0.000000 0.041703 0.035136
0.048125 0.048283 0.041008
0.121937 0.054862 0.046879
0.195750 0.061441 0.052750
0.269562 0.068020 0.058621
0.343374 0.074599 0.064493
0.419055 0.081504 0.070557
0.497942 0.088870 0.076895
0.579023 0.096464 0.083371
0.000000 0.132013 0.054044
0.067974 0.138592 0.059915
0.141786 0.145171 0.065786
0.216988 0.152626 0.071940
0.294179 0.160667 0.078311
0.373291 0.169005 0.084815
0.454429 0.177604 0.091447
0.537683 0.186449 0.098203
0.623133 0.195534 0.105084
0.014130 0.224018 0.073331
0.089480 0.232771 0.079732
0.166536 0.241877 0.086265
0.245467 0.251289 0.092924
0.326397 0.260984 0.099708
0.409425 0.270950 0.106617
0.494634 0.281180 0.113652
0.582097 0.291668 0.120814
0.671877 0.302413 0.128105
0.035395 0.325332 0.094408
0.113951 0.335891 0.101219
0.194515 0.346751 0.108156
0.277182 0.357900 0.115218
0.362032 0.369332 0.122409
0.449136 0.381041 0.129728
0.538557 0.393023 0.137178
0.630352 0.405277 0.144759
0.724574 0.417801 0.152474
0.058481 0.435020 0.116791
0.140686 0.447404 0.124010
0.225086 0.460086 0.131358
0.311746 0.473061 0.138836
0.400730 0.486325 0.146447
0.492092 0.499874 0.154191
0.585883 0.513708 0.162070
0.682151 0.527824 0.170085
0.780939 0.542221 0.178237
0.083590 0.553528 0.140502
0.169738 0.567808 0.148142
0.258218 0.582391 0.155915
0.349084 0.597272 0.163824
0.442385 0.612450 0.171869
0.538168 0.627923 0.180051
0.636476 0.643689 0.188373
0.737349 0.659746 0.196834
0.840825 0.676095 0.205437
0.110864 0.681289 0.165584
0.201180 0.697535 0.173659
0.293939 0.714089 0.181872
0.389188 0.730949 0.190225
0.486966 0.748113 0.198717
0.587315 0.765579 0.207351
0.688985 0.782006 0.215858
0.783815 0.790264 0.222753
0.878645 0.798522 0.229648
0.140417 0.818680 0.192083
0.235085 0.836955 0.200607
0.332291 0.855544 0.209273
0.429996 0.870585 0.217377
0.524826 0.878843 0.224272
0.619656 0.887100 0.231167
0.714486 0.895358 0.238062
0.809316 0.903616 0.244957
0.904146 0.911874 0.251852
0.000000 0.000000 0.077678
0.030212 0.000000 0.083550
0.104024 0.000000 0.089421
0.177837 0.000000 0.095292
0.251649 0.000000 0.101163
0.325462 0.000000 0.107035
0.399274 0.000000 0.112906
0.473086 0.000000 0.118777
0.546899 0.006095 0.124648
0.000000 0.043770 0.096586
0.050061 0.050349 0.102457
0.123874 0.056929 0.108328
0.197686 0.063508 0.114199
0.271498 0.070087 0.120070
0.345311 0.076666 0.125942
0.422188 0.083791 0.132403
0.501555 0.091232 0.139159
0.583081 0.098894 0.146089
0.000000 0.134079 0.115493
0.069910 0.140659 0.121364
0.143846 0.147351 0.127302
0.219585 0.155116 0.133874
0.297145 0.163256 0.140671
0.376638 0.171679 0.147637
0.458170 0.180356 0.154757
0.541832 0.189277 0.162023
0.627700 0.198437 0.169434
0.016132 0.226724 0.135356
0.091767 0.235596 0.142192
0.169147 0.244802 0.149193
0.248429 0.254305 0.156345
0.329732 0.264086 0.163644
0.413149 0.274136 0.171086
0.498762 0.284447 0.178670
0.586642 0.295016 0.186396
0.676849 0.305841 0.194264
0.037563 0.328616 0.157940
0.116459 0.339271 0.165271
0.197385 0.350223 0.172744
0.280431 0.361461 0.180360
0.365675 0.372980 0.188117
0.453187 0.384775 0.196016
0.543027 0.396843 0.204057
0.635252 0.409182 0.212241
0.729913 0.421790 0.220569
0.060838 0.438878 0.182057
0.143417 0.451356 0.189845
0.228205 0.464131 0.197775
0.315267 0.477197 0.205848
0.404664 0.490550 0.214063
0.496450 0.504189 0.222422
0.590676 0.518112 0.230925
0.687387 0.532316 0.239573
0.786627 0.546801 0.248367
0.086153 0.557981 0.207645
0.172698 0.572357 0.215892
0.261588 0.587034 0.224283
0.352874 0.602008 0.232818
0.446606 0.617279 0.241498
0.542828 0.632844 0.250324
0.641583 0.648702 0.259297
0.742912 0.664851 0.268417
0.846852 0.681290 0.277686
0.113645 0.686359 0.234718
0.204378 0.702702 0.243430
0.297564 0.719353 0.252288
0.393248 0.736308 0.261293
0.491471 0.753567 0.270446
0.592273 0.771128 0.279748
0.691473 0.784600 0.288022
0.786303 0.792858 0.294917
0.881133 0.801116 0.301813
0.143425 0.824387 0.263297
0.238527 0.842761 0.272483
0.336175 0.861448 0.281817
0.432483 0.873179 0.289541
0.527313 0.881437 0.296436
0.622143 0.889695 0.303331
0.716974 0.897952 0.310226
0.811804 0.906210 0.317122
0.906634 0.914468 0.324017
0.000000 0.000000 0.139128
0.032148 0.000000 0.144999
0.105961 0.000000 0.150870
0.179773 0.000000 0.156741
0.253585 0.000000 0.162612
0.327398 0.000000 0.168484
0.401210 0.000000 0.174355
0.475022 0.001582 0.180226
0.548900 0.008162 0.186111
0.000000 0.045837 0.158035
0.051997 0.052416 0.163906
0.125810 0.058995 0.169777
0.199622 0.065575 0.175648
0.273434 0.072154 0.181520
0.347769 0.078839 0.187563
0.425416 0.086103 0.194487
0.505236 0.093616 0.201687
0.587199 0.101344 0.209092
0.000000 0.136146 0.176942
0.071846 0.142725 0.182813
0.146126 0.149733 0.189054
0.222230 0.157640 0.196053
0.300154 0.165874 0.203302
0.380027 0.174378 0.210748
0.461953 0.183133 0.218371
0.546022 0.192129 0.226160
0.632310 0.201363 0.234111
0.018149 0.229471 0.197631
0.094076 0.238455 0.204926
0.171785 0.247757 0.212412
0.251422 0.257348 0.220073
0.333099 0.267215 0.227898
0.416907 0.277347 0.235884
0.502925 0.287739 0.244027
0.591222 0.298389 0.252326
0.681859 0.309293 0.260778
0.039748 0.331930 0.221783
0.118989 0.342680 0.229644
0.200279 0.353723 0.237664
0.283706 0.365050 0.245842
0.369347 0.376656 0.254174
0.457268 0.388537 0.262661
0.547529 0.400690 0.271300
0.640186 0.413114 0.280093
0.735288 0.425806 0.289039
0.063215 0.442766 0.247664
0.146170 0.455338 0.256031
0.231348 0.468204 0.264551
0.318814 0.481361 0.273224
0.408626 0.494804 0.282051
0.500838 0.508532 0.291030
0.595500 0.522543 0.300163
0.692656 0.536836 0.309450
0.792349 0.551409 0.318890
0.088737 0.562464 0.275155
0.175682 0.576935 0.284016
0.264983 0.591706 0.293029
0.356690 0.606774 0.302196
0.450854 0.622137 0.311516
0.547517 0.637794 0.320991
0.646721 0.653743 0.330619
0.748507 0.669984 0.340403
0.852911 0.686515 0.350343
0.116448 0.691460 0.304236
0.207599 0.707900 0.313590
0.301214 0.724646 0.323098
0.397335 0.741697 0.332761
0.496004 0.759051 0.342579
0.597260 0.776706 0.352553
0.693960 0.787194 0.360187
0.788790 0.795452 0.367082
0.883620 0.803710 0.373977
0.146456 0.830125 0.334911
0.241993 0.848597 0.344763
0.340084 0.867382 0.354771
0.434971 0.875773 0.361706
0.529801 0.884031 0.368601
0.624631 0.892289 0.375496
0.719461 0.900547 0.382391
0.814291 0.908805 0.389286
0.909121 0.917062 0.396181
0.000000 0.000000 0.200577
0.034085 0.000000 0.206448
0.107897 0.000000 0.212319
0.181709 0.000000 0.218190
0.255522 0.000000 0.224062
0.329334 0.000000 0.229933
0.403146 0.000000 0.235804
0.476959 0.003649 0.241675
0.551983 0.010248 0.247880
0.000000 0.047904 0.219484
0.053934 0.054483 0.225355
0.127746 0.061062 0.231226
0.201558 0.067641 0.237097
0.275371 0.074220 0.242969
0.350575 0.081088 0.249447
0.428723 0.088439 0.256823
0.508979 0.096021 0.264492
0.591374 0.103814 0.272388
0.000000 0.138213 0.238391
0.073783 0.144792 0.244262
0.148468 0.152174 0.251040
0.224919 0.160195 0.258491
0.303204 0.168517 0.266213
0.383455 0.177102 0.274155
0.465776 0.185933 0.282295
0.550253 0.195004 0.290619
0.636961 0.204312 0.299120
0.020181 0.232256 0.260171
0.096406 0.241344 0.267945
0.174448 0.250739 0.275932
0.254442 0.260419 0.284113
0.336496 0.270369 0.292477
0.420698 0.280584 0.301016
0.507123 0.291057 0.309727
0.595839 0.301787 0.318606
0.686905 0.312771 0.327650
0.041952 0.335275 0.285940
0.121539 0.346118 0.294343
0.203197 0.357250 0.302921
0.287008 0.368666 0.311669
0.373047 0.380359 0.320584
0.461379 0.392326 0.329665
0.552063 0.404564 0.338910
0.645152 0.417072 0.348318
0.740697 0.429849 0.357888
0.065612 0.446683 0.313618
0.148945 0.459348 0.322570
0.234516 0.472306 0.331687
0.322387 0.485553 0.340968
0.412616 0.499086 0.350412
0.505256 0.512903 0.360018
0.600354 0.527003 0.369786
0.697956 0.541384 0.379716
0.798104 0.556045 0.389808
0.091342 0.566977 0.343034
0.178688 0.581543 0.352514
0.268402 0.596407 0.362156
0.360533 0.611568 0.371960
0.455129 0.627024 0.381926
0.552234 0.642773 0.392053
0.651889 0.658813 0.402343
0.754133 0.675145 0.412794
0.859003 0.691767 0.423408
0.119272 0.696591 0.374141
0.210844 0.713127 0.384143
0.304889 0.729970 0.394306
0.401449 0.747116 0.404631
0.500565 0.764564 0.415118
0.601618 0.781530 0.425456
0.696448 0.789788 0.432351
0.791278 0.798046 0.439246
0.886108 0.806304 0.446141
0.149510 0.835894 0.406927
0.245483 0.854464 0.417450
0.342628 0.870109 0.426975
0.437458 0.878367 0.433870
0.532288 0.886625 0.440765
0.627119 0.894883 0.447660
0.721949 0.903141 0.454555
0.816779 0.911399 0.461450
0.911609 0.919657 0.468345
0.000000 0.000000 0.262026
0.036021 0.000000 0.267897
0.109833 0.000000 0.273768
0.183646 0.000000 0.279639
0.257458 0.000000 0.285511
0.331270 0.000000 0.291382
0.405083 0.000000 0.297253
0.478895 0.005716 0.303124
0.555356 0.012348 0.309903
0.000000 0.049970 0.280933
0.055870 0.056550 0.286804
0.129682 0.063129 0.292675
0.203495 0.069708 0.298547
0.277307 0.076287 0.304418
0.353498 0.083370 0.311577
0.432098 0.090797 0.319425
0.512780 0.098446 0.327582
0.595601 0.106305 0.335985
0.001907 0.140280 0.299840
0.075756 0.146924 0.305804
0.150856 0.154657 0.313273
0.227646 0.162780 0.321199
0.306293 0.171186 0.329413
0.386923 0.179850 0.337866
0.469638 0.188757 0.346535
0.554524 0.197903 0.355405
0.641653 0.207284 0.364466
0.022228 0.235076 0.322986
0.098759 0.244264 0.331256
0.177137 0.253750 0.339758
0.257492 0.263516 0.348472
0.339924 0.273550 0.357385
0.424520 0.283846 0.366487
0.511354 0.294400 0.375774
0.600490 0.305210 0.385240
0.691988 0.316274 0.394884
0.044173 0.338649 0.350419
0.124112 0.349584 0.359374
0.206139 0.360806 0.368517
0.290337 0.372309 0.377844
0.376776 0.384089 0.387349
0.465520 0.396141 0.397032
0.556628 0.408464 0.406888
0.650152 0.421057 0.416917
0.746140 0.433918 0.427118
0.068029 0.450629 0.379922
0.151742 0.463387 0.389467
0.237708 0.476436 0.399188
0.325986 0.489773 0.409083
0.416634 0.503396 0.419150
0.509703 0.517302 0.429388
0.605240 0.531490 0.439797
0.703289 0.545959 0.450375
0.803892 0.560708 0.461123
0.093968 0.571520 0.411285
0.181718 0.586180 0.421390
0.271846 0.601138 0.431666
0.364402 0.616392 0.442112
0.459433 0.631939 0.452728
0.556981 0.647780 0.463514
0.657088 0.663912 0.474468
0.759791 0.680336 0.485592
0.863094 0.695546 0.496102
0.122119 0.701753 0.444436
0.214113 0.718385 0.455090
0.308589 0.735323 0.465913
0.405589 0.752564 0.476904
0.505154 0.770108 0.488065
0.604105 0.784124 0.497621
0.698935 0.792382 0.504516
0.793765 0.800640 0.511411
0.888595 0.808898 0.518306
0.152587 0.841694 0.479348
0.248997 0.860363 0.490547
0.345116 0.872703 0.499140
0.439946 0.880961 0.506035
0.534776 0.889219 0.512930
0.629606 0.897477 0.519825
0.724436 0.905735 0.526720
0.819266 0.913993 0.533615
0.914096 0.922251 0.540510
0.000000 0.000000 0.323475
0.037957 0.000000 0.329346
0.111769 0.000000 0.335217
0.185582 0.000000 0.341089
0.259394 0.000000 0.346960
0.333206 0.000000 0.352831
0.407019 0.001203 0.358702
0.480831 0.007782 0.364574
0.558888 0.014460 0.372181
0.000000 0.052037 0.342382
0.057806 0.058616 0.348253
0.131618 0.065196 0.354124
0.205431 0.071775 0.359996
0.279550 0.078431 0.366113
0.356508 0.085677 0.373964
0.435534 0.093177 0.382304
0.516636 0.100893 0.390964
0.599880 0.108816 0.399889
0.003843 0.142346 0.361289
0.077868 0.149291 0.367776
0.153283 0.157175 0.375769
0.230410 0.165392 0.384187
0.309418 0.173881 0.392909
0.390428 0.182622 0.401887
0.473540 0.191604 0.411097
0.558835 0.200824 0.420522
0.646386 0.210279 0.430152
0.024291 0.237928 0.386085
0.101133 0.247213 0.394866
0.179852 0.256788 0.403897
0.260569 0.266639 0.413155
0.343383 0.276756 0.422626
0.428375 0.287134 0.432300
0.515619 0.297769 0.442170
0.605177 0.308658 0.452232
0.697107 0.319802 0.462482
0.046413 0.342053 0.415223
0.126706 0.353079 0.424740
0.209106 0.364390 0.434458
0.293692 0.375980 0.444371
0.380533 0.387845 0.454474
0.469692 0.399983 0.464764
0.561226 0.412391 0.475239
0.655185 0.425068 0.485895
0.751618 0.438013 0.496731
0.070465 0.454605 0.446580
0.154562 0.467455 0.456725
0.240924 0.480595 0.467056
0.329612 0.494022 0.477571
0.420680 0.507734 0.488267
0.514180 0.521729 0.499142
0.610156 0.536005 0.510197
0.708654 0.550562 0.521429
0.809714 0.565399 0.532838
0.096614 0.576093 0.479911
0.184770 0.590847 0.490647
0.275315 0.605898 0.501562
0.368298 0.621244 0.512656
0.463764 0.636884 0.523927
0.561757 0.652816 0.535375
0.662317 0.669040 0.546999
0.765481 0.685554 0.558799
0.865582 0.698140 0.568266
0.124987 0.706944 0.515124
0.217405 0.723673 0.526434
0.312314 0.740706 0.537921
0.409756 0.758043 0.549583
0.509770 0.775681 0.561422
0.606593 0.786719 0.569785
0.701423 0.794976 0.576680
0.796253 0.803234 0.583575
0.891083 0.811492 0.590470
0.155686 0.847525 0.552176
0.252536 0.866292 0.564054
0.347603 0.875297 0.571304
0.442433 0.883555 0.578199
0.537264 0.891813 0.585094
0.632094 0.900071 0.591989
0.726924 0.908329 0.598884
0.821754 0.916587 0.605779
0.916584 0.924845 0.612674
0.000000 0.000000 0.384924
0.039893 0.000000 0.390795
0.113706 0.000000 0.396666
0.187518 0.000000 0.402538
0.261330 0.000000 0.408409
0.335143 0.000000 0.414280
0.408955 0.003270 0.420151
0.483620 0.009865 0.426484
0.562540 0.016586 0.434726
0.000000 0.054104 0.403831
0.059742 0.060683 0.409702
0.133555 0.067262 0.415574
0.207367 0.073841 0.421445
0.282164 0.080673 0.428232
0.359587 0.088009 0.436621
0.439027 0.095578 0.445469
0.520543 0.103359 0.454648
0.604209 0.111347 0.464106
0.005779 0.144413 0.422738
0.080021 0.151723 0.430027
0.155743 0.159724 0.438537
0.233209 0.168030 0.447465
0.312579 0.176600 0.456709
0.393971 0.185418 0.466224
0.477479 0.194475 0.475985
0.563184 0.203769 0.485975
0.651157 0.213298 0.496182
0.026370 0.240812 0.449476
0.103528 0.250190 0.458782
0.182591 0.259853 0.468354
0.263674 0.269789 0.478166
0.346871 0.279988 0.488205
0.432262 0.290447 0.498459
0.519917 0.301162 0.508921
0.609898 0.312131 0.519586
0.702262 0.323354 0.530447
0.048671 0.345485 0.480359
0.129322 0.356601 0.490446
0.212097 0.368001 0.500746
0.297074 0.379678 0.511253
0.384319 0.391629 0.521961
0.473894 0.403852 0.532866
0.565854 0.416344 0.543964
0.660251 0.429106 0.555253
0.757129 0.442135 0.566730
0.072921 0.458610 0.513595
0.157404 0.471551 0.524347
0.244165 0.484782 0.535295
0.333264 0.498299 0.546435
0.424754 0.512100 0.557765
0.518685 0.526183 0.569284
0.615103 0.540548 0.580989
0.714051 0.555193 0.592880
0.815568 0.570117 0.604954
0.099282 0.580696 0.548915
0.187846 0.595543 0.560287
0.278809 0.610687 0.571847
0.372220 0.626125 0.583593
0.468124 0.641857 0.595524
0.566562 0.657881 0.607639
0.667576 0.674197 0.619937
0.771201 0.690802 0.632417
0.868070 0.700734 0.640431
0.127878 0.712166 0.586205
0.220721 0.728991 0.598177
0.316064 0.746120 0.610332
0.413949 0.763551 0.622670
0.514250 0.781055 0.635054
0.609080 0.789313 0.641950
0.703910 0.797571 0.648845
0.798740 0.805829 0.655740
0.893571 0.814086 0.662635
0.158808 0.853386 0.625413
0.255261 0.869633 0.636573
0.350091 0.877891 0.643468
0.444921 0.886149 0.650363
0.539751 0.894407 0.657259
0.634581 0.902665 0.664154
0.729411 0.910923 0.671049
0.824241 0.919181 0.677944
0.919072 0.927439 0.684839
0.000000 0.000000 0.446373
0.041829 0.000000 0.452244
0.115642 0.000000 0.458116
0.189454 0.000000 0.463987
0.263267 0.000000 0.469858
0.337079 0.000000 0.475729
0.410891 0.005337 0.481600
0.486785 0.011962 0.488754
0.566289 0.018726 0.497548
0.000000 0.056171 0.465280
0.061679 0.062750 0.471151
0.135491 0.069329 0.477023
0.209303 0.075908 0.482894
0.284884 0.082949 0.490635
0.362727 0.090363 0.499557
0.442572 0.098000 0.508927
0.524499 0.105846 0.518638
0.608586 0.113899 0.528642
0.007717 0.146503 0.484239
0.082205 0.154198 0.492552
0.158234 0.162303 0.501588
0.236041 0.170695 0.511039
0.315775 0.179344 0.520818
0.397549 0.188237 0.530882
0.481455 0.197370 0.541204
0.567572 0.206737 0.551768
0.655969 0.216339 0.562561
0.028466 0.243726 0.513167
0.105945 0.253196 0.523012
0.185356 0.262946 0.533134
0.266807 0.272965 0.543511
0.350390 0.283246 0.554126
0.436181 0.293785 0.564969
0.524248 0.304581 0.576030
0.614654 0.315630 0.587303
0.707453 0.326932 0.598783
0.050948 0.348946 0.545829
0.131959 0.360152 0.556495
0.215113 0.371639 0.567387
0.300482 0.383403 0.578495
0.388133 0.395439 0.589814
0.478126 0.407747 0.601340
0.570515 0.420324 0.613068
0.665349 0.433170 0.624995
0.762675 0.446283 0.637118
0.075397 0.462644 0.580971
0.160268 0.475677 0.592336
0.247431 0.488997 0.603906
0.336943 0.502603 0.615678
0.428856 0.516493 0.627649
0.523221 0.530665 0.639815
0.620081 0.545118 0.652176
0.719479 0.559851 0.664729
0.821456 0.574863 0.677474
0.101972 0.585327 0.618298
0.190944 0.600268 0.630312
0.282327 0.615505 0.642522
0.376168 0.631036 0.654925
0.472510 0.646860 0.667520
0.571397 0.662975 0.680307
0.672865 0.679382 0.693283
0.775727 0.695070 0.705700
0.870557 0.703328 0.712595
0.130791 0.717419 0.657683
0.224061 0.734339 0.670321
0.319840 0.751563 0.683149
0.418169 0.769089 0.696167
0.516738 0.783649 0.707219
0.611568 0.791907 0.714114
0.706398 0.800165 0.721009
0.801228 0.808423 0.727904
0.896058 0.816681 0.734799
0.161954 0.859279 0.699060
0.257748 0.872227 0.708738
0.352579 0.880485 0.715633
0.447409 0.888743 0.722528
0.542239 0.897001 0.729423
0.637069 0.905259 0.736318
0.731899 0.913517 0.743213
0.826729 0.921775 0.750108
0.921559 0.930033 0.757003
