assets/lighting/cinematic/grade-industrial-grime/lut.cube
TITLE "Industrial Grime"
# TKRS lighting-batch-001 original LUT
# Intended usage: oily dirty factory, low sat brown-green
# License: CC0-1.0
LUT_3D_SIZE 5
DOMAIN_MIN 0.0 0.0 0.0
DOMAIN_MAX 1.0 1.0 1.0
0.000000 0.000000 0.000000
0.100152 0.000000 0.000000
0.247777 0.000000 0.000000
0.395401 0.000000 0.000000
0.543026 0.001961 0.001750
0.000000 0.129946 0.000000
0.139850 0.143104 0.004337
0.291259 0.158106 0.016209
0.450731 0.174875 0.028434
0.618609 0.192655 0.041056
0.033244 0.322079 0.031179
0.191671 0.343308 0.043894
0.358419 0.365711 0.057045
0.534120 0.389230 0.070658
0.719268 0.413838 0.084752
0.081047 0.549105 0.073721
0.254873 0.577778 0.087923
0.438193 0.607651 0.102626
0.631399 0.638705 0.117845
0.834831 0.670928 0.133594
0.137431 0.813005 0.121268
0.328433 0.849671 0.137135
0.522338 0.876248 0.152108
0.711998 0.892764 0.165898
0.901659 0.909280 0.179688
0.000000 0.000000 0.077678
0.104024 0.000000 0.089421
0.251649 0.000000 0.101163
0.399274 0.000000 0.112906
0.546899 0.006095 0.124648
0.000000 0.134079 0.115493
0.143846 0.147351 0.127302
0.297145 0.163256 0.140671
0.458170 0.180356 0.154757
0.627700 0.198437 0.169434
0.037563 0.328616 0.157940
0.197385 0.350223 0.172744
0.365675 0.372980 0.188117
0.543027 0.396843 0.204057
0.729913 0.421790 0.220569
0.086153 0.557981 0.207645
0.261588 0.587034 0.224283
0.446606 0.617279 0.241498
0.641583 0.648702 0.259297
0.846852 0.681290 0.277686
0.143425 0.824387 0.263297
0.336175 0.861448 0.281817
0.527313 0.881437 0.296436
0.716974 0.897952 0.310226
0.906634 0.914468 0.324017
0.000000 0.000000 0.200577
0.107897 0.000000 0.212319
0.255522 0.000000 0.224062
0.403146 0.000000 0.235804
0.551983 0.010248 0.247880
0.000000 0.138213 0.238391
0.148468 0.152174 0.251040
0.303204 0.168517 0.266213
0.465776 0.185933 0.282295
0.636961 0.204312 0.299120
0.041952 0.335275 0.285940
0.203197 0.357250 0.302921
0.373047 0.380359 0.320584
0.552063 0.404564 0.338910
0.740697 0.429849 0.357888
0.091342 0.566977 0.343034
0.268402 0.596407 0.362156
0.455129 0.627024 0.381926
0.651889 0.658813 0.402343
0.859003 0.691767 0.423408
0.149510 0.835894 0.406927
0.342628 0.870109 0.426975
0.532288 0.886625 0.440765
0.721949 0.903141 0.454555
0.911609 0.919657 0.468345
0.000000 0.000000 0.323475
0.111769 0.000000 0.335217
0.259394 0.000000 0.346960
0.407019 0.001203 0.358702
0.558888 0.014460 0.372181
0.003843 0.142346 0.361289
0.153283 0.157175 0.375769
0.309418 0.173881 0.392909
0.473540 0.191604 0.411097
0.646386 0.210279 0.430152
0.046413 0.342053 0.415223
0.209106 0.364390 0.434458
0.380533 0.387845 0.454474
0.561226 0.412391 0.475239
0.751618 0.438013 0.496731
0.096614 0.576093 0.479911
0.275315 0.605898 0.501562
0.463764 0.636884 0.523927
0.662317 0.669040 0.546999
0.865582 0.698140 0.568266
0.155686 0.847525 0.552176
0.347603 0.875297 0.571304
0.537264 0.891813 0.585094
0.726924 0.908329 0.598884
0.916584 0.924845 0.612674
0.000000 0.000000 0.446373
0.115642 0.000000 0.458116
0.263267 0.000000 0.469858
0.410891 0.005337 0.481600
0.566289 0.018726 0.497548
0.007717 0.146503 0.484239
0.158234 0.162303 0.501588
0.315775 0.179344 0.520818
0.481455 0.197370 0.541204
0.655969 0.216339 0.562561
0.050948 0.348946 0.545829
0.215113 0.371639 0.567387
0.388133 0.395439 0.589814
0.570515 0.420324 0.613068
0.762675 0.446283 0.637118
0.101972 0.585327 0.618298
0.282327 0.615505 0.642522
0.472510 0.646860 0.667520
0.672865 0.679382 0.693283
0.870557 0.703328 0.712595
0.161954 0.859279 0.699060
0.352579 0.880485 0.715633
0.542239 0.897001 0.729423
0.731899 0.913517 0.743213
0.921559 0.930033 0.757003
