assets/lighting/cinematic/grade-industrial-grime/lut.cube
TITLE "Industrial Grime"
# TKRS lighting-batch-001 original LUT
# Intended usage: oily dirty factory, low sat brown-green
# License: CC0-1.0
LUT_3D_SIZE 17
DOMAIN_MIN 0.0 0.0 0.0
DOMAIN_MAX 1.0 1.0 1.0
0.000000 0.000000 0.000000
0.000000 0.000000 0.000000
0.026340 0.000000 0.000000
0.063246 0.000000 0.000000
0.100152 0.000000 0.000000
0.137058 0.000000 0.000000
0.173964 0.000000 0.000000
0.210871 0.000000 0.000000
0.247777 0.000000 0.000000
0.284683 0.000000 0.000000
0.321589 0.000000 0.000000
0.358495 0.000000 0.000000
0.395401 0.000000 0.000000
0.432308 0.000000 0.000000
0.469214 0.000000 0.000000
0.506120 0.000000 0.000000
0.543026 0.001961 0.001750
0.000000 0.000000 0.000000
0.000000 0.000000 0.000000
0.036264 0.001061 0.000000
0.073170 0.004351 0.000000
0.110077 0.007641 0.000000
0.146983 0.010930 0.000000
0.183889 0.014220 0.000000
0.220795 0.017509 0.000000
0.257701 0.020799 0.000000
0.294607 0.024089 0.000000
0.331514 0.027378 0.000000
0.368420 0.030668 0.000000
0.405326 0.033957 0.000000
0.442232 0.037247 0.002397
0.479138 0.040537 0.005332
0.516629 0.043871 0.008274
0.555792 0.047333 0.011239
0.000000 0.039637 0.000000
0.009283 0.042926 0.000000
0.046189 0.046216 0.000000
0.083095 0.049506 0.000000
0.120001 0.052795 0.000000
0.156907 0.056085 0.000000
0.193813 0.059374 0.000000
0.230720 0.062664 0.000000
0.267626 0.065954 0.000000
0.304532 0.069243 0.000108
0.341438 0.072533 0.003044
0.378344 0.075822 0.005979
0.416050 0.079249 0.008925
0.454927 0.082854 0.011895
0.494404 0.086530 0.014885
0.534440 0.090265 0.017896
0.575027 0.094055 0.020930
0.000000 0.084791 0.000000
0.019207 0.088081 0.000000
0.056113 0.091371 0.000000
0.093019 0.094660 0.000000
0.129926 0.097950 0.000000
0.166832 0.101239 0.000000
0.203738 0.104529 0.000755
0.240644 0.107819 0.003690
0.277550 0.111108 0.006626
0.315331 0.114683 0.009578
0.353872 0.118441 0.012552
0.392941 0.122282 0.015546
0.432527 0.126192 0.018563
0.472631 0.130166 0.021602
0.513262 0.134200 0.024664
0.554428 0.138292 0.027751
0.596136 0.142442 0.030862
0.000000 0.129946 0.000000
0.029132 0.133236 0.000000
0.066038 0.136525 0.000000
0.102944 0.139815 0.001401
0.139850 0.143104 0.004337
0.176776 0.146408 0.007273
0.214449 0.150177 0.010231
0.252619 0.154095 0.013210
0.291259 0.158106 0.016209
0.330378 0.162196 0.019230
0.369989 0.166356 0.022274
0.410102 0.170584 0.025342
0.450731 0.174875 0.028434
0.491886 0.179229 0.031551
0.533578 0.183644 0.034693
0.575816 0.188120 0.037861
0.618609 0.192655 0.041056
0.002150 0.175101 0.002048
0.039056 0.178390 0.004984
0.076018 0.181800 0.007923
0.113390 0.185735 0.010886
0.151159 0.189819 0.013869
0.189352 0.194005 0.016873
0.227992 0.198278 0.019899
0.267096 0.202628 0.022948
0.306683 0.207052 0.026021
0.346767 0.211545 0.029118
0.387361 0.216105 0.032241
0.428478 0.220731 0.035389
0.470127 0.225422 0.038563
0.512319 0.230176 0.041764
0.555064 0.234992 0.044992
0.598370 0.239871 0.048247
0.642246 0.244812 0.051530
0.012142 0.221359 0.011541
0.049487 0.225614 0.014528
0.087216 0.229979 0.017537
0.125362 0.234439 0.020569
0.163951 0.238982 0.023623
0.203002 0.243604 0.026701
0.242533 0.248301 0.029804
0.282559 0.253070 0.032932
0.323093 0.257909 0.036086
0.364148 0.262817 0.039266
0.405734 0.267791 0.042472
0.447862 0.272832 0.045706
0.490541 0.277938 0.048968
0.533780 0.283110 0.052257
0.577588 0.288346 0.055575
0.621973 0.293646 0.058921
0.666941 0.299010 0.062296
0.022487 0.270680 0.021239
0.060549 0.275419 0.024299
0.099056 0.280243 0.027383
0.138026 0.285146 0.030491
0.177477 0.290125 0.033625
0.217423 0.295179 0.036784
0.257877 0.300305 0.039970
0.298852 0.305502 0.043183
0.340357 0.310768 0.046422
0.382405 0.316104 0.049690
0.425003 0.321507 0.052985
0.468162 0.326978 0.056309
0.511888 0.332516 0.059662
0.556191 0.338120 0.063044
0.601078 0.343790 0.066455
0.646555 0.349527 0.069896
0.692630 0.355329 0.073367
0.033244 0.322079 0.031179
0.072113 0.327271 0.034318
0.111465 0.332541 0.037484
0.151313 0.337887 0.040675
0.191671 0.343308 0.043894
0.232550 0.348802 0.047140
0.273961 0.354367 0.050413
0.315914 0.360004 0.053715
0.358419 0.365711 0.057045
0.401483 0.371487 0.060405
0.445117 0.377333 0.063793
0.489326 0.383247 0.067211
0.534120 0.389230 0.070658
0.579504 0.395280 0.074136
0.625486 0.401399 0.077644
0.672072 0.407585 0.081182
0.719268 0.413838 0.084752
0.044454 0.375565 0.041382
0.084189 0.381211 0.044607
0.124437 0.386933 0.047859
0.165207 0.392730 0.051138
0.206511 0.398601 0.054446
0.248358 0.404545 0.057783
0.290757 0.410562 0.061148
0.333717 0.416650 0.064543
0.377247 0.422809 0.067967
0.421353 0.429039 0.071422
0.466043 0.435339 0.074906
0.511325 0.441709 0.078420
0.557205 0.448149 0.081966
0.603689 0.454658 0.085542
0.650783 0.461236 0.089150
0.698494 0.467883 0.092788
0.746827 0.474599 0.096459
0.056142 0.431192 0.051865
0.096792 0.437299 0.055179
0.137978 0.443482 0.058522
0.179707 0.449739 0.061894
0.221991 0.456071 0.065295
0.264837 0.462476 0.068726
0.308252 0.468954 0.072187
0.352246 0.475505 0.075677
0.396824 0.482127 0.079199
0.441994 0.488822 0.082751
0.487763 0.495587 0.086334
0.534137 0.502424 0.089948
0.581121 0.509332 0.093594
0.628723 0.516310 0.097272
0.676947 0.523359 0.100981
0.725799 0.530478 0.104723
0.775284 0.537668 0.108497
0.068334 0.489020 0.062641
0.109937 0.495596 0.066048
0.152095 0.502248 0.069486
0.194817 0.508976 0.072953
0.238111 0.515778 0.076451
0.281983 0.522654 0.079979
0.326441 0.529604 0.083538
0.371492 0.536627 0.087128
0.417142 0.543724 0.090749
0.463397 0.550893 0.094402
0.510264 0.558134 0.098086
0.557749 0.565448 0.101803
0.605856 0.572834 0.105552
0.654592 0.580292 0.109333
0.703962 0.587821 0.113147
0.753970 0.595423 0.116993
0.804622 0.603095 0.120873
0.081047 0.549105 0.073721
0.123637 0.556159 0.077225
0.166800 0.563290 0.080760
0.210543 0.570496 0.084326
0.254873 0.577778 0.087923
0.299796 0.585134 0.091551
0.345320 0.592566 0.095211
0.391450 0.600071 0.098902
0.438193 0.607651 0.102626
0.485554 0.615304 0.106382
0.533538 0.623031 0.110170
0.582152 0.630831 0.113991
0.631399 0.638705 0.117845
0.681286 0.646651 0.121732
0.731817 0.654671 0.125652
0.782997 0.662763 0.129606
0.834831 0.670928 0.133594
0.094299 0.611498 0.085115
0.137905 0.619039 0.088719
0.182100 0.626657 0.092354
0.226890 0.634351 0.096021
0.272281 0.642121 0.099720
0.318279 0.649967 0.103450
0.364891 0.657889 0.107213
0.412121 0.665886 0.111009
0.459976 0.673957 0.114837
0.508461 0.682104 0.118699
0.557580 0.690325 0.122593
0.607339 0.698620 0.126520
0.657744 0.706990 0.130482
0.708797 0.715434 0.134476
0.760505 0.723952 0.138505
0.812871 0.732544 0.142568
0.863407 0.739252 0.146382
0.108105 0.676249 0.096833
0.152754 0.684285 0.100539
0.198006 0.692399 0.104277
0.243866 0.700589 0.108047
0.290340 0.708856 0.111850
0.337434 0.717200 0.115685
0.385153 0.725620 0.119554
0.433503 0.734116 0.123455
0.482489 0.742688 0.127390
0.532115 0.751336 0.131359
0.582387 0.760060 0.135361
0.633308 0.768858 0.139397
0.684885 0.777732 0.143467
0.733912 0.783541 0.147141
0.781328 0.787670 0.150589
0.828743 0.791799 0.154036
0.876158 0.795928 0.157484
0.122478 0.743404 0.108882
0.168194 0.751943 0.112692
0.214525 0.760559 0.116534
0.261477 0.769254 0.120410
0.309055 0.778026 0.124319
0.357265 0.786875 0.128262
0.406111 0.795802 0.132237
0.455599 0.804805 0.136247
0.505733 0.813885 0.140291
0.556517 0.823042 0.144369
0.604418 0.827830 0.147901
0.651833 0.831959 0.151348
0.699248 0.836088 0.154796
0.746663 0.840217 0.158243
0.794078 0.844346 0.161691
0.841493 0.848475 0.165138
0.888908 0.852604 0.168586
0.137431 0.813005 0.121268
0.184236 0.822053 0.125185
0.231667 0.831181 0.129135
0.279732 0.840386 0.133118
0.328433 0.849671 0.137135
0.377777 0.859033 0.141186
0.427508 0.867990 0.145213
0.474923 0.872119 0.148660
0.522338 0.876248 0.152108
0.569753 0.880377 0.155555
0.617168 0.884506 0.159003
0.664583 0.888635 0.162450
0.711998 0.892764 0.165898
0.759413 0.896893 0.169345
0.806829 0.901022 0.172793
0.854244 0.905151 0.176240
0.901659 0.909280 0.179688
0.000000 0.000000 0.000000
0.000000 0.000000 0.000000
0.027308 0.000000 0.000000
0.064214 0.000000 0.000000
0.101120 0.000000 0.000000
0.138026 0.000000 0.000183
0.174932 0.000000 0.003119
0.211839 0.000000 0.006054
0.248745 0.000000 0.008990
0.285651 0.000000 0.011925
0.322557 0.000000 0.014861
0.359463 0.000000 0.017797
0.396370 0.000000 0.020732
0.433276 0.000000 0.023668
0.470182 0.000000 0.026603
0.507088 0.000000 0.029539
0.543994 0.002995 0.032475
0.000000 0.000000 0.000000
0.000326 0.000000 0.000000
0.037232 0.002095 0.000830
0.074138 0.005384 0.003765
0.111045 0.008674 0.006701
0.147951 0.011964 0.009636
0.184857 0.015253 0.012572
0.221763 0.018543 0.015508
0.258669 0.021832 0.018443
0.295576 0.025122 0.021379
0.332482 0.028412 0.024315
0.369388 0.031701 0.027250
0.406294 0.034991 0.030186
0.443200 0.038280 0.033121
0.480106 0.041570 0.036057
0.518193 0.044951 0.039047
0.557551 0.048432 0.042097
0.000000 0.040670 0.004412
0.010251 0.043960 0.007347
0.047157 0.047249 0.010283
0.084063 0.050539 0.013219
0.120969 0.053829 0.016154
0.157875 0.057118 0.019090
0.194782 0.060408 0.022026
0.231688 0.063697 0.024961
0.268594 0.066987 0.027897
0.305500 0.070277 0.030832
0.342406 0.073566 0.033768
0.379312 0.076856 0.036704
0.417533 0.080372 0.039716
0.456561 0.084002 0.042773
0.496163 0.087697 0.045859
0.536316 0.091450 0.048974
0.577017 0.095257 0.052117
0.000000 0.085825 0.013865
0.020175 0.089114 0.016801
0.057081 0.092404 0.019737
0.093988 0.095693 0.022672
0.130894 0.098983 0.025608
0.167800 0.102273 0.028544
0.204706 0.105562 0.031479
0.241612 0.108852 0.034415
0.278617 0.112177 0.037358
0.316710 0.115853 0.040387
0.355372 0.119639 0.043450
0.394550 0.123503 0.046543
0.434241 0.127434 0.049664
0.474450 0.131427 0.052813
0.515186 0.135479 0.055990
0.556458 0.139590 0.059194
0.598273 0.143757 0.062426
0.000000 0.130979 0.023319
0.030100 0.134269 0.026255
0.067006 0.137558 0.029190
0.103912 0.140848 0.032126
0.140818 0.144138 0.035061
0.177911 0.147566 0.038021
0.215710 0.151396 0.041059
0.253978 0.155346 0.044129
0.292713 0.159383 0.047228
0.331928 0.163495 0.050355
0.371634 0.167677 0.053510
0.411846 0.171925 0.056693
0.452575 0.176237 0.059904
0.493831 0.180610 0.063142
0.535625 0.185044 0.066410
0.577967 0.189538 0.069705
0.620866 0.194091 0.073030
0.003118 0.176134 0.032773
0.040024 0.179423 0.035708
0.077071 0.183013 0.038687
0.114521 0.187005 0.041732
0.152370 0.191124 0.044809
0.190646 0.195338 0.047915
0.229372 0.199636 0.051048
0.268565 0.204010 0.054209
0.308244 0.208456 0.057398
0.348422 0.212970 0.060615
0.389112 0.217551 0.063860
0.430326 0.222198 0.067133
0.472075 0.226908 0.070435
0.514369 0.231682 0.073767
0.557217 0.236518 0.077127
0.600628 0.241417 0.080517
0.644610 0.246377 0.083937
0.013134 0.222682 0.042408
0.050544 0.226974 0.045491
0.088345 0.231371 0.048603
0.126569 0.235857 0.051742
0.165240 0.240426 0.054909
0.204377 0.245072 0.058104
0.243996 0.249792 0.061327
0.284113 0.254583 0.064578
0.324741 0.259444 0.067858
0.365891 0.264372 0.071167
0.407575 0.269368 0.074504
0.449802 0.274429 0.077871
0.492583 0.279556 0.081268
0.535925 0.284748 0.084695
0.579838 0.290004 0.088152
0.624328 0.295324 0.091639
0.669404 0.300708 0.095157
0.023517 0.272159 0.052437
0.061655 0.276926 0.055611
0.100242 0.281775 0.058812
0.139296 0.286702 0.062041
0.178833 0.291705 0.065298
0.218868 0.296782 0.068584
0.259414 0.301930 0.071899
0.300483 0.307149 0.075244
0.342085 0.312437 0.078617
0.384230 0.317794 0.082020
0.426929 0.323218 0.085454
0.470189 0.328710 0.088917
0.514019 0.334269 0.092411
0.558426 0.339894 0.095936
0.603419 0.345585 0.099492
0.649003 0.351342 0.103079
0.695187 0.357165 0.106697
0.034318 0.323701 0.062756
0.073269 0.328918 0.066020
0.112705 0.334213 0.069312
0.152642 0.339582 0.072634
0.193090 0.345026 0.075984
0.234062 0.350542 0.079364
0.275568 0.356130 0.082774
0.317618 0.361789 0.086214
0.360222 0.367518 0.089684
0.403387 0.373316 0.093185
0.447123 0.379183 0.096717
0.491436 0.385119 0.100279
0.536335 0.391123 0.103873
0.581825 0.397195 0.107499
0.627915 0.403335 0.111156
0.674610 0.409542 0.114845
0.721917 0.415816 0.118566
0.045572 0.377330 0.073369
0.085395 0.383000 0.076726
0.125733 0.388746 0.080113
0.166595 0.394566 0.083529
0.207993 0.400461 0.086976
0.249936 0.406427 0.090453
0.292433 0.412466 0.093960
0.335493 0.418577 0.097499
0.379123 0.424758 0.101068
0.423333 0.431010 0.104669
0.468127 0.437332 0.108301
0.513515 0.443724 0.111966
0.559501 0.450186 0.115662
0.606093 0.456716 0.119390
0.653297 0.463316 0.123151
0.701119 0.469985 0.126945
0.749564 0.476723 0.130771
0.057309 0.433102 0.084286
0.098051 0.439233 0.087739
0.139329 0.445439 0.091223
0.181154 0.451720 0.094737
0.223535 0.458075 0.098282
0.266480 0.464503 0.101859
0.309996 0.471004 0.105467
0.354092 0.477577 0.109106
0.398774 0.484222 0.112777
0.444049 0.490939 0.116480
0.489924 0.497727 0.120216
0.536405 0.504586 0.123984
0.583498 0.511516 0.127785
0.631210 0.518517 0.131618
0.679545 0.525588 0.135485
0.728509 0.532729 0.139385
0.778107 0.539941 0.143318
0.069551 0.491078 0.095515
0.111249 0.497678 0.099068
0.153504 0.504354 0.102651
0.196324 0.511105 0.106266
0.239717 0.517930 0.109912
0.283691 0.524829 0.113590
0.328252 0.531802 0.117301
0.373407 0.538849 0.121043
0.419163 0.545968 0.124818
0.465525 0.553160 0.128626
0.512501 0.560424 0.132467
0.560094 0.567760 0.136341
0.608312 0.575169 0.140249
0.657160 0.582649 0.144189
0.706642 0.590201 0.148164
0.756764 0.597825 0.152172
0.807531 0.605520 0.156214
0.082316 0.551312 0.107066
0.125004 0.558391 0.110719
0.168266 0.565545 0.114405
0.212110 0.572775 0.118122
0.256542 0.580081 0.121872
0.301570 0.587461 0.125654
0.347199 0.594915 0.129470
0.393435 0.602444 0.133318
0.440286 0.610047 0.137199
0.487755 0.617723 0.141114
0.535850 0.625473 0.145062
0.584574 0.633297 0.149044
0.633934 0.641193 0.153060
0.683934 0.649163 0.157109
0.734579 0.657205 0.161193
0.785874 0.665320 0.165312
0.837824 0.673508 0.169465
0.095621 0.613859 0.118946
0.139328 0.621424 0.122703
0.183625 0.629066 0.126492
0.228518 0.636784 0.130315
0.274014 0.644578 0.134170
0.320118 0.652448 0.138059
0.366837 0.660393 0.141981
0.414175 0.668413 0.145936
0.462140 0.676508 0.149926
0.510735 0.684678 0.153949
0.559966 0.692923 0.158006
0.609838 0.701241 0.162098
0.660356 0.709635 0.166224
0.711524 0.718102 0.170384
0.763347 0.726643 0.174580
0.815830 0.735258 0.178810
0.864651 0.740549 0.182464
0.109482 0.678765 0.131161
0.154234 0.686826 0.135024
0.199590 0.694963 0.138920
0.245555 0.703178 0.142849
0.292137 0.711469 0.146812
0.339339 0.719837 0.150809
0.387167 0.728281 0.154840
0.435627 0.736801 0.158904
0.484724 0.745397 0.163004
0.534463 0.754068 0.167137
0.584847 0.762815 0.171306
0.635883 0.771638 0.175509
0.687575 0.780536 0.179747
0.735156 0.784838 0.183223
0.782571 0.788967 0.186671
0.829986 0.793096 0.190118
0.877401 0.797225 0.193566
0.123911 0.746078 0.143719
0.169732 0.754641 0.147690
0.216170 0.763282 0.151694
0.263229 0.772001 0.155732
0.310917 0.780797 0.159805
0.359236 0.789671 0.163911
0.408193 0.798622 0.168053
0.457793 0.807649 0.172228
0.508039 0.816754 0.176439
0.558247 0.824998 0.180535
0.605662 0.829127 0.183983
0.653077 0.833256 0.187430
0.700492 0.837385 0.190878
0.747907 0.841514 0.194325
0.795322 0.845643 0.197773
0.842737 0.849772 0.201220
0.890152 0.853901 0.204668
0.138921 0.815839 0.156626
0.185833 0.824912 0.160706
0.233373 0.834064 0.164821
0.281547 0.843295 0.168969
0.330359 0.852603 0.173153
0.379814 0.861990 0.177372
0.428752 0.869288 0.181295
0.476167 0.873417 0.184742
0.523582 0.877545 0.188190
0.570997 0.881674 0.191637
0.618412 0.885803 0.195085
0.665827 0.889932 0.198532
0.713242 0.894061 0.201980
0.760657 0.898190 0.205427
0.808072 0.902319 0.208875
0.855487 0.906448 0.212322
0.902902 0.910577 0.215770
0.000000 0.000000 0.016229
0.000000 0.000000 0.019165
0.028276 0.000000 0.022101
0.065182 0.000000 0.025036
0.102088 0.000000 0.027972
0.138994 0.000000 0.030907
0.175901 0.000000 0.033843
0.212807 0.000000 0.036779
0.249713 0.000000 0.039714
0.286619 0.000000 0.042650
0.323525 0.000000 0.045586
0.360431 0.000000 0.048521
0.397338 0.000000 0.051457
0.434244 0.000000 0.054392
0.471150 0.000000 0.057328
0.508056 0.000738 0.060264
0.544962 0.004028 0.063199
0.000000 0.000000 0.025683
0.001294 0.000000 0.028619
0.038200 0.003128 0.031554
0.075107 0.006418 0.034490
0.112013 0.009707 0.037425
0.148919 0.012997 0.040361
0.185825 0.016286 0.043297
0.222731 0.019576 0.046232
0.259637 0.022866 0.049168
0.296544 0.026155 0.052103
0.333450 0.029445 0.055039
0.370356 0.032734 0.057975
0.407262 0.036024 0.060910
0.444168 0.039314 0.063846
0.481094 0.042605 0.066783
0.519817 0.046039 0.069868
0.559341 0.049536 0.073010
0.000000 0.041703 0.035136
0.011219 0.044993 0.038072
0.048125 0.048283 0.041008
0.085031 0.051572 0.043943
0.121937 0.054862 0.046879
0.158843 0.058151 0.049815
0.195750 0.061441 0.052750
0.232656 0.064731 0.055686
0.269562 0.068020 0.058621
0.306468 0.071310 0.061557
0.343374 0.074599 0.064493
0.380522 0.077933 0.067454
0.419055 0.081504 0.070557
0.458219 0.085156 0.073707
0.497942 0.088870 0.076895
0.538210 0.092640 0.080117
0.579023 0.096464 0.083371
0.000000 0.086858 0.044590
0.021143 0.090148 0.047526
0.058049 0.093437 0.050461
0.094956 0.096727 0.053397
0.131862 0.100016 0.056332
0.168768 0.103306 0.059268
0.205674 0.106596 0.062204
0.242580 0.109885 0.065139
0.279870 0.113314 0.068132
0.318115 0.117033 0.071247
0.356891 0.120845 0.074407
0.396175 0.124731 0.077602
0.435970 0.128681 0.080831
0.476284 0.132693 0.084093
0.517124 0.136764 0.087386
0.558500 0.140893 0.090710
0.600422 0.145078 0.094066
0.000000 0.132013 0.054044
0.031068 0.135302 0.056979
0.067974 0.138592 0.059915
0.104880 0.141881 0.062850
0.141786 0.145171 0.065786
0.179083 0.148752 0.068814
0.216988 0.152626 0.071940
0.255350 0.156605 0.075108
0.294179 0.160667 0.078311
0.333488 0.164802 0.081547
0.373291 0.169005 0.084815
0.413601 0.173273 0.088115
0.454429 0.177604 0.091447
0.495786 0.181996 0.094809
0.537683 0.186449 0.098203
0.580129 0.190962 0.101628
0.623133 0.195534 0.105084
0.004086 0.177167 0.063497
0.040992 0.180457 0.066433
0.078137 0.184250 0.069498
0.115662 0.188287 0.072634
0.153590 0.192438 0.075810
0.191949 0.196680 0.079021
0.230760 0.201002 0.082264
0.270043 0.205399 0.085540
0.309813 0.209867 0.088847
0.350085 0.214402 0.092185
0.390872 0.219004 0.095554
0.432184 0.223671 0.098955
0.474033 0.228401 0.102386
0.516428 0.233194 0.105850
0.559379 0.238050 0.109344
0.602895 0.242968 0.112871
0.646983 0.247948 0.116429
0.014130 0.224018 0.073331
0.051605 0.228345 0.076515
0.089480 0.232771 0.079732
0.127782 0.237284 0.082983
0.166536 0.241877 0.086265
0.205758 0.246547 0.089579
0.245467 0.251289 0.092924
0.285675 0.256102 0.096301
0.326397 0.260984 0.099708
0.367643 0.265934 0.103147
0.409425 0.270950 0.106617
0.451752 0.276033 0.110118
0.494634 0.281180 0.113652
0.538080 0.286392 0.117217
0.582097 0.291668 0.120814
0.626693 0.297009 0.124443
0.671877 0.302413 0.128105
0.024552 0.273647 0.083703
0.062766 0.278440 0.086993
0.101433 0.283314 0.090313
0.140571 0.288266 0.093665
0.180195 0.293292 0.097048
0.220320 0.298391 0.100463
0.260958 0.303562 0.103908
0.302121 0.308803 0.107385
0.343820 0.314112 0.110894
0.386064 0.319490 0.114434
0.428862 0.324936 0.118006
0.472224 0.330449 0.121610
0.516157 0.336029 0.125247
0.560670 0.341675 0.128916
0.605769 0.347387 0.132617
0.651461 0.353164 0.136351
0.697753 0.359008 0.140118
0.035395 0.325332 0.094408
0.074429 0.330573 0.097798
0.113951 0.335891 0.101219
0.153976 0.341284 0.104672
0.194515 0.346751 0.108156
0.235581 0.352290 0.111671
0.277182 0.357900 0.115218
0.319330 0.363581 0.118798
0.362032 0.369332 0.122409
0.405298 0.375152 0.126052
0.449136 0.381041 0.129728
0.493554 0.386998 0.133437
0.538557 0.393023 0.137178
0.584155 0.399116 0.140952
0.630352 0.405277 0.144759
0.677157 0.411505 0.148600
0.724574 0.417801 0.152474
0.046696 0.379103 0.105436
0.086606 0.384797 0.108927
0.127034 0.390566 0.112450
0.167988 0.396410 0.116004
0.209481 0.402327 0.119590
0.251520 0.408317 0.123209
0.294116 0.414378 0.126859
0.337275 0.420511 0.130542
0.381008 0.426715 0.134258
0.425320 0.432989 0.138006
0.470219 0.439333 0.141788
0.515712 0.445747 0.145602
0.561806 0.452230 0.149450
0.608506 0.458782 0.153332
0.655820 0.465404 0.157247
0.703752 0.472094 0.161195
0.752309 0.478854 0.165178
0.058481 0.435020 0.116791
0.099314 0.441175 0.120385
0.140686 0.447404 0.124010
0.182607 0.453708 0.127668
0.225086 0.460086 0.131358
0.268129 0.466537 0.135081
0.311746 0.473061 0.138836
0.355944 0.479657 0.142625
0.400730 0.486325 0.146447
0.446110 0.493064 0.150302
0.492092 0.499874 0.154191
0.538681 0.506756 0.158114
0.585883 0.513708 0.162070
0.633705 0.520731 0.166060
0.682151 0.527824 0.170085
0.731227 0.534987 0.174144
0.780939 0.542221 0.178237
0.070772 0.493143 0.128478
0.112566 0.499767 0.132175
0.154918 0.506466 0.135905
0.197837 0.513241 0.139668
0.241330 0.520089 0.143464
0.285406 0.527012 0.147293
0.330070 0.534008 0.151156
0.375329 0.541077 0.155052
0.421191 0.548219 0.158982
0.467661 0.555434 0.162946
0.514744 0.562721 0.166944
0.562448 0.570080 0.170976
0.610776 0.577511 0.175042
0.659735 0.585014 0.179143
0.709330 0.592589 0.183279
0.759566 0.600235 0.187449
0.810448 0.607952 0.191655
0.083590 0.553528 0.140502
0.126376 0.560630 0.144305
0.169738 0.567808 0.148142
0.213683 0.575062 0.152011
0.258218 0.582391 0.155915
0.303350 0.589794 0.159852
0.349084 0.597272 0.163824
0.395427 0.604824 0.167829
0.442385 0.612450 0.171869
0.489964 0.620150 0.175943
0.538168 0.627923 0.180051
0.587004 0.635769 0.184195
0.636476 0.643689 0.188373
0.686589 0.651681 0.192586
0.737349 0.659746 0.196834
0.788759 0.667884 0.201118
0.840825 0.676095 0.205437
0.096949 0.616227 0.152869
0.140756 0.623816 0.156780
0.185155 0.631482 0.160724
0.230152 0.639224 0.164703
0.275753 0.647042 0.168716
0.321963 0.654935 0.172763
0.368789 0.662904 0.176845
0.416237 0.670948 0.180961
0.464311 0.679067 0.185112
0.513017 0.687260 0.189298
0.562360 0.695528 0.193519
0.612345 0.703870 0.197775
0.662976 0.712286 0.202067
0.714259 0.720777 0.206393
0.766198 0.729341 0.210756
0.818480 0.737717 0.215099
0.865895 0.741846 0.218546
0.110864 0.681289 0.165584
0.155720 0.689373 0.169605
0.201180 0.697535 0.173659
0.247251 0.705774 0.177749
0.293939 0.714089 0.181872
0.341250 0.722481 0.186031
0.389188 0.730949 0.190225
0.437758 0.739493 0.194453
0.486966 0.748113 0.198717
0.536817 0.756808 0.203017
0.587315 0.765579 0.207351
0.638466 0.774425 0.211722
0.688985 0.782006 0.215858
0.736400 0.786135 0.219306
0.783815 0.790264 0.222753
0.831230 0.794393 0.226201
0.878645 0.798522 0.229648
0.125350 0.748759 0.178654
0.171276 0.757347 0.182786
0.217820 0.766012 0.186952
0.264988 0.774756 0.191153
0.312784 0.783576 0.195390
0.361213 0.792474 0.199661
0.410282 0.801449 0.203969
0.459993 0.810501 0.208311
0.510353 0.819629 0.212690
0.559490 0.826295 0.216617
0.606905 0.830424 0.220065
0.654320 0.834553 0.223513
0.701735 0.838682 0.226960
0.749151 0.842811 0.230408
0.796566 0.846940 0.233855
0.843981 0.851069 0.237303
0.891396 0.855198 0.240750
0.140417 0.818680 0.192083
0.187436 0.827778 0.196328
0.235085 0.836955 0.200607
0.283368 0.846210 0.204922
0.332291 0.855544 0.209273
0.381858 0.864955 0.213659
0.429996 0.870585 0.217377
0.477411 0.874714 0.220824
0.524826 0.878843 0.224272
0.572241 0.882971 0.227720
0.619656 0.887100 0.231167
0.667071 0.891229 0.234615
0.714486 0.895358 0.238062
0.761901 0.899487 0.241510
0.809316 0.903616 0.244957
0.856731 0.907745 0.248405
0.904146 0.911874 0.251852
0.000000 0.000000 0.046954
0.000000 0.000000 0.049890
0.029244 0.000000 0.052825
0.066150 0.000000 0.055761
0.103056 0.000000 0.058696
0.139963 0.000000 0.061632
0.176869 0.000000 0.064568
0.213775 0.000000 0.067503
0.250681 0.000000 0.070439
0.287587 0.000000 0.073374
0.324493 0.000000 0.076310
0.361400 0.000000 0.079246
0.398306 0.000000 0.082181
0.435212 0.000000 0.085117
