assets/lighting/cinematic/grade-sci-fi-neon-night/lut.cube
TITLE "Sci-Fi Neon Night"
# TKRS lighting-batch-001 original LUT
# Intended usage: cyberpunk neon magenta-cyan night
# License: CC0-1.0
LUT_3D_SIZE 17
DOMAIN_MIN 0.0 0.0 0.0
DOMAIN_MAX 1.0 1.0 1.0
0.000000 0.000000 0.000000
0.000000 0.000000 0.000000
0.051906 0.000000 0.000000
0.119828 0.000000 0.000000
0.187751 0.000000 0.000000
0.255674 0.000000 0.000000
0.323597 0.000000 0.000000
0.391519 0.000000 0.000000
0.459442 0.000000 0.000000
0.527365 0.000000 0.000000
0.595288 0.000000 0.000000
0.663210 0.000000 0.000000
0.731133 0.000000 0.000000
0.799056 0.000000 0.000000
0.866979 0.000000 0.000000
0.934902 0.000000 0.000000
1.000000 0.000000 0.000000
0.000000 0.000000 0.000000
0.000000 0.000000 0.000000
0.041699 0.000000 0.000000
0.109622 0.000000 0.000000
0.177545 0.000000 0.000000
0.245468 0.000000 0.000000
0.313390 0.000000 0.000000
0.381313 0.000000 0.000000
0.449236 0.000000 0.000000
0.517159 0.000000 0.000000
0.585081 0.000000 0.000000
0.653004 0.000000 0.000000
0.720927 0.000000 0.000000
0.788850 0.000000 0.000000
0.856772 0.000000 0.000000
0.924695 0.000000 0.000000
0.992618 0.000000 0.000000
0.000000 0.034105 0.000000
0.000000 0.031423 0.000000
0.031493 0.028741 0.000000
0.099416 0.026058 0.000000
0.167339 0.023376 0.000000
0.235261 0.020694 0.000000
0.303184 0.018012 0.000000
0.371107 0.015329 0.000000
0.439030 0.012647 0.000000
0.506952 0.009965 0.000000
0.574875 0.007283 0.000000
0.642798 0.004600 0.000000
0.710721 0.001918 0.000000
0.778594 0.000000 0.000000
0.845995 0.000000 0.000000
0.913188 0.000000 0.000000
0.980206 0.000000 0.000000
0.000000 0.088479 0.000000
0.000000 0.085797 0.000000
0.021287 0.083115 0.000000
0.089209 0.080432 0.000000
0.157132 0.077750 0.000000
0.225055 0.075068 0.000000
0.292978 0.072386 0.000000
0.360901 0.069703 0.000000
0.428823 0.067021 0.000000
0.496746 0.064339 0.000000
0.564515 0.061808 0.000000
0.631990 0.059479 0.000000
0.699302 0.057169 0.000000
0.766458 0.054852 0.000000
0.833457 0.052518 0.000000
0.900298 0.050158 0.000000
0.966979 0.047767 0.000000
0.000000 0.142853 0.000000
0.000000 0.140171 0.000000
0.011080 0.137489 0.000000
0.079003 0.134806 0.000000
0.146926 0.132124 0.000000
0.214849 0.129442 0.000000
0.282771 0.126760 0.000000
0.350513 0.124653 0.000000
0.418098 0.122750 0.000000
0.485543 0.120900 0.000000
0.552847 0.119072 0.000000
0.620005 0.117249 0.000000
0.687012 0.115420 0.000000
0.753866 0.113576 0.000000
0.820563 0.111713 0.000000
0.887099 0.109824 0.000000
0.953471 0.107907 0.000000
0.000000 0.197227 0.000000
0.000000 0.194545 0.000000
0.000874 0.191863 0.000000
0.068787 0.189418 0.000000
0.136613 0.187809 0.000000
0.204327 0.186366 0.000000
0.271918 0.185002 0.000000
0.339378 0.183683 0.000000
0.406701 0.182387 0.000000
0.473881 0.181103 0.000000
0.540914 0.179819 0.000000
0.607794 0.178530 0.000000
0.674519 0.177228 0.000000
0.741085 0.175909 0.000000
0.807488 0.174568 0.000000
0.873726 0.173203 0.000000
0.939796 0.171809 0.000000
0.000000 0.252427 0.000000
0.000000 0.251300 0.000000
0.000000 0.250345 0.000000
0.058432 0.249488 0.000000
0.126057 0.248694 0.000000
0.193551 0.247941 0.000000
0.260909 0.247214 0.000000
0.328125 0.246503 0.000000
0.395194 0.245798 0.000000
0.462111 0.245092 0.000000
0.528873 0.244380 0.000000
0.595477 0.243657 0.000000
0.661919 0.242918 0.000000
0.728196 0.242160 0.000000
0.794306 0.241379 0.000000
0.860245 0.240572 0.000000
0.926012 0.239738 0.000000
0.000000 0.314367 0.000000
0.000000 0.314115 0.000000
0.000000 0.313919 0.000000
0.048098 0.313762 0.000000
0.115502 0.313633 0.000000
0.182763 0.313523 0.000000
0.249876 0.313422 0.000000
0.316839 0.313326 0.000000
0.383646 0.313228 0.000000
0.450295 0.313123 0.000000
0.516782 0.313008 0.000000
0.583104 0.312878 0.000000
0.649259 0.312730 0.000000
0.715244 0.312562 0.000000
0.781057 0.312370 0.000000
0.846695 0.312152 0.000000
0.912156 0.311906 0.000000
0.000000 0.380752 0.000000
0.000000 0.381217 0.000000
0.000000 0.381710 0.000000
0.037818 0.382224 0.000000
0.104983 0.382751 0.000000
0.171997 0.383286 0.000000
0.238855 0.383823 0.000000
0.305555 0.384357 0.000000
0.372092 0.384885 0.000000
0.438465 0.385402 0.000000
0.504671 0.385906 0.000000
0.570706 0.386393 0.000000
0.636570 0.386860 0.000000
0.702258 0.387306 0.000000
0.767769 0.387727 0.000000
0.833102 0.388122 0.000000
0.898254 0.388489 0.000000
0.000000 0.451502 0.000000
0.000000 0.452661 0.000000
0.000000 0.453836 0.000000
0.027602 0.455021 0.000000
0.094517 0.456211 0.000000
0.161272 0.457403 0.000000
0.227865 0.458591 0.000000
0.294293 0.459772 0.000000
0.360554 0.460944 0.000000
0.426644 0.462102 0.000000
0.492562 0.463245 0.000000
0.558305 0.464369 0.000000
0.623870 0.465473 0.000000
0.689257 0.466553 0.000000
0.754463 0.467609 0.000000
0.819486 0.468637 0.000000
0.884324 0.469637 0.000000
0.000000 0.526721 0.000000
0.000000 0.528575 0.000000
0.000000 0.530436 0.000000
0.017460 0.532301 0.000000
0.084113 0.534165 0.000000
0.150600 0.536027 0.000000
0.216920 0.537881 0.000000
0.283069 0.539725 0.000000
0.349045 0.541557 0.000000
0.414846 0.543374 0.000000
0.480469 0.545173 0.000000
0.545914 0.546953 0.000000
0.611177 0.548710 0.000000
0.676258 0.550444 0.000000
0.741153 0.552152 0.000000
0.805862 0.553833 0.000000
0.870383 0.555485 0.000000
0.000000 0.606534 0.000000
0.000000 0.609088 0.000000
0.000000 0.611644 0.000000
0.007398 0.614199 0.000000
0.073780 0.616750 0.000000
0.139991 0.619294 0.000000
0.206029 0.621829 0.000000
0.271891 0.624351 0.000000
0.337576 0.626859 0.000000
0.403081 0.629350 0.000000
0.468405 0.631822 0.000000
0.533546 0.634273 0.000000
0.598502 0.636701 0.000000
0.663272 0.639105 0.000000
0.727853 0.641483 0.000000
0.792244 0.643832 0.000000
0.856443 0.646153 0.000000
0.000000 0.691060 0.000000
0.000000 0.694323 0.000000
0.000000 0.697584 0.000000
0.000000 0.700840 0.000000
0.063523 0.704090 0.000000
0.129450 0.707330 0.000000
0.195199 0.710558 0.000000
0.260768 0.713772 0.000000
0.326156 0.716970 0.000000
0.391361 0.720149 0.000000
0.456380 0.723309 0.000000
0.521212 0.726446 0.000000
0.585856 0.729560 0.000000
0.650309 0.732649 0.000000
0.714571 0.735711 0.000000
0.778640 0.738745 0.000000
0.842515 0.741749 0.000000
0.000000 0.780411 0.000000
0.000000 0.784392 0.000000
0.000000 0.788368 0.000000
0.000000 0.792338 0.000000
0.053347 0.796298 0.000000
0.118983 0.800246 0.000000
0.184438 0.804180 0.000000
0.249708 0.808099 0.000000
0.314793 0.812000 0.000000
0.379691 0.815881 0.000000
0.444400 0.819742 0.000000
0.508919 0.823580 0.000000
0.573245 0.827393 0.000000
0.637379 0.831180 0.000000
0.701765 0.831688 0.000000
0.766678 0.827936 0.000000
0.831592 0.824185 0.000000
0.000000 0.874691 0.000000
0.000000 0.879400 0.000000
0.000000 0.884103 0.000000
0.000000 0.888796 0.000000
0.043257 0.893477 0.000000
0.108596 0.898145 0.000000
0.173749 0.902798 0.000000
0.238715 0.907433 0.000000
0.303492 0.912050 0.000000
0.368078 0.916646 0.000000
0.432472 0.921220 0.000000
0.497270 0.918988 0.000000
0.562183 0.915236 0.000000
0.627097 0.911485 0.000000
0.692011 0.907734 0.000000
0.756924 0.903982 0.000000
0.821838 0.900231 0.000000
0.000000 0.973998 0.000000
0.000000 0.979446 0.000000
0.000000 0.984884 0.000000
0.000000 0.990311 0.000000
0.033256 0.995724 0.000000
0.098292 1.000000 0.000000
0.163139 1.000000 0.000000
0.227862 1.000000 0.000000
0.292775 1.000000 0.000000
0.357689 1.000000 0.000000
0.422602 0.998785 0.000000
0.487516 0.995034 0.000000
0.552429 0.991282 0.000000
0.617343 0.987531 0.000000
0.682256 0.983780 0.000000
0.747170 0.980028 0.000000
0.812083 0.976277 0.000000
0.000000 1.000000 0.000000
0.000000 1.000000 0.000000
0.000000 1.000000 0.000000
0.000000 1.000000 0.000000
0.023367 1.000000 0.000000
0.088281 1.000000 0.000000
0.153194 1.000000 0.000000
0.218108 1.000000 0.000000
0.283021 1.000000 0.000000
0.347935 1.000000 0.000000
0.412848 1.000000 0.000000
0.477762 1.000000 0.000000
0.542675 1.000000 0.000000
0.607589 1.000000 0.000000
0.672502 1.000000 0.000000
0.737416 1.000000 0.000000
0.802329 1.000000 0.000000
0.000000 0.000000 0.000000
0.000000 0.000000 0.000000
0.050850 0.000000 0.000000
0.118773 0.000000 0.000000
0.186696 0.000000 0.000000
0.254618 0.000000 0.000000
0.322541 0.000000 0.000000
0.390464 0.000000 0.000000
0.458387 0.000000 0.000000
0.526310 0.000000 0.000000
0.594232 0.000000 0.000000
0.662155 0.000000 0.000000
0.730078 0.000000 0.000000
0.798001 0.000000 0.000000
0.865923 0.000000 0.000000
0.933846 0.000000 0.000000
1.000000 0.000000 0.000000
0.000000 0.000000 0.000000
0.000000 0.000000 0.000000
0.040644 0.000000 0.000000
0.108567 0.000000 0.000000
0.176489 0.000000 0.000000
0.244412 0.000000 0.000000
0.312335 0.000000 0.000000
0.380258 0.000000 0.000000
0.448180 0.000000 0.000000
0.516103 0.000000 0.000000
0.584026 0.000000 0.000000
0.651949 0.000000 0.000000
0.719871 0.000000 0.000000
0.787794 0.000000 0.000000
0.855717 0.000000 0.000000
0.923640 0.000000 0.000000
0.991515 0.000000 0.000000
0.000000 0.033167 0.000000
0.000000 0.030484 0.000000
0.030438 0.027802 0.000000
0.098360 0.025120 0.000000
0.166283 0.022438 0.000000
0.234206 0.019755 0.000000
0.302129 0.017073 0.000000
0.370051 0.014391 0.000000
0.437974 0.011709 0.000000
0.505897 0.009026 0.000000
0.573820 0.006344 0.000000
0.641742 0.003662 0.000000
0.709665 0.000980 0.000000
0.777392 0.000000 0.000000
0.844728 0.000000 0.000000
0.911878 0.000000 0.000000
0.978857 0.000000 0.000000
0.000000 0.087541 0.000000
0.000000 0.084858 0.000000
0.020231 0.082176 0.000000
0.088154 0.079494 0.000000
0.156077 0.076812 0.000000
0.224000 0.074129 0.000000
0.291922 0.071447 0.000000
0.359845 0.068765 0.000000
0.427768 0.066083 0.000000
0.495691 0.063400 0.000000
0.563335 0.060988 0.000000
0.630769 0.058670 0.000000
0.698046 0.056359 0.000000
0.765169 0.054038 0.000000
0.832135 0.051695 0.000000
0.898944 0.049325 0.000000
0.965592 0.046922 0.000000
0.000000 0.141914 0.000000
0.000000 0.139232 0.000000
0.010025 0.136550 0.000000
0.077948 0.133868 0.000000
0.145870 0.131186 0.000000
0.213793 0.128503 0.000000
0.281682 0.125959 0.000000
0.349374 0.123978 0.000000
0.416929 0.122099 0.000000
0.484346 0.120259 0.000000
0.551621 0.118434 0.000000
0.618749 0.116610 0.000000
0.685727 0.114777 0.000000
0.752551 0.112927 0.000000
0.819217 0.111055 0.000000
0.885722 0.109157 0.000000
0.952064 0.107229 0.000000
0.000000 0.196288 0.000000
0.000000 0.193606 0.000000
0.000000 0.190924 0.000000
0.067718 0.188824 0.000000
0.135523 0.187292 0.000000
0.203215 0.185882 0.000000
0.270783 0.184537 0.000000
0.338218 0.183227 0.000000
0.405515 0.181937 0.000000
0.472668 0.180654 0.000000
0.539672 0.179369 0.000000
0.606524 0.178076 0.000000
0.673220 0.176769 0.000000
0.739756 0.175442 0.000000
0.806129 0.174093 0.000000
0.872336 0.172718 0.000000
0.938375 0.171314 0.000000
0.000000 0.252005 0.000000
0.000000 0.250951 0.000000
0.000000 0.250036 0.000000
0.057361 0.249204 0.000000
0.124964 0.248427 0.000000
0.192435 0.247684 0.000000
0.259769 0.246964 0.000000
0.326958 0.246256 0.000000
0.394001 0.245551 0.000000
0.460890 0.244844 0.000000
0.527625 0.244128 0.000000
0.594199 0.243400 0.000000
0.660612 0.242655 0.000000
0.726859 0.241889 0.000000
0.792938 0.241100 0.000000
0.858847 0.240284 0.000000
0.924582 0.239439 0.000000
0.000000 0.314271 0.000000
0.000000 0.314041 0.000000
0.000000 0.313860 0.000000
0.047033 0.313714 0.000000
0.114412 0.313593 0.000000
0.181648 0.313487 0.000000
0.248736 0.313389 0.000000
0.315671 0.313292 0.000000
0.382451 0.313192 0.000000
0.449072 0.313084 0.000000
0.515530 0.312964 0.000000
0.581823 0.312828 0.000000
0.647948 0.312674 0.000000
0.713903 0.312498 0.000000
0.779684 0.312297 0.000000
0.845291 0.312069 0.000000
0.910720 0.311813 0.000000
0.000000 0.380911 0.000000
0.000000 0.381387 0.000000
0.000000 0.381888 0.000000
0.036758 0.382407 0.000000
0.103898 0.382938 0.000000
0.170886 0.383474 0.000000
0.237717 0.384010 0.000000
0.304389 0.384543 0.000000
0.370898 0.385067 0.000000
0.437242 0.385580 0.000000
0.503418 0.386078 0.000000
0.569424 0.386559 0.000000
0.635256 0.387019 0.000000
0.700914 0.387456 0.000000
0.766394 0.387869 0.000000
0.831695 0.388254 0.000000
0.896814 0.388610 0.000000
0.000000 0.451905 0.000000
0.000000 0.453071 0.000000
0.000000 0.454250 0.000000
0.026550 0.455437 0.000000
0.093438 0.456628 0.000000
0.160166 0.457819 0.000000
0.226731 0.459005 0.000000
0.293131 0.460184 0.000000
0.359362 0.461351 0.000000
0.425423 0.462504 0.000000
0.491310 0.463640 0.000000
0.557022 0.464758 0.000000
0.622557 0.465853 0.000000
0.687913 0.466925 0.000000
0.753087 0.467972 0.000000
0.818077 0.468991 0.000000
0.882883 0.469980 0.000000
0.000000 0.527369 0.000000
0.000000 0.529225 0.000000
0.000000 0.531088 0.000000
0.016416 0.532953 0.000000
0.083041 0.534817 0.000000
0.149500 0.536676 0.000000
0.215791 0.538527 0.000000
0.281910 0.540368 0.000000
0.347857 0.542195 0.000000
0.413627 0.544006 0.000000
0.479220 0.545798 0.000000
0.544634 0.547570 0.000000
0.609866 0.549320 0.000000
0.674914 0.551045 0.000000
0.739777 0.552744 0.000000
0.804454 0.554415 0.000000
0.868942 0.556056 0.000000
0.000000 0.607427 0.000000
0.000000 0.609982 0.000000
0.000000 0.612538 0.000000
0.006362 0.615092 0.000000
0.072716 0.617641 0.000000
0.138897 0.620183 0.000000
0.204906 0.622713 0.000000
0.270738 0.625231 0.000000
0.336393 0.627733 0.000000
0.401867 0.630217 0.000000
0.467160 0.632682 0.000000
0.532269 0.635125 0.000000
0.597193 0.637545 0.000000
0.661930 0.639940 0.000000
0.726478 0.642308 0.000000
0.790836 0.644648 0.000000
0.855002 0.646957 0.000000
0.000000 0.692202 0.000000
0.000000 0.695464 0.000000
0.000000 0.698724 0.000000
0.000000 0.701978 0.000000
0.062467 0.705225 0.000000
0.128364 0.708461 0.000000
0.194083 0.711685 0.000000
0.259622 0.714893 0.000000
0.324978 0.718085 0.000000
0.390151 0.721257 0.000000
0.455139 0.724409 0.000000
0.519939 0.727539 0.000000
0.584550 0.730644 0.000000
0.648971 0.733724 0.000000
0.713199 0.736776 0.000000
0.777235 0.739799 0.000000
0.841075 0.742793 0.000000
0.000000 0.781804 0.000000
0.000000 0.785784 0.000000
0.000000 0.789758 0.000000
0.000000 0.793725 0.000000
0.052300 0.797681 0.000000
0.117906 0.801624 0.000000
0.183329 0.805553 0.000000
0.248568 0.809466 0.000000
0.313621 0.813360 0.000000
0.378487 0.817235 0.000000
0.443164 0.821087 0.000000
0.507650 0.824917 0.000000
0.571944 0.828721 0.000000
0.636044 0.832499 0.000000
0.700756 0.830375 0.000000
0.765669 0.826624 0.000000
0.830583 0.822872 0.000000
0.000000 0.876339 0.000000
0.000000 0.881047 0.000000
0.000000 0.885746 0.000000
0.000000 0.890435 0.000000
0.042219 0.895112 0.000000
0.107527 0.899775 0.000000
0.172648 0.904422 0.000000
0.237582 0.909051 0.000000
0.302327 0.913660 0.000000
0.366881 0.918249 0.000000
0.431348 0.921426 0.000000
0.496261 0.917675 0.000000
0.561175 0.913924 0.000000
0.626088 0.910172 0.000000
0.691002 0.906421 0.000000
0.755915 0.902670 0.000000
0.820829 0.898918 0.000000
0.000000 0.975905 0.000000
0.000000 0.981350 0.000000
0.000000 0.986784 0.000000
0.000000 0.992207 0.000000
0.032227 0.997615 0.000000
0.097231 1.000000 0.000000
0.162046 1.000000 0.000000
0.226853 1.000000 0.000000
0.291767 1.000000 0.000000
0.356680 1.000000 0.000000
0.421594 0.997472 0.000000
0.486507 0.993721 0.000000
0.551421 0.989970 0.000000
0.616334 0.986218 0.000000
0.681248 0.982467 0.000000
0.746161 0.978716 0.000000
0.811075 0.974964 0.000000
0.000000 1.000000 0.000000
0.000000 1.000000 0.000000
0.000000 1.000000 0.000000
0.000000 1.000000 0.000000
0.022358 1.000000 0.000000
0.087272 1.000000 0.000000
0.152185 1.000000 0.000000
0.217099 1.000000 0.000000
0.282012 1.000000 0.000000
0.346926 1.000000 0.000000
0.411839 1.000000 0.000000
0.476753 1.000000 0.000000
0.541667 1.000000 0.000000
0.606580 1.000000 0.000000
0.671494 1.000000 0.000000
0.736407 1.000000 0.000000
0.801321 1.000000 0.000000
0.000000 0.000000 0.068127
0.000000 0.000000 0.064710
0.049795 0.000000 0.061292
0.117718 0.000000 0.057875
0.185640 0.000000 0.054458
0.253563 0.000000 0.051041
0.321486 0.000000 0.047623
0.389409 0.000000 0.044206
0.457331 0.000000 0.040789
0.525254 0.000000 0.037372
0.593177 0.000000 0.033954
0.661100 0.000000 0.030537
0.729022 0.000000 0.027120
0.796945 0.000000 0.023703
0.864868 0.000000 0.020286
0.932791 0.000000 0.016868
1.000000 0.000000 0.013451
0.000000 0.000000 0.056564
0.000000 0.000000 0.053147
0.039588 0.000000 0.049730
0.107511 0.000000 0.046312
0.175434 0.000000 0.042895
0.243357 0.000000 0.039478
0.311279 0.000000 0.036061
0.379202 0.000000 0.032643
0.447125 0.000000 0.029226
0.515048 0.000000 0.025809
0.582971 0.000000 0.022392
0.650893 0.000000 0.018974
0.718816 0.000000 0.015557
0.786739 0.000000 0.012140
0.854662 0.000000 0.008723
0.922584 0.000000 0.005305
0.990277 0.000000 0.001889
0.000000 0.032228 0.045001
0.000000 0.029546 0.041584
0.029382 0.026864 0.038167
0.097305 0.024181 0.034749
0.165228 0.021499 0.031332
0.233150 0.018817 0.027915
0.301073 0.016135 0.024498
0.368996 0.013452 0.021081
0.436919 0.010770 0.017663
0.504841 0.008088 0.014246
0.572764 0.005406 0.010829
0.640687 0.002723 0.007412
0.708610 0.000041 0.003994
0.776167 0.000000 0.000578
0.843452 0.000000 0.000000
0.910561 0.000000 0.000000
0.977503 0.000000 0.000000
0.000000 0.086602 0.033438
0.000000 0.083920 0.030021
0.019176 0.081238 0.026604
0.087099 0.078555 0.023187
0.155021 0.075873 0.019769
0.222944 0.073191 0.016352
0.290867 0.070509 0.012935
0.358790 0.067826 0.009518
0.426712 0.065144 0.006100
0.494584 0.062520 0.002684
0.562145 0.060174 0.000000
0.629542 0.057862 0.000000
0.696786 0.055549 0.000000
0.763876 0.053221 0.000000
0.830811 0.050869 0.000000
0.897587 0.048488 0.000000
0.964203 0.046073 0.000000
0.000000 0.140976 0.021875
0.000000 0.138294 0.018458
0.008970 0.135611 0.015041
0.076892 0.132929 0.011624
0.144815 0.130247 0.008207
0.212738 0.127565 0.004789
0.280570 0.125245 0.001373
0.348230 0.123313 0.000000
0.415757 0.121452 0.000000
0.483146 0.119620 0.000000
0.550392 0.117797 0.000000
0.617492 0.115970 0.000000
0.684440 0.114131 0.000000
0.751234 0.112275 0.000000
0.817870 0.110394 0.000000
0.884344 0.108486 0.000000
0.950654 0.106547 0.000000
0.000000 0.195350 0.010313
0.000000 0.192668 0.006895
0.000000 0.189990 0.003478
0.066648 0.188267 0.000061
0.134433 0.186789 0.000000
0.202102 0.185406 0.000000
0.269646 0.184076 0.000000
0.337056 0.182774 0.000000
0.404327 0.181488 0.000000
0.471453 0.180205 0.000000
0.538430 0.178918 0.000000
0.605253 0.177620 0.000000
0.671920 0.176307 0.000000
0.738426 0.174973 0.000000
0.804769 0.173615 0.000000
0.870945 0.172230 0.000000
0.936953 0.170815 0.000000
0.000000 0.251615 0.000000
0.000000 0.250619 0.000000
0.000000 0.249737 0.000000
0.056291 0.248927 0.000000
0.123872 0.248164 0.000000
0.191319 0.247431 0.000000
0.258628 0.246715 0.000000
0.325792 0.246009 0.000000
0.392807 0.245304 0.000000
0.459669 0.244595 0.000000
0.526375 0.243875 0.000000
0.592921 0.243141 0.000000
0.659304 0.242389 0.000000
0.725522 0.241616 0.000000
0.791570 0.240817 0.000000
0.857448 0.239992 0.000000
0.923152 0.239136 0.000000
0.000000 0.314184 0.000000
0.000000 0.313973 0.000000
0.000000 0.313806 0.000000
0.045967 0.313670 0.000000
0.113323 0.313555 0.000000
0.180534 0.313452 0.000000
0.247595 0.313355 0.000000
0.314504 0.313258 0.000000
0.381256 0.313156 0.000000
0.447848 0.313044 0.000000
0.514278 0.312919 0.000000
0.580541 0.312777 0.000000
0.646636 0.312615 0.000000
0.712561 0.312430 0.000000
0.778311 0.312221 0.000000
0.843887 0.311983 0.000000
0.909284 0.311716 0.000000
0.000000 0.381074 0.000000
0.000000 0.381560 0.000000
0.000000 0.382068 0.000000
0.035699 0.382592 0.000000
0.102814 0.383125 0.000000
0.169775 0.383662 0.000000
0.236579 0.384197 0.000000
0.303223 0.384727 0.000000
0.369704 0.385248 0.000000
0.436019 0.385756 0.000000
0.502166 0.386249 0.000000
0.568141 0.386722 0.000000
0.633943 0.387175 0.000000
0.699570 0.387604 0.000000
0.765018 0.388007 0.000000
0.830287 0.388382 0.000000
0.895374 0.388727 0.000000
0.000000 0.452311 0.000000
0.000000 0.453482 0.000000
0.000000 0.454664 0.000000
0.025498 0.455854 0.000000
0.092360 0.457045 0.000000
0.159060 0.458235 0.000000
0.225597 0.459419 0.000000
0.291968 0.460593 0.000000
0.358171 0.461756 0.000000
0.424202 0.462904 0.000000
0.490059 0.464034 0.000000
0.555740 0.465144 0.000000
0.621244 0.466231 0.000000
0.686568 0.467295 0.000000
0.751710 0.468331 0.000000
0.816669 0.469340 0.000000
0.881441 0.470319 0.000000
0.000000 0.528017 0.000000
0.000000 0.529876 0.000000
0.000000 0.531741 0.000000
0.015372 0.533606 0.000000
0.081970 0.535468 0.000000
0.148401 0.537325 0.000000
0.214663 0.539173 0.000000
0.280753 0.541009 0.000000
0.346669 0.542830 0.000000
0.412409 0.544635 0.000000
0.477972 0.546421 0.000000
0.543354 0.548185 0.000000
0.608554 0.549926 0.000000
0.673570 0.551643 0.000000
0.738401 0.553332 0.000000
0.803045 0.554992 0.000000
0.867500 0.556623 0.000000
0.000000 0.608321 0.000000
0.000000 0.610877 0.000000
0.000000 0.613432 0.000000
0.005327 0.615985 0.000000
0.071652 0.618532 0.000000
0.137805 0.621069 0.000000
0.203783 0.623596 0.000000
0.269586 0.626108 0.000000
0.335210 0.628604 0.000000
0.400653 0.631082 0.000000
0.465915 0.633539 0.000000
0.530992 0.635975 0.000000
0.595884 0.638386 0.000000
0.660589 0.640772 0.000000
0.725104 0.643130 0.000000
0.789429 0.645459 0.000000
0.853561 0.647758 0.000000
0.000000 0.693343 0.000000
0.000000 0.696605 0.000000
0.000000 0.699863 0.000000
0.000000 0.703115 0.000000
0.061412 0.706359 0.000000
0.127279 0.709591 0.000000
0.192968 0.712809 0.000000
0.258476 0.716012 0.000000
0.323801 0.719197 0.000000
0.388943 0.722363 0.000000
0.453898 0.725507 0.000000
0.518666 0.728628 0.000000
0.583244 0.731725 0.000000
0.647632 0.734795 0.000000
0.711828 0.737837 0.000000
0.775830 0.740850 0.000000
0.839636 0.743833 0.000000
0.000000 0.783197 0.000000
0.000000 0.787175 0.000000
0.000000 0.791147 0.000000
0.000000 0.795110 0.000000
0.051253 0.799062 0.000000
0.116828 0.803001 0.000000
0.182221 0.806924 0.000000
0.247429 0.810831 0.000000
0.312450 0.814718 0.000000
0.377284 0.818585 0.000000
0.441928 0.822430 0.000000
0.506382 0.826251 0.000000
0.570643 0.830046 0.000000
0.634834 0.832814 0.000000
0.699747 0.829062 0.000000
0.764661 0.825311 0.000000
0.829574 0.821560 0.000000
0.000000 0.877987 0.000000
0.000000 0.882692 0.000000
0.000000 0.887388 0.000000
0.000000 0.892073 0.000000
0.041181 0.896745 0.000000
0.106458 0.901403 0.000000
0.171548 0.906043 0.000000
0.236450 0.910666 0.000000
0.301163 0.915268 0.000000
0.365684 0.919849 0.000000
0.430339 0.920114 0.000000
0.495253 0.916362 0.000000
0.560166 0.912611 0.000000
0.625080 0.908860 0.000000
0.689993 0.905108 0.000000
0.754907 0.901357 0.000000
0.819820 0.897606 0.000000
0.000000 0.977811 0.000000
0.000000 0.983253 0.000000
0.000000 0.988683 0.000000
0.000000 0.994101 0.000000
0.031199 0.999504 0.000000
0.096172 1.000000 0.000000
0.160954 1.000000 0.000000
0.225844 1.000000 0.000000
0.290758 1.000000 0.000000
0.355671 0.999911 0.000000
0.420585 0.996160 0.000000
0.485498 0.992408 0.000000
0.550412 0.988657 0.000000
0.615325 0.984906 0.000000
0.680239 0.981154 0.000000
0.745153 0.977403 0.000000
0.810066 0.973652 0.000000
0.000000 1.000000 0.000000
0.000000 1.000000 0.000000
0.000000 1.000000 0.000000
0.000000 1.000000 0.000000
0.021350 1.000000 0.000000
0.086263 1.000000 0.000000
0.151177 1.000000 0.000000
0.216090 1.000000 0.000000
0.281004 1.000000 0.000000
0.345917 1.000000 0.000000
0.410831 1.000000 0.000000
0.475744 1.000000 0.000000
0.540658 1.000000 0.000000
0.605571 1.000000 0.000000
0.670485 1.000000 0.000000
0.735398 1.000000 0.000000
0.800312 1.000000 0.000000
0.000000 0.000000 0.149738
0.000000 0.000000 0.146321
0.048739 0.000000 0.142904
0.116662 0.000000 0.139487
0.184585 0.000000 0.136070
0.252508 0.000000 0.132652
0.320430 0.000000 0.129235
0.388353 0.000000 0.125818
0.456276 0.000000 0.122401
0.524199 0.000000 0.118983
0.592121 0.000000 0.115566
0.660044 0.000000 0.112149
0.727967 0.000000 0.108732
0.795890 0.000000 0.105314
