assets/lighting/cinematic/grade-sci-fi-neon-night/lut.cube
TITLE "Sci-Fi Neon Night"
# TKRS lighting-batch-001 original LUT
# Intended usage: cyberpunk neon magenta-cyan night
# License: CC0-1.0
LUT_3D_SIZE 9
DOMAIN_MIN 0.0 0.0 0.0
DOMAIN_MAX 1.0 1.0 1.0
0.000000 0.000000 0.000000
0.051906 0.000000 0.000000
0.187751 0.000000 0.000000
0.323597 0.000000 0.000000
0.459442 0.000000 0.000000
0.595288 0.000000 0.000000
0.731133 0.000000 0.000000
0.866979 0.000000 0.000000
1.000000 0.000000 0.000000
0.000000 0.034105 0.000000
0.031493 0.028741 0.000000
0.167339 0.023376 0.000000
0.303184 0.018012 0.000000
0.439030 0.012647 0.000000
0.574875 0.007283 0.000000
0.710721 0.001918 0.000000
0.845995 0.000000 0.000000
0.980206 0.000000 0.000000
0.000000 0.142853 0.000000
0.011080 0.137489 0.000000
0.146926 0.132124 0.000000
0.282771 0.126760 0.000000
0.418098 0.122750 0.000000
0.552847 0.119072 0.000000
0.687012 0.115420 0.000000
0.820563 0.111713 0.000000
0.953471 0.107907 0.000000
0.000000 0.252427 0.000000
0.000000 0.250345 0.000000
0.126057 0.248694 0.000000
0.260909 0.247214 0.000000
0.395194 0.245798 0.000000
0.528873 0.244380 0.000000
0.661919 0.242918 0.000000
0.794306 0.241379 0.000000
0.926012 0.239738 0.000000
0.000000 0.380752 0.000000
0.000000 0.381710 0.000000
0.104983 0.382751 0.000000
0.238855 0.383823 0.000000
0.372092 0.384885 0.000000
0.504671 0.385906 0.000000
0.636570 0.386860 0.000000
0.767769 0.387727 0.000000
0.898254 0.388489 0.000000
0.000000 0.526721 0.000000
0.000000 0.530436 0.000000
0.084113 0.534165 0.000000
0.216920 0.537881 0.000000
0.349045 0.541557 0.000000
0.480469 0.545173 0.000000
0.611177 0.548710 0.000000
0.741153 0.552152 0.000000
0.870383 0.555485 0.000000
0.000000 0.691060 0.000000
0.000000 0.697584 0.000000
0.063523 0.704090 0.000000
0.195199 0.710558 0.000000
0.326156 0.716970 0.000000
0.456380 0.723309 0.000000
0.585856 0.729560 0.000000
0.714571 0.735711 0.000000
0.842515 0.741749 0.000000
0.000000 0.874691 0.000000
0.000000 0.884103 0.000000
0.043257 0.893477 0.000000
0.173749 0.902798 0.000000
0.303492 0.912050 0.000000
0.432472 0.921220 0.000000
0.562183 0.915236 0.000000
0.692011 0.907734 0.000000
0.821838 0.900231 0.000000
0.000000 1.000000 0.000000
0.000000 1.000000 0.000000
0.023367 1.000000 0.000000
0.153194 1.000000 0.000000
0.283021 1.000000 0.000000
0.412848 1.000000 0.000000
0.542675 1.000000 0.000000
0.672502 1.000000 0.000000
0.802329 1.000000 0.000000
0.000000 0.000000 0.068127
0.049795 0.000000 0.061292
0.185640 0.000000 0.054458
0.321486 0.000000 0.047623
0.457331 0.000000 0.040789
0.593177 0.000000 0.033954
0.729022 0.000000 0.027120
0.864868 0.000000 0.020286
1.000000 0.000000 0.013451
0.000000 0.032228 0.045001
0.029382 0.026864 0.038167
0.165228 0.021499 0.031332
0.301073 0.016135 0.024498
0.436919 0.010770 0.017663
0.572764 0.005406 0.010829
0.708610 0.000041 0.003994
0.843452 0.000000 0.000000
0.977503 0.000000 0.000000
0.000000 0.140976 0.021875
0.008970 0.135611 0.015041
0.144815 0.130247 0.008207
0.280570 0.125245 0.001373
0.415757 0.121452 0.000000
0.550392 0.117797 0.000000
0.684440 0.114131 0.000000
0.817870 0.110394 0.000000
0.950654 0.106547 0.000000
0.000000 0.251615 0.000000
0.000000 0.249737 0.000000
0.123872 0.248164 0.000000
0.258628 0.246715 0.000000
0.392807 0.245304 0.000000
0.526375 0.243875 0.000000
0.659304 0.242389 0.000000
0.791570 0.240817 0.000000
0.923152 0.239136 0.000000
0.000000 0.381074 0.000000
0.000000 0.382068 0.000000
0.102814 0.383125 0.000000
0.236579 0.384197 0.000000
0.369704 0.385248 0.000000
0.502166 0.386249 0.000000
0.633943 0.387175 0.000000
0.765018 0.388007 0.000000
0.895374 0.388727 0.000000
0.000000 0.528017 0.000000
0.000000 0.531741 0.000000
0.081970 0.535468 0.000000
0.214663 0.539173 0.000000
0.346669 0.542830 0.000000
0.477972 0.546421 0.000000
0.608554 0.549926 0.000000
0.738401 0.553332 0.000000
0.867500 0.556623 0.000000
0.000000 0.693343 0.000000
0.000000 0.699863 0.000000
0.061412 0.706359 0.000000
0.192968 0.712809 0.000000
0.323801 0.719197 0.000000
0.453898 0.725507 0.000000
0.583244 0.731725 0.000000
0.711828 0.737837 0.000000
0.839636 0.743833 0.000000
0.000000 0.877987 0.000000
0.000000 0.887388 0.000000
0.041181 0.896745 0.000000
0.171548 0.906043 0.000000
0.301163 0.915268 0.000000
0.430339 0.920114 0.000000
0.560166 0.912611 0.000000
0.689993 0.905108 0.000000
0.819820 0.897606 0.000000
0.000000 1.000000 0.000000
0.000000 1.000000 0.000000
0.021350 1.000000 0.000000
0.151177 1.000000 0.000000
0.281004 1.000000 0.000000
0.410831 1.000000 0.000000
0.540658 1.000000 0.000000
0.670485 1.000000 0.000000
0.800312 1.000000 0.000000
0.000000 0.000000 0.231350
0.047684 0.000000 0.224516
0.183529 0.000000 0.217681
0.319375 0.000000 0.210847
0.455220 0.000000 0.204012
0.591066 0.000000 0.197178
0.726911 0.000000 0.190343
0.862757 0.000000 0.183509
0.998602 0.000000 0.176674
0.000000 0.030351 0.208224
0.027271 0.024986 0.201390
0.163117 0.019622 0.194555
0.298962 0.014257 0.187721
0.434808 0.008893 0.180887
0.570653 0.003529 0.174052
0.706300 0.000000 0.167342
0.840876 0.000000 0.161124
0.974781 0.000000 0.154966
0.000000 0.139099 0.185099
0.006859 0.133734 0.178264
0.142704 0.128370 0.171430
0.278329 0.123883 0.164941
0.413406 0.120168 0.158758
0.547929 0.116519 0.152605
0.681862 0.112834 0.146441
0.815171 0.109062 0.140247
0.947831 0.105169 0.134010
0.000000 0.250903 0.162561
0.000000 0.249164 0.156397
0.121688 0.247648 0.150243
0.256346 0.246221 0.144069
0.390419 0.244809 0.137860
0.523876 0.243363 0.131603
0.656688 0.241850 0.125290
0.788832 0.240242 0.118916
0.920288 0.238518 0.112473
0.000000 0.381411 0.141692
0.000000 0.382434 0.135465
0.100647 0.383501 0.129188
0.234305 0.384569 0.122852
0.367317 0.385605 0.116452
0.499661 0.386582 0.109983
0.631317 0.387478 0.103439
0.762267 0.388272 0.096819
0.892494 0.388950 0.090117
0.000000 0.529318 0.120405
0.000000 0.533046 0.113978
0.079830 0.536769 0.107481
0.212408 0.540459 0.100909
0.344295 0.544095 0.094257
0.475475 0.547658 0.087523
0.605932 0.551130 0.080705
0.735650 0.554497 0.073798
0.864616 0.557745 0.066802
0.000000 0.695626 0.098366
0.000000 0.702140 0.091683
0.059304 0.708622 0.084917
0.190739 0.715052 0.078065
0.321449 0.721415 0.071125
0.451418 0.727694 0.064093
0.580635 0.733876 0.056969
0.709085 0.739949 0.049749
0.837311 0.742888 0.042369
0.000000 0.881281 0.075413
0.000000 0.890668 0.068438
0.039109 0.900006 0.061371
0.169351 0.909280 0.054210
0.298837 0.918476 0.046953
0.428322 0.917488 0.039439
0.558149 0.909986 0.031803
0.687976 0.902483 0.024167
0.817803 0.894980 0.016530
0.000000 1.000000 0.051437
0.000000 1.000000 0.044143
0.019332 1.000000 0.036509
0.149159 1.000000 0.028873
0.278986 1.000000 0.021237
0.408813 1.000000 0.013600
0.538640 1.000000 0.005964
0.668468 1.000000 0.000000
0.798295 1.000000 0.000000
0.000000 0.000000 0.394573
0.045573 0.000000 0.387739
0.181418 0.000000 0.380904
0.317264 0.000000 0.374070
0.453109 0.000000 0.367235
0.588955 0.000000 0.360401
0.724801 0.000000 0.353567
0.860646 0.000000 0.346732
0.996492 0.000000 0.339898
0.000000 0.028474 0.371448
0.025160 0.023109 0.364613
0.161006 0.017745 0.357779
0.296851 0.012380 0.350944
0.432697 0.007016 0.344110
0.568542 0.001651 0.337275
0.703863 0.000000 0.331093
0.838276 0.000000 0.325603
0.972041 0.000000 0.320242
0.000000 0.137222 0.348322
0.004748 0.131857 0.341488
0.140592 0.126501 0.334660
0.276074 0.122564 0.328963
0.411046 0.118891 0.323536
0.545460 0.115237 0.318202
0.679277 0.111526 0.312906
0.812466 0.107715 0.307619
0.945002 0.103774 0.302324
0.000000 0.250256 0.326864
0.000000 0.248617 0.321482
0.119505 0.247143 0.316167
0.254064 0.245728 0.310877
0.388031 0.244309 0.305589
0.521375 0.242843 0.300286
0.654069 0.241300 0.294956
0.786091 0.239653 0.289590
0.917422 0.237884 0.284179
0.000000 0.381761 0.308849
0.000000 0.382804 0.303557
0.098482 0.383876 0.298245
0.232032 0.384937 0.292902
0.364930 0.385955 0.287519
0.497156 0.386906 0.282090
0.628690 0.387768 0.276607
0.759514 0.388524 0.271065
0.889613 0.389157 0.265461
0.000000 0.530621 0.290842
0.000000 0.534351 0.285442
0.077693 0.538065 0.279992
0.210155 0.541739 0.274488
0.341923 0.545351 0.268922
0.472980 0.548884 0.263293
0.603310 0.552321 0.257594
0.732899 0.555648 0.251824
0.861733 0.558851 0.245978
0.000000 0.697908 0.272360
0.000000 0.704413 0.266770
0.057200 0.710879 0.261115
0.188513 0.717287 0.255389
0.319099 0.723622 0.249590
0.448941 0.729869 0.243714
0.578027 0.736014 0.237760
0.706344 0.742046 0.231723
0.835294 0.740263 0.224741
0.000000 0.884570 0.253173
0.000000 0.893942 0.247345
0.037041 0.903260 0.241439
0.167156 0.912508 0.235453
0.296513 0.921673 0.229384
0.426304 0.914863 0.221811
0.556131 0.907360 0.214175
0.685958 0.899858 0.206539
0.815785 0.892355 0.198903
0.000000 1.000000 0.233135
0.000000 1.000000 0.226518
0.017315 1.000000 0.218882
0.147142 1.000000 0.211245
0.276969 1.000000 0.203609
0.406796 1.000000 0.195973
0.536623 1.000000 0.188336
0.666450 1.000000 0.180700
0.796277 1.000000 0.173064
0.000000 0.000000 0.557797
0.043462 0.000000 0.550962
0.179308 0.000000 0.544128
0.315153 0.000000 0.537293
0.450999 0.000000 0.530459
0.586844 0.000000 0.523624
0.722690 0.000000 0.516790
0.858535 0.000000 0.509955
0.994381 0.000000 0.503121
0.000000 0.026597 0.534671
0.023049 0.021232 0.527836
0.158895 0.015868 0.521002
0.294740 0.010503 0.514168
0.430586 0.005139 0.507333
0.566431 0.000000 0.500499
0.701388 0.000000 0.495318
0.835657 0.000000 0.490623
0.969288 0.000000 0.486103
0.000000 0.135345 0.511545
0.002637 0.129980 0.504711
0.138429 0.125048 0.498384
0.273812 0.121269 0.493488
0.408681 0.117615 0.488873
0.542985 0.113948 0.484398
0.676686 0.110206 0.480001
0.809755 0.106352 0.475649
0.942167 0.102360 0.471318
0.000000 0.249654 0.491695
0.000000 0.248090 0.487144
0.117323 0.246645 0.482704
0.251782 0.245234 0.478327
0.385641 0.243803 0.473986
0.518872 0.242313 0.469659
0.651448 0.240736 0.465330
0.783349 0.239049 0.460989
0.914553 0.237232 0.456625
0.000000 0.382120 0.476659
0.000000 0.383178 0.472325
0.096320 0.384250 0.467999
0.229760 0.385299 0.463667
0.362545 0.386297 0.459318
0.494652 0.387219 0.454943
0.626064 0.388045 0.450534
0.756762 0.388760 0.446086
0.886731 0.389347 0.441591
0.000000 0.531926 0.462001
0.000000 0.535653 0.457643
0.075559 0.539356 0.453256
0.207905 0.543011 0.448833
0.339553 0.546597 0.444367
0.470486 0.550098 0.439853
0.600690 0.553498 0.435286
0.730149 0.556783 0.430662
0.858850 0.559941 0.425977
0.000000 0.700187 0.447124
0.000000 0.706681 0.442641
0.055099 0.713128 0.438107
0.186291 0.719513 0.433519
0.316751 0.725819 0.428872
0.446465 0.732031 0.424163
0.575420 0.738138 0.419387
0.703605 0.744128 0.414542
0.833276 0.737638 0.407114
0.000000 0.887855 0.431743
0.000000 0.897209 0.427073
0.034977 0.906504 0.422338
0.164965 0.915725 0.417537
0.294460 0.919740 0.411820
0.424287 0.912238 0.404184
0.554114 0.904735 0.396548
0.683941 0.897233 0.388911
0.813768 0.889730 0.381275
0.000000 1.000000 0.415676
0.000000 1.000000 0.408890
0.015297 1.000000 0.401254
0.145125 1.000000 0.393618
0.274952 1.000000 0.385981
0.404779 1.000000 0.378345
0.534606 1.000000 0.370709
0.664433 1.000000 0.363073
0.794260 1.000000 0.355436
0.000000 0.000000 0.721020
0.041351 0.000000 0.714185
0.177197 0.000000 0.707351
0.313042 0.000000 0.700516
0.448888 0.000000 0.693682
0.584733 0.000000 0.686848
0.720579 0.000000 0.680013
0.856424 0.000000 0.673179
0.992270 0.000000 0.666344
0.000000 0.024720 0.697894
0.020938 0.019355 0.691060
0.156784 0.013991 0.684225
0.292630 0.008626 0.677391
0.428475 0.003262 0.670556
0.564127 0.000000 0.664324
0.698888 0.000000 0.660062
0.833021 0.000000 0.656210
0.966521 0.000000 0.652570
0.000000 0.133468 0.674769
0.000526 0.128103 0.667934
0.136253 0.123693 0.662613
0.271543 0.119986 0.658551
0.406310 0.116337 0.654794
0.540504 0.112649 0.651211
0.674091 0.108871 0.647743
0.807040 0.104972 0.644349
0.939328 0.100926 0.641004
0.000000 0.249085 0.657083
0.000000 0.247576 0.653403
0.115142 0.246151 0.649870
0.249500 0.244738 0.646433
0.383252 0.243290 0.643061
0.516369 0.241773 0.639730
0.648827 0.240160 0.636421
0.780604 0.238429 0.633122
0.911682 0.236563 0.629820
0.000000 0.382486 0.645133
0.000000 0.383554 0.641779
0.094161 0.384622 0.638459
0.227491 0.385655 0.635155
0.360161 0.386629 0.631856
0.492149 0.387520 0.628551
0.623437 0.388309 0.625230
0.754009 0.388980 0.621887
0.883849 0.389520 0.618514
0.000000 0.533232 0.633889
0.000000 0.536953 0.630589
0.073429 0.540641 0.627279
0.205658 0.544274 0.623951
0.337185 0.547833 0.620597
0.467994 0.551300 0.617210
0.598070 0.554662 0.613786
0.727399 0.557903 0.610319
0.855968 0.561014 0.606805
0.000000 0.702463 0.622667
0.000000 0.708943 0.619301
0.053002 0.715370 0.615901
0.184072 0.721729 0.612462
0.314406 0.728004 0.608977
0.443992 0.734181 0.605443
0.572816 0.740248 0.601856
0.701432 0.742515 0.597122
0.831259 0.735012 0.589486
0.000000 0.891134 0.611130
0.000000 0.900469 0.607627
0.032916 0.909740 0.604073
0.162778 0.918932 0.600465
0.292442 0.917115 0.594192
0.422269 0.909613 0.586556
0.552097 0.902110 0.578920
0.681924 0.894607 0.571284
0.811751 0.887105 0.563647
0.000000 1.000000 0.598899
0.000000 1.000000 0.591263
0.013280 1.000000 0.583626
0.143107 1.000000 0.575990
0.272934 1.000000 0.568354
0.402761 1.000000 0.560717
0.532588 1.000000 0.553081
0.662415 1.000000 0.545445
0.792242 1.000000 0.537809
0.000000 0.000000 0.884243
0.039240 0.000000 0.877409
0.175086 0.000000 0.870574
0.310931 0.000000 0.863740
0.446777 0.000000 0.856905
0.582622 0.000000 0.850071
0.718468 0.000000 0.843236
0.854313 0.000000 0.836402
0.989861 0.000000 0.830229
0.000000 0.022843 0.861117
0.018828 0.017478 0.854283
0.154673 0.012114 0.847449
0.290519 0.006749 0.840614
0.426364 0.001385 0.833780
0.561751 0.000000 0.828732
0.696369 0.000000 0.825356
0.830373 0.000000 0.822387
0.963744 0.000000 0.819660
0.000000 0.131590 0.837992
0.000000 0.126280 0.831262
0.134073 0.122379 0.827370
0.269271 0.118710 0.824181
0.403935 0.115054 0.821317
0.538020 0.111339 0.818659
0.671491 0.107522 0.816144
0.804320 0.103574 0.813732
0.936484 0.099473 0.811393
0.000000 0.248541 0.823052
0.000000 0.247072 0.820277
0.112963 0.245658 0.817680
0.247219 0.244237 0.815208
0.380862 0.242769 0.812827
0.513865 0.241220 0.810510
0.646204 0.239568 0.808239
0.777858 0.237792 0.805997
0.908810 0.235875 0.803772
0.000000 0.382857 0.814285
0.000000 0.383930 0.811932
0.092004 0.384989 0.809634
0.225224 0.386004 0.807376
0.357778 0.386951 0.805142
0.489646 0.387808 0.802921
0.620811 0.388558 0.800701
0.751256 0.389185 0.798475
0.880966 0.389675 0.796235
0.000000 0.534536 0.806517
0.000000 0.538249 0.804289
0.071301 0.541920 0.802069
0.203413 0.545529 0.799848
0.334820 0.549057 0.797618
0.465504 0.552489 0.795371
0.595452 0.555810 0.793100
0.724651 0.559007 0.790800
0.853086 0.562069 0.788467
0.000000 0.704736 0.798994
0.000000 0.711199 0.796758
0.050908 0.717604 0.794503
0.181855 0.723935 0.792222
0.312064 0.730177 0.789909
0.441521 0.736317 0.787561
0.570213 0.742343 0.785172
0.699414 0.739890 0.779495
0.829241 0.732387 0.771858
0.000000 0.894407 0.791338
0.000000 0.903721 0.789013
0.030860 0.912966 0.786649
0.160598 0.921993 0.784201
0.290425 0.914490 0.776565
0.420252 0.906987 0.768929
0.550079 0.899485 0.761292
0.679906 0.891982 0.753656
0.809733 0.884479 0.746020
0.000000 1.000000 0.781271
0.000000 1.000000 0.773635
0.011263 1.000000 0.765999
0.141090 1.000000 0.758362
0.270917 1.000000 0.750726
0.400744 1.000000 0.743090
0.530571 1.000000 0.735454
0.660398 1.000000 0.727817
0.790225 1.000000 0.720181
0.000000 0.000000 1.000000
0.037129 0.000000 1.000000
0.172975 0.000000 1.000000
0.308820 0.000000 1.000000
0.444666 0.000000 1.000000
0.580511 0.000000 1.000000
0.716357 0.000000 1.000000
0.852202 0.000000 0.999625
0.987290 0.000000 0.994808
0.000000 0.020965 1.000000
0.016717 0.015601 1.000000
0.152562 0.010236 1.000000
0.288408 0.004872 1.000000
0.424245 0.000000 0.997053
0.559347 0.000000 0.993689
0.693835 0.000000 0.991227
0.827712 0.000000 0.989175
0.960956 0.000000 0.987388
0.000000 0.129713 1.000000
0.000000 0.124851 0.995564
0.131890 0.121086 0.992681
0.266995 0.117434 0.990401
0.401557 0.113764 0.988463
0.535531 0.110017 0.986756
0.668887 0.106157 0.985219
0.801596 0.102157 0.983808
0.933635 0.097998 0.982493
0.000000 0.248016 0.989625
0.000000 0.246574 0.987785
0.110786 0.245164 0.986149
0.244939 0.243731 0.984664
0.378472 0.242237 0.983293
0.511360 0.240655 0.982009
0.643580 0.238962 0.980791
0.775111 0.237138 0.979622
0.905936 0.235168 0.978488
0.000000 0.383232 0.984126
0.000000 0.384303 0.982792
0.089850 0.385350 0.981535
0.222958 0.386344 0.980338
0.355396 0.387262 0.979184
0.487144 0.388084 0.978059
0.618185 0.388792 0.976954
0.748503 0.389372 0.975857
0.878083 0.389812 0.974762
0.000000 0.535838 0.979891
0.000000 0.539539 0.978749
0.069177 0.543191 0.977633
0.201171 0.546774 0.976532
0.332456 0.550270 0.975437
0.463015 0.553664 0.974340
0.592836 0.556944 0.973233
0.721903 0.560095 0.972111
0.850205 0.563107 0.970967
0.000000 0.707003 0.976112
0.000000 0.713448 0.975017
0.048819 0.719829 0.973917
0.179642 0.726130 0.972805
0.309725 0.732338 0.971675
0.439052 0.738439 0.970521
0.567613 0.744422 0.969338
0.697397 0.737264 0.961867
0.827224 0.729762 0.954231
0.000000 0.897673 0.972374
0.000000 0.906965 0.971235
0.028808 0.916181 0.970071
0.158581 0.919367 0.966573
0.288408 0.911865 0.958937
0.418235 0.904362 0.951301
0.548062 0.896859 0.943665
0.677889 0.889357 0.936028
0.807716 0.881854 0.928392
0.000000 1.000000 0.963644
0.000000 1.000000 0.956007
0.009245 1.000000 0.948371
0.139072 1.000000 0.940735
0.268899 1.000000 0.933098
0.398726 1.000000 0.925462
0.528554 1.000000 0.917826
0.658381 1.000000 0.910190
0.788208 1.000000 0.902553
0.000000 0.000000 1.000000
0.035018 0.000000 1.000000
0.170864 0.000000 1.000000
0.306709 0.000000 1.000000
0.442555 0.000000 1.000000
0.578400 0.000000 1.000000
0.714246 0.000000 1.000000
0.850091 0.000000 1.000000
0.984665 0.000000 1.000000
0.000000 0.019088 1.000000
0.014606 0.013724 1.000000
0.150451 0.008359 1.000000
0.286297 0.002995 1.000000
0.421971 0.000000 1.000000
0.556924 0.000000 1.000000
0.691288 0.000000 1.000000
0.825042 0.000000 1.000000
0.958160 0.000000 1.000000
0.000000 0.127836 1.000000
0.000000 0.123505 1.000000
0.129706 0.119805 1.000000
0.264717 0.116155 1.000000
0.399175 0.112464 1.000000
0.533040 0.108680 1.000000
0.666280 0.104774 1.000000
0.798868 0.100721 1.000000
0.930783 0.096503 1.000000
0.000000 0.247504 1.000000
0.000000 0.246081 1.000000
0.108611 0.244667 1.000000
0.242659 0.243216 1.000000
0.376082 0.241695 1.000000
0.508855 0.240076 1.000000
0.640955 0.238339 1.000000
0.772362 0.236466 1.000000
0.903060 0.234442 1.000000
0.000000 0.383607 1.000000
0.000000 0.384674 1.000000
0.087699 0.385705 1.000000
0.220695 0.386675 1.000000
0.353016 0.387561 1.000000
0.484643 0.388345 1.000000
0.615560 0.389010 1.000000
0.745750 0.389543 1.000000
0.875199 0.389930 1.000000
0.000000 0.537138 1.000000
0.000000 0.540824 1.000000
0.067057 0.544453 1.000000
0.198932 0.548008 1.000000
0.330095 0.551470 1.000000
0.460529 0.554826 1.000000
0.590220 0.558061 1.000000
0.719156 0.561165 1.000000
0.847324 0.564126 1.000000
0.000000 0.709264 1.000000
0.000000 0.715689 1.000000
0.046733 0.722043 1.000000
0.177432 0.728313 1.000000
0.307388 0.734485 1.000000
0.436586 0.740547 1.000000
0.565553 0.742142 1.000000
0.695380 0.734639 1.000000
0.825207 0.727136 1.000000
0.000000 0.900932 1.000000
0.000000 0.910199 1.000000
0.026759 0.919387 1.000000
0.156563 0.916742 1.000000
0.286390 0.909239 1.000000
0.416217 0.901737 1.000000
0.546044 0.894234 1.000000
0.675871 0.886731 1.000000
0.805698 0.879229 1.000000
0.000000 1.000000 1.000000
0.000000 1.000000 1.000000
0.007228 1.000000 1.000000
0.137055 1.000000 1.000000
0.266882 1.000000 1.000000
0.396709 1.000000 1.000000
0.526536 1.000000 1.000000
0.656363 1.000000 1.000000
0.786190 1.000000 1.000000
