assets/lighting/cinematic/grade-sci-fi-neon-night/lut.cube
TITLE "Sci-Fi Neon Night"
# TKRS lighting-batch-001 original LUT
# Intended usage: cyberpunk neon magenta-cyan night
# License: CC0-1.0
LUT_3D_SIZE 5
DOMAIN_MIN 0.0 0.0 0.0
DOMAIN_MAX 1.0 1.0 1.0
0.000000 0.000000 0.000000
0.187751 0.000000 0.000000
0.459442 0.000000 0.000000
0.731133 0.000000 0.000000
1.000000 0.000000 0.000000
0.000000 0.142853 0.000000
0.146926 0.132124 0.000000
0.418098 0.122750 0.000000
0.687012 0.115420 0.000000
0.953471 0.107907 0.000000
0.000000 0.380752 0.000000
0.104983 0.382751 0.000000
0.372092 0.384885 0.000000
0.636570 0.386860 0.000000
0.898254 0.388489 0.000000
0.000000 0.691060 0.000000
0.063523 0.704090 0.000000
0.326156 0.716970 0.000000
0.585856 0.729560 0.000000
0.842515 0.741749 0.000000
0.000000 1.000000 0.000000
0.023367 1.000000 0.000000
0.283021 1.000000 0.000000
0.542675 1.000000 0.000000
0.802329 1.000000 0.000000
0.000000 0.000000 0.231350
0.183529 0.000000 0.217681
0.455220 0.000000 0.204012
0.726911 0.000000 0.190343
0.998602 0.000000 0.176674
0.000000 0.139099 0.185099
0.142704 0.128370 0.171430
0.413406 0.120168 0.158758
0.681862 0.112834 0.146441
0.947831 0.105169 0.134010
0.000000 0.381411 0.141692
0.100647 0.383501 0.129188
0.367317 0.385605 0.116452
0.631317 0.387478 0.103439
0.892494 0.388950 0.090117
0.000000 0.695626 0.098366
0.059304 0.708622 0.084917
0.321449 0.721415 0.071125
0.580635 0.733876 0.056969
0.837311 0.742888 0.042369
0.000000 1.000000 0.051437
0.019332 1.000000 0.036509
0.278986 1.000000 0.021237
0.538640 1.000000 0.005964
0.798295 1.000000 0.000000
0.000000 0.000000 0.557797
0.179308 0.000000 0.544128
0.450999 0.000000 0.530459
0.722690 0.000000 0.516790
0.994381 0.000000 0.503121
0.000000 0.135345 0.511545
0.138429 0.125048 0.498384
0.408681 0.117615 0.488873
0.676686 0.110206 0.480001
0.942167 0.102360 0.471318
0.000000 0.382120 0.476659
0.096320 0.384250 0.467999
0.362545 0.386297 0.459318
0.626064 0.388045 0.450534
0.886731 0.389347 0.441591
0.000000 0.700187 0.447124
0.055099 0.713128 0.438107
0.316751 0.725819 0.428872
0.575420 0.738138 0.419387
0.833276 0.737638 0.407114
0.000000 1.000000 0.415676
0.015297 1.000000 0.401254
0.274952 1.000000 0.385981
0.534606 1.000000 0.370709
0.794260 1.000000 0.355436
0.000000 0.000000 0.884243
0.175086 0.000000 0.870574
0.446777 0.000000 0.856905
0.718468 0.000000 0.843236
0.989861 0.000000 0.830229
0.000000 0.131590 0.837992
0.134073 0.122379 0.827370
0.403935 0.115054 0.821317
0.671491 0.107522 0.816144
0.936484 0.099473 0.811393
0.000000 0.382857 0.814285
0.092004 0.384989 0.809634
0.357778 0.386951 0.805142
0.620811 0.388558 0.800701
0.880966 0.389675 0.796235
0.000000 0.704736 0.798994
0.050908 0.717604 0.794503
0.312064 0.730177 0.789909
0.570213 0.742343 0.785172
0.829241 0.732387 0.771858
0.000000 1.000000 0.781271
0.011263 1.000000 0.765999
0.270917 1.000000 0.750726
0.530571 1.000000 0.735454
0.790225 1.000000 0.720181
0.000000 0.000000 1.000000
0.170864 0.000000 1.000000
0.442555 0.000000 1.000000
0.714246 0.000000 1.000000
0.984665 0.000000 1.000000
0.000000 0.127836 1.000000
0.129706 0.119805 1.000000
0.399175 0.112464 1.000000
0.666280 0.104774 1.000000
0.930783 0.096503 1.000000
0.000000 0.383607 1.000000
0.087699 0.385705 1.000000
0.353016 0.387561 1.000000
0.615560 0.389010 1.000000
0.875199 0.389930 1.000000
0.000000 0.709264 1.000000
0.046733 0.722043 1.000000
0.307388 0.734485 1.000000
0.565553 0.742142 1.000000
0.825207 0.727136 1.000000
0.000000 1.000000 1.000000
0.007228 1.000000 1.000000
0.266882 1.000000 1.000000
0.526536 1.000000 1.000000
0.786190 1.000000 1.000000
