assets/lighting/cinematic/grade-warm-skin-priority/lut.cube
TITLE "Warm Skin Priority"
# TKRS lighting-batch-001 original LUT
# Intended usage: portrait-safe warm mids, restrained sat
# License: CC0-1.0
LUT_3D_SIZE 17
DOMAIN_MIN 0.0 0.0 0.0
DOMAIN_MAX 1.0 1.0 1.0
0.000000 0.000000 0.000000
0.025400 0.000000 0.000000
0.073449 0.000000 0.000000
0.121499 0.000000 0.000000
0.169548 0.000000 0.000000
0.217598 0.000000 0.000000
0.265647 0.000000 0.000000
0.313697 0.000000 0.000000
0.361746 0.000000 0.000000
0.409796 0.000000 0.000000
0.457845 0.000000 0.000000
0.505895 0.000000 0.000000
0.553944 0.000000 0.000000
0.601994 0.000000 0.000000
0.650043 0.000000 0.000000
0.698093 0.000000 0.000000
0.746142 0.000000 0.000000
0.000000 0.024960 0.000000
0.027135 0.025487 0.000000
0.075185 0.026013 0.000000
0.123234 0.026540 0.000000
0.171284 0.027067 0.000000
0.219333 0.027594 0.000000
0.267383 0.028121 0.000000
0.315432 0.028647 0.000000
0.363482 0.029174 0.000000
0.411531 0.029701 0.000000
0.459581 0.030228 0.000000
0.507630 0.030754 0.000000
0.555680 0.031281 0.000000
0.603729 0.031808 0.000000
0.653940 0.032423 0.000000
0.705385 0.033076 0.000000
0.757668 0.033748 0.000000
0.000000 0.072360 0.000000
0.028871 0.072887 0.000000
0.076920 0.073413 0.000000
0.124970 0.073940 0.000000
0.173019 0.074467 0.000000
0.221069 0.074994 0.000000
0.269118 0.075521 0.000000
0.317168 0.076047 0.000000
0.365217 0.076574 0.000000
0.413267 0.077101 0.000000
0.461555 0.077661 0.000000
0.511643 0.078442 0.000000
0.562576 0.079280 0.000000
0.614255 0.080153 0.000000
0.666665 0.081053 0.000000
0.719806 0.081977 0.000000
0.773687 0.082921 0.000000
0.000000 0.119760 0.000000
0.030606 0.120287 0.000000
0.078656 0.120813 0.000000
0.126705 0.121340 0.000000
0.174755 0.121867 0.000000
0.222804 0.122394 0.000000
0.270854 0.122920 0.000000
0.319359 0.123592 0.000000
0.369037 0.124553 0.000000
0.419405 0.125586 0.000000
0.470447 0.126669 0.000000
0.522168 0.127789 0.000000
0.574582 0.128941 0.000000
0.627702 0.130121 0.000000
0.681543 0.131328 0.000000
0.736117 0.132558 0.000000
0.791437 0.133810 0.000000
0.000000 0.167160 0.000000
0.032342 0.167687 0.000000
0.080391 0.168213 0.000000
0.128441 0.168740 0.000000
0.176924 0.169608 0.000000
0.226096 0.170761 0.000000
0.275858 0.171999 0.000000
0.326232 0.173296 0.000000
0.377242 0.174642 0.000000
0.428909 0.176027 0.000000
0.481254 0.177448 0.000000
0.534293 0.178902 0.000000
0.588043 0.180385 0.000000
0.642517 0.181895 0.000000
0.697731 0.183431 0.000000
0.753696 0.184992 0.000000
0.810425 0.186577 0.000000
0.000000 0.214560 0.000000
0.034199 0.215716 0.000000
0.082802 0.217070 0.000000
0.131921 0.218520 0.000000
0.181601 0.220039 0.000000
0.231879 0.221614 0.000000
0.282783 0.223237 0.000000
0.334336 0.224903 0.000000
0.386560 0.226607 0.000000
0.439473 0.228346 0.000000
0.493092 0.230117 0.000000
0.547432 0.231919 0.000000
0.602507 0.233751 0.000000
0.658330 0.235610 0.000000
0.714913 0.237495 0.000000
0.772269 0.239406 0.000000
0.830407 0.241341 0.000000
0.000000 0.265153 0.000000
0.036546 0.266899 0.000000
0.086072 0.268708 0.000000
0.136195 0.270573 0.000000
0.186943 0.272486 0.000000
0.238339 0.274444 0.000000
0.290404 0.276442 0.000000
0.343156 0.278477 0.000000
0.396612 0.280548 0.000000
0.450787 0.282652 0.000000
0.505696 0.284788 0.000000
0.561352 0.286953 0.000000
0.617767 0.289148 0.000000
0.674951 0.291371 0.000000
0.732917 0.293621 0.000000
0.791675 0.295898 0.000000
0.851234 0.298199 0.000000
0.000000 0.318036 0.000000
0.039069 0.320200 0.000000
0.089625 0.322415 0.000000
0.140830 0.324674 0.000000
0.192705 0.326976 0.000000
0.245268 0.329318 0.000000
0.298535 0.331697 0.000000
0.352522 0.334111 0.000000
0.407242 0.336560 0.000000
0.462708 0.339041 0.000000
0.518932 0.341553 0.000000
0.575926 0.344096 0.000000
0.633701 0.346668 0.000000
0.692267 0.349268 0.000000
0.751633 0.351896 0.000000
0.811809 0.354551 0.000000
0.872805 0.357232 0.000000
0.000000 0.373044 0.000000
0.041736 0.375615 0.000000
0.093397 0.378230 0.000000
0.145747 0.380886 0.000000
0.198803 0.383581 0.000000
0.252579 0.386314 0.000000
0.307089 0.389083 0.000000
0.362346 0.391887 0.000000
0.418362 0.394724 0.000000
0.475147 0.397593 0.000000
0.532714 0.400494 0.000000
0.591071 0.403425 0.000000
0.650229 0.406386 0.000000
0.710196 0.409375 0.000000
0.770983 0.412392 0.000000
0.832596 0.415437 0.000000
0.895045 0.418509 0.000000
0.000000 0.430220 0.000000
0.044536 0.433199 0.000000
0.097361 0.436218 0.000000
0.150909 0.439277 0.000000
0.205191 0.442374 0.000000
0.260222 0.445507 0.000000
0.316012 0.448675 0.000000
0.372573 0.451878 0.000000
0.429916 0.455113 0.000000
0.488049 0.458381 0.000000
0.546984 0.461680 0.000000
0.606729 0.465010 0.000000
0.667292 0.468369 0.000000
0.728683 0.471758 0.000000
0.790910 0.475175 0.000463
0.853979 0.478621 0.001061
0.917899 0.482094 0.001663
0.000000 0.489623 0.000000
0.047465 0.493014 0.000000
0.101504 0.496445 0.000000
0.156293 0.499914 0.000000
0.211843 0.503420 0.000000
0.268165 0.506961 0.000000
0.325269 0.510537 0.000000
0.383166 0.514147 0.000000
0.441864 0.517791 0.000000
0.501373 0.521466 0.000000
0.561701 0.525173 0.000026
0.622857 0.528911 0.000620
0.684848 0.532679 0.001220
0.747683 0.536477 0.001823
0.811370 0.540304 0.002431
0.875914 0.544159 0.003044
0.941324 0.548043 0.003662
0.000000 0.551310 0.000000
0.050520 0.555121 0.000000
0.105816 0.558969 0.000000
0.161886 0.562856 0.000000
0.218739 0.566778 0.000000
0.276386 0.570736 0.000000
0.334835 0.574729 0.000000
0.394096 0.578755 0.000182
0.454176 0.582814 0.000778
0.515086 0.586906 0.001379
0.576832 0.591029 0.001984
0.639421 0.595184 0.002593
0.702862 0.599369 0.003207
0.767162 0.603585 0.003826
0.832328 0.607830 0.004449
0.898365 0.612104 0.005077
0.965282 0.616407 0.005710
0.000000 0.615336 0.000000
0.053702 0.619572 0.000000
0.110292 0.623846 0.000000
0.167677 0.628157 0.000000
0.225866 0.632504 0.000339
0.284867 0.636886 0.000936
0.344690 0.641303 0.001538
0.405342 0.645753 0.002144
0.466831 0.650236 0.002755
0.529165 0.654753 0.003370
0.592351 0.659301 0.003990
0.656396 0.663880 0.004615
0.721308 0.668491 0.005244
0.787092 0.673132 0.005878
0.853755 0.677803 0.006517
0.921304 0.682504 0.007161
0.989745 0.687234 0.007810
0.000000 0.681753 0.000000
0.057009 0.686421 0.000497
0.114927 0.691127 0.001095
0.173659 0.695869 0.001698
0.233213 0.700648 0.002305
0.293598 0.705461 0.002917
0.354820 0.710309 0.003533
0.416888 0.715191 0.004155
0.479810 0.720106 0.004781
0.543591 0.725054 0.005411
0.608239 0.730034 0.006047
0.673760 0.735046 0.006687
0.740161 0.740089 0.007332
0.807448 0.745163 0.007982
0.875628 0.750268 0.008637
0.944705 0.755402 0.009297
1.000000 0.760567 0.009962
0.001991 0.750607 0.001858
0.060443 0.755714 0.002466
0.119719 0.760859 0.003079
0.179826 0.766039 0.003697
0.240773 0.771256 0.004320
0.302566 0.776507 0.004947
0.365214 0.781794 0.005579
0.428722 0.787114 0.006216
0.493097 0.792468 0.006857
0.558347 0.797854 0.007504
0.624478 0.803273 0.008155
0.691495 0.808725 0.008811
0.759404 0.814208 0.009473
0.828213 0.819722 0.010139
0.893168 0.821506 0.010778
0.956809 0.822173 0.011408
1.000000 0.822840 0.012039
0.004182 0.821944 0.003861
0.064003 0.827496 0.004485
0.124665 0.833085 0.005113
0.186175 0.838711 0.005747
0.248540 0.844372 0.006385
0.311766 0.850068 0.007027
0.375861 0.855799 0.007675
0.440831 0.861564 0.008328
0.506682 0.867363 0.008986
0.573421 0.873195 0.009648
0.640899 0.878879 0.010314
0.704541 0.879546 0.010945
0.768183 0.880213 0.011575
0.831825 0.880880 0.012205
0.895466 0.881548 0.012836
0.959108 0.882215 0.013466
1.000000 0.882882 0.014096
0.006472 0.895805 0.005915
0.067690 0.901808 0.006554
0.129764 0.907848 0.007198
0.192701 0.913924 0.007847
0.256508 0.920036 0.008501
0.321190 0.926183 0.009160
0.386754 0.932365 0.009824
0.452273 0.936919 0.010481
0.515915 0.937586 0.011111
0.579557 0.938253 0.011742
0.643198 0.938921 0.012372
0.706840 0.939588 0.013002
0.770482 0.940255 0.013632
0.834124 0.940922 0.014263
0.897765 0.941590 0.014893
0.961407 0.942257 0.015523
1.000000 0.942924 0.016154
0.000000 0.000000 0.023130
0.025571 0.000000 0.023674
0.073620 0.000000 0.024218
0.121670 0.000000 0.024762
0.169719 0.000000 0.025306
0.217769 0.000000 0.025850
0.265818 0.000000 0.026394
0.313868 0.000000 0.026938
0.361917 0.000000 0.027482
0.409967 0.000000 0.028026
0.458016 0.000000 0.028570
0.506066 0.000000 0.029114
0.554115 0.000000 0.029658
0.602165 0.000000 0.030202
0.650214 0.000000 0.030746
0.698264 0.000000 0.031290
0.746314 0.000000 0.031834
0.000000 0.025130 0.024906
0.027306 0.025656 0.025450
0.075356 0.026183 0.025994
0.123405 0.026710 0.026538
0.171455 0.027237 0.027082
0.219504 0.027764 0.027626
0.267554 0.028290 0.028170
0.315604 0.028817 0.028714
0.363653 0.029344 0.029258
0.411703 0.029871 0.029802
0.459752 0.030397 0.030346
0.507802 0.030924 0.030890
0.555851 0.031451 0.031434
0.604325 0.031996 0.031989
0.655035 0.032631 0.032597
0.706686 0.033291 0.033220
0.759146 0.033967 0.033854
0.000000 0.072530 0.026681
0.029042 0.073056 0.027226
0.077092 0.073583 0.027770
0.125141 0.074110 0.028314
0.173191 0.074637 0.028858
0.221240 0.075163 0.029402
0.269290 0.075690 0.029946
0.317339 0.076217 0.030490
0.365389 0.076744 0.031034
0.413438 0.077271 0.031578
0.462247 0.077903 0.032148
0.512569 0.078707 0.032761
0.563670 0.079558 0.033387
0.615502 0.080440 0.034022
0.668060 0.081349 0.034666
0.721348 0.082279 0.035318
0.775374 0.083229 0.035976
0.000000 0.119930 0.028457
0.030778 0.120456 0.029001
0.078827 0.120983 0.029545
0.126877 0.121510 0.030089
0.174926 0.122037 0.030633
0.222976 0.122563 0.031177
0.271025 0.123090 0.031721
0.319933 0.123890 0.032308
0.369771 0.124880 0.032925
0.420279 0.125931 0.033554
0.471454 0.127026 0.034192
0.523309 0.128157 0.034838
0.575857 0.129318 0.035491
0.629112 0.130507 0.036151
0.683090 0.131721 0.036818
0.737802 0.132959 0.037491
0.793261 0.134218 0.038170
0.000000 0.167330 0.030233
0.032513 0.167856 0.030777
0.080563 0.168383 0.031321
0.128625 0.168923 0.031867
0.177335 0.169967 0.032470
0.226624 0.171152 0.033090
0.276500 0.172411 0.033722
0.326991 0.173725 0.034362
0.378122 0.175084 0.035010
0.429912 0.176481 0.035665
0.482383 0.177913 0.036327
0.535550 0.179376 0.036995
0.589430 0.180868 0.037670
0.644038 0.182387 0.038351
0.699386 0.183932 0.039038
0.755489 0.185500 0.039731
0.812356 0.187092 0.040430
0.000000 0.214887 0.032023
0.034420 0.216139 0.032632
0.083108 0.217529 0.033256
0.132322 0.219003 0.033890
0.182105 0.220541 0.034532
0.232492 0.222132 0.035182
0.283508 0.223770 0.035839
0.335179 0.225448 0.036503
0.387523 0.227163 0.037173
0.440559 0.228913 0.037849
0.494305 0.230695 0.038532
0.548773 0.232506 0.039221
0.603980 0.234347 0.039915
0.659937 0.236214 0.040616
0.716656 0.238108 0.041323
0.774150 0.240027 0.042035
0.832428 0.241970 0.042754
0.000000 0.265708 0.034059
0.036788 0.267475 0.034703
0.086412 0.269304 0.035355
0.136639 0.271185 0.036014
0.187495 0.273113 0.036679
0.239004 0.275083 0.037351
0.291185 0.277094 0.038029
0.344058 0.279141 0.038713
0.397637 0.281222 0.039404
0.451939 0.283337 0.040100
0.506976 0.285482 0.040802
0.562763 0.287658 0.041511
0.619311 0.289862 0.042225
0.676631 0.292094 0.042945
0.734735 0.294352 0.043671
0.793632 0.296637 0.044402
0.853332 0.298946 0.045140
0.000000 0.318728 0.036189
0.039326 0.320909 0.036856
0.089988 0.323138 0.037529
0.141304 0.325411 0.038209
0.193293 0.327726 0.038895
0.245974 0.330080 0.039587
0.299362 0.332471 0.040285
0.353472 0.334896 0.040989
0.408319 0.337356 0.041699
0.463913 0.339847 0.042414
0.520269 0.342369 0.043136
0.577397 0.344921 0.043863
0.635307 0.347503 0.044597
0.694010 0.350112 0.045336
0.753516 0.352749 0.046081
0.813833 0.355412 0.046831
0.874971 0.358101 0.047588
0.000000 0.373867 0.038390
0.042007 0.376453 0.039077
0.093780 0.379081 0.039771
0.146246 0.381750 0.040470
0.199421 0.384458 0.041176
0.253319 0.387203 0.041887
0.307954 0.389983 0.042605
0.363338 0.392798 0.043328
0.419484 0.395645 0.044057
0.476401 0.398525 0.044791
0.534101 0.401435 0.045532
0.592595 0.404376 0.046278
0.651890 0.407346 0.047031
0.711997 0.410344 0.047789
0.772925 0.413371 0.048553
0.834681 0.416424 0.049322
0.897274 0.419505 0.050098
0.000000 0.431175 0.040656
0.044820 0.434167 0.041363
0.097763 0.437200 0.042076
0.151431 0.440271 0.042795
0.205837 0.443380 0.043520
0.260993 0.446524 0.044250
0.316912 0.449703 0.044987
0.373603 0.452917 0.045729
0.431078 0.456163 0.046477
0.489346 0.459440 0.047230
0.548418 0.462749 0.047990
0.608300 0.466089 0.048755
0.669004 0.469458 0.049527
0.730537 0.472856 0.050304
0.792906 0.476283 0.051087
0.856120 0.479737 0.051875
0.920187 0.483219 0.052670
0.000000 0.490711 0.042986
0.047761 0.494116 0.043712
0.101922 0.497559 0.044444
0.156836 0.501040 0.045182
0.212513 0.504557 0.045926
0.268964 0.508110 0.046675
0.326200 0.511697 0.047431
0.384230 0.515318 0.048192
0.443063 0.518971 0.048959
0.502709 0.522657 0.049731
0.563176 0.526374 0.050510
0.624473 0.530122 0.051294
0.686607 0.533899 0.052085
0.749585 0.537707 0.052881
0.813417 0.541543 0.053683
0.878108 0.545408 0.054491
0.943665 0.549300 0.055305
0.000000 0.552534 0.045378
0.050829 0.556357 0.046123
0.106251 0.560218 0.046874
0.162449 0.564116 0.047631
0.219432 0.568050 0.048394
0.277211 0.572019 0.049162
0.335795 0.576022 0.049937
0.395192 0.580059 0.050717
0.455411 0.584129 0.051503
0.516460 0.588231 0.052295
0.578347 0.592365 0.053092
0.641079 0.596529 0.053896
0.704664 0.600724 0.054705
0.769110 0.604949 0.055521
0.834422 0.609204 0.056342
0.900608 0.613487 0.057169
0.967675 0.617799 0.058002
0.000000 0.616697 0.047832
0.054023 0.620945 0.048596
0.110742 0.625231 0.049366
0.168259 0.629554 0.050142
0.226581 0.633912 0.050924
0.285718 0.638305 0.051711
0.345678 0.642733 0.052505
0.406469 0.647194 0.053304
0.468098 0.651688 0.054109
0.530574 0.656215 0.054920
0.593903 0.660773 0.055737
0.658093 0.665362 0.056560
0.723151 0.669983 0.057388
0.789082 0.674634 0.058223
0.855895 0.679314 0.059064
0.923594 0.684025 0.059910
0.992186 0.688764 0.060763
0.000100 0.683253 0.050348
0.057343 0.687933 0.051131
0.115393 0.692651 0.051920
0.174259 0.697405 0.052715
0.233950 0.702195 0.053516
0.294472 0.707020 0.054323
0.355835 0.711878 0.055135
0.418044 0.716771 0.055954
0.481108 0.721697 0.056778
0.545033 0.726655 0.057608
0.609826 0.731645 0.058445
0.675494 0.736667 0.059287
0.742044 0.741721 0.060135
0.809480 0.746805 0.060989
0.877810 0.751919 0.061849
0.947040 0.757063 0.062715
1.000000 0.762237 0.063587
0.002203 0.752248 0.052926
0.060789 0.757368 0.053729
0.120200 0.762524 0.054537
0.180445 0.767716 0.055351
0.241531 0.772944 0.056171
0.303464 0.778207 0.056997
0.366254 0.783504 0.057829
0.429905 0.788835 0.058667
0.494425 0.794200 0.059510
0.559821 0.799597 0.060360
0.626099 0.805026 0.061216
0.693265 0.810488 0.062077
0.761324 0.815981 0.062945
0.829753 0.821053 0.063796
0.893395 0.821721 0.064426
0.957036 0.822388 0.065056
1.000000 0.823055 0.065686
0.004403 0.823729 0.055567
0.064361 0.829293 0.056389
0.125162 0.834894 0.057216
0.186811 0.840531 0.058050
0.249317 0.846203 0.058889
0.312686 0.851911 0.059734
0.376926 0.857653 0.060585
0.442041 0.863429 0.061443
0.508039 0.869239 0.062306
0.574926 0.875081 0.063175
0.641126 0.879094 0.063962
0.704768 0.879761 0.064592
0.768410 0.880428 0.065223
0.832052 0.881095 0.065853
0.895693 0.881763 0.066483
0.959335 0.882430 0.067114
1.000000 0.883097 0.067744
0.006704 0.897735 0.058271
0.068061 0.903750 0.059112
0.130276 0.909802 0.059959
0.193355 0.915890 0.060811
0.257305 0.922013 0.061670
0.322132 0.928172 0.062535
0.387843 0.934365 0.063406
0.452500 0.937134 0.064129
0.516142 0.937801 0.064759
0.579783 0.938468 0.065389
0.643425 0.939136 0.066020
0.707067 0.939803 0.066650
0.770709 0.940470 0.067280
0.834350 0.941137 0.067910
0.897992 0.941805 0.068541
0.961634 0.942472 0.069171
1.000000 0.943139 0.069801
0.000000 0.000000 0.069435
0.025742 0.000000 0.069979
0.073792 0.000000 0.070523
0.121841 0.000000 0.071067
0.169891 0.000000 0.071611
0.217940 0.000000 0.072155
0.265990 0.000000 0.072699
0.314039 0.000000 0.073243
0.362089 0.000000 0.073787
0.410138 0.000000 0.074331
0.458188 0.000000 0.074875
0.506237 0.000000 0.075419
0.554287 0.000000 0.075963
0.602336 0.000000 0.076507
0.650386 0.000000 0.077051
0.698435 0.000000 0.077595
0.747155 0.000000 0.078173
0.000000 0.025299 0.071210
0.027478 0.025826 0.071754
0.075527 0.026353 0.072299
0.123577 0.026880 0.072843
0.171626 0.027407 0.073387
0.219676 0.027933 0.073931
0.267725 0.028460 0.074475
0.315775 0.028987 0.075019
0.363824 0.029514 0.075563
0.411874 0.030040 0.076107
0.459923 0.030567 0.076651
0.507973 0.031094 0.077195
0.556022 0.031621 0.077739
0.605200 0.032197 0.078354
0.656179 0.032841 0.079067
0.708021 0.033507 0.079806
0.760651 0.034188 0.080564
0.000000 0.072699 0.072986
0.029213 0.073226 0.073530
0.077263 0.073753 0.074074
0.125312 0.074280 0.074618
0.173362 0.074806 0.075162
0.221411 0.075333 0.075706
0.269461 0.075860 0.076250
0.317510 0.076387 0.076794
0.365560 0.076914 0.077338
0.413609 0.077440 0.077883
0.463012 0.078155 0.078539
0.513527 0.078977 0.079260
0.564788 0.079839 0.080004
0.616770 0.080730 0.080767
0.669473 0.081646 0.081543
0.722905 0.082583 0.082333
0.777076 0.083539 0.083134
0.000000 0.120099 0.074762
0.030949 0.120626 0.075306
0.078998 0.121153 0.075850
0.127048 0.121680 0.076394
0.175097 0.122206 0.076938
0.223147 0.122733 0.077482
0.271264 0.123285 0.078036
0.320544 0.124200 0.078726
0.370527 0.125213 0.079455
0.421169 0.126279 0.080204
0.472476 0.127386 0.080970
0.524463 0.128528 0.081751
0.577144 0.129699 0.082544
0.630535 0.130896 0.083348
0.684648 0.132118 0.084163
0.739498 0.133362 0.084987
0.795097 0.134628 0.085822
0.000000 0.167499 0.076538
0.032685 0.168026 0.077082
0.080734 0.168553 0.077626
0.128925 0.169232 0.078212
0.177763 0.170339 0.078916
0.227163 0.171551 0.079651
0.277153 0.172829 0.080405
0.327761 0.174158 0.081175
0.379011 0.175530 0.081959
0.430925 0.176939 0.082755
0.483521 0.178381 0.083562
0.536816 0.179854 0.084380
0.590827 0.181355 0.085207
0.645568 0.182882 0.086044
0.701051 0.184434 0.086890
0.757290 0.186011 0.087744
0.814297 0.187610 0.088608
0.000000 0.215268 0.078394
0.034644 0.216576 0.079108
0.083419 0.217996 0.079848
0.132729 0.219492 0.080607
0.182615 0.221048 0.081381
0.233110 0.222655 0.082168
0.284240 0.224306 0.082967
0.336028 0.225997 0.083777
0.388493 0.227723 0.084597
0.441653 0.229484 0.085427
0.495525 0.231275 0.086266
0.550123 0.233096 0.087115
0.605461 0.234946 0.087972
0.661551 0.236822 0.088837
0.718407 0.238724 0.089711
0.776038 0.240650 0.090593
0.834456 0.242601 0.091483
0.000000 0.266270 0.080810
0.037031 0.268058 0.081588
0.086754 0.269904 0.082378
0.137085 0.271801 0.083180
0.188051 0.273743 0.083993
0.239673 0.275727 0.084816
0.291972 0.277749 0.085648
0.344965 0.279808 0.086490
0.398668 0.281900 0.087340
0.453096 0.284025 0.088200
0.508263 0.286180 0.089067
0.564181 0.288365 0.089943
0.620862 0.290578 0.090828
0.678318 0.292818 0.091720
0.736559 0.295085 0.092620
0.795595 0.297378 0.093527
0.855436 0.299696 0.094443
0.000000 0.319425 0.083394
0.039585 0.321622 0.084209
0.090353 0.323866 0.085035
0.141780 0.326153 0.085870
0.193884 0.328481 0.086714
0.246683 0.330847 0.087567
0.300193 0.333249 0.088428
0.354427 0.335685 0.089298
0.409400 0.338155 0.090176
0.465124 0.340656 0.091063
0.521612 0.343188 0.091957
0.578873 0.345750 0.092859
0.636919 0.348340 0.093769
0.695760 0.350958 0.094686
0.755405 0.353604 0.095611
0.815863 0.356276 0.096544
0.877144 0.358973 0.097484
0.000000 0.374696 0.086092
0.042279 0.377295 0.086938
0.094165 0.379937 0.087793
0.146747 0.382618 0.088657
0.200042 0.385338 0.089529
0.254063 0.388095 0.090410
0.308823 0.390886 0.091298
0.364335 0.393712 0.092194
0.420610 0.396570 0.093099
0.477659 0.399459 0.094010
0.535494 0.402379 0.094930
0.594123 0.405330 0.095857
0.653557 0.408309 0.096791
0.713803 0.411316 0.097733
0.774872 0.414352 0.098683
0.836772 0.417414 0.099639
0.899510 0.420503 0.100603
0.000000 0.432135 0.088887
0.045104 0.435140 0.089761
0.098166 0.438185 0.090644
0.151955 0.441269 0.091534
0.206484 0.444389 0.092433
0.261767 0.447545 0.093339
0.317814 0.450735 0.094253
0.374637 0.453959 0.095174
0.432244 0.457215 0.096103
0.490647 0.460503 0.097040
0.549855 0.463822 0.097984
0.609877 0.467171 0.098935
0.670720 0.470550 0.099893
0.732395 0.473957 0.100859
0.794908 0.477393 0.101833
0.858267 0.480856 0.102813
0.922480 0.484347 0.103800
0.000000 0.491804 0.091771
0.048058 0.495221 0.092671
0.102342 0.498676 0.093579
0.157381 0.502169 0.094495
0.213186 0.505698 0.095419
0.269766 0.509262 0.096350
0.327134 0.512860 0.097288
0.385297 0.516491 0.098234
0.444266 0.520155 0.099187
0.504050 0.523851 0.100148
0.564656 0.527578 0.101116
0.626093 0.531336 0.102091
0.688369 0.535123 0.103073
0.751492 0.538940 0.104063
0.815469 0.542785 0.105059
0.880306 0.546659 0.106063
0.946012 0.550561 0.107074
0.000000 0.553761 0.094739
0.051139 0.557597 0.095664
0.106687 0.561470 0.096597
0.163014 0.565379 0.097538
0.220128 0.569325 0.098485
0.278040 0.573305 0.099441
0.336758 0.577319 0.100403
0.396291 0.581367 0.101373
0.456648 0.585447 0.102350
0.517837 0.589560 0.103334
0.579865 0.593703 0.104325
0.642741 0.597878 0.105324
0.706471 0.602083 0.106329
0.771062 0.606317 0.107342
0.836521 0.610581 0.108362
0.902856 0.614874 0.109389
0.970072 0.619195 0.110423
0.000000 0.618062 0.097787
0.054345 0.622322 0.098737
0.111195 0.626620 0.099694
0.168843 0.630954 0.100659
0.227299 0.635324 0.101630
0.286571 0.639728 0.102609
0.346668 0.644167 0.103595
0.407598 0.648639 0.104588
0.469368 0.653143 0.105589
0.531986 0.657680 0.106596
0.595459 0.662248 0.107611
0.659794 0.666848 0.108632
0.724998 0.671478 0.109661
0.791077 0.676139 0.110697
0.858038 0.680829 0.111740
0.925888 0.685548 0.112790
0.994632 0.690297 0.113846
0.000303 0.684757 0.100915
0.057677 0.689450 0.101888
0.115861 0.694179 0.102869
0.174862 0.698945 0.103857
0.234689 0.703746 0.104852
0.295350 0.708581 0.105854
0.356852 0.713451 0.106864
0.419202 0.718355 0.107880
0.482409 0.723291 0.108904
0.546478 0.728260 0.109934
0.611417 0.733260 0.110972
0.677232 0.738292 0.112016
0.743930 0.743356 0.113068
0.811516 0.748449 0.114127
0.879997 0.753573 0.115192
0.949378 0.758727 0.116265
1.000000 0.763228 0.117277
0.002415 0.753894 0.104119
0.061136 0.759025 0.105116
0.120683 0.764193 0.106120
0.181065 0.769397 0.107132
0.242290 0.774636 0.108150
0.304365 0.779910 0.109175
0.367296 0.785218 0.110208
0.431091 0.790560 0.111247
0.495756 0.795935 0.112294
0.561298 0.801343 0.113347
0.627724 0.806783 0.114408
0.695038 0.812254 0.115475
0.763248 0.817757 0.116550
0.829980 0.821268 0.117443
0.893621 0.821936 0.118073
0.957263 0.822603 0.118704
1.000000 0.823270 0.119334
0.004626 0.825518 0.107400
0.064721 0.831094 0.108420
0.125660 0.836706 0.109447
0.187449 0.842355 0.110482
0.250097 0.848039 0.111523
0.313609 0.853757 0.112571
0.377992 0.859510 0.113627
0.443253 0.865297 0.114689
0.509399 0.871118 0.115759
0.576434 0.876971 0.116835
0.641353 0.879309 0.117610
0.704995 0.879976 0.118240
0.768637 0.880643 0.118870
0.832279 0.881310 0.119501
0.895920 0.881978 0.120131
0.959562 0.882645 0.120761
1.000000 0.883312 0.121391
0.006937 0.899669 0.110756
0.068433 0.905696 0.111799
0.130789 0.911760 0.112850
0.194010 0.917859 0.113907
0.258104 0.923994 0.114971
0.323076 0.930163 0.116042
0.388933 0.936367 0.117120
0.452727 0.937349 0.117776
0.516369 0.938016 0.118407
0.580010 0.938683 0.119037
0.643652 0.939351 0.119667
0.707294 0.940018 0.120297
0.770936 0.940685 0.120928
0.834577 0.941352 0.121558
0.898219 0.942020 0.122188
0.961861 0.942687 0.122819
1.000000 0.943354 0.123449
0.000000 0.000000 0.115739
0.025913 0.000000 0.116283
0.073963 0.000000 0.116828
0.122012 0.000000 0.117372
0.170062 0.000000 0.117916
0.218112 0.000000 0.118460
0.266161 0.000000 0.119004
0.314211 0.000000 0.119548
0.362260 0.000000 0.120092
0.410310 0.000000 0.120636
0.458359 0.000000 0.121180
0.506409 0.000000 0.121724
0.554458 0.000000 0.122268
0.602508 0.000000 0.122812
