assets/lighting/cinematic/grade-warm-skin-priority/lut.cube
TITLE "Warm Skin Priority"
# TKRS lighting-batch-001 original LUT
# Intended usage: portrait-safe warm mids, restrained sat
# License: CC0-1.0
LUT_3D_SIZE 9
DOMAIN_MIN 0.0 0.0 0.0
DOMAIN_MAX 1.0 1.0 1.0
0.000000 0.000000 0.000000
0.073449 0.000000 0.000000
0.169548 0.000000 0.000000
0.265647 0.000000 0.000000
0.361746 0.000000 0.000000
0.457845 0.000000 0.000000
0.553944 0.000000 0.000000
0.650043 0.000000 0.000000
0.746142 0.000000 0.000000
0.000000 0.072360 0.000000
0.076920 0.073413 0.000000
0.173019 0.074467 0.000000
0.269118 0.075521 0.000000
0.365217 0.076574 0.000000
0.461555 0.077661 0.000000
0.562576 0.079280 0.000000
0.666665 0.081053 0.000000
0.773687 0.082921 0.000000
0.000000 0.167160 0.000000
0.080391 0.168213 0.000000
0.176924 0.169608 0.000000
0.275858 0.171999 0.000000
0.377242 0.174642 0.000000
0.481254 0.177448 0.000000
0.588043 0.180385 0.000000
0.697731 0.183431 0.000000
0.810425 0.186577 0.000000
0.000000 0.265153 0.000000
0.086072 0.268708 0.000000
0.186943 0.272486 0.000000
0.290404 0.276442 0.000000
0.396612 0.280548 0.000000
0.505696 0.284788 0.000000
0.617767 0.289148 0.000000
0.732917 0.293621 0.000000
0.851234 0.298199 0.000000
0.000000 0.373044 0.000000
0.093397 0.378230 0.000000
0.198803 0.383581 0.000000
0.307089 0.389083 0.000000
0.418362 0.394724 0.000000
0.532714 0.400494 0.000000
0.650229 0.406386 0.000000
0.770983 0.412392 0.000000
0.895045 0.418509 0.000000
0.000000 0.489623 0.000000
0.101504 0.496445 0.000000
0.211843 0.503420 0.000000
0.325269 0.510537 0.000000
0.441864 0.517791 0.000000
0.561701 0.525173 0.000026
0.684848 0.532679 0.001220
0.811370 0.540304 0.002431
0.941324 0.548043 0.003662
0.000000 0.615336 0.000000
0.110292 0.623846 0.000000
0.225866 0.632504 0.000339
0.344690 0.641303 0.001538
0.466831 0.650236 0.002755
0.592351 0.659301 0.003990
0.721308 0.668491 0.005244
0.853755 0.677803 0.006517
0.989745 0.687234 0.007810
0.001991 0.750607 0.001858
0.119719 0.760859 0.003079
0.240773 0.771256 0.004320
0.365214 0.781794 0.005579
0.493097 0.792468 0.006857
0.624478 0.803273 0.008155
0.759404 0.814208 0.009473
0.893168 0.821506 0.010778
1.000000 0.822840 0.012039
0.006472 0.895805 0.005915
0.129764 0.907848 0.007198
0.256508 0.920036 0.008501
0.386754 0.932365 0.009824
0.515915 0.937586 0.011111
0.643198 0.938921 0.012372
0.770482 0.940255 0.013632
0.897765 0.941590 0.014893
1.000000 0.942924 0.016154
0.000000 0.000000 0.069435
0.073792 0.000000 0.070523
0.169891 0.000000 0.071611
0.265990 0.000000 0.072699
0.362089 0.000000 0.073787
0.458188 0.000000 0.074875
0.554287 0.000000 0.075963
0.650386 0.000000 0.077051
0.747155 0.000000 0.078173
0.000000 0.072699 0.072986
0.077263 0.073753 0.074074
0.173362 0.074806 0.075162
0.269461 0.075860 0.076250
0.365560 0.076914 0.077338
0.463012 0.078155 0.078539
0.564788 0.079839 0.080004
0.669473 0.081646 0.081543
0.777076 0.083539 0.083134
0.000000 0.167499 0.076538
0.080734 0.168553 0.077626
0.177763 0.170339 0.078916
0.277153 0.172829 0.080405
0.379011 0.175530 0.081959
0.483521 0.178381 0.083562
0.590827 0.181355 0.085207
0.701051 0.184434 0.086890
0.814297 0.187610 0.088608
0.000000 0.266270 0.080810
0.086754 0.269904 0.082378
0.188051 0.273743 0.083993
0.291972 0.277749 0.085648
0.398668 0.281900 0.087340
0.508263 0.286180 0.089067
0.620862 0.290578 0.090828
0.736559 0.295085 0.092620
0.855436 0.299696 0.094443
0.000000 0.374696 0.086092
0.094165 0.379937 0.087793
0.200042 0.385338 0.089529
0.308823 0.390886 0.091298
0.420610 0.396570 0.093099
0.535494 0.402379 0.094930
0.653557 0.408309 0.096791
0.774872 0.414352 0.098683
0.899510 0.420503 0.100603
0.000000 0.491804 0.091771
0.102342 0.498676 0.093579
0.213186 0.505698 0.095419
0.327134 0.512860 0.097288
0.444266 0.520155 0.099187
0.564656 0.527578 0.101116
0.688369 0.535123 0.103073
0.815469 0.542785 0.105059
0.946012 0.550561 0.107074
0.000000 0.618062 0.097787
0.111195 0.626620 0.099694
0.227299 0.635324 0.101630
0.346668 0.644167 0.103595
0.469368 0.653143 0.105589
0.595459 0.662248 0.107611
0.724998 0.671478 0.109661
0.858038 0.680829 0.111740
0.994632 0.690297 0.113846
0.002415 0.753894 0.104119
0.120683 0.764193 0.106120
0.242290 0.774636 0.108150
0.367296 0.785218 0.110208
0.495756 0.795935 0.112294
0.627724 0.806783 0.114408
0.763248 0.817757 0.116550
0.893621 0.821936 0.118073
1.000000 0.823270 0.119334
0.006937 0.899669 0.110756
0.130789 0.911760 0.112850
0.258104 0.923994 0.114971
0.388933 0.936367 0.117120
0.516369 0.938016 0.118407
0.643652 0.939351 0.119667
0.770936 0.940685 0.120928
0.898219 0.942020 0.122188
1.000000 0.943354 0.123449
0.000000 0.000000 0.162044
0.074134 0.000000 0.163132
0.170233 0.000000 0.164220
0.266332 0.000000 0.165308
0.362431 0.000000 0.166396
0.458530 0.000000 0.167485
0.554629 0.000000 0.168573
0.650728 0.000000 0.169661
0.749383 0.000000 0.171034
0.000000 0.073039 0.165596
0.077606 0.074092 0.166684
0.173705 0.075146 0.167772
0.269804 0.076199 0.168860
0.365903 0.077253 0.169948
0.464678 0.078679 0.171520
0.567089 0.080411 0.173479
0.672351 0.082247 0.175561
0.780525 0.084165 0.177732
0.000000 0.167839 0.169148
0.081079 0.168896 0.170238
0.178654 0.171111 0.172022
0.278488 0.173681 0.174019
0.380818 0.176434 0.176127
0.485824 0.179327 0.178318
0.593648 0.182336 0.180579
0.704408 0.185448 0.182902
0.818206 0.188652 0.185282
0.000000 0.267415 0.174567
0.087446 0.271121 0.176698
0.189174 0.275017 0.178909
0.293559 0.279072 0.181188
0.400746 0.283266 0.183526
0.510852 0.287585 0.185919
0.623983 0.292019 0.188363
0.740227 0.296560 0.190856
0.859667 0.301202 0.193394
0.000000 0.376366 0.181800
0.094940 0.381660 0.184153
0.201292 0.387111 0.186560
0.310571 0.392703 0.189017
0.422874 0.398428 0.191522
0.538292 0.404277 0.194072
0.656905 0.410244 0.196666
0.778784 0.416322 0.199302
0.903998 0.422508 0.201980
0.000000 0.494001 0.189675
0.103187 0.500923 0.192192
0.214537 0.507991 0.194754
0.329010 0.515196 0.197359
0.446683 0.522534 0.200006
0.567627 0.529996 0.202694
0.691908 0.537579 0.205421
0.819587 0.545278 0.208188
0.950721 0.553089 0.210993
0.000000 0.620803 0.198054
0.112103 0.629409 0.200712
0.228741 0.638158 0.203411
0.348658 0.647045 0.206149
0.471918 0.656063 0.208926
0.598581 0.665209 0.211741
0.728704 0.674478 0.214593
0.862339 0.683867 0.217483
0.999537 0.693372 0.220409
0.002844 0.757196 0.206879
0.121653 0.767543 0.209666
0.243815 0.778031 0.212491
0.369388 0.788657 0.215353
0.498426 0.799416 0.218252
0.630983 0.810305 0.221188
0.766792 0.821031 0.224108
0.894075 0.822366 0.225369
1.000000 0.823700 0.226629
0.007405 0.903549 0.216116
0.131820 0.915686 0.219025
0.259708 0.927966 0.221970
0.389539 0.937112 0.224441
0.516822 0.938446 0.225702
0.644106 0.939781 0.226962
0.771389 0.941115 0.228223
0.898673 0.942450 0.229484
1.000000 0.943784 0.230744
0.000000 0.000000 0.254654
0.074477 0.000000 0.255742
0.170576 0.000000 0.256830
0.266675 0.000000 0.257918
0.362774 0.000000 0.259006
0.458873 0.000000 0.260094
0.554972 0.000000 0.261182
0.651071 0.000000 0.262270
0.751907 0.000000 0.264174
0.000000 0.073378 0.258206
0.077948 0.074432 0.259294
0.174047 0.075485 0.260382
0.270146 0.076539 0.261470
0.366361 0.077613 0.262598
0.466470 0.079223 0.264795
0.569467 0.080993 0.267288
0.675292 0.082857 0.269940
0.784031 0.084797 0.272712
0.000000 0.168178 0.261757
0.081597 0.169536 0.263126
0.179584 0.171914 0.265434
0.279858 0.174551 0.267975
0.382659 0.177352 0.270662
0.488162 0.180285 0.273461
0.596504 0.183328 0.276356
0.707800 0.186470 0.279333
0.822151 0.189703 0.282386
0.000000 0.268586 0.268673
0.088147 0.272357 0.271391
0.190312 0.276307 0.274218
0.295165 0.280409 0.277135
0.402844 0.284644 0.280133
0.513465 0.289001 0.283205
0.627128 0.293471 0.286344
0.743922 0.298045 0.289546
0.863925 0.302719 0.292809
0.000000 0.378054 0.277920
0.095723 0.383400 0.280938
0.202553 0.388898 0.284028
0.312332 0.394534 0.287184
0.425155 0.400300 0.290403
0.541109 0.406187 0.293681
0.660273 0.412190 0.297015
0.782718 0.418304 0.300404
0.908510 0.424523 0.303845
0.000000 0.496215 0.288029
0.104038 0.503185 0.291263
0.215899 0.510298 0.294557
0.330899 0.517547 0.297906
0.449114 0.524925 0.301308
0.570614 0.532427 0.304763
0.695464 0.540047 0.308268
0.823724 0.547783 0.311821
0.955451 0.555630 0.315423
0.000000 0.623560 0.298800
0.113018 0.632213 0.302216
0.230191 0.641007 0.305684
0.350657 0.649936 0.309202
0.474480 0.658996 0.312769
0.601717 0.668182 0.316382
0.732426 0.677490 0.320043
0.866657 0.686917 0.323749
1.000000 0.696459 0.327500
0.003276 0.760514 0.310140
0.122630 0.770907 0.313719
0.245348 0.781440 0.317345
0.371490 0.792109 0.321018
0.501108 0.802911 0.324736
0.634255 0.813841 0.328498
0.767246 0.821461 0.331404
0.894529 0.822796 0.332664
1.000000 0.824130 0.333925
0.007878 0.907444 0.321996
0.132856 0.919627 0.325726
0.261320 0.931952 0.329500
0.389993 0.937542 0.331737
0.517276 0.938876 0.332997
0.644560 0.940211 0.334258
0.771843 0.941545 0.335518
0.899127 0.942880 0.336779
1.000000 0.944214 0.338040
0.000000 0.000000 0.347264
0.074820 0.000000 0.348352
0.170919 0.000000 0.349440
0.267018 0.000000 0.350528
0.363117 0.000000 0.351616
0.459216 0.000000 0.352704
0.555315 0.000000 0.353792
0.651853 0.000000 0.354997
0.754620 0.000000 0.357622
0.000000 0.073718 0.350815
0.078291 0.074771 0.351903
0.174390 0.075825 0.352991
0.270489 0.076878 0.354079
0.367561 0.078102 0.355628
0.468355 0.079781 0.358388
0.571911 0.081584 0.361445
0.678290 0.083475 0.364691
0.787590 0.085437 0.368083
0.000000 0.168518 0.354367
0.082167 0.170261 0.356315
0.180547 0.172742 0.359174
0.281259 0.175438 0.362287
0.384532 0.178284 0.365575
0.490532 0.181254 0.369001
0.599393 0.184330 0.372543
0.711227 0.187502 0.376189
0.826131 0.190763 0.379927
0.000000 0.269779 0.363141
0.088858 0.273612 0.366468
0.191463 0.277613 0.369926
0.296788 0.281759 0.373497
0.404963 0.286035 0.377168
0.516101 0.290429 0.380929
0.630298 0.294933 0.384774
0.747642 0.299540 0.388696
0.868210 0.304245 0.392692
0.000000 0.379759 0.374458
0.096512 0.385156 0.378153
0.203825 0.390699 0.381937
0.314107 0.396378 0.385803
0.427452 0.402184 0.389745
0.543944 0.408109 0.393759
0.663661 0.414148 0.397842
0.786673 0.420296 0.401991
0.913044 0.426549 0.406203
0.000000 0.498445 0.386837
0.104896 0.505461 0.390799
0.217269 0.512619 0.394832
0.332798 0.519910 0.398932
0.451558 0.527329 0.403098
0.573616 0.534869 0.407326
0.699037 0.542528 0.411615
0.827880 0.550299 0.415962
0.960200 0.558181 0.420366
0.000000 0.626332 0.400027
0.113939 0.635031 0.404209
0.231650 0.643870 0.408454
0.352667 0.652842 0.412758
0.477054 0.661943 0.417120
0.604868 0.671168 0.421539
0.736163 0.680515 0.426013
0.870992 0.689979 0.430541
1.000000 0.699558 0.435122
0.003713 0.763847 0.413905
0.123612 0.774286 0.418283
0.246889 0.784863 0.422716
0.373601 0.795575 0.427204
0.503801 0.806419 0.431746
0.637540 0.817389 0.436341
0.767699 0.821891 0.438699
0.894983 0.823226 0.439959
1.000000 0.824560 0.441220
0.008354 0.911354 0.428400
0.133899 0.923583 0.432955
0.262939 0.935952 0.437563
0.390447 0.937972 0.439032
0.517730 0.939306 0.440293
0.645014 0.940641 0.441553
0.772297 0.941975 0.442814
0.899581 0.943310 0.444074
1.000000 0.944644 0.445335
0.000000 0.000000 0.439873
0.075162 0.000000 0.440961
0.171261 0.000000 0.442049
0.267360 0.000000 0.443137
0.363459 0.000000 0.444225
0.459558 0.000000 0.445313
0.555657 0.000000 0.446401
0.653801 0.000000 0.448176
0.757477 0.000000 0.451398
0.000000 0.074057 0.443425
0.078633 0.075111 0.444513
0.174732 0.076164 0.445601
0.270831 0.077218 0.446689
0.368942 0.078624 0.448977
0.470316 0.080351 0.452317
0.574416 0.082185 0.455965
0.681342 0.084100 0.459826
0.791199 0.086083 0.463855
0.000000 0.168857 0.446977
0.082763 0.171030 0.449819
0.181536 0.173592 0.453256
0.282688 0.176340 0.456967
0.386435 0.179229 0.460875
0.492934 0.182234 0.464944
0.602315 0.185342 0.469149
0.714686 0.188543 0.473475
0.830144 0.191831 0.477909
0.000000 0.270994 0.457982
0.089577 0.274884 0.461936
0.192629 0.278934 0.466043
0.298428 0.283124 0.470281
0.407101 0.287439 0.474636
0.518758 0.291869 0.479098
0.633491 0.296407 0.483658
0.751387 0.301046 0.488309
0.872522 0.305781 0.493046
0.000000 0.381481 0.471421
0.097309 0.386926 0.475806
0.205107 0.392515 0.480294
0.315895 0.398235 0.484879
0.429764 0.404080 0.489553
0.546797 0.410043 0.494312
0.667069 0.416118 0.499151
0.790649 0.422300 0.504067
0.917601 0.428585 0.509057
0.000000 0.500690 0.486105
0.105760 0.507753 0.490803
0.218649 0.514954 0.495583
0.334709 0.522287 0.500443
0.454015 0.529745 0.505379
0.576634 0.537324 0.510388
0.702627 0.545020 0.515466
0.832054 0.552827 0.520613
0.964970 0.560744 0.525825
0.000000 0.629120 0.501740
0.114866 0.637864 0.506696
0.233117 0.646746 0.511723
0.354688 0.655760 0.516820
0.479640 0.664902 0.521984
0.608031 0.674167 0.527214
0.739915 0.683552 0.532507
0.875343 0.693053 0.537862
1.000000 0.702669 0.543277
0.004153 0.767195 0.518178
0.124600 0.777679 0.523360
0.248438 0.788300 0.528606
0.375722 0.799055 0.533916
0.506505 0.809940 0.539287
0.640837 0.820951 0.544718
0.768153 0.822321 0.545994
0.895437 0.823656 0.547255
1.000000 0.824990 0.548515
0.008835 0.915279 0.535329
0.134947 0.927554 0.540716
0.263617 0.937067 0.545067
0.390901 0.938402 0.546327
0.518184 0.939736 0.547588
0.645467 0.941071 0.548848
0.772751 0.942405 0.550109
0.900034 0.943740 0.551370
1.000000 0.945074 0.552630
0.000000 0.000000 0.532483
0.075505 0.000000 0.533571
0.171604 0.000000 0.534659
0.267703 0.000000 0.535747
0.363802 0.000000 0.536835
0.459901 0.000000 0.537923
0.556000 0.000000 0.539011
0.656027 0.000000 0.541689
0.760452 0.000000 0.545519
0.000000 0.074397 0.536035
0.078976 0.075450 0.537123
0.175075 0.076504 0.538211
0.271211 0.077566 0.539335
0.370428 0.079166 0.542655
0.472342 0.080932 0.546597
0.576975 0.082794 0.550858
0.684444 0.084732 0.555352
0.794857 0.086736 0.560033
0.000000 0.169464 0.540094
0.083378 0.171830 0.543657
0.182549 0.174460 0.547697
0.284144 0.177257 0.552025
0.388366 0.180185 0.556572
0.495365 0.183225 0.561298
0.605267 0.186364 0.566179
0.718178 0.189594 0.571197
0.834190 0.192908 0.576339
0.000000 0.272229 0.553207
0.090305 0.276173 0.557805
0.193807 0.280270 0.562574
0.300084 0.284501 0.567492
0.409259 0.288854 0.572544
0.521436 0.293320 0.577717
0.636708 0.297891 0.583001
0.755158 0.302561 0.588390
0.876860 0.307326 0.593877
0.000000 0.383219 0.568815
0.098113 0.388712 0.573899
0.206400 0.394344 0.579103
0.317696 0.400105 0.584416
0.432092 0.405989 0.589831
0.549667 0.411988 0.595343
0.670496 0.418098 0.600946
0.794646 0.424314 0.606636
0.922180 0.430632 0.612410
0.000000 0.502950 0.585837
0.106630 0.510058 0.591278
0.220037 0.517303 0.596814
0.336632 0.524677 0.602441
0.456486 0.532174 0.608154
0.579667 0.539791 0.613950
0.706234 0.547523 0.619825
0.836247 0.555366 0.625777
0.969759 0.563317 0.631804
0.000276 0.631922 0.603943
0.115800 0.640711 0.609678
0.234592 0.649636 0.615495
0.356719 0.658692 0.621390
0.482239 0.667874 0.627362
0.611209 0.677178 0.633408
0.743683 0.686601 0.639526
0.879711 0.696139 0.645713
1.000000 0.705336 0.651696
0.004597 0.770558 0.622961
0.125594 0.781086 0.628953
0.249995 0.791751 0.635018
0.377853 0.802548 0.641154
0.509221 0.813474 0.647360
0.641324 0.821417 0.652029
0.768607 0.822751 0.653289
0.895891 0.824086 0.654550
1.000000 0.825420 0.655811
0.009319 0.919219 0.642787
0.136001 0.931539 0.649011
0.264071 0.937497 0.652362
0.391354 0.938832 0.653623
0.518638 0.940166 0.654883
0.645921 0.941501 0.656144
0.773205 0.942835 0.657404
0.900488 0.944170 0.658665
1.000000 0.945504 0.659925
0.000000 0.000000 0.625092
0.075848 0.000000 0.626181
0.171947 0.000000 0.627269
0.268046 0.000000 0.628357
0.364145 0.000000 0.629445
0.460244 0.000000 0.630533
0.556600 0.000000 0.631764
0.658425 0.000000 0.635544
0.763528 0.000000 0.639998
0.000000 0.074736 0.628644
0.079319 0.075790 0.629732
0.175418 0.076843 0.630820
0.272164 0.078049 0.632644
0.371990 0.079722 0.636677
0.474425 0.081523 0.641241
0.579585 0.083410 0.646135
0.687593 0.085371 0.651278
0.798560 0.087395 0.656627
0.000000 0.170184 0.633632
0.084010 0.172655 0.637844
0.183583 0.175345 0.642506
0.285625 0.178187 0.647472
0.390323 0.181153 0.652673
0.497824 0.184226 0.658071
0.608249 0.187395 0.663639
0.721700 0.190652 0.669360
0.838269 0.193993 0.675219
0.000000 0.273481 0.648825
0.091041 0.277477 0.654081
0.194997 0.281619 0.659527
0.301756 0.285891 0.665137
0.411435 0.290281 0.670896
0.524135 0.294781 0.676789
0.639947 0.299385 0.682808
0.758952 0.304086 0.688943
0.881223 0.308881 0.695187
0.000000 0.384973 0.666645
0.098923 0.390512 0.672440
0.207702 0.396186 0.678368
0.319510 0.401988 0.684418
0.434434 0.407910 0.690582
0.552554 0.413945 0.696855
0.673942 0.420089 0.703229
0.798663 0.426338 0.709701
0.926781 0.432688 0.716266
0.000000 0.505225 0.686036
0.107507 0.512378 0.692230
0.221434 0.519665 0.698529
0.338566 0.527079 0.704930
0.458971 0.534616 0.711427
0.582714 0.542270 0.718016
0.709858 0.550038 0.724694
0.840458 0.557916 0.731457
0.974567 0.565902 0.738303
0.000685 0.634739 0.706638
0.116739 0.643573 0.713159
0.236076 0.652540 0.719772
0.358759 0.661637 0.726473
0.484849 0.670859 0.733258
0.614400 0.680201 0.740126
0.747466 0.689662 0.747073
0.884095 0.699237 0.754098
1.000000 0.705766 0.758991
0.005045 0.773935 0.728258
0.126595 0.784508 0.735065
0.251559 0.795216 0.741954
0.379993 0.806055 0.748922
0.511947 0.817021 0.755967
0.641778 0.821847 0.759324
0.769061 0.823181 0.760585
0.896344 0.824516 0.761845
1.000000 0.825850 0.763106
0.009808 0.923173 0.750776
0.137061 0.935538 0.757841
0.264525 0.937927 0.759657
0.391808 0.939262 0.760918
0.519092 0.940596 0.762178
0.646375 0.941931 0.763439
0.773659 0.943265 0.764700
0.900942 0.944600 0.765960
1.000000 0.945934 0.767221
0.000000 0.000000 0.717702
0.076190 0.000000 0.718790
0.172289 0.000000 0.719878
0.268388 0.000000 0.720966
0.364487 0.000000 0.722054
0.460586 0.000000 0.723142
0.558277 0.000000 0.725242
0.660951 0.000000 0.729753
0.766692 0.000000 0.734848
0.000000 0.075076 0.721254
0.079661 0.076129 0.722342
0.175760 0.077183 0.723430
0.273266 0.078569 0.726350
0.373614 0.080291 0.731056
0.476558 0.082122 0.736260
0.582241 0.084034 0.741804
0.690787 0.086016 0.747612
0.802306 0.088061 0.753641
0.000000 0.170949 0.727528
0.084655 0.173503 0.732392
0.184637 0.176246 0.737696
0.287128 0.179130 0.743315
0.392306 0.182132 0.749185
0.500311 0.185237 0.755268
0.611260 0.188435 0.761536
0.725252 0.191720 0.767971
0.842378 0.195086 0.774557
0.000000 0.274752 0.744844
0.091785 0.278797 0.750773
0.196200 0.282982 0.756907
0.303444 0.287293 0.763221
0.413629 0.291719 0.769697
0.526854 0.296254 0.776321
0.643208 0.300889 0.783082
0.762770 0.305621 0.789971
0.885612 0.310445 0.796981
0.000000 0.386742 0.764917
0.099741 0.392326 0.771433
0.209014 0.398042 0.778095
0.321336 0.403883 0.784890
0.436792 0.409842 0.791812
0.555458 0.415913 0.798852
0.677406 0.422092 0.806005
0.802701 0.428374 0.813265
0.931404 0.434755 0.820627
0.000000 0.507515 0.786708
0.108390 0.514712 0.793661
0.222840 0.522040 0.800732
0.340510 0.529494 0.807913
0.461468 0.537070 0.815200
0.585777 0.544761 0.822589
0.713498 0.552565 0.830076
0.844686 0.560478 0.837656
0.979395 0.568497 0.845327
0.001098 0.637570 0.809829
0.117684 0.646448 0.817143
0.237567 0.655457 0.824558
0.360810 0.664595 0.832070
0.487471 0.673856 0.839674
0.617605 0.683237 0.847369
0.751263 0.692735 0.855152
0.888496 0.702346 0.863019
1.000000 0.706196 0.866286
0.005496 0.777327 0.834070
0.127601 0.787944 0.841699
0.253132 0.798694 0.849417
0.382143 0.809575 0.857223
0.514685 0.820582 0.865112
0.642231 0.822277 0.866619
0.769515 0.823611 0.867880
0.896798 0.824946 0.869141
1.000000 0.826280 0.870401
0.010301 0.927142 0.859299
0.137695 0.937023 0.865692
0.264979 0.938357 0.866953
0.392262 0.939692 0.868213
0.519545 0.941026 0.869474
0.646829 0.942361 0.870734
0.774112 0.943695 0.871995
0.901396 0.945030 0.873256
1.000000 0.946364 0.874516
