assets/lighting/cinematic/grade-warm-skin-priority/lut.cube
TITLE "Warm Skin Priority"
# TKRS lighting-batch-001 original LUT
# Intended usage: portrait-safe warm mids, restrained sat
# License: CC0-1.0
LUT_3D_SIZE 5
DOMAIN_MIN 0.0 0.0 0.0
DOMAIN_MAX 1.0 1.0 1.0
0.000000 0.000000 0.000000
0.169548 0.000000 0.000000
0.361746 0.000000 0.000000
0.553944 0.000000 0.000000
0.746142 0.000000 0.000000
0.000000 0.167160 0.000000
0.176924 0.169608 0.000000
0.377242 0.174642 0.000000
0.588043 0.180385 0.000000
0.810425 0.186577 0.000000
0.000000 0.373044 0.000000
0.198803 0.383581 0.000000
0.418362 0.394724 0.000000
0.650229 0.406386 0.000000
0.895045 0.418509 0.000000
0.000000 0.615336 0.000000
0.225866 0.632504 0.000339
0.466831 0.650236 0.002755
0.721308 0.668491 0.005244
0.989745 0.687234 0.007810
0.006472 0.895805 0.005915
0.256508 0.920036 0.008501
0.515915 0.937586 0.011111
0.770482 0.940255 0.013632
1.000000 0.942924 0.016154
0.000000 0.000000 0.162044
0.170233 0.000000 0.164220
0.362431 0.000000 0.166396
0.554629 0.000000 0.168573
0.749383 0.000000 0.171034
0.000000 0.167839 0.169148
0.178654 0.171111 0.172022
0.380818 0.176434 0.176127
0.593648 0.182336 0.180579
0.818206 0.188652 0.185282
0.000000 0.376366 0.181800
0.201292 0.387111 0.186560
0.422874 0.398428 0.191522
0.656905 0.410244 0.196666
0.903998 0.422508 0.201980
0.000000 0.620803 0.198054
0.228741 0.638158 0.203411
0.471918 0.656063 0.208926
0.728704 0.674478 0.214593
0.999537 0.693372 0.220409
0.007405 0.903549 0.216116
0.259708 0.927966 0.221970
0.516822 0.938446 0.225702
0.771389 0.941115 0.228223
1.000000 0.943784 0.230744
0.000000 0.000000 0.347264
0.170919 0.000000 0.349440
0.363117 0.000000 0.351616
0.555315 0.000000 0.353792
0.754620 0.000000 0.357622
0.000000 0.168518 0.354367
0.180547 0.172742 0.359174
0.384532 0.178284 0.365575
0.599393 0.184330 0.372543
0.826131 0.190763 0.379927
0.000000 0.379759 0.374458
0.203825 0.390699 0.381937
0.427452 0.402184 0.389745
0.663661 0.414148 0.397842
0.913044 0.426549 0.406203
0.000000 0.626332 0.400027
0.231650 0.643870 0.408454
0.477054 0.661943 0.417120
0.736163 0.680515 0.426013
1.000000 0.699558 0.435122
0.008354 0.911354 0.428400
0.262939 0.935952 0.437563
0.517730 0.939306 0.440293
0.772297 0.941975 0.442814
1.000000 0.944644 0.445335
0.000000 0.000000 0.532483
0.171604 0.000000 0.534659
0.363802 0.000000 0.536835
0.556000 0.000000 0.539011
0.760452 0.000000 0.545519
0.000000 0.169464 0.540094
0.182549 0.174460 0.547697
0.388366 0.180185 0.556572
0.605267 0.186364 0.566179
0.834190 0.192908 0.576339
0.000000 0.383219 0.568815
0.206400 0.394344 0.579103
0.432092 0.405989 0.589831
0.670496 0.418098 0.600946
0.922180 0.430632 0.612410
0.000276 0.631922 0.603943
0.234592 0.649636 0.615495
0.482239 0.667874 0.627362
0.743683 0.686601 0.639526
1.000000 0.705336 0.651696
0.009319 0.919219 0.642787
0.264071 0.937497 0.652362
0.518638 0.940166 0.654883
0.773205 0.942835 0.657404
1.000000 0.945504 0.659925
0.000000 0.000000 0.717702
0.172289 0.000000 0.719878
0.364487 0.000000 0.722054
0.558277 0.000000 0.725242
0.766692 0.000000 0.734848
0.000000 0.170949 0.727528
0.184637 0.176246 0.737696
0.392306 0.182132 0.749185
0.611260 0.188435 0.761536
0.842378 0.195086 0.774557
0.000000 0.386742 0.764917
0.209014 0.398042 0.778095
0.436792 0.409842 0.791812
0.677406 0.422092 0.806005
0.931404 0.434755 0.820627
0.001098 0.637570 0.809829
0.237567 0.655457 0.824558
0.487471 0.673856 0.839674
0.751263 0.692735 0.855152
1.000000 0.706196 0.866286
0.010301 0.927142 0.859299
0.264979 0.938357 0.866953
0.519545 0.941026 0.869474
0.774112 0.943695 0.871995
1.000000 0.946364 0.874516
