assets/lighting/technical/grade-green-screen-neutral/lut.cube
TITLE "Green-Spill Neutralizer Proxy"
# TKRS lighting-batch-001 original LUT
# Intended usage: slight magenta to counter green spill (reference only)
# License: CC0-1.0
LUT_3D_SIZE 17
DOMAIN_MIN 0.0 0.0 0.0
DOMAIN_MAX 1.0 1.0 1.0
0.000000 0.000000 0.000000
0.066000 0.000000 0.000000
0.132000 0.000000 0.000000
0.198000 0.000000 0.000000
0.264000 0.000000 0.000000
0.330000 0.000000 0.000000
0.396000 0.000000 0.000000
0.462000 0.000000 0.000000
0.528000 0.000000 0.000000
0.594000 0.000000 0.000000
0.660000 0.000000 0.000000
0.726000 0.000000 0.000000
0.792000 0.000000 0.000000
0.858000 0.000000 0.000000
0.924000 0.000000 0.000000
0.990000 0.000000 0.000000
1.000000 0.000000 0.000000
0.000000 0.055938 0.000000
0.066000 0.055938 0.000000
0.132000 0.055938 0.000000
0.198000 0.055938 0.000000
0.264000 0.055938 0.000000
0.330000 0.055938 0.000000
0.396000 0.055938 0.000000
0.462000 0.055938 0.000000
0.528000 0.055938 0.000000
0.594000 0.055938 0.000000
0.660000 0.055938 0.000000
0.726000 0.055938 0.000000
0.792000 0.055938 0.000000
0.858000 0.055938 0.000000
0.924000 0.055938 0.000000
0.990000 0.055938 0.000000
1.000000 0.055938 0.000000
0.000000 0.111875 0.000000
0.066000 0.111875 0.000000
0.132000 0.111875 0.000000
0.198000 0.111875 0.000000
0.264000 0.111875 0.000000
0.330000 0.111875 0.000000
0.396000 0.111875 0.000000
0.462000 0.111875 0.000000
0.528000 0.111875 0.000000
0.594000 0.111875 0.000000
0.660000 0.111875 0.000000
0.726000 0.111875 0.000000
0.792000 0.111875 0.000000
0.858000 0.111875 0.000000
0.924000 0.111875 0.000000
0.990000 0.111875 0.000000
1.000000 0.111875 0.000000
0.000000 0.167813 0.000000
0.066000 0.167813 0.000000
0.132000 0.167813 0.000000
0.198000 0.167813 0.000000
0.264000 0.167813 0.000000
0.330000 0.167813 0.000000
0.396000 0.167813 0.000000
0.462000 0.167813 0.000000
0.528000 0.167813 0.000000
0.594000 0.167813 0.000000
0.660000 0.167813 0.000000
0.726000 0.167813 0.000000
0.792000 0.167813 0.000000
0.858000 0.167813 0.000000
0.924000 0.167813 0.000000
0.990000 0.167813 0.000000
1.000000 0.167813 0.000000
0.000000 0.223750 0.000000
0.066000 0.223750 0.000000
0.132000 0.223750 0.000000
0.198000 0.223750 0.000000
0.264000 0.223750 0.000000
0.330000 0.223750 0.000000
0.396000 0.223750 0.000000
0.462000 0.223750 0.000000
0.528000 0.223750 0.000000
0.594000 0.223750 0.000000
0.660000 0.223750 0.000000
0.726000 0.223750 0.000000
0.792000 0.223750 0.000000
0.858000 0.223750 0.000000
0.924000 0.223750 0.000000
0.990000 0.223750 0.000000
1.000000 0.223750 0.000000
0.000000 0.279687 0.000000
0.066000 0.279687 0.000000
0.132000 0.279687 0.000000
0.198000 0.279687 0.000000
0.264000 0.279687 0.000000
0.330000 0.279687 0.000000
0.396000 0.279687 0.000000
0.462000 0.279687 0.000000
0.528000 0.279687 0.000000
0.594000 0.279687 0.000000
0.660000 0.279687 0.000000
0.726000 0.279687 0.000000
0.792000 0.279687 0.000000
0.858000 0.279687 0.000000
0.924000 0.279687 0.000000
0.990000 0.279687 0.000000
1.000000 0.279687 0.000000
0.000000 0.335625 0.000000
0.066000 0.335625 0.000000
0.132000 0.335625 0.000000
0.198000 0.335625 0.000000
0.264000 0.335625 0.000000
0.330000 0.335625 0.000000
0.396000 0.335625 0.000000
0.462000 0.335625 0.000000
0.528000 0.335625 0.000000
0.594000 0.335625 0.000000
0.660000 0.335625 0.000000
0.726000 0.335625 0.000000
0.792000 0.335625 0.000000
0.858000 0.335625 0.000000
0.924000 0.335625 0.000000
0.990000 0.335625 0.000000
1.000000 0.335625 0.000000
0.000000 0.391563 0.000000
0.066000 0.391563 0.000000
0.132000 0.391563 0.000000
0.198000 0.391563 0.000000
0.264000 0.391563 0.000000
0.330000 0.391563 0.000000
0.396000 0.391563 0.000000
0.462000 0.391563 0.000000
0.528000 0.391563 0.000000
0.594000 0.391563 0.000000
0.660000 0.391563 0.000000
0.726000 0.391563 0.000000
0.792000 0.391563 0.000000
0.858000 0.391563 0.000000
0.924000 0.391563 0.000000
0.990000 0.391563 0.000000
1.000000 0.391563 0.000000
0.000000 0.447500 0.000000
0.066000 0.447500 0.000000
0.132000 0.447500 0.000000
0.198000 0.447500 0.000000
0.264000 0.447500 0.000000
0.330000 0.447500 0.000000
0.396000 0.447500 0.000000
0.462000 0.447500 0.000000
0.528000 0.447500 0.000000
0.594000 0.447500 0.000000
0.660000 0.447500 0.000000
0.726000 0.447500 0.000000
0.792000 0.447500 0.000000
0.858000 0.447500 0.000000
0.924000 0.447500 0.000000
0.990000 0.447500 0.000000
1.000000 0.447500 0.000000
0.000000 0.503437 0.000000
0.066000 0.503437 0.000000
0.132000 0.503437 0.000000
0.198000 0.503437 0.000000
0.264000 0.503437 0.000000
0.330000 0.503437 0.000000
0.396000 0.503437 0.000000
0.462000 0.503437 0.000000
0.528000 0.503437 0.000000
0.594000 0.503437 0.000000
0.660000 0.503437 0.000000
0.726000 0.503437 0.000000
0.792000 0.503437 0.000000
0.858000 0.503437 0.000000
0.924000 0.503437 0.000000
0.990000 0.503437 0.000000
1.000000 0.503437 0.000000
0.000000 0.559375 0.000000
0.066000 0.559375 0.000000
0.132000 0.559375 0.000000
0.198000 0.559375 0.000000
0.264000 0.559375 0.000000
0.330000 0.559375 0.000000
0.396000 0.559375 0.000000
0.462000 0.559375 0.000000
0.528000 0.559375 0.000000
0.594000 0.559375 0.000000
0.660000 0.559375 0.000000
0.726000 0.559375 0.000000
0.792000 0.559375 0.000000
0.858000 0.559375 0.000000
0.924000 0.559375 0.000000
0.990000 0.559375 0.000000
1.000000 0.559375 0.000000
0.000000 0.615313 0.000000
0.066000 0.615313 0.000000
0.132000 0.615313 0.000000
0.198000 0.615313 0.000000
0.264000 0.615313 0.000000
0.330000 0.615313 0.000000
0.396000 0.615313 0.000000
0.462000 0.615313 0.000000
0.528000 0.615313 0.000000
0.594000 0.615313 0.000000
0.660000 0.615313 0.000000
0.726000 0.615313 0.000000
0.792000 0.615313 0.000000
0.858000 0.615313 0.000000
0.924000 0.615313 0.000000
0.990000 0.615313 0.000000
1.000000 0.615313 0.000000
0.000000 0.671250 0.000000
0.066000 0.671250 0.000000
0.132000 0.671250 0.000000
0.198000 0.671250 0.000000
0.264000 0.671250 0.000000
0.330000 0.671250 0.000000
0.396000 0.671250 0.000000
0.462000 0.671250 0.000000
0.528000 0.671250 0.000000
0.594000 0.671250 0.000000
0.660000 0.671250 0.000000
0.726000 0.671250 0.000000
0.792000 0.671250 0.000000
0.858000 0.671250 0.000000
0.924000 0.671250 0.000000
0.990000 0.671250 0.000000
1.000000 0.671250 0.000000
0.000000 0.727187 0.000000
0.066000 0.727187 0.000000
0.132000 0.727187 0.000000
0.198000 0.727187 0.000000
0.264000 0.727187 0.000000
0.330000 0.727187 0.000000
0.396000 0.727187 0.000000
0.462000 0.727187 0.000000
0.528000 0.727187 0.000000
0.594000 0.727187 0.000000
0.660000 0.727187 0.000000
0.726000 0.727187 0.000000
0.792000 0.727187 0.000000
0.858000 0.727187 0.000000
0.924000 0.727187 0.000000
0.990000 0.727187 0.000000
1.000000 0.727187 0.000000
0.000000 0.783125 0.000000
0.066000 0.783125 0.000000
0.132000 0.783125 0.000000
0.198000 0.783125 0.000000
0.264000 0.783125 0.000000
0.330000 0.783125 0.000000
0.396000 0.783125 0.000000
0.462000 0.783125 0.000000
0.528000 0.783125 0.000000
0.594000 0.783125 0.000000
0.660000 0.783125 0.000000
0.726000 0.783125 0.000000
0.792000 0.783125 0.000000
0.858000 0.783125 0.000000
0.924000 0.783125 0.000000
0.990000 0.783125 0.000000
1.000000 0.783125 0.000000
0.000000 0.839063 0.000000
0.066000 0.839063 0.000000
0.132000 0.839063 0.000000
0.198000 0.839063 0.000000
0.264000 0.839063 0.000000
0.330000 0.839063 0.000000
0.396000 0.839063 0.000000
0.462000 0.839063 0.000000
0.528000 0.839063 0.000000
0.594000 0.839063 0.000000
0.660000 0.839063 0.000000
0.726000 0.839063 0.000000
0.792000 0.839063 0.000000
0.858000 0.839063 0.000000
0.924000 0.839063 0.000000
0.990000 0.839063 0.000000
1.000000 0.839063 0.000000
0.000000 0.895000 0.000000
0.066000 0.895000 0.000000
0.132000 0.895000 0.000000
0.198000 0.895000 0.000000
0.264000 0.895000 0.000000
0.330000 0.895000 0.000000
0.396000 0.895000 0.000000
0.462000 0.895000 0.000000
0.528000 0.895000 0.000000
0.594000 0.895000 0.000000
0.660000 0.895000 0.000000
0.726000 0.895000 0.000000
0.792000 0.895000 0.000000
0.858000 0.895000 0.000000
0.924000 0.895000 0.000000
0.990000 0.895000 0.000000
1.000000 0.895000 0.000000
0.000000 0.000000 0.066000
0.066000 0.000000 0.066000
0.132000 0.000000 0.066000
0.198000 0.000000 0.066000
0.264000 0.000000 0.066000
0.330000 0.000000 0.066000
0.396000 0.000000 0.066000
0.462000 0.000000 0.066000
0.528000 0.000000 0.066000
0.594000 0.000000 0.066000
0.660000 0.000000 0.066000
0.726000 0.000000 0.066000
0.792000 0.000000 0.066000
0.858000 0.000000 0.066000
0.924000 0.000000 0.066000
0.990000 0.000000 0.066000
1.000000 0.000000 0.066000
0.000000 0.055938 0.066000
0.066000 0.055938 0.066000
0.132000 0.055938 0.066000
0.198000 0.055938 0.066000
0.264000 0.055938 0.066000
0.330000 0.055938 0.066000
0.396000 0.055938 0.066000
0.462000 0.055938 0.066000
0.528000 0.055938 0.066000
0.594000 0.055938 0.066000
0.660000 0.055938 0.066000
0.726000 0.055938 0.066000
0.792000 0.055938 0.066000
0.858000 0.055938 0.066000
0.924000 0.055938 0.066000
0.990000 0.055938 0.066000
1.000000 0.055938 0.066000
0.000000 0.111875 0.066000
0.066000 0.111875 0.066000
0.132000 0.111875 0.066000
0.198000 0.111875 0.066000
0.264000 0.111875 0.066000
0.330000 0.111875 0.066000
0.396000 0.111875 0.066000
0.462000 0.111875 0.066000
0.528000 0.111875 0.066000
0.594000 0.111875 0.066000
0.660000 0.111875 0.066000
0.726000 0.111875 0.066000
0.792000 0.111875 0.066000
0.858000 0.111875 0.066000
0.924000 0.111875 0.066000
0.990000 0.111875 0.066000
1.000000 0.111875 0.066000
0.000000 0.167813 0.066000
0.066000 0.167813 0.066000
0.132000 0.167813 0.066000
0.198000 0.167813 0.066000
0.264000 0.167813 0.066000
0.330000 0.167813 0.066000
0.396000 0.167813 0.066000
0.462000 0.167813 0.066000
0.528000 0.167813 0.066000
0.594000 0.167813 0.066000
0.660000 0.167813 0.066000
0.726000 0.167813 0.066000
0.792000 0.167813 0.066000
0.858000 0.167813 0.066000
0.924000 0.167813 0.066000
0.990000 0.167813 0.066000
1.000000 0.167813 0.066000
0.000000 0.223750 0.066000
0.066000 0.223750 0.066000
0.132000 0.223750 0.066000
0.198000 0.223750 0.066000
0.264000 0.223750 0.066000
0.330000 0.223750 0.066000
0.396000 0.223750 0.066000
0.462000 0.223750 0.066000
0.528000 0.223750 0.066000
0.594000 0.223750 0.066000
0.660000 0.223750 0.066000
0.726000 0.223750 0.066000
0.792000 0.223750 0.066000
0.858000 0.223750 0.066000
0.924000 0.223750 0.066000
0.990000 0.223750 0.066000
1.000000 0.223750 0.066000
0.000000 0.279687 0.066000
0.066000 0.279687 0.066000
0.132000 0.279687 0.066000
0.198000 0.279687 0.066000
0.264000 0.279687 0.066000
0.330000 0.279687 0.066000
0.396000 0.279687 0.066000
0.462000 0.279687 0.066000
0.528000 0.279687 0.066000
0.594000 0.279687 0.066000
0.660000 0.279687 0.066000
0.726000 0.279687 0.066000
0.792000 0.279687 0.066000
0.858000 0.279687 0.066000
0.924000 0.279687 0.066000
0.990000 0.279687 0.066000
1.000000 0.279687 0.066000
0.000000 0.335625 0.066000
0.066000 0.335625 0.066000
0.132000 0.335625 0.066000
0.198000 0.335625 0.066000
0.264000 0.335625 0.066000
0.330000 0.335625 0.066000
0.396000 0.335625 0.066000
0.462000 0.335625 0.066000
0.528000 0.335625 0.066000
0.594000 0.335625 0.066000
0.660000 0.335625 0.066000
0.726000 0.335625 0.066000
0.792000 0.335625 0.066000
0.858000 0.335625 0.066000
0.924000 0.335625 0.066000
0.990000 0.335625 0.066000
1.000000 0.335625 0.066000
0.000000 0.391563 0.066000
0.066000 0.391563 0.066000
0.132000 0.391563 0.066000
0.198000 0.391563 0.066000
0.264000 0.391563 0.066000
0.330000 0.391563 0.066000
0.396000 0.391563 0.066000
0.462000 0.391563 0.066000
0.528000 0.391563 0.066000
0.594000 0.391563 0.066000
0.660000 0.391563 0.066000
0.726000 0.391563 0.066000
0.792000 0.391563 0.066000
0.858000 0.391563 0.066000
0.924000 0.391563 0.066000
0.990000 0.391563 0.066000
1.000000 0.391563 0.066000
0.000000 0.447500 0.066000
0.066000 0.447500 0.066000
0.132000 0.447500 0.066000
0.198000 0.447500 0.066000
0.264000 0.447500 0.066000
0.330000 0.447500 0.066000
0.396000 0.447500 0.066000
0.462000 0.447500 0.066000
0.528000 0.447500 0.066000
0.594000 0.447500 0.066000
0.660000 0.447500 0.066000
0.726000 0.447500 0.066000
0.792000 0.447500 0.066000
0.858000 0.447500 0.066000
0.924000 0.447500 0.066000
0.990000 0.447500 0.066000
1.000000 0.447500 0.066000
0.000000 0.503437 0.066000
0.066000 0.503437 0.066000
0.132000 0.503437 0.066000
0.198000 0.503437 0.066000
0.264000 0.503437 0.066000
0.330000 0.503437 0.066000
0.396000 0.503437 0.066000
0.462000 0.503437 0.066000
0.528000 0.503437 0.066000
0.594000 0.503437 0.066000
0.660000 0.503437 0.066000
0.726000 0.503437 0.066000
0.792000 0.503437 0.066000
0.858000 0.503437 0.066000
0.924000 0.503437 0.066000
0.990000 0.503437 0.066000
1.000000 0.503437 0.066000
0.000000 0.559375 0.066000
0.066000 0.559375 0.066000
0.132000 0.559375 0.066000
0.198000 0.559375 0.066000
0.264000 0.559375 0.066000
0.330000 0.559375 0.066000
0.396000 0.559375 0.066000
0.462000 0.559375 0.066000
0.528000 0.559375 0.066000
0.594000 0.559375 0.066000
0.660000 0.559375 0.066000
0.726000 0.559375 0.066000
0.792000 0.559375 0.066000
0.858000 0.559375 0.066000
0.924000 0.559375 0.066000
0.990000 0.559375 0.066000
1.000000 0.559375 0.066000
0.000000 0.615313 0.066000
0.066000 0.615313 0.066000
0.132000 0.615313 0.066000
0.198000 0.615313 0.066000
0.264000 0.615313 0.066000
0.330000 0.615313 0.066000
0.396000 0.615313 0.066000
0.462000 0.615313 0.066000
0.528000 0.615313 0.066000
0.594000 0.615313 0.066000
0.660000 0.615313 0.066000
0.726000 0.615313 0.066000
0.792000 0.615313 0.066000
0.858000 0.615313 0.066000
0.924000 0.615313 0.066000
0.990000 0.615313 0.066000
1.000000 0.615313 0.066000
0.000000 0.671250 0.066000
0.066000 0.671250 0.066000
0.132000 0.671250 0.066000
0.198000 0.671250 0.066000
0.264000 0.671250 0.066000
0.330000 0.671250 0.066000
0.396000 0.671250 0.066000
0.462000 0.671250 0.066000
0.528000 0.671250 0.066000
0.594000 0.671250 0.066000
0.660000 0.671250 0.066000
0.726000 0.671250 0.066000
0.792000 0.671250 0.066000
0.858000 0.671250 0.066000
0.924000 0.671250 0.066000
0.990000 0.671250 0.066000
1.000000 0.671250 0.066000
0.000000 0.727187 0.066000
0.066000 0.727187 0.066000
0.132000 0.727187 0.066000
0.198000 0.727187 0.066000
0.264000 0.727187 0.066000
0.330000 0.727187 0.066000
0.396000 0.727187 0.066000
0.462000 0.727187 0.066000
0.528000 0.727187 0.066000
0.594000 0.727187 0.066000
0.660000 0.727187 0.066000
0.726000 0.727187 0.066000
0.792000 0.727187 0.066000
0.858000 0.727187 0.066000
0.924000 0.727187 0.066000
0.990000 0.727187 0.066000
1.000000 0.727187 0.066000
0.000000 0.783125 0.066000
0.066000 0.783125 0.066000
0.132000 0.783125 0.066000
0.198000 0.783125 0.066000
0.264000 0.783125 0.066000
0.330000 0.783125 0.066000
0.396000 0.783125 0.066000
0.462000 0.783125 0.066000
0.528000 0.783125 0.066000
0.594000 0.783125 0.066000
0.660000 0.783125 0.066000
0.726000 0.783125 0.066000
0.792000 0.783125 0.066000
0.858000 0.783125 0.066000
0.924000 0.783125 0.066000
0.990000 0.783125 0.066000
1.000000 0.783125 0.066000
0.000000 0.839063 0.066000
0.066000 0.839063 0.066000
0.132000 0.839063 0.066000
0.198000 0.839063 0.066000
0.264000 0.839063 0.066000
0.330000 0.839063 0.066000
0.396000 0.839063 0.066000
0.462000 0.839063 0.066000
0.528000 0.839063 0.066000
0.594000 0.839063 0.066000
0.660000 0.839063 0.066000
0.726000 0.839063 0.066000
0.792000 0.839063 0.066000
0.858000 0.839063 0.066000
0.924000 0.839063 0.066000
0.990000 0.839063 0.066000
1.000000 0.839063 0.066000
0.000000 0.895000 0.066000
0.066000 0.895000 0.066000
0.132000 0.895000 0.066000
0.198000 0.895000 0.066000
0.264000 0.895000 0.066000
0.330000 0.895000 0.066000
0.396000 0.895000 0.066000
0.462000 0.895000 0.066000
0.528000 0.895000 0.066000
0.594000 0.895000 0.066000
0.660000 0.895000 0.066000
0.726000 0.895000 0.066000
0.792000 0.895000 0.066000
0.858000 0.895000 0.066000
0.924000 0.895000 0.066000
0.990000 0.895000 0.066000
1.000000 0.895000 0.066000
0.000000 0.000000 0.132000
0.066000 0.000000 0.132000
0.132000 0.000000 0.132000
0.198000 0.000000 0.132000
0.264000 0.000000 0.132000
0.330000 0.000000 0.132000
0.396000 0.000000 0.132000
0.462000 0.000000 0.132000
0.528000 0.000000 0.132000
0.594000 0.000000 0.132000
0.660000 0.000000 0.132000
0.726000 0.000000 0.132000
0.792000 0.000000 0.132000
0.858000 0.000000 0.132000
0.924000 0.000000 0.132000
0.990000 0.000000 0.132000
1.000000 0.000000 0.132000
0.000000 0.055938 0.132000
0.066000 0.055938 0.132000
0.132000 0.055938 0.132000
0.198000 0.055938 0.132000
0.264000 0.055938 0.132000
0.330000 0.055938 0.132000
0.396000 0.055938 0.132000
0.462000 0.055938 0.132000
0.528000 0.055938 0.132000
0.594000 0.055938 0.132000
0.660000 0.055938 0.132000
0.726000 0.055938 0.132000
0.792000 0.055938 0.132000
0.858000 0.055938 0.132000
0.924000 0.055938 0.132000
0.990000 0.055938 0.132000
1.000000 0.055938 0.132000
0.000000 0.111875 0.132000
0.066000 0.111875 0.132000
0.132000 0.111875 0.132000
0.198000 0.111875 0.132000
0.264000 0.111875 0.132000
0.330000 0.111875 0.132000
0.396000 0.111875 0.132000
0.462000 0.111875 0.132000
0.528000 0.111875 0.132000
0.594000 0.111875 0.132000
0.660000 0.111875 0.132000
0.726000 0.111875 0.132000
0.792000 0.111875 0.132000
0.858000 0.111875 0.132000
0.924000 0.111875 0.132000
0.990000 0.111875 0.132000
1.000000 0.111875 0.132000
0.000000 0.167813 0.132000
0.066000 0.167813 0.132000
0.132000 0.167813 0.132000
0.198000 0.167813 0.132000
0.264000 0.167813 0.132000
0.330000 0.167813 0.132000
0.396000 0.167813 0.132000
0.462000 0.167813 0.132000
0.528000 0.167813 0.132000
0.594000 0.167813 0.132000
0.660000 0.167813 0.132000
0.726000 0.167813 0.132000
0.792000 0.167813 0.132000
0.858000 0.167813 0.132000
0.924000 0.167813 0.132000
0.990000 0.167813 0.132000
1.000000 0.167813 0.132000
0.000000 0.223750 0.132000
0.066000 0.223750 0.132000
0.132000 0.223750 0.132000
0.198000 0.223750 0.132000
0.264000 0.223750 0.132000
0.330000 0.223750 0.132000
0.396000 0.223750 0.132000
0.462000 0.223750 0.132000
0.528000 0.223750 0.132000
0.594000 0.223750 0.132000
0.660000 0.223750 0.132000
0.726000 0.223750 0.132000
0.792000 0.223750 0.132000
0.858000 0.223750 0.132000
0.924000 0.223750 0.132000
0.990000 0.223750 0.132000
1.000000 0.223750 0.132000
0.000000 0.279687 0.132000
0.066000 0.279687 0.132000
0.132000 0.279687 0.132000
0.198000 0.279687 0.132000
0.264000 0.279687 0.132000
0.330000 0.279687 0.132000
0.396000 0.279687 0.132000
0.462000 0.279687 0.132000
0.528000 0.279687 0.132000
0.594000 0.279687 0.132000
0.660000 0.279687 0.132000
0.726000 0.279687 0.132000
0.792000 0.279687 0.132000
0.858000 0.279687 0.132000
0.924000 0.279687 0.132000
0.990000 0.279687 0.132000
1.000000 0.279687 0.132000
0.000000 0.335625 0.132000
0.066000 0.335625 0.132000
0.132000 0.335625 0.132000
0.198000 0.335625 0.132000
0.264000 0.335625 0.132000
0.330000 0.335625 0.132000
0.396000 0.335625 0.132000
0.462000 0.335625 0.132000
0.528000 0.335625 0.132000
0.594000 0.335625 0.132000
0.660000 0.335625 0.132000
0.726000 0.335625 0.132000
0.792000 0.335625 0.132000
0.858000 0.335625 0.132000
0.924000 0.335625 0.132000
0.990000 0.335625 0.132000
1.000000 0.335625 0.132000
0.000000 0.391563 0.132000
0.066000 0.391563 0.132000
0.132000 0.391563 0.132000
0.198000 0.391563 0.132000
0.264000 0.391563 0.132000
0.330000 0.391563 0.132000
0.396000 0.391563 0.132000
0.462000 0.391563 0.132000
0.528000 0.391563 0.132000
0.594000 0.391563 0.132000
0.660000 0.391563 0.132000
0.726000 0.391563 0.132000
0.792000 0.391563 0.132000
0.858000 0.391563 0.132000
0.924000 0.391563 0.132000
0.990000 0.391563 0.132000
1.000000 0.391563 0.132000
0.000000 0.447500 0.132000
0.066000 0.447500 0.132000
0.132000 0.447500 0.132000
0.198000 0.447500 0.132000
0.264000 0.447500 0.132000
0.330000 0.447500 0.132000
0.396000 0.447500 0.132000
0.462000 0.447500 0.132000
0.528000 0.447500 0.132000
0.594000 0.447500 0.132000
0.660000 0.447500 0.132000
0.726000 0.447500 0.132000
0.792000 0.447500 0.132000
0.858000 0.447500 0.132000
0.924000 0.447500 0.132000
0.990000 0.447500 0.132000
1.000000 0.447500 0.132000
0.000000 0.503437 0.132000
0.066000 0.503437 0.132000
0.132000 0.503437 0.132000
0.198000 0.503437 0.132000
0.264000 0.503437 0.132000
0.330000 0.503437 0.132000
0.396000 0.503437 0.132000
0.462000 0.503437 0.132000
0.528000 0.503437 0.132000
0.594000 0.503437 0.132000
0.660000 0.503437 0.132000
0.726000 0.503437 0.132000
0.792000 0.503437 0.132000
0.858000 0.503437 0.132000
0.924000 0.503437 0.132000
0.990000 0.503437 0.132000
1.000000 0.503437 0.132000
0.000000 0.559375 0.132000
0.066000 0.559375 0.132000
0.132000 0.559375 0.132000
0.198000 0.559375 0.132000
0.264000 0.559375 0.132000
0.330000 0.559375 0.132000
0.396000 0.559375 0.132000
0.462000 0.559375 0.132000
0.528000 0.559375 0.132000
0.594000 0.559375 0.132000
0.660000 0.559375 0.132000
0.726000 0.559375 0.132000
0.792000 0.559375 0.132000
0.858000 0.559375 0.132000
0.924000 0.559375 0.132000
0.990000 0.559375 0.132000
1.000000 0.559375 0.132000
0.000000 0.615313 0.132000
0.066000 0.615313 0.132000
0.132000 0.615313 0.132000
0.198000 0.615313 0.132000
0.264000 0.615313 0.132000
0.330000 0.615313 0.132000
0.396000 0.615313 0.132000
0.462000 0.615313 0.132000
0.528000 0.615313 0.132000
0.594000 0.615313 0.132000
0.660000 0.615313 0.132000
0.726000 0.615313 0.132000
0.792000 0.615313 0.132000
0.858000 0.615313 0.132000
0.924000 0.615313 0.132000
0.990000 0.615313 0.132000
1.000000 0.615313 0.132000
0.000000 0.671250 0.132000
0.066000 0.671250 0.132000
0.132000 0.671250 0.132000
0.198000 0.671250 0.132000
0.264000 0.671250 0.132000
0.330000 0.671250 0.132000
0.396000 0.671250 0.132000
0.462000 0.671250 0.132000
0.528000 0.671250 0.132000
0.594000 0.671250 0.132000
0.660000 0.671250 0.132000
0.726000 0.671250 0.132000
0.792000 0.671250 0.132000
0.858000 0.671250 0.132000
0.924000 0.671250 0.132000
0.990000 0.671250 0.132000
1.000000 0.671250 0.132000
0.000000 0.727187 0.132000
0.066000 0.727187 0.132000
0.132000 0.727187 0.132000
0.198000 0.727187 0.132000
0.264000 0.727187 0.132000
0.330000 0.727187 0.132000
0.396000 0.727187 0.132000
0.462000 0.727187 0.132000
0.528000 0.727187 0.132000
0.594000 0.727187 0.132000
0.660000 0.727187 0.132000
0.726000 0.727187 0.132000
0.792000 0.727187 0.132000
0.858000 0.727187 0.132000
0.924000 0.727187 0.132000
0.990000 0.727187 0.132000
1.000000 0.727187 0.132000
0.000000 0.783125 0.132000
0.066000 0.783125 0.132000
0.132000 0.783125 0.132000
0.198000 0.783125 0.132000
0.264000 0.783125 0.132000
0.330000 0.783125 0.132000
0.396000 0.783125 0.132000
0.462000 0.783125 0.132000
0.528000 0.783125 0.132000
0.594000 0.783125 0.132000
0.660000 0.783125 0.132000
0.726000 0.783125 0.132000
0.792000 0.783125 0.132000
0.858000 0.783125 0.132000
0.924000 0.783125 0.132000
0.990000 0.783125 0.132000
1.000000 0.783125 0.132000
0.000000 0.839063 0.132000
0.066000 0.839063 0.132000
0.132000 0.839063 0.132000
0.198000 0.839063 0.132000
0.264000 0.839063 0.132000
0.330000 0.839063 0.132000
0.396000 0.839063 0.132000
0.462000 0.839063 0.132000
0.528000 0.839063 0.132000
0.594000 0.839063 0.132000
0.660000 0.839063 0.132000
0.726000 0.839063 0.132000
0.792000 0.839063 0.132000
0.858000 0.839063 0.132000
0.924000 0.839063 0.132000
0.990000 0.839063 0.132000
1.000000 0.839063 0.132000
0.000000 0.895000 0.132000
0.066000 0.895000 0.132000
0.132000 0.895000 0.132000
0.198000 0.895000 0.132000
0.264000 0.895000 0.132000
0.330000 0.895000 0.132000
0.396000 0.895000 0.132000
0.462000 0.895000 0.132000
0.528000 0.895000 0.132000
0.594000 0.895000 0.132000
0.660000 0.895000 0.132000
0.726000 0.895000 0.132000
0.792000 0.895000 0.132000
0.858000 0.895000 0.132000
0.924000 0.895000 0.132000
0.990000 0.895000 0.132000
1.000000 0.895000 0.132000
0.000000 0.000000 0.198000
0.066000 0.000000 0.198000
0.132000 0.000000 0.198000
0.198000 0.000000 0.198000
0.264000 0.000000 0.198000
0.330000 0.000000 0.198000
0.396000 0.000000 0.198000
0.462000 0.000000 0.198000
0.528000 0.000000 0.198000
0.594000 0.000000 0.198000
0.660000 0.000000 0.198000
0.726000 0.000000 0.198000
0.792000 0.000000 0.198000
