assets/lighting/technical/grade-green-screen-neutral/lut.cube
TITLE "Green-Spill Neutralizer Proxy"
# TKRS lighting-batch-001 original LUT
# Intended usage: slight magenta to counter green spill (reference only)
# License: CC0-1.0
LUT_3D_SIZE 9
DOMAIN_MIN 0.0 0.0 0.0
DOMAIN_MAX 1.0 1.0 1.0
0.000000 0.000000 0.000000
0.132000 0.000000 0.000000
0.264000 0.000000 0.000000
0.396000 0.000000 0.000000
0.528000 0.000000 0.000000
0.660000 0.000000 0.000000
0.792000 0.000000 0.000000
0.924000 0.000000 0.000000
1.000000 0.000000 0.000000
0.000000 0.111875 0.000000
0.132000 0.111875 0.000000
0.264000 0.111875 0.000000
0.396000 0.111875 0.000000
0.528000 0.111875 0.000000
0.660000 0.111875 0.000000
0.792000 0.111875 0.000000
0.924000 0.111875 0.000000
1.000000 0.111875 0.000000
0.000000 0.223750 0.000000
0.132000 0.223750 0.000000
0.264000 0.223750 0.000000
0.396000 0.223750 0.000000
0.528000 0.223750 0.000000
0.660000 0.223750 0.000000
0.792000 0.223750 0.000000
0.924000 0.223750 0.000000
1.000000 0.223750 0.000000
0.000000 0.335625 0.000000
0.132000 0.335625 0.000000
0.264000 0.335625 0.000000
0.396000 0.335625 0.000000
0.528000 0.335625 0.000000
0.660000 0.335625 0.000000
0.792000 0.335625 0.000000
0.924000 0.335625 0.000000
1.000000 0.335625 0.000000
0.000000 0.447500 0.000000
0.132000 0.447500 0.000000
0.264000 0.447500 0.000000
0.396000 0.447500 0.000000
0.528000 0.447500 0.000000
0.660000 0.447500 0.000000
0.792000 0.447500 0.000000
0.924000 0.447500 0.000000
1.000000 0.447500 0.000000
0.000000 0.559375 0.000000
0.132000 0.559375 0.000000
0.264000 0.559375 0.000000
0.396000 0.559375 0.000000
0.528000 0.559375 0.000000
0.660000 0.559375 0.000000
0.792000 0.559375 0.000000
0.924000 0.559375 0.000000
1.000000 0.559375 0.000000
0.000000 0.671250 0.000000
0.132000 0.671250 0.000000
0.264000 0.671250 0.000000
0.396000 0.671250 0.000000
0.528000 0.671250 0.000000
0.660000 0.671250 0.000000
0.792000 0.671250 0.000000
0.924000 0.671250 0.000000
1.000000 0.671250 0.000000
0.000000 0.783125 0.000000
0.132000 0.783125 0.000000
0.264000 0.783125 0.000000
0.396000 0.783125 0.000000
0.528000 0.783125 0.000000
0.660000 0.783125 0.000000
0.792000 0.783125 0.000000
0.924000 0.783125 0.000000
1.000000 0.783125 0.000000
0.000000 0.895000 0.000000
0.132000 0.895000 0.000000
0.264000 0.895000 0.000000
0.396000 0.895000 0.000000
0.528000 0.895000 0.000000
0.660000 0.895000 0.000000
0.792000 0.895000 0.000000
0.924000 0.895000 0.000000
1.000000 0.895000 0.000000
0.000000 0.000000 0.132000
0.132000 0.000000 0.132000
0.264000 0.000000 0.132000
0.396000 0.000000 0.132000
0.528000 0.000000 0.132000
0.660000 0.000000 0.132000
0.792000 0.000000 0.132000
0.924000 0.000000 0.132000
1.000000 0.000000 0.132000
0.000000 0.111875 0.132000
0.132000 0.111875 0.132000
0.264000 0.111875 0.132000
0.396000 0.111875 0.132000
0.528000 0.111875 0.132000
0.660000 0.111875 0.132000
0.792000 0.111875 0.132000
0.924000 0.111875 0.132000
1.000000 0.111875 0.132000
0.000000 0.223750 0.132000
0.132000 0.223750 0.132000
0.264000 0.223750 0.132000
0.396000 0.223750 0.132000
0.528000 0.223750 0.132000
0.660000 0.223750 0.132000
0.792000 0.223750 0.132000
0.924000 0.223750 0.132000
1.000000 0.223750 0.132000
0.000000 0.335625 0.132000
0.132000 0.335625 0.132000
0.264000 0.335625 0.132000
0.396000 0.335625 0.132000
0.528000 0.335625 0.132000
0.660000 0.335625 0.132000
0.792000 0.335625 0.132000
0.924000 0.335625 0.132000
1.000000 0.335625 0.132000
0.000000 0.447500 0.132000
0.132000 0.447500 0.132000
0.264000 0.447500 0.132000
0.396000 0.447500 0.132000
0.528000 0.447500 0.132000
0.660000 0.447500 0.132000
0.792000 0.447500 0.132000
0.924000 0.447500 0.132000
1.000000 0.447500 0.132000
0.000000 0.559375 0.132000
0.132000 0.559375 0.132000
0.264000 0.559375 0.132000
0.396000 0.559375 0.132000
0.528000 0.559375 0.132000
0.660000 0.559375 0.132000
0.792000 0.559375 0.132000
0.924000 0.559375 0.132000
1.000000 0.559375 0.132000
0.000000 0.671250 0.132000
0.132000 0.671250 0.132000
0.264000 0.671250 0.132000
0.396000 0.671250 0.132000
0.528000 0.671250 0.132000
0.660000 0.671250 0.132000
0.792000 0.671250 0.132000
0.924000 0.671250 0.132000
1.000000 0.671250 0.132000
0.000000 0.783125 0.132000
0.132000 0.783125 0.132000
0.264000 0.783125 0.132000
0.396000 0.783125 0.132000
0.528000 0.783125 0.132000
0.660000 0.783125 0.132000
0.792000 0.783125 0.132000
0.924000 0.783125 0.132000
1.000000 0.783125 0.132000
0.000000 0.895000 0.132000
0.132000 0.895000 0.132000
0.264000 0.895000 0.132000
0.396000 0.895000 0.132000
0.528000 0.895000 0.132000
0.660000 0.895000 0.132000
0.792000 0.895000 0.132000
0.924000 0.895000 0.132000
1.000000 0.895000 0.132000
0.000000 0.000000 0.264000
0.132000 0.000000 0.264000
0.264000 0.000000 0.264000
0.396000 0.000000 0.264000
0.528000 0.000000 0.264000
0.660000 0.000000 0.264000
0.792000 0.000000 0.264000
0.924000 0.000000 0.264000
1.000000 0.000000 0.264000
0.000000 0.111875 0.264000
0.132000 0.111875 0.264000
0.264000 0.111875 0.264000
0.396000 0.111875 0.264000
0.528000 0.111875 0.264000
0.660000 0.111875 0.264000
0.792000 0.111875 0.264000
0.924000 0.111875 0.264000
1.000000 0.111875 0.264000
0.000000 0.223750 0.264000
0.132000 0.223750 0.264000
0.264000 0.223750 0.264000
0.396000 0.223750 0.264000
0.528000 0.223750 0.264000
0.660000 0.223750 0.264000
0.792000 0.223750 0.264000
0.924000 0.223750 0.264000
1.000000 0.223750 0.264000
0.000000 0.335625 0.264000
0.132000 0.335625 0.264000
0.264000 0.335625 0.264000
0.396000 0.335625 0.264000
0.528000 0.335625 0.264000
0.660000 0.335625 0.264000
0.792000 0.335625 0.264000
0.924000 0.335625 0.264000
1.000000 0.335625 0.264000
0.000000 0.447500 0.264000
0.132000 0.447500 0.264000
0.264000 0.447500 0.264000
0.396000 0.447500 0.264000
0.528000 0.447500 0.264000
0.660000 0.447500 0.264000
0.792000 0.447500 0.264000
0.924000 0.447500 0.264000
1.000000 0.447500 0.264000
0.000000 0.559375 0.264000
0.132000 0.559375 0.264000
0.264000 0.559375 0.264000
0.396000 0.559375 0.264000
0.528000 0.559375 0.264000
0.660000 0.559375 0.264000
0.792000 0.559375 0.264000
0.924000 0.559375 0.264000
1.000000 0.559375 0.264000
0.000000 0.671250 0.264000
0.132000 0.671250 0.264000
0.264000 0.671250 0.264000
0.396000 0.671250 0.264000
0.528000 0.671250 0.264000
0.660000 0.671250 0.264000
0.792000 0.671250 0.264000
0.924000 0.671250 0.264000
1.000000 0.671250 0.264000
0.000000 0.783125 0.264000
0.132000 0.783125 0.264000
0.264000 0.783125 0.264000
0.396000 0.783125 0.264000
0.528000 0.783125 0.264000
0.660000 0.783125 0.264000
0.792000 0.783125 0.264000
0.924000 0.783125 0.264000
1.000000 0.783125 0.264000
0.000000 0.895000 0.264000
0.132000 0.895000 0.264000
0.264000 0.895000 0.264000
0.396000 0.895000 0.264000
0.528000 0.895000 0.264000
0.660000 0.895000 0.264000
0.792000 0.895000 0.264000
0.924000 0.895000 0.264000
1.000000 0.895000 0.264000
0.000000 0.000000 0.396000
0.132000 0.000000 0.396000
0.264000 0.000000 0.396000
0.396000 0.000000 0.396000
0.528000 0.000000 0.396000
0.660000 0.000000 0.396000
0.792000 0.000000 0.396000
0.924000 0.000000 0.396000
1.000000 0.000000 0.396000
0.000000 0.111875 0.396000
0.132000 0.111875 0.396000
0.264000 0.111875 0.396000
0.396000 0.111875 0.396000
0.528000 0.111875 0.396000
0.660000 0.111875 0.396000
0.792000 0.111875 0.396000
0.924000 0.111875 0.396000
1.000000 0.111875 0.396000
0.000000 0.223750 0.396000
0.132000 0.223750 0.396000
0.264000 0.223750 0.396000
0.396000 0.223750 0.396000
0.528000 0.223750 0.396000
0.660000 0.223750 0.396000
0.792000 0.223750 0.396000
0.924000 0.223750 0.396000
1.000000 0.223750 0.396000
0.000000 0.335625 0.396000
0.132000 0.335625 0.396000
0.264000 0.335625 0.396000
0.396000 0.335625 0.396000
0.528000 0.335625 0.396000
0.660000 0.335625 0.396000
0.792000 0.335625 0.396000
0.924000 0.335625 0.396000
1.000000 0.335625 0.396000
0.000000 0.447500 0.396000
0.132000 0.447500 0.396000
0.264000 0.447500 0.396000
0.396000 0.447500 0.396000
0.528000 0.447500 0.396000
0.660000 0.447500 0.396000
0.792000 0.447500 0.396000
0.924000 0.447500 0.396000
1.000000 0.447500 0.396000
0.000000 0.559375 0.396000
0.132000 0.559375 0.396000
0.264000 0.559375 0.396000
0.396000 0.559375 0.396000
0.528000 0.559375 0.396000
0.660000 0.559375 0.396000
0.792000 0.559375 0.396000
0.924000 0.559375 0.396000
1.000000 0.559375 0.396000
0.000000 0.671250 0.396000
0.132000 0.671250 0.396000
0.264000 0.671250 0.396000
0.396000 0.671250 0.396000
0.528000 0.671250 0.396000
0.660000 0.671250 0.396000
0.792000 0.671250 0.396000
0.924000 0.671250 0.396000
1.000000 0.671250 0.396000
0.000000 0.783125 0.396000
0.132000 0.783125 0.396000
0.264000 0.783125 0.396000
0.396000 0.783125 0.396000
0.528000 0.783125 0.396000
0.660000 0.783125 0.396000
0.792000 0.783125 0.396000
0.924000 0.783125 0.396000
1.000000 0.783125 0.396000
0.000000 0.895000 0.396000
0.132000 0.895000 0.396000
0.264000 0.895000 0.396000
0.396000 0.895000 0.396000
0.528000 0.895000 0.396000
0.660000 0.895000 0.396000
0.792000 0.895000 0.396000
0.924000 0.895000 0.396000
1.000000 0.895000 0.396000
0.000000 0.000000 0.528000
0.132000 0.000000 0.528000
0.264000 0.000000 0.528000
0.396000 0.000000 0.528000
0.528000 0.000000 0.528000
0.660000 0.000000 0.528000
0.792000 0.000000 0.528000
0.924000 0.000000 0.528000
1.000000 0.000000 0.528000
0.000000 0.111875 0.528000
0.132000 0.111875 0.528000
0.264000 0.111875 0.528000
0.396000 0.111875 0.528000
0.528000 0.111875 0.528000
0.660000 0.111875 0.528000
0.792000 0.111875 0.528000
0.924000 0.111875 0.528000
1.000000 0.111875 0.528000
0.000000 0.223750 0.528000
0.132000 0.223750 0.528000
0.264000 0.223750 0.528000
0.396000 0.223750 0.528000
0.528000 0.223750 0.528000
0.660000 0.223750 0.528000
0.792000 0.223750 0.528000
0.924000 0.223750 0.528000
1.000000 0.223750 0.528000
0.000000 0.335625 0.528000
0.132000 0.335625 0.528000
0.264000 0.335625 0.528000
0.396000 0.335625 0.528000
0.528000 0.335625 0.528000
0.660000 0.335625 0.528000
0.792000 0.335625 0.528000
0.924000 0.335625 0.528000
1.000000 0.335625 0.528000
0.000000 0.447500 0.528000
0.132000 0.447500 0.528000
0.264000 0.447500 0.528000
0.396000 0.447500 0.528000
0.528000 0.447500 0.528000
0.660000 0.447500 0.528000
0.792000 0.447500 0.528000
0.924000 0.447500 0.528000
1.000000 0.447500 0.528000
0.000000 0.559375 0.528000
0.132000 0.559375 0.528000
0.264000 0.559375 0.528000
0.396000 0.559375 0.528000
0.528000 0.559375 0.528000
0.660000 0.559375 0.528000
0.792000 0.559375 0.528000
0.924000 0.559375 0.528000
1.000000 0.559375 0.528000
0.000000 0.671250 0.528000
0.132000 0.671250 0.528000
0.264000 0.671250 0.528000
0.396000 0.671250 0.528000
0.528000 0.671250 0.528000
0.660000 0.671250 0.528000
0.792000 0.671250 0.528000
0.924000 0.671250 0.528000
1.000000 0.671250 0.528000
0.000000 0.783125 0.528000
0.132000 0.783125 0.528000
0.264000 0.783125 0.528000
0.396000 0.783125 0.528000
0.528000 0.783125 0.528000
0.660000 0.783125 0.528000
0.792000 0.783125 0.528000
0.924000 0.783125 0.528000
1.000000 0.783125 0.528000
0.000000 0.895000 0.528000
0.132000 0.895000 0.528000
0.264000 0.895000 0.528000
0.396000 0.895000 0.528000
0.528000 0.895000 0.528000
0.660000 0.895000 0.528000
0.792000 0.895000 0.528000
0.924000 0.895000 0.528000
1.000000 0.895000 0.528000
0.000000 0.000000 0.660000
0.132000 0.000000 0.660000
0.264000 0.000000 0.660000
0.396000 0.000000 0.660000
0.528000 0.000000 0.660000
0.660000 0.000000 0.660000
0.792000 0.000000 0.660000
0.924000 0.000000 0.660000
1.000000 0.000000 0.660000
0.000000 0.111875 0.660000
0.132000 0.111875 0.660000
0.264000 0.111875 0.660000
0.396000 0.111875 0.660000
0.528000 0.111875 0.660000
0.660000 0.111875 0.660000
0.792000 0.111875 0.660000
0.924000 0.111875 0.660000
1.000000 0.111875 0.660000
0.000000 0.223750 0.660000
0.132000 0.223750 0.660000
0.264000 0.223750 0.660000
0.396000 0.223750 0.660000
0.528000 0.223750 0.660000
0.660000 0.223750 0.660000
0.792000 0.223750 0.660000
0.924000 0.223750 0.660000
1.000000 0.223750 0.660000
0.000000 0.335625 0.660000
0.132000 0.335625 0.660000
0.264000 0.335625 0.660000
0.396000 0.335625 0.660000
0.528000 0.335625 0.660000
0.660000 0.335625 0.660000
0.792000 0.335625 0.660000
0.924000 0.335625 0.660000
1.000000 0.335625 0.660000
0.000000 0.447500 0.660000
0.132000 0.447500 0.660000
0.264000 0.447500 0.660000
0.396000 0.447500 0.660000
0.528000 0.447500 0.660000
0.660000 0.447500 0.660000
0.792000 0.447500 0.660000
0.924000 0.447500 0.660000
1.000000 0.447500 0.660000
0.000000 0.559375 0.660000
0.132000 0.559375 0.660000
0.264000 0.559375 0.660000
0.396000 0.559375 0.660000
0.528000 0.559375 0.660000
0.660000 0.559375 0.660000
0.792000 0.559375 0.660000
0.924000 0.559375 0.660000
1.000000 0.559375 0.660000
0.000000 0.671250 0.660000
0.132000 0.671250 0.660000
0.264000 0.671250 0.660000
0.396000 0.671250 0.660000
0.528000 0.671250 0.660000
0.660000 0.671250 0.660000
0.792000 0.671250 0.660000
0.924000 0.671250 0.660000
1.000000 0.671250 0.660000
0.000000 0.783125 0.660000
0.132000 0.783125 0.660000
0.264000 0.783125 0.660000
0.396000 0.783125 0.660000
0.528000 0.783125 0.660000
0.660000 0.783125 0.660000
0.792000 0.783125 0.660000
0.924000 0.783125 0.660000
1.000000 0.783125 0.660000
0.000000 0.895000 0.660000
0.132000 0.895000 0.660000
0.264000 0.895000 0.660000
0.396000 0.895000 0.660000
0.528000 0.895000 0.660000
0.660000 0.895000 0.660000
0.792000 0.895000 0.660000
0.924000 0.895000 0.660000
1.000000 0.895000 0.660000
0.000000 0.000000 0.792000
0.132000 0.000000 0.792000
0.264000 0.000000 0.792000
0.396000 0.000000 0.792000
0.528000 0.000000 0.792000
0.660000 0.000000 0.792000
0.792000 0.000000 0.792000
0.924000 0.000000 0.792000
1.000000 0.000000 0.792000
0.000000 0.111875 0.792000
0.132000 0.111875 0.792000
0.264000 0.111875 0.792000
0.396000 0.111875 0.792000
0.528000 0.111875 0.792000
0.660000 0.111875 0.792000
0.792000 0.111875 0.792000
0.924000 0.111875 0.792000
1.000000 0.111875 0.792000
0.000000 0.223750 0.792000
0.132000 0.223750 0.792000
0.264000 0.223750 0.792000
0.396000 0.223750 0.792000
0.528000 0.223750 0.792000
0.660000 0.223750 0.792000
0.792000 0.223750 0.792000
0.924000 0.223750 0.792000
1.000000 0.223750 0.792000
0.000000 0.335625 0.792000
0.132000 0.335625 0.792000
0.264000 0.335625 0.792000
0.396000 0.335625 0.792000
0.528000 0.335625 0.792000
0.660000 0.335625 0.792000
0.792000 0.335625 0.792000
0.924000 0.335625 0.792000
1.000000 0.335625 0.792000
0.000000 0.447500 0.792000
0.132000 0.447500 0.792000
0.264000 0.447500 0.792000
0.396000 0.447500 0.792000
0.528000 0.447500 0.792000
0.660000 0.447500 0.792000
0.792000 0.447500 0.792000
0.924000 0.447500 0.792000
1.000000 0.447500 0.792000
0.000000 0.559375 0.792000
0.132000 0.559375 0.792000
0.264000 0.559375 0.792000
0.396000 0.559375 0.792000
0.528000 0.559375 0.792000
0.660000 0.559375 0.792000
0.792000 0.559375 0.792000
0.924000 0.559375 0.792000
1.000000 0.559375 0.792000
0.000000 0.671250 0.792000
0.132000 0.671250 0.792000
0.264000 0.671250 0.792000
0.396000 0.671250 0.792000
0.528000 0.671250 0.792000
0.660000 0.671250 0.792000
0.792000 0.671250 0.792000
0.924000 0.671250 0.792000
1.000000 0.671250 0.792000
0.000000 0.783125 0.792000
0.132000 0.783125 0.792000
0.264000 0.783125 0.792000
0.396000 0.783125 0.792000
0.528000 0.783125 0.792000
0.660000 0.783125 0.792000
0.792000 0.783125 0.792000
0.924000 0.783125 0.792000
1.000000 0.783125 0.792000
0.000000 0.895000 0.792000
0.132000 0.895000 0.792000
0.264000 0.895000 0.792000
0.396000 0.895000 0.792000
0.528000 0.895000 0.792000
0.660000 0.895000 0.792000
0.792000 0.895000 0.792000
0.924000 0.895000 0.792000
1.000000 0.895000 0.792000
0.000000 0.000000 0.924000
0.132000 0.000000 0.924000
0.264000 0.000000 0.924000
0.396000 0.000000 0.924000
0.528000 0.000000 0.924000
0.660000 0.000000 0.924000
0.792000 0.000000 0.924000
0.924000 0.000000 0.924000
1.000000 0.000000 0.924000
0.000000 0.111875 0.924000
0.132000 0.111875 0.924000
0.264000 0.111875 0.924000
0.396000 0.111875 0.924000
0.528000 0.111875 0.924000
0.660000 0.111875 0.924000
0.792000 0.111875 0.924000
0.924000 0.111875 0.924000
1.000000 0.111875 0.924000
0.000000 0.223750 0.924000
0.132000 0.223750 0.924000
0.264000 0.223750 0.924000
0.396000 0.223750 0.924000
0.528000 0.223750 0.924000
0.660000 0.223750 0.924000
0.792000 0.223750 0.924000
0.924000 0.223750 0.924000
1.000000 0.223750 0.924000
0.000000 0.335625 0.924000
0.132000 0.335625 0.924000
0.264000 0.335625 0.924000
0.396000 0.335625 0.924000
0.528000 0.335625 0.924000
0.660000 0.335625 0.924000
0.792000 0.335625 0.924000
0.924000 0.335625 0.924000
1.000000 0.335625 0.924000
0.000000 0.447500 0.924000
0.132000 0.447500 0.924000
0.264000 0.447500 0.924000
0.396000 0.447500 0.924000
0.528000 0.447500 0.924000
0.660000 0.447500 0.924000
0.792000 0.447500 0.924000
0.924000 0.447500 0.924000
1.000000 0.447500 0.924000
0.000000 0.559375 0.924000
0.132000 0.559375 0.924000
0.264000 0.559375 0.924000
0.396000 0.559375 0.924000
0.528000 0.559375 0.924000
0.660000 0.559375 0.924000
0.792000 0.559375 0.924000
0.924000 0.559375 0.924000
1.000000 0.559375 0.924000
0.000000 0.671250 0.924000
0.132000 0.671250 0.924000
0.264000 0.671250 0.924000
0.396000 0.671250 0.924000
0.528000 0.671250 0.924000
0.660000 0.671250 0.924000
0.792000 0.671250 0.924000
0.924000 0.671250 0.924000
1.000000 0.671250 0.924000
0.000000 0.783125 0.924000
0.132000 0.783125 0.924000
0.264000 0.783125 0.924000
0.396000 0.783125 0.924000
0.528000 0.783125 0.924000
0.660000 0.783125 0.924000
0.792000 0.783125 0.924000
0.924000 0.783125 0.924000
1.000000 0.783125 0.924000
0.000000 0.895000 0.924000
0.132000 0.895000 0.924000
0.264000 0.895000 0.924000
0.396000 0.895000 0.924000
0.528000 0.895000 0.924000
0.660000 0.895000 0.924000
0.792000 0.895000 0.924000
0.924000 0.895000 0.924000
1.000000 0.895000 0.924000
0.000000 0.000000 1.000000
0.132000 0.000000 1.000000
0.264000 0.000000 1.000000
0.396000 0.000000 1.000000
0.528000 0.000000 1.000000
0.660000 0.000000 1.000000
0.792000 0.000000 1.000000
0.924000 0.000000 1.000000
1.000000 0.000000 1.000000
0.000000 0.111875 1.000000
0.132000 0.111875 1.000000
0.264000 0.111875 1.000000
0.396000 0.111875 1.000000
0.528000 0.111875 1.000000
0.660000 0.111875 1.000000
0.792000 0.111875 1.000000
0.924000 0.111875 1.000000
1.000000 0.111875 1.000000
0.000000 0.223750 1.000000
0.132000 0.223750 1.000000
0.264000 0.223750 1.000000
0.396000 0.223750 1.000000
0.528000 0.223750 1.000000
0.660000 0.223750 1.000000
0.792000 0.223750 1.000000
0.924000 0.223750 1.000000
1.000000 0.223750 1.000000
0.000000 0.335625 1.000000
0.132000 0.335625 1.000000
0.264000 0.335625 1.000000
0.396000 0.335625 1.000000
0.528000 0.335625 1.000000
0.660000 0.335625 1.000000
0.792000 0.335625 1.000000
0.924000 0.335625 1.000000
1.000000 0.335625 1.000000
0.000000 0.447500 1.000000
0.132000 0.447500 1.000000
0.264000 0.447500 1.000000
0.396000 0.447500 1.000000
0.528000 0.447500 1.000000
0.660000 0.447500 1.000000
0.792000 0.447500 1.000000
0.924000 0.447500 1.000000
1.000000 0.447500 1.000000
0.000000 0.559375 1.000000
0.132000 0.559375 1.000000
0.264000 0.559375 1.000000
0.396000 0.559375 1.000000
0.528000 0.559375 1.000000
0.660000 0.559375 1.000000
0.792000 0.559375 1.000000
0.924000 0.559375 1.000000
1.000000 0.559375 1.000000
0.000000 0.671250 1.000000
0.132000 0.671250 1.000000
0.264000 0.671250 1.000000
0.396000 0.671250 1.000000
0.528000 0.671250 1.000000
0.660000 0.671250 1.000000
0.792000 0.671250 1.000000
0.924000 0.671250 1.000000
1.000000 0.671250 1.000000
0.000000 0.783125 1.000000
0.132000 0.783125 1.000000
0.264000 0.783125 1.000000
0.396000 0.783125 1.000000
0.528000 0.783125 1.000000
0.660000 0.783125 1.000000
0.792000 0.783125 1.000000
0.924000 0.783125 1.000000
1.000000 0.783125 1.000000
0.000000 0.895000 1.000000
0.132000 0.895000 1.000000
0.264000 0.895000 1.000000
0.396000 0.895000 1.000000
0.528000 0.895000 1.000000
0.660000 0.895000 1.000000
0.792000 0.895000 1.000000
0.924000 0.895000 1.000000
1.000000 0.895000 1.000000
