assets/lighting/cinematic/grade-fluorescent-office/lut.cube
TITLE "Office Fluorescent"
# TKRS lighting-batch-001 original LUT
# Intended usage: cool green-biased office fluorescent
# License: CC0-1.0
LUT_3D_SIZE 5
DOMAIN_MIN 0.0 0.0 0.0
DOMAIN_MAX 1.0 1.0 1.0
0.000000 0.000000 0.000000
0.150430 0.000000 0.000000
0.315236 0.000000 0.000000
0.480041 0.004290 0.003666
0.644933 0.011589 0.009903
0.005096 0.195159 0.005332
0.170456 0.203018 0.011601
0.341313 0.213274 0.018109
0.519166 0.224312 0.024861
0.704711 0.235946 0.031875
0.025671 0.423498 0.026709
0.202019 0.438789 0.033795
0.386026 0.454811 0.041160
0.578203 0.471502 0.048816
0.778961 0.488825 0.056774
0.049354 0.684375 0.050913
0.239339 0.705923 0.058952
0.437942 0.728193 0.067304
0.645496 0.751155 0.075977
0.862291 0.774788 0.084976
0.076595 0.979410 0.078349
0.281634 1.000000 0.087438
0.493353 1.000000 0.096408
0.700178 1.000000 0.104025
0.907003 1.000000 0.111642
0.000000 0.000000 0.144856
0.152353 0.000000 0.151092
0.317158 0.000000 0.157328
0.481964 0.006644 0.163564
0.649377 0.013990 0.170394
0.007018 0.197513 0.165230
0.173208 0.206213 0.172665
0.345319 0.216763 0.181687
0.524549 0.228004 0.191304
0.711567 0.239815 0.201414
0.027862 0.428346 0.193959
0.205474 0.443881 0.204193
0.390862 0.460125 0.214874
0.584511 0.477023 0.225986
0.786815 0.494543 0.237518
0.051880 0.691246 0.229026
0.243297 0.713030 0.240670
0.443407 0.735526 0.252729
0.652532 0.758707 0.265200
0.870954 0.782553 0.278083
0.079489 0.988433 0.268603
0.286076 1.000000 0.281595
0.495765 1.000000 0.291726
0.702591 1.000000 0.299344
0.909416 1.000000 0.306961
0.000000 0.000000 0.304754
0.154275 0.000000 0.310990
0.319081 0.001701 0.317226
0.483886 0.008999 0.323462
0.654490 0.016420 0.332258
0.008941 0.199868 0.325128
0.176075 0.209526 0.335223
0.349433 0.220322 0.347027
0.530044 0.231754 0.359673
0.718538 0.243738 0.373002
0.030084 0.433276 0.363172
0.208981 0.449047 0.376668
0.395765 0.465506 0.390759
0.590896 0.482608 0.405405
0.794755 0.500324 0.420583
0.054441 0.698194 0.409410
0.247303 0.720211 0.424726
0.448931 0.742930 0.440552
0.659635 0.766328 0.456878
0.879692 0.790384 0.473694
0.082422 0.997535 0.461323
0.290564 1.000000 0.478270
0.498178 1.000000 0.487045
0.705003 1.000000 0.494662
0.911829 1.000000 0.502279
0.000000 0.000000 0.464652
0.156198 0.000000 0.470888
0.321003 0.004055 0.477124
0.485809 0.011353 0.483359
0.659961 0.018879 0.495706
0.010894 0.202708 0.486218
0.179033 0.212930 0.499434
0.353645 0.223946 0.514217
0.535642 0.235562 0.530032
0.725619 0.247715 0.546688
0.032338 0.438285 0.534405
0.212539 0.454284 0.551268
0.400732 0.470955 0.568855
0.597357 0.488257 0.587111
0.802778 0.506166 0.605999
0.057037 0.705218 0.592097
0.251357 0.727465 0.611149
0.454512 0.750405 0.630801
0.666805 0.774017 0.651033
0.888504 0.798283 0.671832
0.085393 1.000000 0.656536
0.293765 1.000000 0.674746
0.500591 1.000000 0.682363
0.707416 1.000000 0.689980
0.914242 1.000000 0.697597
0.000000 0.000000 0.624550
0.158120 0.000000 0.630786
0.322926 0.006409 0.637022
0.489478 0.013749 0.645259
0.665696 0.021365 0.660873
0.012882 0.205888 0.649151
0.182066 0.216412 0.665414
0.357947 0.227632 0.683334
0.541340 0.239426 0.702438
0.732805 0.251744 0.722520
0.034624 0.443370 0.707714
0.216147 0.459591 0.728036
0.405763 0.476469 0.749199
0.603892 0.493970 0.771134
0.810884 0.512070 0.793796
0.059669 0.712317 0.777120
0.255458 0.734791 0.799969
0.460152 0.757950 0.823501
0.674041 0.781774 0.847691
0.892219 0.802173 0.868029
0.088403 1.000000 0.854264
0.296178 1.000000 0.870064
0.503003 1.000000 0.877681
0.709829 1.000000 0.885298
0.916654 1.000000 0.892916
