assets/lighting/cinematic/grade-fluorescent-office/lut.cube
TITLE "Office Fluorescent"
# TKRS lighting-batch-001 original LUT
# Intended usage: cool green-biased office fluorescent
# License: CC0-1.0
LUT_3D_SIZE 17
DOMAIN_MIN 0.0 0.0 0.0
DOMAIN_MAX 1.0 1.0 1.0
0.000000 0.000000 0.000000
0.026826 0.000000 0.000000
0.068028 0.000000 0.000000
0.109229 0.000000 0.000000
0.150430 0.000000 0.000000
0.191632 0.000000 0.000000
0.232833 0.000000 0.000000
0.274034 0.000000 0.000000
0.315236 0.000000 0.000000
0.356437 0.000000 0.000000
0.397639 0.000641 0.000548
0.438840 0.002466 0.002107
0.480041 0.004290 0.003666
0.521243 0.006115 0.005225
0.562444 0.007939 0.006784
0.603645 0.009764 0.008343
0.644933 0.011589 0.009903
0.000000 0.035587 0.000000
0.031694 0.037412 0.000000
0.072895 0.039236 0.000000
0.114097 0.041061 0.000000
0.155298 0.042885 0.000000
0.196499 0.044709 0.000000
0.237701 0.046534 0.000000
0.278902 0.048358 0.000964
0.320104 0.050183 0.002523
0.361305 0.052007 0.004082
0.402506 0.053832 0.005641
0.443708 0.055656 0.007200
0.484909 0.057481 0.008759
0.526519 0.059344 0.010325
0.569552 0.061335 0.011918
0.613192 0.063366 0.013526
0.657363 0.065427 0.015148
0.000000 0.088778 0.000000
0.036562 0.090602 0.000000
0.077763 0.092427 0.000000
0.118964 0.094251 0.000000
0.160166 0.096076 0.001381
0.201367 0.097900 0.002940
0.242569 0.099725 0.004499
0.283770 0.101549 0.006058
0.324971 0.103373 0.007617
0.366173 0.105198 0.009176
0.408001 0.107162 0.010749
0.450777 0.109301 0.012346
0.494063 0.111495 0.013958
0.537833 0.113730 0.015584
0.582082 0.116002 0.017226
0.626814 0.118307 0.018882
0.672033 0.120642 0.020554
0.000228 0.141968 0.000239
0.041429 0.143793 0.001798
0.082631 0.145617 0.003357
0.123832 0.147442 0.004916
0.165034 0.149266 0.006474
0.206235 0.151091 0.008033
0.247436 0.152915 0.009592
0.289323 0.155052 0.011174
0.331784 0.157349 0.012775
0.374690 0.159713 0.014391
0.418039 0.162128 0.016022
0.461839 0.164588 0.017667
0.506099 0.167087 0.019327
0.550827 0.169624 0.021003
0.596033 0.172195 0.022695
0.641725 0.174801 0.024402
0.687911 0.177439 0.026126
0.005096 0.195159 0.005332
0.046297 0.196983 0.006891
0.087499 0.198808 0.008450
0.128736 0.200680 0.010011
0.170456 0.203018 0.011601
0.212563 0.205482 0.013206
0.255064 0.208022 0.014825
0.297976 0.210622 0.016460
0.341313 0.213274 0.018109
0.385089 0.215972 0.019774
0.429316 0.218712 0.021454
0.474005 0.221493 0.023149
0.519166 0.224312 0.024861
0.564809 0.227168 0.026590
0.610942 0.230059 0.028334
0.657574 0.232985 0.030096
0.704711 0.235946 0.031875
0.009973 0.248553 0.010434
0.051380 0.251066 0.012028
0.093102 0.253704 0.013637
0.135179 0.256426 0.015261
0.177638 0.259215 0.016899
0.220500 0.262062 0.018552
0.263782 0.264961 0.020221
0.307498 0.267909 0.021905
0.351662 0.270901 0.023605
0.396285 0.273936 0.025321
0.441377 0.277012 0.027054
0.486949 0.280128 0.028803
0.533009 0.283281 0.030570
0.579566 0.286473 0.032353
0.626627 0.289700 0.034153
0.674200 0.292964 0.035972
0.722291 0.296262 0.037807
0.015027 0.304925 0.015697
0.057020 0.307907 0.017339
0.099395 0.310954 0.018997
0.142172 0.314058 0.020669
0.185369 0.317215 0.022358
0.229000 0.320421 0.024062
0.273077 0.323675 0.025783
0.317613 0.326973 0.027520
0.362617 0.330315 0.029274
0.408100 0.333698 0.031044
0.454070 0.337122 0.032832
0.500536 0.340585 0.034638
0.547506 0.344087 0.036460
0.594987 0.347627 0.038301
0.642985 0.351205 0.040159
0.691509 0.354819 0.042036
0.740563 0.358470 0.043931
0.020257 0.363262 0.021119
0.062925 0.366631 0.022812
0.106015 0.370054 0.024520
0.149540 0.373528 0.026245
0.193512 0.377051 0.027987
0.237943 0.380621 0.029745
0.282843 0.384235 0.031520
0.328222 0.387894 0.033313
0.374088 0.391594 0.035123
0.420450 0.395337 0.036950
0.467316 0.399120 0.038796
0.514692 0.402943 0.040659
0.562586 0.406806 0.042540
0.611004 0.410707 0.044440
0.659953 0.414646 0.046359
0.709439 0.418623 0.048295
0.759467 0.422637 0.050251
0.025671 0.423498 0.026709
0.069073 0.427248 0.028455
0.112925 0.431047 0.030218
0.157237 0.434895 0.031998
0.202019 0.438789 0.033795
0.247281 0.442729 0.035609
0.293031 0.446713 0.037442
0.339276 0.450741 0.039292
0.386026 0.454811 0.041160
0.433287 0.458923 0.043046
0.481066 0.463076 0.044951
0.529369 0.467269 0.046874
0.578203 0.471502 0.048816
0.627573 0.475775 0.050777
0.677486 0.480087 0.052757
0.727947 0.484437 0.054756
0.778961 0.488825 0.056774
0.031279 0.485676 0.032476
0.075460 0.489809 0.034278
0.120112 0.493989 0.036097
0.165245 0.498217 0.037934
0.210867 0.502490 0.039789
0.256986 0.506809 0.041662
0.303610 0.511172 0.043553
0.350745 0.515578 0.045463
0.398399 0.520026 0.047391
0.446578 0.524517 0.049338
0.495288 0.529049 0.051304
0.544534 0.533622 0.053289
0.594324 0.538236 0.055293
0.644661 0.542889 0.057316
0.695552 0.547583 0.059359
0.747000 0.552315 0.061421
0.799012 0.557087 0.063503
0.037092 0.549848 0.038428
0.082086 0.554369 0.040288
0.127570 0.558937 0.042166
0.173553 0.563552 0.044062
0.220041 0.568212 0.045977
0.267042 0.572918 0.047910
0.314562 0.577667 0.049862
0.362608 0.582460 0.051833
0.411186 0.587295 0.053823
0.460300 0.592174 0.055832
0.509958 0.597094 0.057860
0.560165 0.602055 0.059908
0.610925 0.607058 0.061976
0.662243 0.612101 0.064063
0.714125 0.617185 0.066170
0.766575 0.622309 0.068297
0.819597 0.627472 0.070444
0.043114 0.616065 0.044572
0.088952 0.620981 0.046491
0.135297 0.625944 0.048430
0.182155 0.630953 0.050387
0.229534 0.636007 0.052362
0.277438 0.641107 0.054358
0.325876 0.646251 0.056372
0.374851 0.651438 0.058405
0.424370 0.656669 0.060459
0.474439 0.661943 0.062531
0.525061 0.667259 0.064624
0.576242 0.672617 0.066736
0.627987 0.678017 0.068869
0.680300 0.683458 0.071021
0.733187 0.688940 0.073194
0.786650 0.694463 0.075387
0.840696 0.700026 0.077601
0.049354 0.684375 0.050913
0.096062 0.689693 0.052894
0.143292 0.695057 0.054894
0.191049 0.700467 0.056913
0.239339 0.705923 0.058952
0.288168 0.711424 0.061011
0.337541 0.716970 0.063089
0.387464 0.722560 0.065186
0.437942 0.728193 0.067304
0.488980 0.733870 0.069442
0.540581 0.739589 0.071600
0.592752 0.745351 0.073778
0.645496 0.751155 0.075977
0.698818 0.757001 0.078196
0.752722 0.762889 0.080435
0.807211 0.768818 0.082695
0.862291 0.774788 0.084976
0.055817 0.754824 0.057456
0.103419 0.760550 0.059500
0.151556 0.766322 0.061564
0.200232 0.772140 0.063647
0.249453 0.778004 0.065750
0.299225 0.783914 0.067873
0.349552 0.789868 0.070017
0.400440 0.795867 0.072180
0.451892 0.801910 0.074364
0.503915 0.807996 0.076568
0.556510 0.814126 0.078792
0.609685 0.820299 0.081037
0.663441 0.826514 0.083303
0.717784 0.832772 0.085589
0.772717 0.839073 0.087897
0.828245 0.845415 0.090225
0.884370 0.851799 0.092575
0.062509 0.827454 0.064207
0.111026 0.833593 0.066316
0.160089 0.839780 0.068444
0.209704 0.846013 0.070593
0.259875 0.852291 0.072761
0.310607 0.858616 0.074950
0.361904 0.864985 0.077160
0.413772 0.871400 0.079390
0.466214 0.877858 0.081640
0.519235 0.884361 0.083912
0.572839 0.890908 0.086204
0.627030 0.897498 0.088517
0.681812 0.904132 0.090851
0.737188 0.910808 0.093206
0.791373 0.915711 0.095390
0.843079 0.917931 0.097295
0.894786 0.920151 0.099199
0.069433 0.902303 0.071170
0.118885 0.908863 0.073344
0.168894 0.915470 0.075539
0.219465 0.922123 0.077754
0.270602 0.928823 0.079989
0.322310 0.935568 0.082245
0.374594 0.942359 0.084522
0.427456 0.949195 0.086820
0.480903 0.956076 0.089139
0.534937 0.963001 0.091479
0.589562 0.969971 0.093839
0.642363 0.973770 0.095899
0.694069 0.975990 0.097804
0.745776 0.978210 0.099708
0.797482 0.980429 0.101612
0.849188 0.982649 0.103516
0.900895 0.984869 0.105421
0.076595 0.979410 0.078349
0.126999 0.986396 0.080590
0.177971 0.993429 0.082852
0.229515 1.000000 0.085134
0.281634 1.000000 0.087438
0.334334 1.000000 0.089762
0.387618 1.000000 0.092107
0.441490 1.000000 0.094474
0.493353 1.000000 0.096408
0.545059 1.000000 0.098312
0.596765 1.000000 0.100217
0.648472 1.000000 0.102121
0.700178 1.000000 0.104025
0.751884 1.000000 0.105930
0.803591 1.000000 0.107834
0.855297 1.000000 0.109738
0.907003 1.000000 0.111642
0.000000 0.000000 0.024933
0.027307 0.000000 0.026492
0.068508 0.000000 0.028051
0.109710 0.000000 0.029610
0.150911 0.000000 0.031169
0.192112 0.000000 0.032728
0.233314 0.000000 0.034287
0.274515 0.000000 0.035846
0.315716 0.000000 0.037404
0.356918 0.000000 0.038963
0.398119 0.001230 0.040522
0.439321 0.003054 0.042081
0.480522 0.004879 0.043640
0.521723 0.006703 0.045199
0.562925 0.008528 0.046758
0.604126 0.010352 0.048317
0.645925 0.012186 0.049916
0.000000 0.036176 0.030026
0.032175 0.038000 0.031585
0.073376 0.039825 0.033144
0.114577 0.041649 0.034703
0.155779 0.043474 0.036262
0.196980 0.045298 0.037821
0.238181 0.047123 0.039380
0.279383 0.048947 0.040939
0.320584 0.050771 0.042498
0.361786 0.052596 0.044057
0.402987 0.054420 0.045616
0.444188 0.056245 0.047175
0.485390 0.058069 0.048734
0.527490 0.059981 0.050367
0.570694 0.061986 0.052082
0.614459 0.064027 0.053827
0.658743 0.066098 0.055597
0.000000 0.089366 0.035120
0.037042 0.091191 0.036679
0.078244 0.093015 0.038238
0.119445 0.094840 0.039797
0.160646 0.096664 0.041356
0.201848 0.098489 0.042914
0.243049 0.100313 0.044473
0.284251 0.102138 0.046032
0.325452 0.103962 0.047591
0.366653 0.105787 0.049150
0.408897 0.107845 0.050822
0.451798 0.110004 0.052545
0.495191 0.112212 0.054298
0.539061 0.114459 0.056074
0.583408 0.116742 0.057874
0.628237 0.119057 0.059694
0.673554 0.121402 0.061536
0.000709 0.142557 0.040213
0.041910 0.144381 0.041772
0.083111 0.146206 0.043331
0.124313 0.148030 0.044890
0.165514 0.149855 0.046449
0.206716 0.151679 0.048008
0.248019 0.153557 0.049585
0.290116 0.155784 0.051279
0.332675 0.158105 0.053011
0.375672 0.160487 0.054770
0.419110 0.162917 0.056553
0.462999 0.165390 0.058358
0.507349 0.167901 0.060184
0.552168 0.170450 0.062032
0.597466 0.173032 0.063899
0.643251 0.175648 0.065787
0.689532 0.178296 0.067695
0.005576 0.195748 0.045307
0.046778 0.197572 0.046866
0.087979 0.199396 0.048424
0.129325 0.201413 0.050032
0.171130 0.203803 0.051739
0.213314 0.206294 0.053479
0.255894 0.208855 0.055244
0.298885 0.211472 0.057033
0.342304 0.214139 0.058844
0.386164 0.216851 0.060676
0.430476 0.219605 0.062529
0.475252 0.222398 0.064402
0.520501 0.225229 0.066295
0.566234 0.228097 0.068209
0.612459 0.230999 0.070143
0.659183 0.233937 0.072096
0.706414 0.236908 0.074070
0.010464 0.249344 0.050484
0.051923 0.251906 0.052201
0.093706 0.254574 0.053948
0.135850 0.257319 0.055720
0.178381 0.260127 0.057515
0.221317 0.262992 0.059331
0.264677 0.265907 0.061169
0.308473 0.268869 0.063027
0.352719 0.271876 0.064906
0.397426 0.274924 0.066805
0.442604 0.278013 0.068724
0.488264 0.281141 0.070663
0.534413 0.284307 0.072622
0.581060 0.287510 0.074601
0.628213 0.290749 0.076601
0.675880 0.294024 0.078621
0.724066 0.297334 0.080661
0.015536 0.305879 0.056198
0.057592 0.308883 0.057998
0.100035 0.311949 0.059820
0.142884 0.315070 0.061664
0.186156 0.318244 0.063527
0.229864 0.321466 0.065411
0.274021 0.324734 0.067315
0.318639 0.328046 0.069240
0.363728 0.331401 0.071184
0.409296 0.334798 0.073149
0.455354 0.338235 0.075134
0.501910 0.341711 0.077139
0.548970 0.345225 0.079164
0.596543 0.348777 0.081209
0.644635 0.352367 0.083275
0.693252 0.355993 0.085361
0.742402 0.359655 0.087468
0.020783 0.364343 0.062159
0.063522 0.367730 0.064029
0.106685 0.371170 0.065918
0.150286 0.374660 0.067828
0.194336 0.378198 0.069757
0.238848 0.381782 0.071707
0.283831 0.385411 0.073677
0.329294 0.389083 0.075667
0.375247 0.392797 0.077678
0.421697 0.396553 0.079708
0.468652 0.400349 0.081759
0.516119 0.404185 0.083831
0.564105 0.408060 0.085922
0.612616 0.411973 0.088034
0.661660 0.415925 0.090167
0.711241 0.419914 0.092321
0.761366 0.423940 0.094495
0.026216 0.424702 0.068341
0.069693 0.428468 0.070276
0.113623 0.432283 0.072232
0.158014 0.436146 0.074207
0.202878 0.440055 0.076203
0.248223 0.444009 0.078218
0.294058 0.448008 0.080254
0.340391 0.452049 0.082311
0.387229 0.456133 0.084387
0.434580 0.460258 0.086485
0.482449 0.464424 0.088602
0.530845 0.468630 0.090741
0.579773 0.472876 0.092900
0.629238 0.477162 0.095079
0.679247 0.481486 0.097280
0.729804 0.485848 0.099501
0.780916 0.490249 0.101744
0.031844 0.487004 0.074738
0.076103 0.491152 0.076739
0.120836 0.495348 0.078760
0.166052 0.499590 0.080802
0.211758 0.503879 0.082864
0.257964 0.508211 0.084946
0.304675 0.512588 0.087048
0.351899 0.517008 0.089172
0.399643 0.521470 0.091316
0.447914 0.525974 0.093480
0.496717 0.530520 0.095665
0.546057 0.535106 0.097872
0.595942 0.539733 0.100099
0.646375 0.544399 0.102347
0.697363 0.549105 0.104616
0.748910 0.553851 0.106907
0.801022 0.558635 0.109218
0.037677 0.551301 0.081351
0.082753 0.555838 0.083418
0.128321 0.560421 0.085506
0.174389 0.565051 0.087614
0.220964 0.569725 0.089743
0.268054 0.574445 0.091892
0.315664 0.579208 0.094062
0.363800 0.584015 0.096253
0.412470 0.588865 0.098465
0.461678 0.593756 0.100697
0.511431 0.598690 0.102951
0.561732 0.603665 0.105226
0.612589 0.608681 0.107522
0.664005 0.613737 0.109840
0.715986 0.618834 0.112178
0.768535 0.623970 0.114539
0.821658 0.629147 0.116920
0.043721 0.617646 0.088181
0.089643 0.622577 0.090315
0.136074 0.627555 0.092470
0.183020 0.632579 0.094645
0.230488 0.637648 0.096842
0.278483 0.642762 0.099059
0.327012 0.647919 0.101298
0.376080 0.653121 0.103557
0.425693 0.658366 0.105838
0.475857 0.663653 0.108139
0.526575 0.668983 0.110462
0.577853 0.674354 0.112807
0.629696 0.679767 0.115173
0.682108 0.685222 0.117561
0.735095 0.690717 0.119970
0.788659 0.696253 0.122401
0.842806 0.701829 0.124853
0.049983 0.686085 0.095230
0.096778 0.691418 0.097432
0.144096 0.696797 0.099655
0.191942 0.702223 0.101899
0.240324 0.707693 0.104164
0.289245 0.713209 0.106451
0.338712 0.718768 0.108758
0.388730 0.724372 0.111087
0.439303 0.730020 0.113437
0.490437 0.735710 0.115809
0.542136 0.741443 0.118202
0.594405 0.747219 0.120617
0.647249 0.753037 0.123054
0.700671 0.758896 0.125512
0.754676 0.764797 0.127993
0.809267 0.770740 0.130495
0.864450 0.776723 0.133020
0.056468 0.756666 0.102502
0.104159 0.762407 0.104773
0.152386 0.768194 0.107065
0.201154 0.774027 0.109378
0.250469 0.779906 0.111713
0.300334 0.785830 0.114069
0.350757 0.791799 0.116446
0.401741 0.797812 0.118845
0.453290 0.803868 0.121266
0.505410 0.809969 0.123709
0.558105 0.816113 0.126173
0.611379 0.822299 0.128659
0.665236 0.828529 0.131168
0.719680 0.834800 0.133698
0.774716 0.841114 0.136250
0.830347 0.847470 0.138825
0.886576 0.853867 0.141422
0.063182 0.829429 0.110000
0.111790 0.835584 0.112340
0.160946 0.841785 0.114702
0.210655 0.848033 0.117085
0.260920 0.854327 0.119490
0.311748 0.860666 0.121917
0.363142 0.867050 0.124365
0.415108 0.873478 0.126835
0.467648 0.879951 0.129327
0.520769 0.886469 0.131842
0.574473 0.893029 0.134378
0.628765 0.899633 0.136936
0.683649 0.906281 0.139517
0.739128 0.912971 0.142120
0.791976 0.916428 0.144220
0.843683 0.918647 0.146124
0.895389 0.920867 0.148029
0.070129 0.904414 0.117726
0.119675 0.910989 0.120136
0.169778 0.917611 0.122569
0.220444 0.924280 0.125023
0.271678 0.930994 0.127499
0.323483 0.937754 0.129997
0.375865 0.944560 0.132517
0.428827 0.951410 0.135059
0.482373 0.958305 0.137624
0.536507 0.965245 0.140210
0.591234 0.972229 0.142819
0.642966 0.974486 0.144729
0.694672 0.976706 0.146633
0.746379 0.978926 0.148537
0.798085 0.981146 0.150442
0.849791 0.983365 0.152346
0.901498 0.985585 0.154250
0.077315 0.981659 0.125683
0.127814 0.988659 0.128164
0.178882 0.995707 0.130668
0.230523 1.000000 0.133194
0.282740 1.000000 0.135742
0.335539 1.000000 0.138313
0.388922 1.000000 0.140905
0.442249 1.000000 0.143333
0.493956 1.000000 0.145238
0.545662 1.000000 0.147142
0.597368 1.000000 0.149046
0.649075 1.000000 0.150951
0.700781 1.000000 0.152855
0.752488 1.000000 0.154759
0.804194 1.000000 0.156663
0.855900 1.000000 0.158568
0.907607 1.000000 0.160472
0.000000 0.000000 0.064907
0.027787 0.000000 0.066466
0.068989 0.000000 0.068025
0.110190 0.000000 0.069584
0.151392 0.000000 0.071143
0.192593 0.000000 0.072702
0.233794 0.000000 0.074261
0.274996 0.000000 0.075820
0.316197 0.000000 0.077379
0.357398 0.000000 0.078938
0.398600 0.001818 0.080497
0.439801 0.003643 0.082056
0.481003 0.005467 0.083615
0.522204 0.007292 0.085174
0.563405 0.009116 0.086733
0.604607 0.010941 0.088292
0.647021 0.012786 0.089997
0.000000 0.036764 0.070001
0.032655 0.038589 0.071560
0.073857 0.040413 0.073119
0.115058 0.042238 0.074678
0.156259 0.044062 0.076237
0.197461 0.045887 0.077796
0.238662 0.047711 0.079354
0.279863 0.049536 0.080913
0.321065 0.051360 0.082472
0.362266 0.053184 0.084031
0.403468 0.055009 0.085590
0.444669 0.056833 0.087149
0.485870 0.058658 0.088708
0.528514 0.060623 0.090482
0.571863 0.062641 0.092330
0.615747 0.064692 0.094220
0.660140 0.066771 0.096144
0.000000 0.089955 0.075094
0.037523 0.091779 0.076653
0.078724 0.093604 0.078212
0.119926 0.095428 0.079771
0.161127 0.097253 0.081330
0.202328 0.099077 0.082889
0.243530 0.100902 0.084448
0.284731 0.102726 0.086007
0.325933 0.104551 0.087566
0.367335 0.106425 0.089167
0.409823 0.108535 0.090971
0.452839 0.110711 0.092831
0.496334 0.112933 0.094731
0.540303 0.115192 0.096663
0.584746 0.117485 0.098625
0.629672 0.119810 0.100613
0.675085 0.122165 0.102628
0.001189 0.143145 0.080188
0.042391 0.144970 0.081747
0.083592 0.146794 0.083306
0.124793 0.148619 0.084864
0.165995 0.150443 0.086423
0.207196 0.152268 0.087982
0.248716 0.154260 0.089641
0.290928 0.156525 0.091464
0.333579 0.158868 0.093336
0.376665 0.161266 0.095244
0.420192 0.163710 0.097184
0.464170 0.166196 0.099153
0.508609 0.168720 0.101149
0.553519 0.171279 0.103171
0.598909 0.173873 0.105218
0.644787 0.176499 0.107289
0.691161 0.179158 0.109384
0.006057 0.196336 0.085281
0.047258 0.198161 0.086840
0.088460 0.199985 0.088399
0.129933 0.202169 0.090122
0.171814 0.204598 0.091960
0.214074 0.207114 0.093842
0.256731 0.209694 0.095760
0.299802 0.212328 0.097708
0.343302 0.215009 0.099684
0.387245 0.217735 0.101687
0.431643 0.220502 0.103715
0.476505 0.223307 0.105769
0.521844 0.226150 0.107846
0.567666 0.229029 0.109948
0.613982 0.231943 0.112072
0.660799 0.234891 0.114220
0.708124 0.237873 0.116392
0.010957 0.250156 0.090607
0.052469 0.252757 0.092459
0.094315 0.255452 0.094351
0.136526 0.258218 0.096277
0.179128 0.261046 0.098233
0.222140 0.263927 0.100217
0.265576 0.266858 0.102227
0.309453 0.269834 0.104262
0.353781 0.272854 0.106321
0.398572 0.275916 0.108405
0.443837 0.279018 0.110513
0.489584 0.282158 0.112644
0.535823 0.285336 0.114798
0.582561 0.288551 0.116976
0.629806 0.291802 0.119176
0.677566 0.295088 0.121399
0.725847 0.298409 0.123645
0.016046 0.306841 0.096797
0.058166 0.309866 0.098761
0.100678 0.312950 0.100751
0.143600 0.316089 0.102768
0.186946 0.319278 0.104810
0.230733 0.322515 0.106876
0.274970 0.325798 0.108966
0.319670 0.329124 0.111080
0.364843 0.332493 0.113217
0.410498 0.335902 0.115378
0.456644 0.339352 0.117561
0.503288 0.342840 0.119768
0.550440 0.346367 0.121997
0.598104 0.349931 0.124249
0.646290 0.353533 0.126524
0.695002 0.357170 0.128821
0.744247 0.360844 0.131141
0.021311 0.365429 0.103311
0.064120 0.368834 0.105360
0.107357 0.372290 0.107432
0.151034 0.375796 0.109529
0.195164 0.379349 0.111649
0.239757 0.382948 0.113793
0.284823 0.386591 0.115959
0.330371 0.390277 0.118149
0.376410 0.394004 0.120361
0.422948 0.397773 0.122597
0.469992 0.401582 0.124855
0.517550 0.405431 0.127135
0.565629 0.409318 0.129439
0.614234 0.413244 0.131765
0.663372 0.417208 0.134113
0.713049 0.421209 0.136484
0.763271 0.425247 0.138878
0.026762 0.425911 0.110093
0.070316 0.429693 0.112220
0.114323 0.433524 0.114369
0.158794 0.437402 0.116542
0.203740 0.441326 0.118738
0.249169 0.445295 0.120956
0.295089 0.449307 0.123198
0.341509 0.453362 0.125462
0.388436 0.457459 0.127749
0.435876 0.461598 0.130058
0.483838 0.465777 0.132390
0.532326 0.469996 0.134745
0.581347 0.474255 0.137122
0.630908 0.478552 0.139522
0.681012 0.482889 0.141945
0.731667 0.487264 0.144390
0.782877 0.491676 0.146858
0.032411 0.488337 0.117127
0.076749 0.492500 0.119328
0.121563 0.496712 0.121553
0.166862 0.500969 0.123801
0.212653 0.505272 0.126071
0.258944 0.509619 0.128363
0.305743 0.514009 0.130679
0.353057 0.518443 0.133017
0.400892 0.522919 0.135378
0.449254 0.527436 0.137761
0.498150 0.531995 0.140167
0.547585 0.536594 0.142596
0.597565 0.541234 0.145047
0.648095 0.545913 0.147521
0.699180 0.550632 0.150018
0.750825 0.555390 0.152538
0.803036 0.560186 0.155080
0.038264 0.552760 0.124405
0.083422 0.557311 0.126681
0.129075 0.561909 0.128980
0.175228 0.566554 0.131301
0.221891 0.571243 0.133646
0.269068 0.575977 0.136012
0.316768 0.580754 0.138402
0.364996 0.585575 0.140814
0.413758 0.590438 0.143249
0.463060 0.595343 0.145706
0.512907 0.600290 0.148186
0.563305 0.605278 0.150689
0.614258 0.610307 0.153215
0.665772 0.615377 0.155763
0.717851 0.620486 0.158335
0.770500 0.625636 0.160929
0.823724 0.630825 0.163547
0.044329 0.619231 0.131926
0.090337 0.624178 0.134276
0.136854 0.629170 0.136649
0.183888 0.634209 0.139044
0.231445 0.639293 0.141462
0.279531 0.644421 0.143903
0.328152 0.649593 0.146367
0.377313 0.654808 0.148853
0.427020 0.660067 0.151362
0.477278 0.665368 0.153894
0.528093 0.670711 0.156448
0.579468 0.676096 0.159026
0.631410 0.681523 0.161627
0.683921 0.686990 0.164250
0.737007 0.692498 0.166897
0.790673 0.698047 0.169566
0.844921 0.703636 0.172259
0.050613 0.687801 0.139688
0.097496 0.693148 0.142112
0.144902 0.698543 0.144559
0.192839 0.703982 0.147029
0.241312 0.709468 0.149521
0.290326 0.714997 0.152036
0.339886 0.720571 0.154574
0.389998 0.726189 0.157135
0.440667 0.731851 0.159719
0.491898 0.737555 0.162325
0.543695 0.743302 0.164955
0.596063 0.749091 0.167608
0.649006 0.754922 0.170283
0.702528 0.760795 0.172982
0.756634 0.766710 0.175704
0.811328 0.772665 0.178450
0.866613 0.778662 0.181218
0.057121 0.758513 0.147692
0.104902 0.764268 0.150191
0.153219 0.770071 0.152712
0.202079 0.775919 0.155256
0.251487 0.781812 0.157823
0.301447 0.787751 0.160413
0.351965 0.793734 0.163026
0.403045 0.799761 0.165662
0.454691 0.805832 0.168320
0.506910 0.811946 0.171002
0.559704 0.818104 0.173707
0.613077 0.824304 0.176436
0.667035 0.830547 0.179187
0.721581 0.836833 0.181962
0.776719 0.843160 0.184760
0.832453 0.849529 0.187582
0.888786 0.855940 0.190427
0.063857 0.831409 0.155940
0.112558 0.837579 0.158513
0.161806 0.843796 0.161109
0.211608 0.850059 0.163728
0.261969 0.856367 0.166370
0.312892 0.862720 0.169035
0.364384 0.869119 0.171723
0.416447 0.875562 0.174434
0.469086 0.882049 0.177169
0.522306 0.888580 0.179926
0.576111 0.895155 0.182707
0.630504 0.901773 0.185512
0.685489 0.908434 0.188340
0.740873 0.914924 0.191145
0.792579 0.917144 0.193050
0.844286 0.919364 0.194954
0.895992 0.921583 0.196858
0.070828 0.906530 0.164432
0.120467 0.913120 0.167080
0.170665 0.919757 0.169751
0.221426 0.926441 0.172445
0.272756 0.933170 0.175163
0.324659 0.939945 0.177903
0.377139 0.946765 0.180667
0.430200 0.953630 0.183455
0.483846 0.960539 0.186265
0.538082 0.967493 0.189099
0.591863 0.972982 0.191654
0.643569 0.975202 0.193558
0.695276 0.977422 0.195463
0.746982 0.979642 0.197367
0.798688 0.981862 0.199271
0.850395 0.984082 0.201176
0.902101 0.986301 0.203080
0.078037 0.983912 0.173169
0.128632 0.990928 0.175893
0.179796 0.997991 0.178640
0.231534 1.000000 0.181410
0.283849 1.000000 0.184203
0.336746 1.000000 0.187020
0.390229 1.000000 0.189861
0.442853 1.000000 0.192163
0.494559 1.000000 0.194067
0.546265 1.000000 0.195972
0.597972 1.000000 0.197876
0.649678 1.000000 0.199780
0.701384 1.000000 0.201684
0.753091 1.000000 0.203589
0.804797 1.000000 0.205493
0.856503 1.000000 0.207397
0.908210 1.000000 0.209302
0.000000 0.000000 0.104882
0.028268 0.000000 0.106441
0.069469 0.000000 0.108000
0.110671 0.000000 0.109559
0.151872 0.000000 0.111118
0.193074 0.000000 0.112677
0.234275 0.000000 0.114236
0.275476 0.000000 0.115794
0.316678 0.000000 0.117353
0.357879 0.000582 0.118912
0.399080 0.002407 0.120471
0.440282 0.004231 0.122030
0.481483 0.006056 0.123589
0.522685 0.007880 0.125148
