assets/lighting/cinematic/grade-fluorescent-office/lut.cube
TITLE "Office Fluorescent"
# TKRS lighting-batch-001 original LUT
# Intended usage: cool green-biased office fluorescent
# License: CC0-1.0
LUT_3D_SIZE 9
DOMAIN_MIN 0.0 0.0 0.0
DOMAIN_MAX 1.0 1.0 1.0
0.000000 0.000000 0.000000
0.068028 0.000000 0.000000
0.150430 0.000000 0.000000
0.232833 0.000000 0.000000
0.315236 0.000000 0.000000
0.397639 0.000641 0.000548
0.480041 0.004290 0.003666
0.562444 0.007939 0.006784
0.644933 0.011589 0.009903
0.000000 0.088778 0.000000
0.077763 0.092427 0.000000
0.160166 0.096076 0.001381
0.242569 0.099725 0.004499
0.324971 0.103373 0.007617
0.408001 0.107162 0.010749
0.494063 0.111495 0.013958
0.582082 0.116002 0.017226
0.672033 0.120642 0.020554
0.005096 0.195159 0.005332
0.087499 0.198808 0.008450
0.170456 0.203018 0.011601
0.255064 0.208022 0.014825
0.341313 0.213274 0.018109
0.429316 0.218712 0.021454
0.519166 0.224312 0.024861
0.610942 0.230059 0.028334
0.704711 0.235946 0.031875
0.015027 0.304925 0.015697
0.099395 0.310954 0.018997
0.185369 0.317215 0.022358
0.273077 0.323675 0.025783
0.362617 0.330315 0.029274
0.454070 0.337122 0.032832
0.547506 0.344087 0.036460
0.642985 0.351205 0.040159
0.740563 0.358470 0.043931
0.025671 0.423498 0.026709
0.112925 0.431047 0.030218
0.202019 0.438789 0.033795
0.293031 0.446713 0.037442
0.386026 0.454811 0.041160
0.481066 0.463076 0.044951
0.578203 0.471502 0.048816
0.677486 0.480087 0.052757
0.778961 0.488825 0.056774
0.037092 0.549848 0.038428
0.127570 0.558937 0.042166
0.220041 0.568212 0.045977
0.314562 0.577667 0.049862
0.411186 0.587295 0.053823
0.509958 0.597094 0.057860
0.610925 0.607058 0.061976
0.714125 0.617185 0.066170
0.819597 0.627472 0.070444
0.049354 0.684375 0.050913
0.143292 0.695057 0.054894
0.239339 0.705923 0.058952
0.337541 0.716970 0.063089
0.437942 0.728193 0.067304
0.540581 0.739589 0.071600
0.645496 0.751155 0.075977
0.752722 0.762889 0.080435
0.862291 0.774788 0.084976
0.062509 0.827454 0.064207
0.160089 0.839780 0.068444
0.259875 0.852291 0.072761
0.361904 0.864985 0.077160
0.466214 0.877858 0.081640
0.572839 0.890908 0.086204
0.681812 0.904132 0.090851
0.791373 0.915711 0.095390
0.894786 0.920151 0.099199
0.076595 0.979410 0.078349
0.177971 0.993429 0.082852
0.281634 1.000000 0.087438
0.387618 1.000000 0.092107
0.493353 1.000000 0.096408
0.596765 1.000000 0.100217
0.700178 1.000000 0.104025
0.803591 1.000000 0.107834
0.907003 1.000000 0.111642
0.000000 0.000000 0.064907
0.068989 0.000000 0.068025
0.151392 0.000000 0.071143
0.233794 0.000000 0.074261
0.316197 0.000000 0.077379
0.398600 0.001818 0.080497
0.481003 0.005467 0.083615
0.563405 0.009116 0.086733
0.647021 0.012786 0.089997
0.000000 0.089955 0.075094
0.078724 0.093604 0.078212
0.161127 0.097253 0.081330
0.243530 0.100902 0.084448
0.325933 0.104551 0.087566
0.409823 0.108535 0.090971
0.496334 0.112933 0.094731
0.584746 0.117485 0.098625
0.675085 0.122165 0.102628
0.006057 0.196336 0.085281
0.088460 0.199985 0.088399
0.171814 0.204598 0.091960
0.256731 0.209694 0.095760
0.343302 0.215009 0.099684
0.431643 0.220502 0.103715
0.521844 0.226150 0.107846
0.613982 0.231943 0.112072
0.708124 0.237873 0.116392
0.016046 0.306841 0.096797
0.100678 0.312950 0.100751
0.186946 0.319278 0.104810
0.274970 0.325798 0.108966
0.364843 0.332493 0.113217
0.456644 0.339352 0.117561
0.550440 0.346367 0.121997
0.646290 0.353533 0.126524
0.744247 0.360844 0.131141
0.026762 0.425911 0.110093
0.114323 0.433524 0.114369
0.203740 0.441326 0.118738
0.295089 0.449307 0.123198
0.388436 0.457459 0.127749
0.483838 0.465777 0.132390
0.581347 0.474255 0.137122
0.681012 0.482889 0.141945
0.782877 0.491676 0.146858
0.038264 0.552760 0.124405
0.129075 0.561909 0.128980
0.221891 0.571243 0.133646
0.316768 0.580754 0.138402
0.413758 0.590438 0.143249
0.512907 0.600290 0.148186
0.614258 0.610307 0.153215
0.717851 0.620486 0.158335
0.823724 0.630825 0.163547
0.050613 0.687801 0.139688
0.144902 0.698543 0.144559
0.241312 0.709468 0.149521
0.339886 0.720571 0.154574
0.440667 0.731851 0.159719
0.543695 0.743302 0.164955
0.649006 0.754922 0.170283
0.756634 0.766710 0.175704
0.866613 0.778662 0.181218
0.063857 0.831409 0.155940
0.161806 0.843796 0.161109
0.261969 0.856367 0.166370
0.364384 0.869119 0.171723
0.469086 0.882049 0.177169
0.576111 0.895155 0.182707
0.685489 0.908434 0.188340
0.792579 0.917144 0.193050
0.895992 0.921583 0.196858
0.078037 0.983912 0.173169
0.179796 0.997991 0.178640
0.283849 1.000000 0.184203
0.390229 1.000000 0.189861
0.494559 1.000000 0.194067
0.597972 1.000000 0.197876
0.701384 1.000000 0.201684
0.804797 1.000000 0.205493
0.908210 1.000000 0.209302
0.000000 0.000000 0.144856
0.069950 0.000000 0.147974
0.152353 0.000000 0.151092
0.234756 0.000000 0.154210
0.317158 0.000000 0.157328
0.399561 0.002995 0.160446
0.481964 0.006644 0.163564
0.564367 0.010293 0.166682
0.649377 0.013990 0.170394
0.000000 0.091132 0.155043
0.079686 0.094781 0.158161
0.162088 0.098430 0.161279
0.244491 0.102079 0.164397
0.326894 0.105728 0.167515
0.411746 0.109933 0.171520
0.498664 0.114386 0.175889
0.587459 0.118982 0.180444
0.678181 0.123700 0.185149
0.007018 0.197513 0.165230
0.089513 0.201338 0.168498
0.173208 0.206213 0.172665
0.258427 0.211387 0.177090
0.345319 0.216763 0.181687
0.433997 0.222307 0.186430
0.524549 0.228004 0.191304
0.617051 0.233842 0.196301
0.711567 0.239815 0.201414
0.017071 0.308786 0.178303
0.101973 0.314969 0.182941
0.188539 0.321361 0.187720
0.276881 0.327939 0.192627
0.367089 0.334688 0.197656
0.459239 0.341598 0.202800
0.553395 0.348662 0.208056
0.649617 0.355876 0.213422
0.747956 0.363233 0.218896
0.027862 0.428346 0.193959
0.115731 0.436021 0.199019
0.205474 0.443881 0.204193
0.297163 0.451918 0.209479
0.390862 0.460125 0.214874
0.486628 0.468494 0.220377
0.584511 0.477023 0.225986
0.684559 0.485707 0.231700
0.786815 0.494543 0.237518
0.039445 0.555691 0.210910
0.130590 0.564901 0.216334
0.223753 0.574292 0.221865
0.318988 0.583860 0.227502
0.416346 0.593598 0.233244
0.515872 0.603504 0.239091
0.617609 0.613574 0.245041
0.721596 0.623804 0.251094
0.827870 0.634194 0.257251
0.051880 0.691246 0.229026
0.146523 0.702047 0.234796
0.243297 0.713030 0.240670
0.342244 0.724191 0.246648
0.443407 0.735526 0.252729
0.546824 0.747032 0.258913
0.652532 0.758707 0.265200
0.760564 0.770548 0.271590
0.870954 0.782553 0.278083
0.065215 0.835385 0.248263
0.163534 0.847831 0.254372
0.264075 0.860461 0.260583
0.366876 0.873271 0.266898
0.471972 0.886258 0.273315
0.579397 0.899420 0.279836
0.689183 0.912755 0.286459
0.793786 0.918576 0.290709
0.897198 0.923016 0.294517
0.079489 0.988433 0.268603
0.181632 1.000000 0.275048
0.286076 1.000000 0.281595
0.392353 1.000000 0.287918
0.495765 1.000000 0.291726
0.599178 1.000000 0.295535
0.702591 1.000000 0.299344
0.806003 1.000000 0.303152
0.909416 1.000000 0.306961
0.000000 0.000000 0.224805
0.070911 0.000000 0.227923
0.153314 0.000000 0.231041
0.235717 0.000000 0.234159
0.318120 0.000524 0.237277
0.400522 0.004173 0.240395
0.482925 0.007822 0.243513
0.565338 0.011471 0.246635
0.651879 0.015202 0.251138
0.000000 0.092309 0.234992
0.080647 0.095958 0.238110
0.163050 0.099607 0.241228
0.245452 0.103256 0.244346
0.328297 0.107027 0.247753
0.413743 0.111352 0.252431
0.501044 0.115855 0.257450
0.590215 0.120491 0.262696
0.681317 0.125247 0.268128
0.007980 0.198690 0.245179
0.090658 0.202863 0.248954
0.174629 0.207857 0.253746
0.260149 0.213102 0.258832
0.347364 0.218534 0.264131
0.436379 0.224129 0.269608
0.527283 0.229872 0.275243
0.620148 0.235754 0.281027
0.715038 0.241770 0.286949
0.018104 0.310756 0.260229
0.103281 0.317010 0.265578
0.190147 0.323464 0.271099
0.278810 0.330098 0.276775
0.369354 0.336900 0.282596
0.461854 0.343861 0.288554
0.556373 0.350973 0.294643
0.652967 0.358234 0.300860
0.751689 0.365637 0.307202
0.028969 0.430801 0.278316
0.117150 0.438537 0.284175
0.207221 0.446455 0.290168
0.299252 0.454548 0.296292
0.393305 0.462807 0.302543
0.489436 0.471229 0.308917
0.587694 0.479808 0.315412
0.688126 0.488541 0.322026
0.790774 0.497426 0.328758
0.040634 0.558642 0.297950
0.132115 0.567911 0.304234
0.225627 0.577360 0.310641
0.321222 0.586983 0.317168
0.418949 0.596776 0.323814
0.518854 0.606735 0.330577
0.620978 0.616857 0.337456
0.725360 0.627139 0.344451
0.832036 0.637579 0.351559
0.053156 0.694710 0.318932
0.148155 0.705571 0.325610
0.245294 0.716612 0.332404
0.344616 0.727829 0.339314
0.446162 0.739219 0.346339
0.549970 0.750780 0.353478
0.656075 0.762509 0.360731
0.764513 0.774403 0.368096
0.875314 0.786460 0.375574
0.066582 0.839380 0.341180
0.165272 0.851886 0.348236
0.266193 0.864574 0.355405
0.369381 0.877441 0.362688
0.474872 0.890485 0.370083
0.582699 0.903703 0.377591
0.691579 0.915568 0.384559
0.794992 0.920008 0.388368
0.898405 0.924448 0.392176
0.080951 0.992974 0.364653
0.183478 1.000000 0.372079
0.288314 1.000000 0.379617
0.393559 1.000000 0.385577
0.496972 1.000000 0.389386
0.600384 1.000000 0.393194
0.703797 1.000000 0.397003
0.807210 1.000000 0.400811
0.910623 1.000000 0.404620
0.000000 0.000000 0.304754
0.071873 0.000000 0.307872
0.154275 0.000000 0.310990
0.236678 0.000000 0.314108
0.319081 0.001701 0.317226
0.401484 0.005350 0.320344
0.483886 0.008999 0.323462
0.567240 0.012666 0.327056
0.654490 0.016420 0.332258
0.000000 0.093486 0.314941
0.081608 0.097135 0.318059
0.164011 0.100784 0.321177
0.246414 0.104433 0.324295
0.329941 0.108396 0.328386
0.415798 0.112788 0.333728
0.503471 0.117337 0.339432
0.593013 0.122013 0.345396
0.684492 0.126806 0.351574
0.008941 0.199868 0.325128
0.091831 0.204439 0.329766
0.176075 0.209526 0.335223
0.261897 0.214835 0.341003
0.349433 0.220322 0.347027
0.438787 0.225966 0.353258
0.530044 0.231754 0.359673
0.623273 0.237680 0.366258
0.718538 0.243738 0.373002
0.019143 0.312750 0.342590
0.104599 0.319071 0.348673
0.191770 0.325585 0.354955
0.280755 0.332274 0.361416
0.371638 0.339128 0.368045
0.464490 0.346139 0.374830
0.559372 0.353300 0.381765
0.656340 0.360606 0.388844
0.755445 0.368056 0.396062
0.030084 0.433276 0.363172
0.118580 0.441072 0.369843
0.208981 0.449047 0.376668
0.301356 0.457194 0.383642
0.395765 0.465506 0.390759
0.492262 0.473979 0.398015
0.590896 0.482608 0.405405
0.691713 0.491391 0.412929
0.794755 0.500324 0.420583
0.041831 0.561612 0.385530
0.133651 0.570940 0.392684
0.227513 0.580445 0.399976
0.323469 0.590124 0.407403
0.421568 0.599970 0.414961
0.521853 0.609982 0.422650
0.624365 0.620156 0.430466
0.729142 0.630489 0.438409
0.836221 0.640980 0.446476
0.054441 0.698194 0.409410
0.149797 0.709113 0.417003
0.247303 0.720211 0.424726
0.347000 0.731485 0.432576
0.448931 0.742930 0.440552
0.553130 0.754546 0.448653
0.659635 0.766328 0.456878
0.768478 0.778275 0.465225
0.879692 0.790384 0.473694
0.067959 0.843394 0.434695
0.167021 0.855959 0.442705
0.268323 0.868705 0.450839
0.371900 0.881630 0.459096
0.477787 0.894730 0.467476
0.586016 0.908004 0.475978
0.692786 0.917001 0.482218
0.796198 0.921440 0.486027
0.899611 0.925880 0.489836
0.082422 0.997535 0.461323
0.185335 1.000000 0.469736
0.290564 1.000000 0.478270
0.394765 1.000000 0.483236
0.498178 1.000000 0.487045
0.601591 1.000000 0.490853
0.705003 1.000000 0.494662
0.808416 1.000000 0.498470
0.911829 1.000000 0.502279
0.000000 0.000000 0.384703
0.072834 0.000000 0.387821
0.155237 0.000000 0.390939
0.237639 0.000000 0.394057
0.320042 0.002878 0.397175
0.402445 0.006527 0.400293
0.484848 0.010176 0.403411
0.569409 0.013870 0.407872
0.657188 0.017646 0.413774
0.000167 0.094663 0.394890
0.082569 0.098312 0.398008
0.164972 0.101961 0.401126
0.247375 0.105610 0.404244
0.331672 0.109793 0.409394
0.417903 0.114241 0.415431
0.505939 0.118832 0.421848
0.595850 0.123547 0.428552
0.687704 0.128376 0.435497
0.009911 0.201190 0.405376
0.093025 0.206050 0.410960
0.177544 0.211217 0.417114
0.263668 0.216587 0.423614
0.351527 0.222126 0.430386
0.441221 0.227818 0.437389
0.532830 0.233651 0.444600
0.626425 0.239620 0.452001
0.722065 0.245720 0.459580
0.020189 0.314767 0.425399
0.105930 0.321152 0.432236
0.193407 0.327724 0.439297
0.282717 0.334468 0.446559
0.373941 0.341373 0.454009
0.467145 0.348433 0.461634
0.562392 0.355641 0.469425
0.659736 0.362994 0.477377
0.759224 0.370489 0.485483
0.031207 0.435771 0.448532
0.120020 0.443625 0.456030
0.210753 0.451657 0.463700
0.303474 0.459858 0.471535
0.398240 0.468222 0.479528
0.495105 0.476746 0.487675
0.594117 0.485425 0.495970
0.695320 0.494256 0.504411
0.798756 0.503238 0.512995
0.043037 0.564601 0.473655
0.135198 0.573987 0.481690
0.229412 0.583549 0.489877
0.325731 0.593282 0.498212
0.424202 0.603182 0.506691
0.524867 0.613247 0.515312
0.627769 0.623472 0.524073
0.732943 0.633857 0.532971
0.840426 0.644397 0.542004
0.055734 0.701696 0.500464
0.151450 0.712674 0.508981
0.249324 0.723829 0.517640
0.349399 0.735158 0.526437
0.451714 0.746659 0.535372
0.556307 0.758328 0.544441
0.663212 0.770164 0.553644
0.772462 0.782163 0.562979
0.884089 0.794325 0.572445
0.069344 0.847428 0.528811
0.168781 0.860051 0.537782
0.270465 0.872855 0.546887
0.374431 0.885837 0.556126
0.480715 0.898993 0.565496
0.589348 0.912323 0.574997
0.693992 0.918433 0.579878
0.797405 0.922873 0.583686
0.900817 0.927312 0.587495
0.083903 1.000000 0.558617
0.187203 1.000000 0.568022
0.292559 1.000000 0.577087
0.395972 1.000000 0.580895
0.499384 1.000000 0.584704
0.602797 1.000000 0.588512
0.706210 1.000000 0.592321
0.809623 1.000000 0.596130
0.913035 1.000000 0.599938
0.000000 0.000000 0.464652
0.073795 0.000000 0.467770
0.156198 0.000000 0.470888
0.238601 0.000406 0.474006
0.321003 0.004055 0.477124
0.403406 0.007704 0.480242
0.485809 0.011353 0.483359
0.571712 0.015080 0.489081
0.659961 0.018879 0.495706
0.001128 0.095841 0.474839
0.083531 0.099490 0.477957
0.165933 0.103138 0.481075
0.248624 0.106893 0.484681
0.333463 0.111210 0.490798
0.420053 0.115707 0.497556
0.508447 0.120340 0.504711
0.598724 0.125092 0.512177
0.690952 0.129957 0.519905
0.010894 0.202708 0.486218
0.094237 0.207692 0.492557
0.179033 0.212930 0.499434
0.265461 0.218357 0.506678
0.353645 0.223946 0.514217
0.443679 0.229685 0.522011
0.535642 0.235562 0.530032
0.629602 0.241574 0.538262
0.725619 0.247715 0.546688
0.021243 0.316805 0.508666
0.107271 0.323253 0.516276
0.195058 0.329882 0.524133
0.284696 0.336678 0.532211
0.376261 0.343634 0.540495
0.469821 0.350742 0.548972
0.565434 0.357997 0.557631
0.663153 0.365397 0.566465
0.763027 0.372936 0.575468
0.032338 0.438285 0.534405
0.121470 0.446198 0.542742
0.212539 0.454284 0.551268
0.305607 0.462539 0.559975
0.400732 0.470955 0.568855
0.497966 0.479529 0.577902
0.597357 0.488257 0.587111
0.698947 0.497137 0.596477
0.802778 0.506166 0.605999
0.044251 0.567610 0.562331
0.136754 0.577053 0.571256
0.231323 0.586670 0.580347
0.328006 0.596458 0.589598
0.426850 0.606411 0.599007
0.527899 0.616528 0.608569
0.631190 0.626805 0.618281
0.736763 0.637240 0.628141
0.844651 0.647831 0.638147
0.057037 0.705218 0.592097
0.153113 0.716253 0.601547
0.251357 0.727465 0.611149
0.351810 0.738850 0.620901
0.454512 0.750405 0.630801
0.559499 0.762128 0.640845
0.666805 0.774017 0.651033
0.776463 0.786069 0.661362
0.888504 0.798283 0.671832
0.070739 0.851480 0.623532
0.170551 0.864162 0.633471
0.272618 0.877024 0.643554
0.376976 0.890062 0.653779
0.483658 0.903275 0.664146
0.591786 0.915425 0.673728
0.695198 0.919865 0.677537
0.798611 0.924305 0.681345
0.902024 0.928745 0.685154
0.085393 1.000000 0.656536
0.189082 1.000000 0.666940
0.293765 1.000000 0.674746
0.397178 1.000000 0.678554
0.500591 1.000000 0.682363
0.604003 1.000000 0.686172
0.707416 1.000000 0.689980
0.810829 1.000000 0.693789
0.914242 1.000000 0.697597
0.000000 0.000000 0.544601
0.074756 0.000000 0.547719
0.157159 0.000000 0.550837
0.239562 0.001583 0.553955
0.321965 0.005232 0.557073
0.404367 0.008881 0.560191
0.487493 0.012546 0.564035
0.574113 0.016298 0.570698
0.662799 0.020118 0.578068
0.002089 0.097018 0.554788
0.084492 0.100667 0.557906
0.166895 0.104316 0.561024
0.250095 0.108258 0.565711
0.335304 0.112644 0.572614
0.422242 0.117188 0.580118
0.510992 0.121860 0.588033
0.601633 0.126650 0.596278
0.694235 0.131550 0.604807
0.011885 0.204280 0.567475
0.095464 0.209358 0.574572
0.180540 0.214661 0.582197
0.267275 0.220143 0.590206
0.355785 0.225782 0.598531
0.446161 0.231566 0.607130
0.538479 0.237487 0.615976
0.632806 0.243541 0.625048
0.729199 0.249723 0.634333
0.022304 0.318864 0.592402
0.108624 0.325372 0.600803
0.196723 0.332056 0.609470
0.286690 0.338905 0.618378
0.378599 0.345911 0.627509
0.472515 0.353067 0.636849
0.568495 0.360369 0.646386
0.666592 0.367814 0.656113
0.766852 0.375398 0.666022
0.033477 0.440818 0.620797
0.122932 0.448788 0.629985
0.214336 0.456929 0.639378
0.307754 0.465236 0.648967
0.403240 0.473704 0.658743
0.500845 0.482328 0.668700
0.600615 0.491106 0.678831
0.702594 0.500034 0.689131
0.806821 0.509111 0.699598
0.045474 0.570636 0.651561
0.138322 0.580136 0.661386
0.233246 0.589809 0.671390
0.330295 0.599651 0.681567
0.429514 0.609657 0.691912
0.530946 0.619826 0.702422
0.634629 0.630154 0.713093
0.740600 0.640640 0.723923
0.848894 0.651280 0.734908
0.058348 0.708758 0.684315
0.154786 0.719851 0.694705
0.253401 0.731119 0.705258
0.354235 0.742559 0.715972
0.457325 0.754169 0.726843
0.562707 0.765946 0.737869
0.670415 0.777887 0.749048
0.780482 0.789992 0.760377
0.891012 0.800741 0.770370
0.072143 0.855552 0.718861
0.172332 0.868292 0.729774
0.274784 0.881211 0.740841
0.379534 0.894306 0.752060
0.486615 0.907574 0.763430
0.592992 0.916858 0.771387
0.696405 0.921297 0.775196
0.799817 0.925737 0.779004
0.903230 0.930177 0.782813
0.086893 1.000000 0.755084
0.190972 1.000000 0.766493
0.294972 1.000000 0.772405
0.398384 1.000000 0.776214
0.501797 1.000000 0.780022
0.605210 1.000000 0.783831
0.708623 1.000000 0.787639
0.812035 1.000000 0.791448
0.915448 1.000000 0.795256
0.000000 0.000000 0.624550
0.075718 0.000000 0.627668
0.158120 0.000000 0.630786
0.240523 0.002760 0.633904
0.322926 0.006409 0.637022
0.405329 0.010058 0.640139
0.489478 0.013749 0.645259
0.576593 0.017523 0.652737
0.665696 0.021365 0.660873
0.003050 0.098195 0.634737
0.085453 0.101844 0.637855
0.167856 0.105493 0.640973
0.251636 0.109652 0.647170
0.337187 0.114095 0.654859
0.424469 0.118682 0.663128
0.513571 0.123393 0.671823
0.604575 0.128218 0.680865
0.697550 0.133154 0.690210
0.012882 0.205888 0.649151
0.096707 0.211047 0.657020
0.182066 0.216412 0.665414
0.269110 0.221946 0.674207
0.357947 0.227632 0.683334
0.448666 0.233461 0.692754
0.541340 0.239426 0.702438
0.636034 0.245521 0.712365
0.732805 0.251744 0.722520
0.023372 0.320944 0.676615
0.109987 0.327510 0.685824
0.198402 0.334248 0.695317
0.288701 0.341148 0.705067
0.380955 0.348203 0.715057
0.475229 0.355407 0.725271
0.571578 0.362755 0.735696
0.670053 0.370245 0.746325
0.770700 0.377874 0.757149
0.034624 0.443370 0.707714
0.124403 0.451396 0.717765
0.216147 0.459591 0.728036
0.309916 0.467950 0.738517
0.405763 0.476469 0.749199
0.503740 0.485143 0.760073
0.603892 0.493970 0.771134
0.706260 0.502946 0.782377
0.810884 0.512070 0.793796
0.046706 0.573682 0.741352
0.139900 0.583238 0.752086
0.235181 0.592966 0.763011
0.332597 0.602861 0.774121
0.432193 0.612920 0.785411
0.534010 0.623141 0.796876
0.638085 0.633520 0.808514
0.744456 0.644055 0.820319
0.853157 0.654746 0.832289
0.059669 0.712317 0.777120
0.156470 0.723467 0.788458
0.255458 0.734791 0.799969
0.356673 0.746286 0.811652
0.460152 0.757950 0.823501
0.565930 0.769780 0.835515
0.674041 0.781774 0.847691
0.784517 0.793931 0.860026
0.892219 0.802173 0.868029
0.073556 0.859642 0.814802
0.174124 0.872440 0.826696
0.276962 0.885416 0.838753
0.382105 0.898567 0.850972
0.489585 0.911891 0.863349
0.594198 0.918290 0.869046
0.697611 0.922730 0.872855
0.801024 0.927169 0.876664
0.904437 0.931609 0.880472
0.088403 1.000000 0.854264
0.192765 1.000000 0.866256
0.296178 1.000000 0.870064
0.399591 1.000000 0.873873
0.503003 1.000000 0.877681
0.606416 1.000000 0.881490
0.709829 1.000000 0.885298
0.813242 1.000000 0.889107
0.916654 1.000000 0.892916
