assets/lighting/cinematic/grade-emergency-red/lut.cube
TITLE "Emergency Red Wash"
# TKRS lighting-batch-001 original LUT
# Intended usage: alarm / emergency red practical wash
# License: CC0-1.0
LUT_3D_SIZE 9
DOMAIN_MIN 0.0 0.0 0.0
DOMAIN_MAX 1.0 1.0 1.0
0.000000 0.000000 0.000000
0.076315 0.000000 0.000000
0.215259 0.000000 0.000000
0.354204 0.000000 0.000000
0.493148 0.000000 0.000000
0.632093 0.000000 0.000000
0.771037 0.000000 0.000000
0.909982 0.000000 0.000000
1.000000 0.000000 0.000000
0.000000 0.049173 0.000000
0.059144 0.045267 0.000000
0.198089 0.041360 0.000000
0.337033 0.037454 0.000000
0.475978 0.033547 0.000000
0.614922 0.029641 0.000000
0.754609 0.025762 0.000000
0.897087 0.021941 0.000000
1.000000 0.018102 0.000000
0.000000 0.146281 0.000000
0.041973 0.142374 0.000000
0.180918 0.138468 0.000000
0.320585 0.134892 0.000000
0.461725 0.131560 0.000000
0.604323 0.128266 0.000000
0.748475 0.124980 0.000000
0.894258 0.121689 0.000000
1.000000 0.118381 0.000000
0.000000 0.244361 0.000000
0.025001 0.241567 0.000000
0.165839 0.238853 0.000000
0.308104 0.236179 0.000000
0.451900 0.233526 0.000000
0.597312 0.230880 0.000000
0.744408 0.228231 0.000000
0.893248 0.225573 0.000000
1.000000 0.222898 0.000000
0.000000 0.347839 0.000000
0.007825 0.345843 0.000000
0.151105 0.343875 0.000000
0.296006 0.341923 0.000000
0.442594 0.339977 0.000000
0.590925 0.338031 0.000000
0.741052 0.336078 0.000000
0.893020 0.334112 0.000000
1.000000 0.332131 0.000000
0.000000 0.456131 0.000000
0.000000 0.454911 0.000000
0.136019 0.453705 0.000000
0.283756 0.452504 0.000000
0.433293 0.451305 0.000000
0.584674 0.450100 0.000000
0.737942 0.448887 0.000000
0.893133 0.447660 0.000000
1.000000 0.446417 0.000000
0.000000 0.569488 0.000000
0.000000 0.569063 0.000000
0.120403 0.568644 0.000000
0.271133 0.568227 0.000000
0.423755 0.567807 0.000000
0.578304 0.567379 0.000000
0.734815 0.566941 0.000000
0.893321 0.566489 0.000000
1.000000 0.566019 0.000000
0.000000 0.688154 0.000000
0.000000 0.688548 0.000000
0.104151 0.688944 0.000000
0.258007 0.689337 0.000000
0.413829 0.689726 0.000000
0.571651 0.690105 0.000000
0.727199 0.686094 0.000000
0.882444 0.681688 0.000000
1.000000 0.677283 0.000000
0.000000 0.812346 0.000000
0.000000 0.813581 0.000000
0.087033 0.813228 0.000000
0.242278 0.808822 0.000000
0.397523 0.804417 0.000000
0.552769 0.800011 0.000000
0.708014 0.795606 0.000000
0.863259 0.791200 0.000000
1.000000 0.786795 0.000000
0.000000 0.000000 0.060988
0.074581 0.000000 0.057082
0.213526 0.000000 0.053175
0.352470 0.000000 0.049269
0.491415 0.000000 0.045362
0.630359 0.000000 0.041456
0.769304 0.000000 0.037549
0.908248 0.000000 0.033643
1.000000 0.000000 0.029736
0.000000 0.047847 0.047847
0.057411 0.043940 0.043940
0.196355 0.040034 0.040034
0.335300 0.036127 0.036127
0.474244 0.032220 0.032220
0.613189 0.028314 0.028314
0.753763 0.024465 0.024442
0.896648 0.020641 0.020585
1.000000 0.016791 0.016712
0.000000 0.144954 0.034705
0.040240 0.141048 0.030798
0.179209 0.137161 0.026894
0.319265 0.133753 0.023039
0.460678 0.130439 0.019177
0.603561 0.127150 0.015298
0.748009 0.123864 0.011396
0.894100 0.120568 0.007470
1.000000 0.117253 0.003517
0.000000 0.243400 0.021635
0.023290 0.240639 0.017767
0.164359 0.237941 0.013880
0.306879 0.235277 0.009970
0.450950 0.232627 0.006034
0.596650 0.229981 0.002071
0.744047 0.227330 0.000000
0.893199 0.224666 0.000000
1.000000 0.221985 0.000000
0.000000 0.347157 0.008540
0.006059 0.345172 0.004595
0.149602 0.343211 0.000621
0.294781 0.341262 0.000000
0.441660 0.339317 0.000000
0.590293 0.337369 0.000000
0.740732 0.335412 0.000000
0.893022 0.333442 0.000000
1.000000 0.331454 0.000000
0.000000 0.455715 0.000000
0.000000 0.454500 0.000000
0.134469 0.453297 0.000000
0.282501 0.452097 0.000000
0.432343 0.450897 0.000000
0.584040 0.449690 0.000000
0.737630 0.448472 0.000000
0.893152 0.447240 0.000000
1.000000 0.445990 0.000000
0.000000 0.569342 0.000000
0.000000 0.568920 0.000000
0.118792 0.568503 0.000000
0.269833 0.568085 0.000000
0.422772 0.567663 0.000000
0.577647 0.567232 0.000000
0.734492 0.566789 0.000000
0.893337 0.566331 0.000000
1.000000 0.565855 0.000000
0.000000 0.688288 0.000000
0.000000 0.688682 0.000000
0.102472 0.689078 0.000000
0.256650 0.689470 0.000000
0.412801 0.689855 0.000000
0.570017 0.689003 0.000000
0.725262 0.684598 0.000000
0.880507 0.680192 0.000000
1.000000 0.675786 0.000000
0.000000 0.812765 0.000000
0.000000 0.814000 0.000000
0.085096 0.811732 0.000000
0.240341 0.807326 0.000000
0.395587 0.802921 0.000000
0.550832 0.798515 0.000000
0.706077 0.794110 0.000000
0.861322 0.789704 0.000000
1.000000 0.785299 0.000000
0.000000 0.000000 0.169911
0.072848 0.000000 0.166005
0.211792 0.000000 0.162098
0.350737 0.000000 0.158192
0.489681 0.000000 0.154285
0.628626 0.000000 0.150379
0.767570 0.000000 0.146472
0.906515 0.000000 0.142566
1.000000 0.000000 0.138659
0.000000 0.046520 0.156769
0.055677 0.042613 0.152863
0.194622 0.038707 0.148956
0.333566 0.034800 0.145050
0.472511 0.030894 0.141143
0.611504 0.026990 0.137244
0.753006 0.023168 0.133633
0.896258 0.019337 0.130081
1.000000 0.015476 0.126545
0.000000 0.143628 0.143628
0.038507 0.139721 0.139721
0.177651 0.135981 0.135915
0.317969 0.132622 0.132337
0.459649 0.129320 0.128793
0.602815 0.126034 0.125259
0.747559 0.122746 0.121723
0.893958 0.119444 0.118179
1.000000 0.116122 0.114623
0.000000 0.242452 0.131044
0.021575 0.239718 0.127506
0.162879 0.237034 0.123972
0.305657 0.234376 0.120434
0.450003 0.231729 0.116886
0.595994 0.229082 0.113325
0.743693 0.226427 0.109746
0.893157 0.223758 0.106147
1.000000 0.221069 0.102527
0.000000 0.346479 0.119144
0.004287 0.344504 0.115591
0.148095 0.342548 0.112024
0.293554 0.340601 0.108438
0.440725 0.338656 0.104832
0.589662 0.336705 0.101203
0.740415 0.334744 0.097550
0.893026 0.332769 0.093872
1.000000 0.330774 0.090166
0.000000 0.455301 0.107128
0.000000 0.454091 0.103513
0.132913 0.452889 0.099876
0.281242 0.451690 0.096214
0.431392 0.450488 0.092526
0.583404 0.449277 0.088811
0.737318 0.448055 0.085067
0.893171 0.446817 0.081293
1.000000 0.445561 0.077489
0.000000 0.569198 0.094874
0.000000 0.568778 0.091177
0.117175 0.568361 0.087451
0.268527 0.567942 0.083696
0.421786 0.567518 0.079912
0.576988 0.567083 0.076096
0.734166 0.566635 0.072250
0.893351 0.566172 0.068370
1.000000 0.564778 0.064392
0.000000 0.688421 0.082322
0.000000 0.688817 0.078526
0.100786 0.689212 0.074700
0.255287 0.689602 0.070841
0.411768 0.689984 0.066950
0.568080 0.687507 0.062861
0.723325 0.683101 0.058655
0.878571 0.678696 0.054449
1.000000 0.674290 0.050244
0.000000 0.813185 0.069428
0.000000 0.814419 0.065525
0.083159 0.810235 0.061330
0.238405 0.805830 0.057124
0.393650 0.801424 0.052918
0.548895 0.797019 0.048712
0.704140 0.792613 0.044506
0.859386 0.788208 0.040300
1.000000 0.783802 0.036095
0.000000 0.000000 0.278834
0.071115 0.000000 0.274927
0.210059 0.000000 0.271021
0.349004 0.000000 0.267114
0.487948 0.000000 0.263208
0.626893 0.000000 0.259301
0.765837 0.000000 0.255395
0.904782 0.000000 0.251488
1.000000 0.000000 0.247587
0.000000 0.045193 0.265692
0.053944 0.041287 0.261786
0.192888 0.037380 0.257879
0.331833 0.033474 0.253973
0.470777 0.029567 0.250066
0.610360 0.025690 0.246328
0.752311 0.021869 0.243024
0.895908 0.018029 0.239802
1.000000 0.014157 0.236620
0.000000 0.142301 0.252550
0.036773 0.138394 0.248644
0.176127 0.134829 0.245110
0.316689 0.131497 0.241844
0.458635 0.128204 0.238640
0.602083 0.124919 0.235467
0.747123 0.121627 0.232309
0.893829 0.118319 0.229158
1.000000 0.114987 0.226007
0.000000 0.241516 0.240673
0.019855 0.238802 0.237482
0.161398 0.236129 0.234316
0.304436 0.233476 0.231161
0.449060 0.230830 0.228011
0.595342 0.228182 0.224859
0.743344 0.225523 0.221701
0.893122 0.222847 0.218534
1.000000 0.220151 0.215353
0.000000 0.345806 0.230014
0.002508 0.343838 0.226864
0.146584 0.341886 0.223711
0.292325 0.339941 0.220549
0.439790 0.337994 0.217377
0.589032 0.336041 0.214192
0.740099 0.334075 0.210990
0.893033 0.332093 0.207770
1.000000 0.330091 0.204531
0.000000 0.454888 0.219396
0.000000 0.453682 0.216219
0.131351 0.452482 0.213028
0.279979 0.451282 0.209820
0.430437 0.450078 0.206594
0.582766 0.448864 0.203347
0.737005 0.447637 0.200078
0.893191 0.446393 0.196786
1.000000 0.445129 0.193469
0.000000 0.569055 0.208648
0.000000 0.568636 0.205414
0.115552 0.568219 0.202159
0.267216 0.567799 0.198882
0.420795 0.567371 0.195581
0.576325 0.566933 0.192255
0.733838 0.566480 0.188903
0.893365 0.566010 0.185524
1.000000 0.563282 0.181663
0.000000 0.688556 0.197683
0.000000 0.688951 0.194373
0.099092 0.689345 0.191038
0.253917 0.689733 0.187676
0.410730 0.690112 0.184287
0.566143 0.686011 0.180132
0.721389 0.681605 0.175926
0.876634 0.677200 0.171720
1.000000 0.672794 0.167514
0.000000 0.813604 0.186445
0.000000 0.813145 0.182807
0.081223 0.808739 0.178601
0.236468 0.804334 0.174395
0.391713 0.799928 0.170189
0.546958 0.795523 0.165983
0.702204 0.791117 0.161777
0.857449 0.786712 0.157571
1.000000 0.782306 0.153366
0.000000 0.000000 0.387757
0.069381 0.000000 0.383850
0.208326 0.000000 0.379944
0.347270 0.000000 0.376037
0.486215 0.000000 0.372131
0.625159 0.000000 0.368224
0.764104 0.000000 0.364318
0.903048 0.000000 0.360411
1.000000 0.000000 0.356730
0.000000 0.043867 0.374615
0.052211 0.039960 0.370709
0.191155 0.036054 0.366802
0.330100 0.032147 0.362896
0.469044 0.028240 0.358989
0.609348 0.024393 0.355601
0.751664 0.020568 0.352629
0.895593 0.016718 0.349757
1.000000 0.012834 0.346943
0.000000 0.140974 0.361473
0.035046 0.137094 0.357609
0.174619 0.133690 0.354503
0.315423 0.130377 0.351575
0.457634 0.127088 0.348728
0.601364 0.123802 0.345928
0.746700 0.120505 0.343160
0.893713 0.117190 0.340411
1.000000 0.113850 0.337674
0.000000 0.240588 0.350531
0.018130 0.237891 0.347704
0.159915 0.235227 0.344917
0.303216 0.232578 0.342157
0.448119 0.229932 0.339414
0.594694 0.227280 0.336680
0.743001 0.224616 0.333950
0.893093 0.221934 0.331219
1.000000 0.219230 0.328485
0.000000 0.345135 0.341157
0.000722 0.343174 0.338418
0.145068 0.341225 0.335686
0.291093 0.339280 0.332956
0.438854 0.337332 0.330225
0.588402 0.335375 0.327488
0.739784 0.333404 0.324743
0.893042 0.331416 0.321987
1.000000 0.329406 0.319219
0.000000 0.454477 0.331962
0.000000 0.453274 0.329229
0.129784 0.452075 0.326490
0.278712 0.450874 0.323741
0.429479 0.449667 0.320981
0.582127 0.448449 0.318207
0.736692 0.447216 0.315418
0.893211 0.445966 0.312611
1.000000 0.444695 0.309786
0.000000 0.568912 0.322738
0.000000 0.568495 0.319973
0.113921 0.568077 0.317194
0.265899 0.567655 0.314398
0.419800 0.567224 0.311585
0.575659 0.566781 0.308752
0.733507 0.566322 0.305899
0.893376 0.565846 0.303024
1.000000 0.561786 0.298934
0.000000 0.688690 0.313376
0.000000 0.689085 0.310556
0.097391 0.689477 0.307716
0.252541 0.689863 0.304855
0.408961 0.688920 0.301609
0.564207 0.684515 0.297403
0.719452 0.680109 0.293197
0.874697 0.675704 0.288991
1.000000 0.671298 0.284785
0.000000 0.814024 0.303808
0.000000 0.811649 0.300078
0.079286 0.807243 0.295872
0.234531 0.802838 0.291666
0.389776 0.798432 0.287460
0.545022 0.794027 0.283254
0.700267 0.789621 0.279048
0.855512 0.785216 0.274842
1.000000 0.780810 0.270636
0.000000 0.000000 0.496680
0.067648 0.000000 0.492773
0.206592 0.000000 0.488867
0.345537 0.000000 0.484960
0.484481 0.000000 0.481054
0.623426 0.000000 0.477147
0.762370 0.000000 0.473241
0.901315 0.000000 0.469334
1.000000 0.000000 0.466080
0.000000 0.042540 0.483538
0.050477 0.038633 0.479631
0.189422 0.034727 0.475725
0.328366 0.030820 0.471818
0.467367 0.026917 0.467949
0.608406 0.023096 0.465081
0.751056 0.019264 0.462461
0.895308 0.015403 0.459955
1.000000 0.011506 0.457522
0.000000 0.139648 0.470396
0.033346 0.135917 0.466852
0.173121 0.132560 0.464110
0.314168 0.129258 0.461539
0.456644 0.125973 0.459063
0.600656 0.122684 0.456649
0.746289 0.119382 0.454280
0.893610 0.116059 0.451943
1.000000 0.112709 0.449628
0.000000 0.239667 0.460628
0.016399 0.236984 0.458178
0.158430 0.234326 0.455783
0.301997 0.231679 0.453426
0.447181 0.229032 0.451098
0.594050 0.226377 0.448790
0.742662 0.223708 0.446495
0.893069 0.221018 0.444208
1.000000 0.218305 0.441925
0.000000 0.344467 0.452576
0.000000 0.342511 0.450256
0.143548 0.340564 0.447953
0.289859 0.338619 0.445661
0.437917 0.336668 0.443377
0.587772 0.334707 0.441094
0.739471 0.332731 0.438811
0.893054 0.330736 0.436525
1.000000 0.328718 0.434232
0.000000 0.454068 0.444829
0.000000 0.452866 0.442546
0.128210 0.451667 0.440264
0.277440 0.450465 0.437979
0.428519 0.449255 0.435691
0.581485 0.448032 0.433395
0.736378 0.446794 0.431089
0.893231 0.445537 0.428772
1.000000 0.444258 0.426442
0.000000 0.568770 0.437147
0.000000 0.568353 0.434856
0.112284 0.567934 0.432556
0.264577 0.567509 0.430247
0.418801 0.567075 0.427926
0.574989 0.566627 0.425590
0.733174 0.566163 0.423239
0.891945 0.564695 0.420411
1.000000 0.560290 0.416205
0.000000 0.688824 0.429403
0.000000 0.689219 0.427077
0.095683 0.689609 0.424736
0.251159 0.689991 0.422379
0.407025 0.687424 0.418880
0.562270 0.683018 0.414674
0.717515 0.678613 0.410468
0.872760 0.674207 0.406262
1.000000 0.669802 0.402056
0.000000 0.814443 0.421517
0.000000 0.810153 0.417349
0.077349 0.805747 0.413143
0.232594 0.801342 0.408937
0.387840 0.796936 0.404731
0.543085 0.792531 0.400525
0.698330 0.788125 0.396319
0.853575 0.783720 0.392113
1.000000 0.779314 0.387907
0.000000 0.000000 0.605602
0.065914 0.000000 0.601696
0.204859 0.000000 0.597789
0.343803 0.000000 0.593883
0.482748 0.000000 0.589976
0.621692 0.000000 0.586070
0.760637 0.000000 0.582163
0.899642 0.000000 0.578283
1.000000 0.000000 0.575645
0.000000 0.041213 0.592461
0.048744 0.037307 0.588554
0.187688 0.033400 0.584648
0.326633 0.029494 0.580741
0.466093 0.025618 0.577252
0.607513 0.021797 0.574780
0.750481 0.017957 0.572529
0.895051 0.014084 0.570404
1.000000 0.010173 0.568363
0.000000 0.138321 0.579319
0.031649 0.134765 0.576314
0.171630 0.131435 0.573942
0.312921 0.128142 0.571744
0.455663 0.124857 0.569652
0.599959 0.121565 0.567636
0.745888 0.118256 0.565676
0.893517 0.114924 0.563758
1.000000 0.111564 0.561873
0.000000 0.238752 0.570972
0.014663 0.236079 0.568911
0.156943 0.233427 0.566917
0.300777 0.230781 0.564973
0.446244 0.228132 0.563068
0.593408 0.225472 0.561193
0.742327 0.222797 0.559339
0.893051 0.220100 0.557502
1.000000 0.217378 0.555677
0.000000 0.343801 0.564276
0.000000 0.341849 0.562383
0.142023 0.339904 0.560516
0.288621 0.337957 0.558669
0.436978 0.336004 0.556836
0.587142 0.334038 0.555014
0.739158 0.332056 0.553198
0.893067 0.330053 0.551385
1.000000 0.328027 0.549572
0.000000 0.453659 0.558000
0.000000 0.452459 0.556172
0.126631 0.451260 0.554353
0.276164 0.450055 0.552538
0.427555 0.448841 0.550725
0.580842 0.447614 0.548911
0.736062 0.446369 0.547094
0.893250 0.445105 0.545271
1.000000 0.443818 0.543439
0.000000 0.568629 0.551878
0.000000 0.568211 0.550065
0.110640 0.567791 0.548250
0.263249 0.567363 0.546431
0.417797 0.566924 0.544605
0.574316 0.566471 0.542771
0.732839 0.566001 0.540926
0.890009 0.563199 0.537682
1.000000 0.558794 0.533476
0.000000 0.688959 0.545767
0.000000 0.689352 0.543938
0.093966 0.689740 0.542100
0.249771 0.690119 0.540251
0.405088 0.685928 0.536151
0.560333 0.681522 0.531945
0.715578 0.677117 0.527739
0.870824 0.672711 0.523533
1.000000 0.668306 0.519327
0.000000 0.813062 0.538826
0.000000 0.808656 0.534620
0.075412 0.804251 0.530414
0.230658 0.799845 0.526208
0.385903 0.795440 0.522002
0.541148 0.791034 0.517796
0.696393 0.786629 0.513590
0.851639 0.782223 0.509384
1.000000 0.777818 0.505178
0.000000 0.000000 0.714525
0.064181 0.000000 0.710619
0.203125 0.000000 0.706712
0.342070 0.000000 0.702806
0.481014 0.000000 0.698899
0.619959 0.000000 0.694993
0.758904 0.000000 0.691086
0.898771 0.000000 0.687641
1.000000 0.000000 0.685436
0.000000 0.039887 0.701384
0.047010 0.035980 0.697477
0.185955 0.032074 0.693571
0.324899 0.028167 0.689664
0.464914 0.024321 0.686791
0.606657 0.020496 0.684709
0.749935 0.016645 0.682842
0.894818 0.012760 0.681108
1.000000 0.008835 0.679471
0.000000 0.137028 0.688343
0.029951 0.133627 0.685999
0.170144 0.130315 0.684010
0.311680 0.127026 0.682198
0.454690 0.123740 0.680502
0.599270 0.120443 0.678894
0.745497 0.117128 0.677351
0.893435 0.113787 0.675860
1.000000 0.110416 0.674411
0.000000 0.237841 0.681569
0.012921 0.235177 0.679908
0.155453 0.232528 0.678325
0.299557 0.229882 0.676803
0.445309 0.227230 0.675329
0.592770 0.224566 0.673892
0.741996 0.221883 0.672487
0.893037 0.219178 0.671105
1.000000 0.216447 0.669742
0.000000 0.343137 0.676261
0.000000 0.341188 0.674802
0.140494 0.339243 0.673377
0.287380 0.337295 0.671981
0.436037 0.335338 0.670607
0.586511 0.333367 0.669250
0.738846 0.331378 0.667906
0.893082 0.329368 0.666571
1.000000 0.327333 0.665242
0.000000 0.453251 0.671478
0.000000 0.452052 0.670111
0.125045 0.450851 0.668759
0.274883 0.449644 0.667419
0.426587 0.448426 0.666087
0.580196 0.447193 0.664759
0.735745 0.445942 0.663434
0.893270 0.444671 0.662108
1.000000 0.443375 0.660780
0.000000 0.568487 0.666933
0.000000 0.568069 0.665603
0.108989 0.567647 0.664277
0.261915 0.567215 0.662952
0.416788 0.566772 0.661625
0.573639 0.566314 0.660295
0.732500 0.565837 0.658960
0.888072 0.561703 0.654953
1.000000 0.557298 0.650747
0.000000 0.689093 0.662469
0.000000 0.689485 0.661141
0.092243 0.689870 0.659810
0.247906 0.688837 0.657628
0.403151 0.684432 0.653422
0.558396 0.680026 0.649216
0.713642 0.675621 0.645010
0.868887 0.671215 0.640804
1.000000 0.666810 0.636598
0.000000 0.811566 0.656097
0.000000 0.807160 0.651891
0.073476 0.802755 0.647685
0.228721 0.798349 0.643479
0.383966 0.793944 0.639273
0.539211 0.789538 0.635067
0.694457 0.785133 0.630861
0.849702 0.780727 0.626655
1.000000 0.776322 0.622449
0.000000 0.000000 0.823448
0.062448 0.000000 0.819542
0.201392 0.000000 0.815635
0.340337 0.000000 0.811729
0.479281 0.000000 0.807822
0.618226 0.000000 0.803916
0.757170 0.000000 0.800009
0.898100 0.000000 0.797255
1.000000 0.000000 0.795461
0.000000 0.038560 0.810306
0.045277 0.034653 0.806400
0.184221 0.030747 0.802493
0.323219 0.026845 0.798673
0.463785 0.023024 0.796562
0.605831 0.019192 0.794878
0.749412 0.015330 0.793406
0.894607 0.011432 0.792076
1.000000 0.007492 0.790851
0.000000 0.135853 0.797817
0.028251 0.132497 0.795917
0.168661 0.129197 0.794323
0.310446 0.125911 0.792908
0.453725 0.122622 0.791619
0.598590 0.119320 0.790427
0.745115 0.115996 0.789310
0.893362 0.112645 0.788254
1.000000 0.109263 0.787248
0.000000 0.236933 0.792426
0.011173 0.234276 0.791175
0.153960 0.231629 0.790012
0.298336 0.228982 0.788919
0.444374 0.226327 0.787882
0.592133 0.223657 0.786892
0.741668 0.220968 0.785940
0.893028 0.218254 0.785019
1.000000 0.215513 0.784124
0.000000 0.342474 0.788535
0.000000 0.340528 0.787517
0.138959 0.338582 0.786541
0.286136 0.336632 0.785601
0.435095 0.334670 0.784691
0.585880 0.332694 0.783804
0.738535 0.330698 0.782937
0.893098 0.328680 0.782085
1.000000 0.326635 0.781244
0.000000 0.452844 0.785267
0.000000 0.451645 0.784365
0.123454 0.450442 0.783486
0.273597 0.449232 0.782625
0.425616 0.448009 0.781778
0.579547 0.446771 0.780941
0.735427 0.445513 0.780112
0.893288 0.444233 0.779287
1.000000 0.442929 0.778465
0.000000 0.568345 0.782315
0.000000 0.567926 0.781472
0.107331 0.567501 0.780638
0.260576 0.567066 0.779811
0.415774 0.566618 0.778988
0.572959 0.566154 0.778166
0.730890 0.564613 0.776430
0.886135 0.560207 0.772224
1.000000 0.555801 0.768018
0.000000 0.689226 0.779511
0.000000 0.689616 0.778689
0.090511 0.689998 0.777867
0.245969 0.687341 0.774899
0.401214 0.682936 0.770693
0.556460 0.678530 0.766487
0.711705 0.674125 0.762281
0.866950 0.669719 0.758075
1.000000 0.665314 0.753869
0.000000 0.810070 0.773368
0.000000 0.805664 0.769162
0.071539 0.801259 0.764956
0.226784 0.796853 0.760750
0.382029 0.792448 0.756544
0.537275 0.788042 0.752338
0.692520 0.783637 0.748132
0.847765 0.779231 0.743926
1.000000 0.774826 0.739720
