assets/lighting/cinematic/grade-emergency-red/lut.cube
TITLE "Emergency Red Wash"
# TKRS lighting-batch-001 original LUT
# Intended usage: alarm / emergency red practical wash
# License: CC0-1.0
LUT_3D_SIZE 17
DOMAIN_MIN 0.0 0.0 0.0
DOMAIN_MAX 1.0 1.0 1.0
0.000000 0.000000 0.000000
0.006842 0.000000 0.000000
0.076315 0.000000 0.000000
0.145787 0.000000 0.000000
0.215259 0.000000 0.000000
0.284731 0.000000 0.000000
0.354204 0.000000 0.000000
0.423676 0.000000 0.000000
0.493148 0.000000 0.000000
0.562620 0.000000 0.000000
0.632093 0.000000 0.000000
0.701565 0.000000 0.000000
0.771037 0.000000 0.000000
0.840509 0.000000 0.000000
0.909982 0.000000 0.000000
0.979454 0.000000 0.000000
1.000000 0.000000 0.000000
0.000000 0.000619 0.000000
0.000000 0.000000 0.000000
0.067729 0.000000 0.000000
0.137202 0.000000 0.000000
0.206674 0.000000 0.000000
0.276146 0.000000 0.000000
0.345618 0.000000 0.000000
0.415091 0.000000 0.000000
0.484563 0.000000 0.000000
0.554035 0.000000 0.000000
0.623507 0.000000 0.000000
0.692980 0.000000 0.000000
0.762452 0.000000 0.000000
0.831924 0.000000 0.000000
0.901396 0.000000 0.000000
0.971287 0.000000 0.000000
1.000000 0.000000 0.000000
0.000000 0.049173 0.000000
0.000000 0.047220 0.000000
0.059144 0.045267 0.000000
0.128616 0.043313 0.000000
0.198089 0.041360 0.000000
0.267561 0.039407 0.000000
0.337033 0.037454 0.000000
0.406505 0.035500 0.000000
0.475978 0.033547 0.000000
0.545450 0.031594 0.000000
0.614922 0.029641 0.000000
0.684394 0.027687 0.000000
0.754609 0.025762 0.000000
0.825620 0.023853 0.000000
0.897087 0.021941 0.000000
0.968984 0.020025 0.000000
1.000000 0.018102 0.000000
0.000000 0.097727 0.000000
0.000000 0.095774 0.000000
0.050559 0.093821 0.000000
0.120031 0.091867 0.000000
0.189503 0.089914 0.000000
0.258976 0.087961 0.000000
0.328448 0.086008 0.000000
0.397920 0.084054 0.000000
0.467432 0.082109 0.000000
0.537724 0.080287 0.000000
0.608449 0.078491 0.000000
0.679570 0.076703 0.000000
0.751084 0.074918 0.000000
0.822999 0.073132 0.000000
0.895321 0.071343 0.000000
0.968058 0.069550 0.000000
1.000000 0.067752 0.000000
0.000000 0.146281 0.000000
0.000000 0.144328 0.000000
0.041973 0.142374 0.000000
0.111446 0.140421 0.000000
0.180918 0.138468 0.000000
0.250532 0.136599 0.000000
0.320585 0.134892 0.000000
0.390979 0.133218 0.000000
0.461725 0.131560 0.000000
0.532835 0.129910 0.000000
0.604323 0.128266 0.000000
0.676200 0.126623 0.000000
0.748475 0.124980 0.000000
0.821158 0.123336 0.000000
0.894258 0.121689 0.000000
0.967783 0.120037 0.000000
1.000000 0.118381 0.000000
0.000000 0.194835 0.000000
0.000000 0.192882 0.000000
0.033426 0.191165 0.000000
0.103164 0.189582 0.000000
0.173191 0.188037 0.000000
0.243539 0.186513 0.000000
0.314227 0.185005 0.000000
0.385272 0.183505 0.000000
0.456690 0.182012 0.000000
0.528492 0.180523 0.000000
0.600689 0.179035 0.000000
0.673292 0.177548 0.000000
0.746308 0.176060 0.000000
0.819746 0.174569 0.000000
0.893614 0.173075 0.000000
0.967920 0.171578 0.000000
1.000000 0.170075 0.000000
0.000000 0.244361 0.000000
0.000000 0.242951 0.000000
0.025001 0.241567 0.000000
0.095250 0.240203 0.000000
0.165839 0.238853 0.000000
0.236786 0.237512 0.000000
0.308104 0.236179 0.000000
0.379805 0.234851 0.000000
0.451900 0.233526 0.000000
0.524400 0.232203 0.000000
0.597312 0.230880 0.000000
0.670646 0.229557 0.000000
0.744408 0.228231 0.000000
0.818607 0.226904 0.000000
0.893248 0.225573 0.000000
0.968338 0.224238 0.000000
1.000000 0.222898 0.000000
0.000000 0.295508 0.000000
0.000000 0.294310 0.000000
0.016481 0.293125 0.000000
0.087304 0.291951 0.000000
0.158500 0.290784 0.000000
0.230080 0.289624 0.000000
0.302054 0.288468 0.000000
0.374433 0.287315 0.000000
0.447225 0.286164 0.000000
0.520438 0.285013 0.000000
0.594080 0.283862 0.000000
0.668158 0.282709 0.000000
0.742678 0.281555 0.000000
0.817647 0.280397 0.000000
0.893070 0.279236 0.000000
0.968954 0.278071 0.000000
1.000000 0.276902 0.000000
0.000000 0.347839 0.000000
0.000000 0.346836 0.000000
0.007825 0.345843 0.000000
0.079267 0.344856 0.000000
0.151105 0.343875 0.000000
0.223349 0.342897 0.000000
0.296006 0.341923 0.000000
0.369085 0.340950 0.000000
0.442594 0.339977 0.000000
0.516538 0.339004 0.000000
0.590925 0.338031 0.000000
0.665761 0.337055 0.000000
0.741052 0.336078 0.000000
0.816803 0.335097 0.000000
0.893020 0.334112 0.000000
0.969708 0.333124 0.000000
1.000000 0.332131 0.000000
0.000000 0.401369 0.000000
0.000000 0.400561 0.000000
0.000000 0.399759 0.000000
0.071109 0.398962 0.000000
0.143620 0.398168 0.000000
0.216553 0.397378 0.000000
0.289917 0.396588 0.000000
0.363717 0.395800 0.000000
0.437961 0.395011 0.000000
0.512654 0.394222 0.000000
0.587802 0.393431 0.000000
0.663410 0.392638 0.000000
0.739485 0.391843 0.000000
0.816031 0.391044 0.000000
0.893053 0.390242 0.000000
0.970556 0.389435 0.000000
1.000000 0.388624 0.000000
0.000000 0.456131 0.000000
0.000000 0.455519 0.000000
0.000000 0.454911 0.000000
0.062810 0.454307 0.000000
0.136019 0.453705 0.000000
0.209665 0.453104 0.000000
0.283756 0.452504 0.000000
0.358296 0.451905 0.000000
0.433293 0.451305 0.000000
0.508750 0.450703 0.000000
0.584674 0.450100 0.000000
0.661070 0.449495 0.000000
0.737942 0.448887 0.000000
0.815294 0.448275 0.000000
0.893133 0.447660 0.000000
0.971461 0.447041 0.000000
1.000000 0.446417 0.000000
0.000000 0.512160 0.000000
0.000000 0.511746 0.000000
0.000000 0.511335 0.000000
0.054356 0.510926 0.000000
0.128285 0.510519 0.000000
0.202664 0.510113 0.000000
0.277500 0.509707 0.000000
0.352799 0.509300 0.000000
0.428564 0.508893 0.000000
0.504801 0.508484 0.000000
0.581516 0.508073 0.000000
0.658711 0.507659 0.000000
0.736393 0.507243 0.000000
0.814564 0.506823 0.000000
0.893230 0.506399 0.000000
0.972394 0.505971 0.000000
1.000000 0.505539 0.000000
0.000000 0.569488 0.000000
0.000000 0.569274 0.000000
0.000000 0.569063 0.000000
0.045734 0.568853 0.000000
0.120403 0.568644 0.000000
0.195534 0.568436 0.000000
0.271133 0.568227 0.000000
0.347205 0.568018 0.000000
0.423755 0.567807 0.000000
0.500786 0.567594 0.000000
0.578304 0.567379 0.000000
0.656312 0.567162 0.000000
0.734815 0.566941 0.000000
0.813817 0.566717 0.000000
0.893321 0.566489 0.000000
0.973332 0.566256 0.000000
1.000000 0.566019 0.000000
0.000000 0.628143 0.000000
0.000000 0.628133 0.000000
0.000000 0.628125 0.000000
0.036935 0.628117 0.000000
0.112361 0.628110 0.000000
0.188261 0.628103 0.000000
0.264639 0.628095 0.000000
0.341500 0.628086 0.000000
0.418848 0.628076 0.000000
0.496687 0.628063 0.000000
0.575021 0.628048 0.000000
0.653854 0.628030 0.000000
0.733190 0.628009 0.000000
0.813033 0.627984 0.000000
0.892037 0.626932 0.000000
0.969659 0.624729 0.000000
1.000000 0.622527 0.000000
0.000000 0.688154 0.000000
0.000000 0.688351 0.000000
0.000000 0.688548 0.000000
0.027950 0.688746 0.000000
0.104151 0.688944 0.000000
0.180835 0.689141 0.000000
0.258007 0.689337 0.000000
0.335670 0.689532 0.000000
0.413829 0.689726 0.000000
0.492488 0.689916 0.000000
0.571651 0.690105 0.000000
0.649576 0.688296 0.000000
0.727199 0.686094 0.000000
0.804822 0.683891 0.000000
0.882444 0.681688 0.000000
0.960067 0.679485 0.000000
1.000000 0.677283 0.000000
0.000000 0.749547 0.000000
0.000000 0.749953 0.000000
0.000000 0.750359 0.000000
0.018773 0.750765 0.000000
0.095763 0.751171 0.000000
0.173246 0.751576 0.000000
0.251224 0.751979 0.000000
0.329493 0.751863 0.000000
0.407116 0.749661 0.000000
0.484739 0.747458 0.000000
0.562361 0.745255 0.000000
0.639984 0.743052 0.000000
0.717606 0.740850 0.000000
0.795229 0.738647 0.000000
0.872852 0.736444 0.000000
0.950474 0.734241 0.000000
1.000000 0.732039 0.000000
0.000000 0.812346 0.000000
0.000000 0.812963 0.000000
0.000000 0.813581 0.000000
0.009397 0.814198 0.000000
0.087033 0.813228 0.000000
0.164655 0.811025 0.000000
0.242278 0.808822 0.000000
0.319901 0.806619 0.000000
0.397523 0.804417 0.000000
0.475146 0.802214 0.000000
0.552769 0.800011 0.000000
0.630391 0.797808 0.000000
0.708014 0.795606 0.000000
0.785637 0.793403 0.000000
0.863259 0.791200 0.000000
0.940882 0.788997 0.000000
1.000000 0.786795 0.000000
0.000000 0.000000 0.006527
0.005976 0.000000 0.004574
0.075448 0.000000 0.002620
0.144920 0.000000 0.000667
0.214392 0.000000 0.000000
0.283865 0.000000 0.000000
0.353337 0.000000 0.000000
0.422809 0.000000 0.000000
0.492281 0.000000 0.000000
0.561754 0.000000 0.000000
0.631226 0.000000 0.000000
0.700698 0.000000 0.000000
0.770171 0.000000 0.000000
0.839643 0.000000 0.000000
0.909115 0.000000 0.000000
0.978587 0.000000 0.000000
1.000000 0.000000 0.000000
0.000000 0.000000 0.000000
0.000000 0.000000 0.000000
0.066863 0.000000 0.000000
0.136335 0.000000 0.000000
0.205807 0.000000 0.000000
0.275279 0.000000 0.000000
0.344752 0.000000 0.000000
0.414224 0.000000 0.000000
0.483696 0.000000 0.000000
0.553168 0.000000 0.000000
0.622641 0.000000 0.000000
0.692113 0.000000 0.000000
0.761585 0.000000 0.000000
0.831057 0.000000 0.000000
0.900530 0.000000 0.000000
0.970920 0.000000 0.000000
1.000000 0.000000 0.000000
0.000000 0.048510 0.000000
0.000000 0.046557 0.000000
0.058277 0.044603 0.000000
0.127750 0.042650 0.000000
0.197222 0.040697 0.000000
0.266694 0.038744 0.000000
0.336166 0.036790 0.000000
0.405639 0.034837 0.000000
0.475111 0.032884 0.000000
0.544583 0.030931 0.000000
0.614055 0.028977 0.000000
0.683569 0.027026 0.000000
0.754172 0.025113 0.000000
0.825298 0.023204 0.000000
0.896861 0.021291 0.000000
0.968849 0.019373 0.000000
1.000000 0.017447 0.000000
0.000000 0.097064 0.000000
0.000000 0.095110 0.000000
0.049692 0.093157 0.000000
0.119164 0.091204 0.000000
0.188637 0.089251 0.000000
0.258109 0.087297 0.000000
0.327581 0.085344 0.000000
0.397053 0.083391 0.000000
0.466772 0.081485 0.000000
0.537184 0.079676 0.000000
0.607996 0.077883 0.000000
0.679198 0.076097 0.000000
0.750792 0.074311 0.000000
0.822787 0.072525 0.000000
0.895189 0.070735 0.000000
0.968006 0.068940 0.000000
1.000000 0.067139 0.000000
0.000000 0.145618 0.000000
0.000000 0.143664 0.000000
0.041107 0.141711 0.000000
0.110579 0.139758 0.000000
0.180051 0.137805 0.000000
0.249797 0.136013 0.000000
0.319921 0.134321 0.000000
0.390384 0.132653 0.000000
0.461199 0.130999 0.000000
0.532380 0.129351 0.000000
0.603940 0.127708 0.000000
0.675890 0.126065 0.000000
0.748240 0.124422 0.000000
0.821000 0.122777 0.000000
0.894177 0.121128 0.000000
0.967781 0.119475 0.000000
1.000000 0.117817 0.000000
0.000000 0.194172 0.000000
0.000000 0.192252 0.000000
0.032577 0.190621 0.000000
0.102363 0.189054 0.000000
0.172445 0.187517 0.000000
0.242852 0.186000 0.000000
0.313602 0.184495 0.000000
0.384713 0.182998 0.000000
0.456199 0.181506 0.000000
0.528070 0.180018 0.000000
0.600339 0.178530 0.000000
0.673015 0.177043 0.000000
0.746106 0.175554 0.000000
0.819621 0.174062 0.000000
0.893567 0.172567 0.000000
0.967951 0.171068 0.000000
1.000000 0.169563 0.000000
0.000000 0.243878 0.000000
0.000000 0.242478 0.000000
0.024146 0.241102 0.000000
0.094451 0.239743 0.000000
0.165099 0.238397 0.000000
0.236108 0.237059 0.000000
0.307491 0.235728 0.000000
0.379260 0.234401 0.000000
0.451425 0.233077 0.000000
0.523995 0.231754 0.000000
0.596980 0.230431 0.000000
0.670389 0.229107 0.000000
0.744227 0.227781 0.000000
0.818503 0.226452 0.000000
0.893222 0.225120 0.000000
0.968392 0.223783 0.000000
1.000000 0.222442 0.000000
0.000000 0.295099 0.000000
0.000000 0.293906 0.000000
0.015613 0.292725 0.000000
0.086497 0.291554 0.000000
0.157757 0.290390 0.000000
0.229402 0.289231 0.000000
0.301444 0.288076 0.000000
0.373893 0.286924 0.000000
0.446756 0.285773 0.000000
0.520043 0.284622 0.000000
0.593759 0.283470 0.000000
0.667912 0.282317 0.000000
0.742510 0.281162 0.000000
0.817557 0.280003 0.000000
0.893060 0.278841 0.000000
0.969025 0.277675 0.000000
1.000000 0.276503 0.000000
0.000000 0.347497 0.000000
0.000000 0.346498 0.000000
0.006943 0.345507 0.000000
0.078450 0.344522 0.000000
0.150354 0.343543 0.000000
0.222666 0.342566 0.000000
0.295394 0.341592 0.000000
0.368545 0.340619 0.000000
0.442127 0.339647 0.000000
0.516146 0.338674 0.000000
0.590609 0.337700 0.000000
0.665523 0.336724 0.000000
0.740892 0.335745 0.000000
0.816723 0.334763 0.000000
0.893021 0.333777 0.000000
0.969790 0.332787 0.000000
1.000000 0.331793 0.000000
0.000000 0.401093 0.000000
0.000000 0.400288 0.000000
0.000000 0.399488 0.000000
0.070278 0.398692 0.000000
0.142858 0.397900 0.000000
0.215863 0.397109 0.000000
0.289299 0.396320 0.000000
0.363173 0.395532 0.000000
0.437491 0.394743 0.000000
0.512261 0.393953 0.000000
0.587487 0.393162 0.000000
0.663174 0.392368 0.000000
0.739329 0.391572 0.000000
0.815956 0.390772 0.000000
0.893060 0.389968 0.000000
0.970645 0.389161 0.000000
1.000000 0.388348 0.000000
0.000000 0.455923 0.000000
0.000000 0.455312 0.000000
0.000000 0.454705 0.000000
0.061964 0.454102 0.000000
0.135245 0.453500 0.000000
0.208964 0.452900 0.000000
0.283129 0.452301 0.000000
0.357745 0.451701 0.000000
0.432818 0.451101 0.000000
0.508354 0.450499 0.000000
0.584357 0.449895 0.000000
0.660833 0.449289 0.000000
0.737786 0.448680 0.000000
0.815221 0.448067 0.000000
0.893142 0.447450 0.000000
0.971554 0.446829 0.000000
1.000000 0.446203 0.000000
0.000000 0.512019 0.000000
0.000000 0.511606 0.000000
0.000000 0.511196 0.000000
0.053493 0.510788 0.000000
0.127496 0.510381 0.000000
0.201950 0.509975 0.000000
0.276863 0.509569 0.000000
0.352239 0.509162 0.000000
0.428082 0.508754 0.000000
0.504399 0.508345 0.000000
0.581194 0.507933 0.000000
0.658471 0.507518 0.000000
0.736235 0.507101 0.000000
0.814490 0.506680 0.000000
0.893240 0.506254 0.000000
0.972489 0.505825 0.000000
1.000000 0.505390 0.000000
0.000000 0.569415 0.000000
0.000000 0.569202 0.000000
0.000000 0.568991 0.000000
0.044854 0.568782 0.000000
0.119598 0.568573 0.000000
0.194806 0.568365 0.000000
0.270484 0.568156 0.000000
0.346635 0.567946 0.000000
0.423264 0.567735 0.000000
0.500376 0.567522 0.000000
0.577976 0.567306 0.000000
0.656067 0.567087 0.000000
0.734654 0.566865 0.000000
0.813740 0.566640 0.000000
0.893329 0.566410 0.000000
0.973426 0.566176 0.000000
1.000000 0.565937 0.000000
0.000000 0.628139 0.000000
0.000000 0.628130 0.000000
0.000000 0.628122 0.000000
0.036036 0.628115 0.000000
0.111540 0.628108 0.000000
0.187519 0.628100 0.000000
0.263976 0.628092 0.000000
0.340917 0.628083 0.000000
0.418347 0.628072 0.000000
0.496268 0.628058 0.000000
0.574685 0.628042 0.000000
0.653602 0.628023 0.000000
0.733023 0.628001 0.000000
0.812951 0.627975 0.000000
0.891068 0.626184 0.000000
0.968691 0.623981 0.000000
1.000000 0.621779 0.000000
0.000000 0.688221 0.000000
0.000000 0.688418 0.000000
0.000000 0.688615 0.000000
0.027033 0.688813 0.000000
0.103312 0.689011 0.000000
0.180076 0.689208 0.000000
0.257329 0.689404 0.000000
0.335074 0.689598 0.000000
0.413316 0.689791 0.000000
0.492058 0.689981 0.000000
0.570985 0.689751 0.000000
0.648608 0.687548 0.000000
0.726231 0.685346 0.000000
0.803853 0.683143 0.000000
0.881476 0.680940 0.000000
0.959098 0.678737 0.000000
1.000000 0.676535 0.000000
0.000000 0.749685 0.000000
0.000000 0.750091 0.000000
0.000000 0.750497 0.000000
0.017836 0.750903 0.000000
0.094906 0.751308 0.000000
0.172470 0.751713 0.000000
0.250531 0.752116 0.000000
0.328525 0.751115 0.000000
0.406148 0.748913 0.000000
0.483770 0.746710 0.000000
0.561393 0.744507 0.000000
0.639015 0.742304 0.000000
0.716638 0.740102 0.000000
0.794261 0.737899 0.000000
0.871883 0.735696 0.000000
0.949506 0.733493 0.000000
1.000000 0.731291 0.000000
0.000000 0.812556 0.000000
0.000000 0.813173 0.000000
0.000000 0.813791 0.000000
0.008439 0.814408 0.000000
0.086064 0.812480 0.000000
0.163687 0.810277 0.000000
0.241310 0.808074 0.000000
0.318932 0.805871 0.000000
0.396555 0.803669 0.000000
0.474178 0.801466 0.000000
0.551800 0.799263 0.000000
0.629423 0.797060 0.000000
0.707046 0.794858 0.000000
0.784668 0.792655 0.000000
0.862291 0.790452 0.000000
0.939913 0.788249 0.000000
1.000000 0.786047 0.000000
0.000000 0.000000 0.060988
0.005109 0.000000 0.059035
0.074581 0.000000 0.057082
0.144054 0.000000 0.055129
0.213526 0.000000 0.053175
0.282998 0.000000 0.051222
0.352470 0.000000 0.049269
0.421943 0.000000 0.047315
0.491415 0.000000 0.045362
0.560887 0.000000 0.043409
0.630359 0.000000 0.041456
0.699832 0.000000 0.039502
0.769304 0.000000 0.037549
0.838776 0.000000 0.035596
0.908248 0.000000 0.033643
0.977721 0.000000 0.031689
1.000000 0.000000 0.029736
0.000000 0.000000 0.054417
0.000000 0.000000 0.052464
0.065996 0.000000 0.050511
0.135468 0.000000 0.048558
0.204940 0.000000 0.046604
0.274413 0.000000 0.044651
0.343885 0.000000 0.042698
0.413357 0.000000 0.040745
0.482830 0.000000 0.038791
0.552302 0.000000 0.036838
0.621774 0.000000 0.034885
0.691246 0.000000 0.032932
0.760719 0.000000 0.030978
0.830191 0.000000 0.029025
0.899696 0.000000 0.027072
0.970603 0.000000 0.025143
1.000000 0.000000 0.023217
0.000000 0.047847 0.047847
0.000000 0.045893 0.045893
0.057411 0.043940 0.043940
0.126883 0.041987 0.041987
0.196355 0.040034 0.040034
0.265827 0.038080 0.038080
0.335300 0.036127 0.036127
0.404772 0.034174 0.034174
0.474244 0.032220 0.032220
0.543716 0.030267 0.030267
0.613189 0.028314 0.028314
0.682997 0.026375 0.026369
0.753763 0.024465 0.024442
0.824992 0.022555 0.022515
0.896648 0.020641 0.020585
0.968725 0.018720 0.018651
1.000000 0.016791 0.016712
0.000000 0.096400 0.041276
0.000000 0.094447 0.039322
0.048825 0.092494 0.037369
0.118298 0.090541 0.035416
0.187770 0.088587 0.033463
0.257242 0.086634 0.031509
0.326714 0.084681 0.029556
0.396187 0.082728 0.027603
0.466151 0.080867 0.025667
0.536659 0.079066 0.023741
0.607554 0.077276 0.021812
0.678835 0.075491 0.019881
0.750508 0.073705 0.017946
0.822581 0.071917 0.016005
0.895062 0.070126 0.014060
0.967960 0.068329 0.012108
1.000000 0.066526 0.010151
0.000000 0.144954 0.034705
0.000000 0.143001 0.032752
0.040240 0.141048 0.030798
0.109712 0.139095 0.028845
0.179209 0.137161 0.026894
0.249074 0.135435 0.024966
0.319265 0.133753 0.023039
0.389794 0.132090 0.021110
0.460678 0.130439 0.019177
0.531929 0.128793 0.017240
0.603561 0.127150 0.015298
0.675584 0.125507 0.013350
0.748009 0.123864 0.011396
0.820845 0.122218 0.009437
0.894100 0.120568 0.007470
0.967783 0.118913 0.005497
1.000000 0.117253 0.003517
0.000000 0.193508 0.028134
0.000000 0.191686 0.026191
0.031729 0.190084 0.024264
0.101563 0.188529 0.022337
0.171700 0.187000 0.020407
0.242166 0.185487 0.018472
0.312979 0.183985 0.016533
0.384156 0.182491 0.014589
0.455709 0.181000 0.012639
0.527651 0.179513 0.010684
0.599991 0.178025 0.008722
0.672740 0.176537 0.006753
0.745907 0.175048 0.004777
0.819498 0.173555 0.002795
0.893521 0.172059 0.000805
0.967985 0.170558 0.000000
1.000000 0.169051 0.000000
0.000000 0.243400 0.021635
0.000000 0.242009 0.019703
0.023290 0.240639 0.017767
0.093651 0.239285 0.015826
0.164359 0.237941 0.013880
0.235431 0.236606 0.011928
0.306879 0.235277 0.009970
0.378716 0.233951 0.008006
0.450950 0.232627 0.006034
0.523592 0.231305 0.004056
0.596650 0.229981 0.002071
0.670133 0.228657 0.000079
0.744047 0.227330 0.000000
0.818401 0.226000 0.000000
0.893199 0.224666 0.000000
0.968449 0.223328 0.000000
1.000000 0.221985 0.000000
0.000000 0.294693 0.015118
0.000000 0.293504 0.013170
0.014745 0.292326 0.011216
0.085690 0.291158 0.009256
0.157013 0.289996 0.007289
0.228724 0.288838 0.005315
0.300835 0.287685 0.003335
0.373353 0.286533 0.001347
0.446288 0.285382 0.000000
0.519647 0.284231 0.000000
0.593438 0.283079 0.000000
0.667668 0.281925 0.000000
0.742343 0.280769 0.000000
0.817469 0.279609 0.000000
0.893051 0.278445 0.000000
0.969097 0.277277 0.000000
1.000000 0.276104 0.000000
0.000000 0.347157 0.008540
0.000000 0.346161 0.006571
0.006059 0.345172 0.004595
0.077631 0.344189 0.002612
0.149602 0.343211 0.000621
0.221983 0.342235 0.000000
0.294781 0.341262 0.000000
0.368004 0.340289 0.000000
0.441660 0.339317 0.000000
0.515754 0.338343 0.000000
0.590293 0.337369 0.000000
0.665284 0.336392 0.000000
0.740732 0.335412 0.000000
0.816643 0.334429 0.000000
0.893022 0.333442 0.000000
0.969873 0.332450 0.000000
1.000000 0.331454 0.000000
0.000000 0.400819 0.001888
0.000000 0.400016 0.000000
0.000000 0.399217 0.000000
0.069446 0.398423 0.000000
0.142095 0.397631 0.000000
0.215171 0.396841 0.000000
0.288679 0.396053 0.000000
0.362628 0.395264 0.000000
0.437022 0.394475 0.000000
0.511868 0.393685 0.000000
0.587171 0.392893 0.000000
0.662938 0.392098 0.000000
0.739173 0.391301 0.000000
0.815881 0.390500 0.000000
0.893066 0.389695 0.000000
0.970735 0.388885 0.000000
1.000000 0.388071 0.000000
0.000000 0.455715 0.000000
0.000000 0.455106 0.000000
0.000000 0.454500 0.000000
0.061116 0.453897 0.000000
0.134469 0.453297 0.000000
0.208261 0.452697 0.000000
0.282501 0.452097 0.000000
0.357193 0.451497 0.000000
0.432343 0.450897 0.000000
0.507957 0.450294 0.000000
0.584040 0.449690 0.000000
0.660596 0.449082 0.000000
0.737630 0.448472 0.000000
0.815147 0.447858 0.000000
0.893152 0.447240 0.000000
0.971648 0.446617 0.000000
1.000000 0.445990 0.000000
0.000000 0.511878 0.000000
0.000000 0.511466 0.000000
0.000000 0.511057 0.000000
0.052629 0.510649 0.000000
0.126705 0.510243 0.000000
0.201235 0.509837 0.000000
0.276224 0.509431 0.000000
0.351678 0.509024 0.000000
0.427600 0.508615 0.000000
0.503997 0.508205 0.000000
0.580872 0.507792 0.000000
0.658231 0.507377 0.000000
0.736077 0.506958 0.000000
0.814415 0.506536 0.000000
0.893249 0.506109 0.000000
0.972584 0.505678 0.000000
1.000000 0.505242 0.000000
0.000000 0.569342 0.000000
0.000000 0.569130 0.000000
0.000000 0.568920 0.000000
0.043972 0.568711 0.000000
0.118792 0.568503 0.000000
0.194077 0.568294 0.000000
0.269833 0.568085 0.000000
0.346063 0.567875 0.000000
0.422772 0.567663 0.000000
0.499966 0.567449 0.000000
0.577647 0.567232 0.000000
0.655821 0.567012 0.000000
0.734492 0.566789 0.000000
0.813662 0.566562 0.000000
0.893337 0.566331 0.000000
0.973519 0.566096 0.000000
1.000000 0.565855 0.000000
0.000000 0.628136 0.000000
0.000000 0.628127 0.000000
0.000000 0.628119 0.000000
0.035136 0.628112 0.000000
0.110718 0.628105 0.000000
0.186775 0.628098 0.000000
0.263312 0.628089 0.000000
0.340334 0.628079 0.000000
0.417844 0.628067 0.000000
0.495848 0.628053 0.000000
0.574348 0.628036 0.000000
0.653349 0.628016 0.000000
0.732855 0.627992 0.000000
0.812477 0.627639 0.000000
0.890100 0.625436 0.000000
0.967723 0.623233 0.000000
1.000000 0.621030 0.000000
0.000000 0.688288 0.000000
0.000000 0.688485 0.000000
0.000000 0.688682 0.000000
0.026113 0.688880 0.000000
0.102472 0.689078 0.000000
0.179316 0.689275 0.000000
0.256650 0.689470 0.000000
0.334477 0.689664 0.000000
0.412801 0.689855 0.000000
0.491627 0.690044 0.000000
0.570017 0.689003 0.000000
0.647640 0.686800 0.000000
0.725262 0.684598 0.000000
0.802885 0.682395 0.000000
0.880507 0.680192 0.000000
0.958130 0.677989 0.000000
1.000000 0.675786 0.000000
0.000000 0.749823 0.000000
0.000000 0.750229 0.000000
0.000000 0.750635 0.000000
0.016896 0.751041 0.000000
0.094047 0.751446 0.000000
0.171693 0.751850 0.000000
0.249836 0.752253 0.000000
0.327557 0.750367 0.000000
0.405179 0.748165 0.000000
0.482802 0.745962 0.000000
0.560424 0.743759 0.000000
0.638047 0.741556 0.000000
0.715670 0.739354 0.000000
0.793292 0.737151 0.000000
0.870915 0.734948 0.000000
0.948538 0.732745 0.000000
1.000000 0.730543 0.000000
0.000000 0.812765 0.000000
0.000000 0.813383 0.000000
0.000000 0.814000 0.000000
0.007473 0.813934 0.000000
0.085096 0.811732 0.000000
0.162719 0.809529 0.000000
0.240341 0.807326 0.000000
0.317964 0.805123 0.000000
0.395587 0.802921 0.000000
0.473209 0.800718 0.000000
0.550832 0.798515 0.000000
0.628455 0.796312 0.000000
0.706077 0.794110 0.000000
0.783700 0.791907 0.000000
0.861322 0.789704 0.000000
0.938945 0.787501 0.000000
1.000000 0.785299 0.000000
0.000000 0.000000 0.115450
0.004242 0.000000 0.113496
0.073715 0.000000 0.111543
0.143187 0.000000 0.109590
0.212659 0.000000 0.107637
0.282131 0.000000 0.105683
0.351604 0.000000 0.103730
0.421076 0.000000 0.101777
0.490548 0.000000 0.099824
0.560020 0.000000 0.097870
0.629493 0.000000 0.095917
0.698965 0.000000 0.093964
0.768437 0.000000 0.092011
0.837909 0.000000 0.090057
