assets/lighting/cinematic/grade-emergency-red/lut.cube
TITLE "Emergency Red Wash"
# TKRS lighting-batch-001 original LUT
# Intended usage: alarm / emergency red practical wash
# License: CC0-1.0
LUT_3D_SIZE 5
DOMAIN_MIN 0.0 0.0 0.0
DOMAIN_MAX 1.0 1.0 1.0
0.000000 0.000000 0.000000
0.215259 0.000000 0.000000
0.493148 0.000000 0.000000
0.771037 0.000000 0.000000
1.000000 0.000000 0.000000
0.000000 0.146281 0.000000
0.180918 0.138468 0.000000
0.461725 0.131560 0.000000
0.748475 0.124980 0.000000
1.000000 0.118381 0.000000
0.000000 0.347839 0.000000
0.151105 0.343875 0.000000
0.442594 0.339977 0.000000
0.741052 0.336078 0.000000
1.000000 0.332131 0.000000
0.000000 0.569488 0.000000
0.120403 0.568644 0.000000
0.423755 0.567807 0.000000
0.734815 0.566941 0.000000
1.000000 0.566019 0.000000
0.000000 0.812346 0.000000
0.087033 0.813228 0.000000
0.397523 0.804417 0.000000
0.708014 0.795606 0.000000
1.000000 0.786795 0.000000
0.000000 0.000000 0.169911
0.211792 0.000000 0.162098
0.489681 0.000000 0.154285
0.767570 0.000000 0.146472
1.000000 0.000000 0.138659
0.000000 0.143628 0.143628
0.177651 0.135981 0.135915
0.459649 0.129320 0.128793
0.747559 0.122746 0.121723
1.000000 0.116122 0.114623
0.000000 0.346479 0.119144
0.148095 0.342548 0.112024
0.440725 0.338656 0.104832
0.740415 0.334744 0.097550
1.000000 0.330774 0.090166
0.000000 0.569198 0.094874
0.117175 0.568361 0.087451
0.421786 0.567518 0.079912
0.734166 0.566635 0.072250
1.000000 0.564778 0.064392
0.000000 0.813185 0.069428
0.083159 0.810235 0.061330
0.393650 0.801424 0.052918
0.704140 0.792613 0.044506
1.000000 0.783802 0.036095
0.000000 0.000000 0.387757
0.208326 0.000000 0.379944
0.486215 0.000000 0.372131
0.764104 0.000000 0.364318
1.000000 0.000000 0.356730
0.000000 0.140974 0.361473
0.174619 0.133690 0.354503
0.457634 0.127088 0.348728
0.746700 0.120505 0.343160
1.000000 0.113850 0.337674
0.000000 0.345135 0.341157
0.145068 0.341225 0.335686
0.438854 0.337332 0.330225
0.739784 0.333404 0.324743
1.000000 0.329406 0.319219
0.000000 0.568912 0.322738
0.113921 0.568077 0.317194
0.419800 0.567224 0.311585
0.733507 0.566322 0.305899
1.000000 0.561786 0.298934
0.000000 0.814024 0.303808
0.079286 0.807243 0.295872
0.389776 0.798432 0.287460
0.700267 0.789621 0.279048
1.000000 0.780810 0.270636
0.000000 0.000000 0.605602
0.204859 0.000000 0.597789
0.482748 0.000000 0.589976
0.760637 0.000000 0.582163
1.000000 0.000000 0.575645
0.000000 0.138321 0.579319
0.171630 0.131435 0.573942
0.455663 0.124857 0.569652
0.745888 0.118256 0.565676
1.000000 0.111564 0.561873
0.000000 0.343801 0.564276
0.142023 0.339904 0.560516
0.436978 0.336004 0.556836
0.739158 0.332056 0.553198
1.000000 0.328027 0.549572
0.000000 0.568629 0.551878
0.110640 0.567791 0.548250
0.417797 0.566924 0.544605
0.732839 0.566001 0.540926
1.000000 0.558794 0.533476
0.000000 0.813062 0.538826
0.075412 0.804251 0.530414
0.385903 0.795440 0.522002
0.696393 0.786629 0.513590
1.000000 0.777818 0.505178
0.000000 0.000000 0.823448
0.201392 0.000000 0.815635
0.479281 0.000000 0.807822
0.757170 0.000000 0.800009
1.000000 0.000000 0.795461
0.000000 0.135853 0.797817
0.168661 0.129197 0.794323
0.453725 0.122622 0.791619
0.745115 0.115996 0.789310
1.000000 0.109263 0.787248
0.000000 0.342474 0.788535
0.138959 0.338582 0.786541
0.435095 0.334670 0.784691
0.738535 0.330698 0.782937
1.000000 0.326635 0.781244
0.000000 0.568345 0.782315
0.107331 0.567501 0.780638
0.415774 0.566618 0.778988
0.730890 0.564613 0.776430
1.000000 0.555801 0.768018
0.000000 0.810070 0.773368
0.071539 0.801259 0.764956
0.382029 0.792448 0.756544
0.692520 0.783637 0.748132
1.000000 0.774826 0.739720
