assets/lighting/cinematic/grade-abandoned-rust/lut.cube
TITLE "Abandoned Rust"
# TKRS lighting-batch-001 original LUT
# Intended usage: decayed warm-dust abandoned interiors
# License: CC0-1.0
LUT_3D_SIZE 5
DOMAIN_MIN 0.0 0.0 0.0
DOMAIN_MAX 1.0 1.0 1.0
0.000000 0.000000 0.000000
0.129156 0.000000 0.000000
0.293853 0.000000 0.000000
0.458551 0.000000 0.000000
0.623249 0.000000 0.000000
0.000000 0.124251 0.000000
0.154767 0.131998 0.000000
0.323561 0.141347 0.005978
0.500518 0.151946 0.013559
0.686059 0.163196 0.021344
0.016239 0.290596 0.014184
0.191080 0.304726 0.021987
0.374332 0.319645 0.030015
0.566659 0.335286 0.038282
0.768577 0.351614 0.046800
0.045992 0.483682 0.038965
0.235208 0.503409 0.047504
0.434008 0.523915 0.056303
0.642807 0.545171 0.065371
0.861963 0.567161 0.074715
0.080492 0.704683 0.066120
0.285738 0.730389 0.075487
0.501349 0.756895 0.085137
0.713502 0.770227 0.093920
0.922972 0.779857 0.102420
0.000000 0.000000 0.088539
0.131556 0.000000 0.095909
0.296254 0.000000 0.103280
0.460952 0.000000 0.110650
0.625705 0.000099 0.118026
0.000000 0.126488 0.111249
0.157321 0.134352 0.118685
0.327827 0.144333 0.127306
0.506203 0.155133 0.136396
0.693256 0.166555 0.145848
0.018845 0.294589 0.137151
0.194938 0.308957 0.146632
0.379582 0.324090 0.156448
0.573404 0.339933 0.166592
0.776899 0.356454 0.177061
0.049015 0.489297 0.167431
0.239673 0.509253 0.177926
0.440002 0.529977 0.188746
0.650400 0.551447 0.199891
0.871216 0.573645 0.211364
0.083989 0.712023 0.200812
0.290801 0.737962 0.212311
0.507085 0.763379 0.223878
0.716555 0.773009 0.232378
0.926025 0.782638 0.240878
0.000000 0.000000 0.208594
0.133956 0.000000 0.215964
0.298654 0.000000 0.223335
0.463352 0.000000 0.230705
0.630527 0.002344 0.238605
0.000000 0.128725 0.231304
0.160406 0.137113 0.239382
0.332221 0.147383 0.249449
0.512010 0.158371 0.260151
0.700576 0.169962 0.271340
0.021487 0.298655 0.261043
0.198855 0.313252 0.272269
0.384906 0.328594 0.283928
0.580234 0.344635 0.295993
0.785314 0.361350 0.308451
0.052080 0.494979 0.296991
0.244195 0.515160 0.309481
0.446061 0.536102 0.322355
0.658067 0.557784 0.335608
0.880551 0.580190 0.349237
0.087531 0.719432 0.336702
0.295920 0.745602 0.350361
0.510138 0.766160 0.362335
0.719608 0.775790 0.370836
0.929078 0.785420 0.379336
0.000000 0.000000 0.328649
0.136357 0.000000 0.336019
0.301055 0.000000 0.343390
0.465753 0.000000 0.350760
0.636019 0.004609 0.359914
0.000000 0.130963 0.351360
0.163639 0.139989 0.360816
0.336728 0.150490 0.372459
0.517932 0.161658 0.384857
0.708013 0.173417 0.397846
0.024165 0.302790 0.385892
0.202829 0.317608 0.398926
0.390302 0.333156 0.412475
0.587146 0.349394 0.426503
0.793819 0.366299 0.440987
0.055188 0.500728 0.427664
0.248772 0.521131 0.442185
0.452187 0.542289 0.457144
0.665809 0.564181 0.472533
0.889968 0.586794 0.488343
0.091121 0.726908 0.473803
0.301096 0.753308 0.489647
0.513191 0.768941 0.500793
0.722661 0.778571 0.509293
0.932131 0.788201 0.517794
0.000000 0.000000 0.448704
0.138757 0.000000 0.456074
0.303455 0.000000 0.463445
0.468153 0.000000 0.470815
0.641866 0.006897 0.482027
0.000000 0.133200 0.471415
0.166973 0.142943 0.483062
0.341339 0.153652 0.496379
0.523961 0.164995 0.510545
0.715563 0.176918 0.525389
0.026880 0.306991 0.511728
0.206862 0.322026 0.526623
0.395769 0.337776 0.542109
0.594140 0.354209 0.558139
0.802415 0.371303 0.574683
0.058339 0.506541 0.559465
0.253406 0.527165 0.576050
0.458379 0.548536 0.593126
0.673626 0.570638 0.610678
0.899467 0.593457 0.628696
0.094758 0.734450 0.612126
0.306328 0.761079 0.630181
0.516244 0.771722 0.639251
0.725714 0.781352 0.647751
0.935184 0.790982 0.656251
