assets/lighting/cinematic/grade-abandoned-rust/lut.cube
TITLE "Abandoned Rust"
# TKRS lighting-batch-001 original LUT
# Intended usage: decayed warm-dust abandoned interiors
# License: CC0-1.0
LUT_3D_SIZE 9
DOMAIN_MIN 0.0 0.0 0.0
DOMAIN_MAX 1.0 1.0 1.0
0.000000 0.000000 0.000000
0.046807 0.000000 0.000000
0.129156 0.000000 0.000000
0.211504 0.000000 0.000000
0.293853 0.000000 0.000000
0.376202 0.000000 0.000000
0.458551 0.000000 0.000000
0.540900 0.000000 0.000000
0.623249 0.000000 0.000000
0.000000 0.045562 0.000000
0.059612 0.049436 0.000000
0.141961 0.053309 0.000000
0.224310 0.057183 0.000000
0.306659 0.061056 0.000000
0.389008 0.064930 0.000000
0.472946 0.069011 0.001954
0.560377 0.073459 0.005674
0.650072 0.078058 0.009436
0.000000 0.124251 0.000000
0.072418 0.128124 0.000000
0.154767 0.131998 0.000000
0.238065 0.136358 0.002255
0.323561 0.141347 0.005978
0.411011 0.146558 0.009744
0.500518 0.151946 0.013559
0.592173 0.157496 0.017425
0.686059 0.163196 0.021344
0.002888 0.203783 0.002556
0.086383 0.209328 0.006282
0.171552 0.215160 0.010053
0.258593 0.221216 0.013871
0.347641 0.227468 0.017741
0.438804 0.233901 0.021665
0.532170 0.240505 0.025646
0.627816 0.247274 0.029684
0.725809 0.254203 0.033782
0.016239 0.290596 0.014184
0.102659 0.297556 0.018058
0.191080 0.304726 0.021987
0.281609 0.312092 0.025972
0.374332 0.319645 0.030015
0.469326 0.327378 0.034118
0.566659 0.335286 0.038282
0.666391 0.343366 0.042509
0.768577 0.351614 0.046800
0.030563 0.383803 0.026298
0.120350 0.392143 0.030346
0.212333 0.400684 0.034454
0.306587 0.409417 0.038623
0.403177 0.418338 0.042856
0.502163 0.427442 0.047152
0.603600 0.436727 0.051513
0.707539 0.446189 0.055940
0.814025 0.455827 0.060434
0.045992 0.483682 0.038965
0.139430 0.493446 0.043202
0.235208 0.503409 0.047504
0.333383 0.513567 0.051870
0.434008 0.523915 0.056303
0.537135 0.534450 0.060803
0.642807 0.545171 0.065371
0.751070 0.556075 0.070008
0.861963 0.567161 0.074715
0.062613 0.590548 0.052228
0.159918 0.601784 0.056666
0.259677 0.613220 0.061171
0.361938 0.624853 0.065745
0.466746 0.636680 0.070388
0.574145 0.648699 0.075101
0.684174 0.660908 0.079884
0.796871 0.673304 0.084739
0.906685 0.682043 0.089325
0.080492 0.704683 0.066120
0.181840 0.717434 0.070769
0.285738 0.730389 0.075487
0.392228 0.743543 0.080276
0.501349 0.756895 0.085137
0.608767 0.765412 0.089670
0.713502 0.770227 0.093920
0.818237 0.775042 0.098170
0.922972 0.779857 0.102420
0.000000 0.000000 0.028511
0.048007 0.000000 0.032196
0.130356 0.000000 0.035882
0.212705 0.000000 0.039567
0.295054 0.000000 0.043252
0.377402 0.000000 0.046937
0.459751 0.000000 0.050622
0.542100 0.000000 0.054308
0.624449 0.000000 0.057993
0.000000 0.046681 0.039866
0.060813 0.050554 0.043552
0.143162 0.054428 0.047237
0.225510 0.058301 0.050922
0.307859 0.062175 0.054607
0.390208 0.066048 0.058292
0.475245 0.070277 0.062176
0.563134 0.074774 0.066212
0.653244 0.079411 0.070329
0.000000 0.125369 0.051222
0.073618 0.129243 0.054907
0.155967 0.133116 0.058592
0.239835 0.137770 0.062501
0.325676 0.142832 0.066544
0.413477 0.148097 0.070667
0.503345 0.153533 0.074865
0.595373 0.159127 0.079134
0.689642 0.164870 0.083474
0.004104 0.205348 0.062826
0.087844 0.210987 0.066876
0.173303 0.216888 0.071006
0.260659 0.223002 0.075209
0.350043 0.229307 0.079484
0.441558 0.235791 0.083830
0.535290 0.242443 0.088247
0.631314 0.249259 0.092734
0.729696 0.256234 0.097292
0.017538 0.292583 0.075554
0.104258 0.299606 0.079835
0.193002 0.306833 0.084187
0.283870 0.314254 0.088609
0.376948 0.321860 0.093102
0.472309 0.329644 0.097666
0.570021 0.337602 0.102302
0.670142 0.345731 0.107009
0.772726 0.354028 0.111790
0.031961 0.386191 0.088972
0.122079 0.394590 0.093470
0.214409 0.403186 0.098040
0.309022 0.411974 0.102682
0.405984 0.420948 0.107395
0.505352 0.430105 0.112182
0.607181 0.439441 0.117042
0.711520 0.448955 0.121975
0.818414 0.458642 0.126983
0.047498 0.486481 0.103062
0.141291 0.496303 0.107782
0.237434 0.506323 0.112574
0.335985 0.516536 0.117440
0.436997 0.526938 0.122379
0.540518 0.537528 0.127393
0.646594 0.548302 0.132482
0.755268 0.559258 0.137647
0.866579 0.570396 0.142887
0.064234 0.593772 0.117839
0.161911 0.605066 0.122784
0.262052 0.616560 0.127804
0.364703 0.628249 0.132899
0.469911 0.640131 0.138070
0.577716 0.652205 0.143317
0.688159 0.664468 0.148640
0.801277 0.676919 0.154041
0.908211 0.683433 0.158553
0.082235 0.708344 0.133317
0.183969 0.721155 0.138494
0.288262 0.734167 0.143747
0.395155 0.747378 0.149076
0.504687 0.760787 0.154483
0.610293 0.766803 0.158899
0.715028 0.771618 0.163149
0.819763 0.776433 0.167399
0.924498 0.781248 0.171649
0.000000 0.000000 0.088539
0.049207 0.000000 0.092224
0.131556 0.000000 0.095909
0.213905 0.000000 0.099594
0.296254 0.000000 0.103280
0.378603 0.000000 0.106965
0.460952 0.000000 0.110650
0.543301 0.000000 0.114335
0.625705 0.000099 0.118026
0.000000 0.047799 0.099894
0.062013 0.051673 0.103579
0.144362 0.055546 0.107264
0.226711 0.059420 0.110950
0.309060 0.063293 0.114635
0.391602 0.067197 0.118353
0.477630 0.071560 0.122568
0.565948 0.076099 0.126945
0.656464 0.080774 0.131433
0.000000 0.126488 0.111249
0.074819 0.130362 0.114934
0.157321 0.134352 0.118685
0.241648 0.139208 0.122919
0.327827 0.144333 0.127306
0.415975 0.149650 0.131803
0.506203 0.155133 0.136396
0.598604 0.160770 0.141079
0.693256 0.166555 0.145848
0.005326 0.206945 0.123271
0.089320 0.212667 0.127668
0.175070 0.218633 0.132173
0.262745 0.224804 0.136773
0.352467 0.231162 0.141463
0.444335 0.237695 0.146239
0.538435 0.244395 0.151100
0.634838 0.251257 0.156042
0.733610 0.258278 0.161067
0.018845 0.294589 0.137151
0.105869 0.301672 0.141849
0.194938 0.308957 0.146632
0.286148 0.316432 0.151498
0.379582 0.324090 0.156448
0.475313 0.331925 0.161479
0.573404 0.339933 0.166592
0.673915 0.348110 0.171786
0.776899 0.356454 0.177061
0.033368 0.388596 0.151898
0.123821 0.397052 0.156854
0.216499 0.405705 0.161892
0.311474 0.414547 0.167011
0.408808 0.423574 0.172212
0.508560 0.432783 0.177493
0.610781 0.442171 0.182856
0.715521 0.451735 0.188300
0.822826 0.461472 0.193825
0.049015 0.489297 0.167431
0.143163 0.499177 0.172638
0.239673 0.509253 0.177926
0.338602 0.519520 0.183295
0.440002 0.529977 0.188746
0.543919 0.540620 0.194278
0.650400 0.551447 0.199891
0.759485 0.562456 0.205587
0.871216 0.573645 0.211364
0.065867 0.597013 0.183736
0.163917 0.608365 0.189193
0.264441 0.619915 0.194731
0.367484 0.631661 0.200351
0.473092 0.643599 0.206053
0.581305 0.655728 0.211837
0.692163 0.668045 0.217704
0.805003 0.680009 0.223532
0.909738 0.684824 0.227782
0.083989 0.712023 0.200812
0.186111 0.724892 0.206521
0.290801 0.737962 0.212311
0.398098 0.751231 0.218184
0.507085 0.763379 0.223878
0.611820 0.768194 0.228128
0.716555 0.773009 0.232378
0.821290 0.777824 0.236628
0.926025 0.782638 0.240878
0.000000 0.000000 0.148566
0.050407 0.000000 0.152251
0.132756 0.000000 0.155937
0.215105 0.000000 0.159622
0.297454 0.000000 0.163307
0.379803 0.000000 0.166992
0.462152 0.000000 0.170678
0.544501 0.000000 0.174363
0.627981 0.001219 0.178229
0.000000 0.048918 0.159922
0.063213 0.052792 0.163607
0.145562 0.056665 0.167292
0.227911 0.060539 0.170977
0.310260 0.064412 0.174662
0.393542 0.068431 0.178587
0.480086 0.072856 0.183141
0.568814 0.077436 0.187880
0.659729 0.082148 0.192755
0.000000 0.127607 0.171277
0.076019 0.131480 0.174962
0.158839 0.135714 0.178947
0.243498 0.140666 0.183521
0.330009 0.145851 0.188272
0.418504 0.151217 0.193156
0.509092 0.156745 0.198156
0.601865 0.162426 0.203262
0.696901 0.168253 0.208469
0.006556 0.208568 0.183901
0.090809 0.214367 0.188664
0.176855 0.220395 0.193559
0.264850 0.226622 0.198568
0.354912 0.233031 0.203682
0.447135 0.239613 0.208896
0.541603 0.246360 0.214207
0.638386 0.253268 0.219612
0.737548 0.260334 0.225109
0.020162 0.296613 0.198980
0.107493 0.303756 0.204102
0.196889 0.311096 0.209325
0.288443 0.318625 0.214643
0.382235 0.326334 0.220056
0.478336 0.334220 0.225560
0.576809 0.342277 0.231155
0.677711 0.350503 0.236840
0.781095 0.358895 0.242614
0.034786 0.391017 0.215080
0.125574 0.399531 0.220500
0.218603 0.408239 0.226011
0.313941 0.417135 0.231614
0.411650 0.426215 0.237306
0.511786 0.435476 0.243087
0.614401 0.444915 0.248957
0.719544 0.454529 0.254916
0.827258 0.464317 0.260962
0.050542 0.492130 0.232073
0.145048 0.502067 0.237773
0.241927 0.512198 0.243561
0.341235 0.522521 0.249438
0.443023 0.533032 0.255404
0.547338 0.543728 0.261458
0.654224 0.554608 0.267599
0.763723 0.565669 0.273829
0.875873 0.576910 0.280147
0.067511 0.600271 0.249920
0.165936 0.611681 0.255893
0.266843 0.623287 0.261954
0.370280 0.635089 0.268103
0.476289 0.647082 0.274339
0.584911 0.659266 0.280664
0.696184 0.671637 0.287077
0.806529 0.681400 0.292761
0.911264 0.686215 0.297011
0.085754 0.715719 0.268607
0.188266 0.728646 0.274850
0.293353 0.741774 0.281182
0.401056 0.755099 0.287602
0.508611 0.764769 0.293107
0.613346 0.769584 0.297357
0.718081 0.774399 0.301607
0.822816 0.779214 0.305857
0.927551 0.784029 0.310107
0.000000 0.000000 0.208594
0.051608 0.000000 0.212279
0.133956 0.000000 0.215964
0.216305 0.000000 0.219649
0.298654 0.000000 0.223335
0.381003 0.000000 0.227020
0.463352 0.000000 0.230705
0.545701 0.000000 0.234390
0.630527 0.002344 0.238605
0.000000 0.050037 0.219949
0.064413 0.053910 0.223634
0.146762 0.057784 0.227320
0.229111 0.061657 0.231005
0.311460 0.065531 0.234690
0.395617 0.069689 0.238992
0.482600 0.074164 0.243907
0.571726 0.078784 0.249025
0.663036 0.083532 0.254299
0.000000 0.128725 0.231304
0.077219 0.132599 0.234990
0.160406 0.137113 0.239382
0.245381 0.142143 0.244317
0.332221 0.147383 0.249449
0.421062 0.152797 0.254734
0.512010 0.158371 0.260151
0.605156 0.164094 0.265689
0.700576 0.169962 0.271340
0.007792 0.210217 0.244727
0.092312 0.216086 0.249873
0.178657 0.222174 0.255169
0.266975 0.228455 0.260597
0.357377 0.234914 0.266144
0.449958 0.241545 0.271804
0.544795 0.248339 0.277573
0.641959 0.255293 0.283446
0.741512 0.262404 0.289420
0.021487 0.298655 0.261043
0.109129 0.305856 0.266600
0.198855 0.313252 0.272269
0.290754 0.320833 0.278046
0.384906 0.328594 0.283928
0.481378 0.336529 0.289910
0.580234 0.344635 0.295993
0.681528 0.352910 0.302174
0.785314 0.361350 0.308451
0.036213 0.393456 0.278521
0.127340 0.402026 0.284410
0.220721 0.410789 0.290401
0.316424 0.419739 0.296492
0.414508 0.428871 0.302681
0.515030 0.438184 0.308966
0.618041 0.447673 0.315348
0.723587 0.457338 0.321825
0.831713 0.467176 0.328396
0.052080 0.494979 0.296991
0.146945 0.504973 0.303188
0.244195 0.515160 0.309481
0.343884 0.525537 0.315871
0.446061 0.536102 0.322355
0.550775 0.546852 0.328935
0.658067 0.557784 0.335608
0.767980 0.568897 0.342376
0.880551 0.580190 0.349237
0.069165 0.603546 0.316395
0.167967 0.615013 0.322887
0.269260 0.626676 0.329474
0.373091 0.638533 0.336155
0.479502 0.650581 0.342930
0.588534 0.662819 0.349799
0.700225 0.675245 0.356761
0.808056 0.682790 0.361990
0.912791 0.687605 0.366240
0.087531 0.719432 0.336702
0.190434 0.732417 0.343485
0.295920 0.745602 0.350361
0.404029 0.758984 0.357331
0.510138 0.766160 0.362335
0.614873 0.770975 0.366586
0.719608 0.775790 0.370836
0.824343 0.780605 0.375086
0.929078 0.785420 0.379336
0.000000 0.000000 0.268621
0.052808 0.000000 0.272307
0.135157 0.000000 0.275992
0.217506 0.000000 0.279677
0.299855 0.000000 0.283362
0.382203 0.000000 0.287047
0.464552 0.000000 0.290733
0.546901 0.000000 0.294418
0.633220 0.003474 0.299164
0.000000 0.051155 0.279977
0.065614 0.055029 0.283662
0.147963 0.058902 0.287347
0.230311 0.062776 0.291032
0.312660 0.066649 0.294718
0.397776 0.070965 0.299581
0.485168 0.075485 0.304875
0.574683 0.080142 0.310387
0.666385 0.084926 0.316070
0.000000 0.129844 0.291332
0.078437 0.133744 0.295054
0.162008 0.138540 0.300001
0.247292 0.143637 0.305316
0.334461 0.148930 0.310843
0.423648 0.154391 0.316539
0.514957 0.160008 0.322383
0.608476 0.165774 0.328361
0.704280 0.171684 0.334465
0.009036 0.211887 0.305758
0.093827 0.217823 0.311300
0.180475 0.223968 0.317009
0.269118 0.230302 0.322864
0.359864 0.236812 0.328853
0.452802 0.243490 0.334966
0.548010 0.250331 0.341199
0.645556 0.257330 0.347546
0.745501 0.264486 0.354004
0.022821 0.300714 0.323346
0.110777 0.307972 0.329345
0.200835 0.315422 0.335469
0.293082 0.323056 0.341711
0.387595 0.330868 0.348067
0.484440 0.338853 0.354533
0.583680 0.347008 0.361108
0.685368 0.355330 0.367790
0.789555 0.363818 0.374575
0.037650 0.395911 0.342223
0.129118 0.404538 0.348588
0.222854 0.413355 0.355064
0.318922 0.422358 0.361648
0.417384 0.431542 0.368338
0.518293 0.440906 0.375132
0.621700 0.450447 0.382029
0.727650 0.460161 0.389028
0.836188 0.470049 0.396128
0.053628 0.497845 0.362188
0.148855 0.507895 0.368886
0.246477 0.518138 0.375689
0.346547 0.528569 0.382594
0.449116 0.539188 0.389602
0.554229 0.549990 0.396710
0.661929 0.560975 0.403919
0.772256 0.572140 0.411227
0.885249 0.583484 0.418635
0.070832 0.606837 0.383160
0.170011 0.618361 0.390176
0.271691 0.630080 0.397292
0.375917 0.641993 0.404509
0.482732 0.654096 0.411826
0.592174 0.666389 0.419242
0.704283 0.678868 0.426756
0.809582 0.684181 0.431219
0.914317 0.688996 0.435469
0.089320 0.723161 0.405101
0.192615 0.736204 0.412425
0.298501 0.749447 0.419849
0.406929 0.762735 0.427314
0.511664 0.767550 0.431564
0.616399 0.772365 0.435814
0.721134 0.777180 0.440065
0.825869 0.781995 0.444315
0.930604 0.786810 0.448565
0.000000 0.000000 0.328649
0.054008 0.000000 0.332334
0.136357 0.000000 0.336019
0.218706 0.000000 0.339705
0.301055 0.000000 0.343390
0.383404 0.000000 0.347075
0.465753 0.000000 0.350760
0.548610 0.000700 0.354631
0.636019 0.004609 0.359914
0.000000 0.052274 0.340004
0.066814 0.056148 0.343689
0.149163 0.060021 0.347375
0.231512 0.063895 0.351060
0.314316 0.067856 0.355035
0.400001 0.072254 0.360364
0.487782 0.076816 0.366051
0.577682 0.081511 0.371969
0.669771 0.086331 0.378074
0.000000 0.130963 0.351360
0.079779 0.135078 0.355446
0.163639 0.139989 0.360816
0.249230 0.145147 0.366524
0.336728 0.150490 0.372459
0.426262 0.155998 0.378578
0.517932 0.161658 0.384857
0.611824 0.167466 0.391283
0.708013 0.173417 0.397846
0.010288 0.213578 0.366999
0.095356 0.219578 0.372950
0.182310 0.225779 0.379082
0.271280 0.232165 0.385374
0.362370 0.238724 0.391812
0.455668 0.245449 0.398385
0.551247 0.252336 0.405088
0.649177 0.259381 0.411915
0.749515 0.266581 0.418861
0.024165 0.302790 0.385892
0.112437 0.310105 0.392341
0.202829 0.317608 0.398926
0.295426 0.325294 0.405638
0.390302 0.333156 0.412475
0.487522 0.341191 0.419431
0.587146 0.349394 0.426503
0.689229 0.357764 0.433689
0.793819 0.366299 0.440987
0.039098 0.398382 0.406190
0.130908 0.407065 0.413036
0.225000 0.415936 0.420002
0.321437 0.424992 0.427083
0.420277 0.434228 0.434279
0.521574 0.443644 0.441586
0.625378 0.453234 0.449002
0.731734 0.462999 0.456528
0.840685 0.472936 0.464160
0.055188 0.500728 0.427664
0.150777 0.510834 0.434869
0.248772 0.521131 0.442185
0.349226 0.531617 0.449610
0.452187 0.542289 0.457144
0.557701 0.553144 0.464786
0.665809 0.564181 0.472533
0.776552 0.575398 0.480386
0.889968 0.586794 0.488343
0.072509 0.610145 0.450219
0.172068 0.621725 0.457762
0.274136 0.633501 0.465412
0.378759 0.645469 0.473168
0.485978 0.657627 0.481029
0.595832 0.669974 0.488995
0.706374 0.680756 0.496198
0.811109 0.685571 0.500448
0.915844 0.690386 0.504698
0.091121 0.726908 0.473803
0.194809 0.740008 0.481673
0.301096 0.753308 0.489647
0.408456 0.764126 0.496543
0.513191 0.768941 0.500793
0.617926 0.773756 0.505043
0.722661 0.778571 0.509293
0.827396 0.783386 0.513544
0.932131 0.788201 0.517794
0.000000 0.000000 0.388676
0.055208 0.000000 0.392362
0.137557 0.000000 0.396047
0.219906 0.000000 0.399732
0.302255 0.000000 0.403417
0.384604 0.000000 0.407103
0.466953 0.000000 0.410788
0.550906 0.001823 0.415156
0.638906 0.005750 0.420866
0.000000 0.053393 0.400032
0.068014 0.057266 0.403717
0.150363 0.061140 0.407402
0.232712 0.065013 0.411087
0.316175 0.069105 0.415600
0.402279 0.073557 0.421349
0.490439 0.078159 0.427442
0.580719 0.082891 0.433779
0.673196 0.087745 0.440314
0.000000 0.132081 0.411387
0.081157 0.136462 0.416049
0.165294 0.141457 0.421834
0.251193 0.146672 0.427949
0.339021 0.152065 0.434303
0.428902 0.157617 0.440853
0.520933 0.163321 0.447577
0.615200 0.169170 0.454458
0.711774 0.175162 0.461486
0.011547 0.215289 0.428458
0.096897 0.221349 0.434828
0.184160 0.227605 0.441394
0.273460 0.234041 0.448130
0.364896 0.240649 0.455024
0.458555 0.247422 0.462064
0.554508 0.254355 0.469243
0.652821 0.261445 0.476555
0.753553 0.268690 0.483994
0.025518 0.304883 0.448685
0.114110 0.312253 0.455591
0.204838 0.319810 0.462643
0.297787 0.327547 0.469833
0.393027 0.335459 0.477155
0.490623 0.343543 0.484605
0.590633 0.351794 0.492179
0.693111 0.360212 0.499875
0.798106 0.368794 0.507689
0.040555 0.400870 0.470423
0.132711 0.409607 0.477756
0.227160 0.418532 0.485216
0.323967 0.427641 0.492800
0.423187 0.436929 0.500506
0.524874 0.446395 0.508330
0.629076 0.456037 0.516270
0.735838 0.465851 0.524325
0.845204 0.475838 0.532494
0.056758 0.503626 0.493423
0.152712 0.513788 0.501138
0.251082 0.524140 0.508971
0.351921 0.534680 0.516921
0.455275 0.545405 0.524985
0.561190 0.556313 0.533163
0.669708 0.567402 0.541452
0.780868 0.578671 0.549853
0.894708 0.590118 0.558363
0.074198 0.613469 0.517572
0.174137 0.625106 0.525646
0.276595 0.636937 0.533833
0.381616 0.648960 0.542131
0.489240 0.661173 0.550541
0.599507 0.673574 0.559060
0.707900 0.682147 0.565426
0.812635 0.686962 0.569677
0.917370 0.691777 0.573927
0.092933 0.730671 0.542811
0.197016 0.743829 0.551229
0.303705 0.757185 0.559757
0.409982 0.765516 0.565772
0.514717 0.770331 0.570022
0.619452 0.775146 0.574272
0.724187 0.779961 0.578522
0.828922 0.784776 0.582772
0.933657 0.789591 0.587022
0.000000 0.000000 0.448704
0.056409 0.000000 0.452389
0.138757 0.000000 0.456074
0.221106 0.000000 0.459760
0.303455 0.000000 0.463445
0.385804 0.000000 0.467130
0.468153 0.000000 0.470815
0.553360 0.002951 0.475890
0.641866 0.006897 0.482027
0.000000 0.054511 0.460059
0.069214 0.058385 0.463745
0.151563 0.062258 0.467430
0.233912 0.066132 0.471115
0.318117 0.070373 0.476371
0.404605 0.074872 0.482543
0.493137 0.079513 0.489055
0.583794 0.084280 0.495819
0.676656 0.089170 0.502794
0.000000 0.133200 0.471415
0.082558 0.137877 0.476856
0.166973 0.142943 0.483062
0.253180 0.148212 0.489596
0.341339 0.153652 0.496379
0.431567 0.159249 0.503370
0.523961 0.164995 0.510545
0.618603 0.170886 0.517888
0.715563 0.176918 0.525389
0.012815 0.217017 0.490139
0.098451 0.223136 0.496940
0.186025 0.229446 0.503946
0.275657 0.235932 0.511136
0.367442 0.242588 0.518492
0.461463 0.249408 0.526005
0.557790 0.256386 0.533666
0.656488 0.263521 0.541468
0.757616 0.270810 0.549406
0.026880 0.306991 0.511728
0.115794 0.314416 0.519098
0.206862 0.322026 0.526623
0.300164 0.329814 0.534295
0.395769 0.337776 0.542109
0.493742 0.345908 0.550058
0.594140 0.354209 0.558139
0.697015 0.362674 0.566348
0.802415 0.371303 0.574683
0.042023 0.403374 0.534925
0.134526 0.412166 0.542750
0.229335 0.421144 0.550710
0.326512 0.430305 0.558801
0.426113 0.439645 0.567021
0.528191 0.449162 0.575366
0.632792 0.458853 0.583834
0.739962 0.468718 0.592422
0.849743 0.478754 0.601130
0.058339 0.506541 0.559465
0.154659 0.516758 0.567695
0.253406 0.527165 0.576050
0.354630 0.537758 0.584527
0.458379 0.548536 0.593126
0.564698 0.559497 0.601843
0.673626 0.570638 0.610678
0.785203 0.581958 0.619629
0.899467 0.593457 0.628696
0.075898 0.616810 0.585222
0.176219 0.628503 0.593830
0.279068 0.640390 0.602557
0.384487 0.652468 0.611402
0.492518 0.664735 0.620362
0.603199 0.677190 0.629438
0.709427 0.683537 0.634655
0.814162 0.688352 0.638905
0.918897 0.693167 0.643155
0.094758 0.734450 0.612126
0.199236 0.747666 0.621096
0.306328 0.761079 0.630181
0.411509 0.766907 0.635001
0.516244 0.771722 0.639251
0.620979 0.776537 0.643501
0.725714 0.781352 0.647751
0.830449 0.786167 0.652001
0.935184 0.790982 0.656251
