assets/lighting/cinematic/grade-abandoned-rust/lut.cube
TITLE "Abandoned Rust"
# TKRS lighting-batch-001 original LUT
# Intended usage: decayed warm-dust abandoned interiors
# License: CC0-1.0
LUT_3D_SIZE 17
DOMAIN_MIN 0.0 0.0 0.0
DOMAIN_MAX 1.0 1.0 1.0
0.000000 0.000000 0.000000
0.005632 0.000000 0.000000
0.046807 0.000000 0.000000
0.087981 0.000000 0.000000
0.129156 0.000000 0.000000
0.170330 0.000000 0.000000
0.211504 0.000000 0.000000
0.252679 0.000000 0.000000
0.293853 0.000000 0.000000
0.335028 0.000000 0.000000
0.376202 0.000000 0.000000
0.417377 0.000000 0.000000
0.458551 0.000000 0.000000
0.499726 0.000000 0.000000
0.540900 0.000000 0.000000
0.582075 0.000000 0.000000
0.623249 0.000000 0.000000
0.000000 0.006218 0.000000
0.012035 0.008154 0.000000
0.053210 0.010091 0.000000
0.094384 0.012028 0.000000
0.135558 0.013965 0.000000
0.176733 0.015901 0.000000
0.217907 0.017838 0.000000
0.259082 0.019775 0.000000
0.300256 0.021712 0.000000
0.341431 0.023648 0.000000
0.382605 0.025585 0.000000
0.423780 0.027522 0.000000
0.464954 0.029459 0.000000
0.506128 0.031395 0.000000
0.547303 0.033332 0.000000
0.590280 0.035366 0.001803
0.634146 0.037443 0.003658
0.000000 0.045562 0.000000
0.018438 0.047499 0.000000
0.059612 0.049436 0.000000
0.100787 0.051372 0.000000
0.141961 0.053309 0.000000
0.183136 0.055246 0.000000
0.224310 0.057183 0.000000
0.265485 0.059119 0.000000
0.306659 0.061056 0.000000
0.347834 0.062993 0.000000
0.389008 0.064930 0.000000
0.430227 0.066873 0.000108
0.472946 0.069011 0.001954
0.516371 0.071214 0.003809
0.560377 0.073459 0.005674
0.604945 0.075742 0.007549
0.650072 0.078058 0.009436
0.000000 0.084906 0.000000
0.024841 0.086843 0.000000
0.066015 0.088780 0.000000
0.107190 0.090717 0.000000
0.148364 0.092653 0.000000
0.189539 0.094590 0.000000
0.230713 0.096527 0.000000
0.271888 0.098464 0.000000
0.313155 0.100427 0.000257
0.355542 0.102674 0.002104
0.398514 0.105006 0.003960
0.442014 0.107391 0.005826
0.486038 0.109823 0.007702
0.530591 0.112295 0.009590
0.575682 0.114806 0.011490
0.621320 0.117353 0.013403
0.667514 0.119936 0.015328
0.000000 0.124251 0.000000
0.031244 0.126187 0.000000
0.072418 0.128124 0.000000
0.113593 0.130061 0.000000
0.154767 0.131998 0.000000
0.196042 0.133996 0.000407
0.238065 0.136358 0.002255
0.280574 0.138819 0.004111
0.323561 0.141347 0.005978
0.367035 0.143928 0.007855
0.411011 0.146558 0.009744
0.455501 0.149231 0.011645
0.500518 0.151946 0.013559
0.546071 0.154702 0.015485
0.592173 0.157496 0.017425
0.638833 0.160327 0.019378
0.686059 0.163196 0.021344
0.000000 0.163595 0.000000
0.037647 0.165532 0.000000
0.078880 0.167581 0.000557
0.120515 0.170060 0.002405
0.162551 0.172655 0.004263
0.205018 0.175326 0.006130
0.247938 0.178058 0.008009
0.291332 0.180846 0.009899
0.335217 0.183683 0.011801
0.379609 0.186567 0.013715
0.424520 0.189496 0.015642
0.469963 0.192467 0.017583
0.515950 0.195480 0.019537
0.562490 0.198533 0.021505
0.609593 0.201626 0.023487
0.657269 0.204758 0.025483
0.705526 0.207928 0.027493
0.002888 0.203783 0.002556
0.044443 0.206513 0.004414
0.086383 0.209328 0.006282
0.128744 0.212214 0.008162
0.171552 0.215160 0.010053
0.214829 0.218162 0.011956
0.258593 0.221216 0.013871
0.302859 0.224318 0.015800
0.347641 0.227468 0.017741
0.392952 0.230662 0.019696
0.438804 0.233901 0.021665
0.485206 0.237182 0.023648
0.532170 0.240505 0.025646
0.579703 0.243869 0.027657
0.627816 0.247274 0.029684
0.676515 0.250719 0.031725
0.725809 0.254203 0.033782
0.009454 0.246394 0.008315
0.051672 0.249500 0.010207
0.094337 0.252668 0.012111
0.137470 0.255892 0.014028
0.181088 0.259169 0.015957
0.225206 0.262497 0.017900
0.269840 0.265874 0.019856
0.315001 0.269298 0.021826
0.360700 0.272768 0.023810
0.406950 0.276283 0.025809
0.453759 0.279841 0.027822
0.501136 0.283443 0.029849
0.549091 0.287088 0.031892
0.597631 0.290774 0.033950
0.646765 0.294502 0.036023
0.696500 0.298271 0.038112
0.746842 0.302081 0.040216
0.016239 0.290596 0.014184
0.059206 0.294049 0.016114
0.102659 0.297556 0.018058
0.146612 0.301115 0.020016
0.191080 0.304726 0.021987
0.236075 0.308385 0.023972
0.281609 0.312092 0.025972
0.327691 0.315845 0.027986
0.374332 0.319645 0.030015
0.421541 0.323489 0.032059
0.469326 0.327378 0.034118
0.517696 0.331310 0.036192
0.566659 0.335286 0.038282
0.616221 0.339305 0.040388
0.666391 0.343366 0.042509
0.717174 0.347469 0.044646
0.768577 0.351614 0.046800
0.023270 0.336387 0.020175
0.067043 0.340183 0.022148
0.111331 0.344032 0.024134
0.156147 0.347932 0.026135
0.201501 0.351881 0.028150
0.247403 0.355878 0.030181
0.293865 0.359923 0.032226
0.340894 0.364014 0.034286
0.388499 0.368152 0.036362
0.436688 0.372335 0.038453
0.485470 0.376563 0.040560
0.534850 0.380835 0.042682
0.584837 0.385151 0.044821
0.635438 0.389511 0.046976
0.686657 0.393914 0.049147
0.738503 0.398360 0.051334
0.790980 0.402849 0.053538
0.030563 0.383803 0.026298
0.075187 0.387948 0.028315
0.120350 0.392143 0.030346
0.166062 0.396389 0.032393
0.212333 0.400684 0.034454
0.259172 0.405026 0.036531
0.306587 0.409417 0.038623
0.354586 0.413854 0.040732
0.403177 0.418338 0.042856
0.452367 0.422867 0.044995
0.502163 0.427442 0.047152
0.552572 0.432062 0.049324
0.603600 0.436727 0.051513
0.655254 0.441436 0.053718
0.707539 0.446189 0.055940
0.760460 0.450986 0.058179
0.814025 0.455827 0.060434
0.038134 0.432888 0.032560
0.083645 0.437386 0.034623
0.129716 0.441934 0.036701
0.176355 0.446532 0.038794
0.223570 0.451179 0.040904
0.271370 0.455875 0.043029
0.319762 0.460618 0.045170
0.368753 0.465408 0.047328
0.418350 0.470245 0.049501
0.468560 0.475129 0.051691
0.519389 0.480059 0.053898
0.570843 0.485034 0.056121
0.622929 0.490055 0.058361
0.675651 0.495120 0.060618
0.729015 0.500231 0.062892
0.783027 0.505386 0.065184
0.837691 0.510586 0.067492
0.045992 0.483682 0.038965
0.092423 0.488539 0.041076
0.139430 0.493446 0.043202
0.187023 0.498403 0.045345
0.235208 0.503409 0.047504
0.283992 0.508464 0.049679
0.333383 0.513567 0.051870
0.383386 0.518717 0.054078
0.434008 0.523915 0.056303
0.485256 0.529159 0.058544
0.537135 0.534450 0.060803
0.589650 0.539788 0.063078
0.642807 0.545171 0.065371
0.696612 0.550601 0.067681
0.751070 0.556075 0.070008
0.806185 0.561595 0.072353
0.861963 0.567161 0.074715
0.054149 0.536223 0.045520
0.101527 0.541445 0.047680
0.149497 0.546717 0.049856
0.198067 0.552040 0.052049
0.247243 0.557411 0.054258
0.297033 0.562831 0.056484
0.347442 0.568300 0.058727
0.398477 0.573817 0.060987
0.450142 0.579382 0.063264
0.502444 0.584994 0.065558
0.555389 0.590653 0.067869
0.608981 0.596359 0.070198
0.663225 0.602112 0.072544
0.718128 0.607911 0.074908
0.773692 0.613756 0.077289
0.829923 0.619647 0.079688
0.886827 0.625585 0.082106
0.062613 0.590548 0.052228
0.110962 0.596141 0.054439
0.159918 0.601784 0.056666
0.209488 0.607477 0.058910
0.259677 0.613220 0.061171
0.310492 0.619012 0.063450
0.361938 0.624853 0.065745
0.414021 0.630742 0.068058
0.466746 0.636680 0.070388
0.520119 0.642666 0.072736
0.574145 0.648699 0.075101
0.628828 0.654780 0.077484
0.684174 0.660908 0.079884
0.740186 0.667083 0.082303
0.796871 0.673304 0.084739
0.854231 0.679573 0.087194
0.906685 0.682043 0.089325
0.071392 0.646691 0.059094
0.120735 0.652660 0.061356
0.170698 0.658679 0.063636
0.221287 0.664749 0.065933
0.272508 0.670869 0.068247
0.324366 0.677038 0.070578
0.376867 0.683257 0.072927
0.430015 0.689525 0.075294
0.483816 0.695841 0.077678
0.538275 0.702206 0.080080
0.593397 0.708619 0.082500
0.649185 0.715080 0.084938
0.705358 0.721320 0.087372
0.757726 0.723728 0.089497
0.810093 0.726135 0.091622
0.862461 0.728543 0.093747
0.914828 0.730950 0.095872
0.080492 0.704683 0.066120
0.130850 0.711033 0.068436
0.181840 0.717434 0.070769
0.233467 0.723886 0.073119
0.285738 0.730389 0.075487
0.338656 0.736941 0.077873
0.392228 0.743543 0.080276
0.446457 0.750194 0.082698
0.501349 0.756895 0.085137
0.556399 0.763005 0.087545
0.608767 0.765412 0.089670
0.661134 0.767820 0.091795
0.713502 0.770227 0.093920
0.765869 0.772635 0.096045
0.818237 0.775042 0.098170
0.870604 0.777450 0.100295
0.922972 0.779857 0.102420
0.000000 0.000000 0.000000
0.006232 0.000000 0.000340
0.047407 0.000000 0.002183
0.088581 0.000000 0.004025
0.129756 0.000000 0.005868
0.170930 0.000000 0.007710
0.212105 0.000000 0.009553
0.253279 0.000000 0.011396
0.294453 0.000000 0.013238
0.335628 0.000000 0.015081
0.376802 0.000000 0.016923
0.417977 0.000000 0.018766
0.459151 0.000000 0.020609
0.500326 0.000000 0.022451
0.541500 0.000000 0.024294
0.582675 0.000000 0.026136
0.623849 0.000000 0.027979
0.000000 0.006777 0.004175
0.012635 0.008714 0.006018
0.053810 0.010650 0.007860
0.094984 0.012587 0.009703
0.136159 0.014524 0.011545
0.177333 0.016461 0.013388
0.218507 0.018397 0.015231
0.259682 0.020334 0.017073
0.300856 0.022271 0.018916
0.342031 0.024208 0.020758
0.383205 0.026145 0.022601
0.424380 0.028081 0.024444
0.465554 0.030018 0.026286
0.506729 0.031955 0.028129
0.548255 0.033911 0.029982
0.591540 0.035962 0.031889
0.635550 0.038049 0.033816
0.000000 0.046121 0.009853
0.019038 0.048058 0.011695
0.060213 0.049995 0.013538
0.101387 0.051932 0.015380
0.142561 0.053868 0.017223
0.183736 0.055805 0.019066
0.224910 0.057742 0.020908
0.266085 0.059679 0.022751
0.307259 0.061615 0.024594
0.348434 0.063552 0.026436
0.389608 0.065489 0.028279
0.431164 0.067479 0.030136
0.474083 0.069642 0.032045
0.517632 0.071858 0.033974
0.561748 0.074115 0.035919
0.606421 0.076408 0.037880
0.651652 0.078733 0.039857
0.000000 0.085466 0.015530
0.025441 0.087402 0.017373
0.066615 0.089339 0.019215
0.107790 0.091276 0.021058
0.148964 0.093213 0.022901
0.190139 0.095149 0.024743
0.231313 0.097086 0.026586
0.272488 0.099023 0.028429
0.314020 0.101063 0.030291
0.356551 0.103341 0.032201
0.399629 0.105690 0.034131
0.443227 0.108089 0.036078
0.487347 0.110533 0.038040
0.531996 0.113016 0.040018
0.577183 0.115538 0.042011
0.622918 0.118095 0.044020
0.669209 0.120688 0.046044
0.000000 0.124810 0.021208
0.031844 0.126747 0.023051
0.073018 0.128684 0.024893
0.114193 0.130620 0.026736
0.155367 0.132557 0.028578
0.196818 0.134663 0.030445
0.238944 0.137061 0.032358
0.281541 0.139543 0.034289
0.324614 0.142087 0.036237
0.368176 0.144683 0.038201
0.412240 0.147325 0.040180
0.456820 0.150011 0.042174
0.501927 0.152738 0.044184
0.547573 0.155505 0.046209
0.593769 0.158310 0.048250
0.640524 0.161152 0.050307
0.687847 0.164031 0.052379
0.000000 0.164154 0.026886
0.038247 0.166091 0.028728
0.079554 0.168280 0.030600
0.121259 0.170801 0.032514
0.163368 0.173419 0.034447
0.205909 0.176109 0.036396
0.248908 0.178858 0.038361
0.292383 0.181660 0.040341
0.336352 0.184511 0.042337
0.380829 0.187409 0.044348
0.425828 0.190350 0.046375
0.471360 0.193333 0.048417
0.517438 0.196358 0.050475
0.564071 0.199422 0.052548
0.611269 0.202527 0.054638
0.659040 0.205670 0.056743
0.707394 0.208851 0.058864
0.003495 0.204561 0.032670
0.045107 0.207318 0.034605
0.087112 0.210155 0.036555
0.129543 0.213058 0.038521
0.172425 0.216022 0.040503
0.215779 0.219039 0.042500
0.259623 0.222107 0.044512
0.303972 0.225223 0.046540
0.348839 0.228386 0.048584
0.394237 0.231593 0.050643
0.440178 0.234844 0.052717
0.486671 0.238137 0.054808
0.533727 0.241472 0.056915
0.581354 0.244848 0.059038
0.629562 0.248265 0.061177
0.678358 0.251721 0.063332
0.727750 0.255217 0.065504
0.010080 0.247284 0.038682
0.052366 0.250409 0.040665
0.095102 0.253593 0.042663
0.138310 0.256833 0.044677
0.182005 0.260125 0.046706
0.226205 0.263467 0.048750
0.270921 0.266858 0.050811
0.316167 0.270295 0.052887
0.361954 0.273778 0.054979
0.408293 0.277306 0.057087
0.455192 0.280877 0.059211
0.502662 0.284491 0.061351
0.550711 0.288148 0.063508
0.599346 0.291847 0.065682
0.648577 0.295587 0.067871
0.698409 0.299368 0.070078
0.748850 0.303189 0.072302
0.016888 0.291587 0.044841
0.059928 0.295056 0.046871
0.103457 0.298579 0.048917
0.147490 0.302153 0.050979
0.192039 0.305777 0.053056
0.237118 0.309450 0.055150
0.282737 0.313171 0.057259
0.328907 0.316938 0.059384
0.375637 0.320750 0.061526
0.422937 0.324608 0.063684
0.470815 0.328509 0.065859
0.519279 0.332454 0.068050
0.568337 0.336442 0.070258
0.617996 0.340474 0.072483
0.668264 0.344547 0.074725
0.719146 0.348662 0.076984
0.770649 0.352819 0.079260
0.023942 0.337478 0.051147
0.067793 0.341290 0.053226
0.112162 0.345153 0.055321
0.157060 0.349067 0.057431
0.202499 0.353030 0.059558
0.248488 0.357041 0.061701
0.295038 0.361100 0.063861
0.342156 0.365204 0.066036
0.389853 0.369355 0.068229
0.438135 0.373551 0.070438
0.487011 0.377792 0.072665
0.536488 0.382077 0.074908
0.586572 0.386406 0.077168
0.637270 0.390778 0.079446
0.688589 0.395194 0.081741
0.740534 0.399652 0.084053
0.793113 0.404153 0.086382
0.031261 0.384995 0.057604
0.075967 0.389154 0.059732
0.121213 0.393365 0.061876
0.167011 0.397624 0.064037
0.213369 0.401933 0.066214
0.260297 0.406289 0.068408
0.307803 0.410693 0.070619
0.355894 0.415144 0.072846
0.404578 0.419641 0.075091
0.453863 0.424184 0.077353
0.503755 0.428772 0.079632
0.554262 0.433405 0.081928
0.605388 0.438082 0.084242
0.657141 0.442804 0.086573
0.709527 0.447570 0.088921
0.762550 0.452380 0.091288
0.816217 0.457233 0.093672
0.038858 0.434182 0.064213
0.084454 0.438694 0.066392
0.130612 0.443257 0.068587
0.177339 0.447869 0.070799
0.224644 0.452530 0.073028
0.272535 0.457240 0.075274
0.321020 0.461996 0.077537
0.370105 0.466800 0.079818
0.419798 0.471651 0.082115
0.470104 0.476548 0.084430
0.521031 0.481491 0.086763
0.572584 0.486479 0.089113
0.624769 0.491513 0.091481
0.677591 0.496592 0.093867
0.731058 0.501715 0.096270
0.785172 0.506883 0.098692
0.839941 0.512095 0.101131
0.046744 0.485079 0.070980
0.093262 0.489951 0.073210
0.140359 0.494873 0.075458
0.188042 0.499844 0.077722
0.236319 0.504864 0.080004
0.285197 0.509933 0.082303
0.334682 0.515049 0.084619
0.384781 0.520213 0.086953
0.435500 0.525424 0.089305
0.486846 0.530683 0.091674
0.538824 0.535987 0.094061
0.591440 0.541338 0.096466
0.644698 0.546735 0.098889
0.698606 0.552177 0.101330
0.753166 0.557665 0.103790
0.808386 0.563198 0.106267
0.864268 0.568776 0.108763
0.054929 0.537726 0.077907
0.102397 0.542963 0.080190
0.150458 0.548249 0.082491
0.199121 0.553586 0.084809
0.248392 0.558971 0.087144
0.298277 0.564406 0.089497
0.348782 0.569888 0.091868
0.399914 0.575419 0.094256
0.451679 0.580997 0.096663
0.504081 0.586623 0.099087
0.557126 0.592296 0.101530
0.610819 0.598016 0.103991
0.665166 0.603782 0.106470
0.720172 0.609594 0.108967
0.775841 0.615453 0.111483
0.832178 0.621357 0.114017
0.889187 0.627308 0.116570
0.063422 0.592158 0.084998
0.111864 0.597765 0.087335
0.160913 0.603423 0.089689
0.210577 0.609131 0.092061
0.260862 0.614888 0.094451
0.311774 0.620694 0.096859
0.363319 0.626549 0.099285
0.415501 0.632452 0.101729
0.468327 0.638404 0.104191
0.521801 0.644403 0.106672
0.575928 0.650450 0.109171
0.630715 0.656545 0.111688
0.686164 0.662686 0.114224
0.742282 0.668875 0.116778
0.799071 0.675110 0.119351
0.855080 0.680331 0.121814
0.907448 0.682738 0.123939
0.072231 0.648409 0.092255
0.121668 0.654393 0.094646
0.171727 0.660427 0.097056
0.222412 0.666512 0.099483
0.273731 0.672646 0.101929
0.325688 0.678829 0.104392
0.378288 0.685062 0.106874
0.431537 0.691344 0.109375
0.485440 0.697674 0.111893
0.540002 0.704053 0.114431
0.595226 0.710480 0.116987
0.651119 0.716955 0.119561
0.706121 0.722015 0.121987
0.758489 0.724423 0.124112
0.810856 0.726830 0.126237
0.863224 0.729238 0.128362
0.915591 0.731645 0.130487
0.081362 0.706511 0.099681
0.131816 0.712877 0.102128
0.182903 0.719293 0.104594
0.234629 0.725759 0.107077
0.286998 0.732276 0.109579
0.340017 0.738842 0.112099
0.393690 0.745459 0.114638
0.448021 0.752124 0.117195
0.503016 0.758839 0.119771
0.557162 0.763700 0.122160
0.609530 0.766108 0.124285
0.661897 0.768515 0.126410
0.714265 0.770923 0.128535
0.766632 0.773330 0.130660
0.819000 0.775738 0.132785
0.871367 0.778145 0.134910
0.923735 0.780553 0.137035
0.000000 0.000000 0.028511
0.006832 0.000000 0.030354
0.048007 0.000000 0.032196
0.089181 0.000000 0.034039
0.130356 0.000000 0.035882
0.171530 0.000000 0.037724
0.212705 0.000000 0.039567
0.253879 0.000000 0.041409
0.295054 0.000000 0.043252
0.336228 0.000000 0.045095
0.377402 0.000000 0.046937
0.418577 0.000000 0.048780
0.459751 0.000000 0.050622
0.500926 0.000000 0.052465
0.542100 0.000000 0.054308
0.583275 0.000000 0.056150
0.624449 0.000000 0.057993
0.000000 0.007336 0.034189
0.013235 0.009273 0.036031
0.054410 0.011210 0.037874
0.095584 0.013147 0.039717
0.136759 0.015083 0.041559
0.177933 0.017020 0.043402
0.219108 0.018957 0.045244
0.260282 0.020894 0.047087
0.301456 0.022830 0.048930
0.342631 0.024767 0.050772
0.383805 0.026704 0.052615
0.424980 0.028641 0.054457
0.466154 0.030577 0.056300
0.507329 0.032514 0.058143
0.549355 0.034499 0.060038
0.592832 0.036562 0.062014
0.636977 0.038657 0.064019
0.000000 0.046681 0.039866
0.019638 0.048617 0.041709
0.060813 0.050554 0.043552
0.101987 0.052491 0.045394
0.143162 0.054428 0.047237
0.184336 0.056364 0.049079
0.225510 0.058301 0.050922
0.266685 0.060238 0.052765
0.307859 0.062175 0.054607
0.349034 0.064111 0.056450
0.390208 0.066048 0.058292
0.432172 0.068096 0.060197
0.475245 0.070277 0.062176
0.518910 0.072506 0.064183
0.563134 0.074774 0.066212
0.607911 0.077076 0.068261
0.653244 0.079411 0.070329
0.000000 0.086025 0.045544
0.026041 0.087962 0.047387
0.067216 0.089899 0.049229
0.108390 0.091835 0.051072
0.149564 0.093772 0.052914
0.190739 0.095709 0.054757
0.231913 0.097646 0.056600
0.273088 0.099582 0.058442
0.314927 0.101711 0.060357
0.357579 0.104013 0.062339
0.400758 0.106378 0.064347
0.444452 0.108791 0.066378
0.488667 0.111246 0.068428
0.533411 0.113741 0.070498
0.578694 0.116273 0.072586
0.624525 0.118841 0.074693
0.670913 0.121443 0.076817
0.000000 0.125369 0.051222
0.032444 0.127306 0.053064
0.073618 0.129243 0.054907
0.114793 0.131180 0.056750
0.155967 0.133116 0.058592
0.197616 0.135344 0.060517
0.239835 0.137770 0.062501
0.282518 0.140272 0.064512
0.325676 0.142832 0.066544
0.369325 0.145441 0.068596
0.413477 0.148097 0.070667
0.458146 0.150795 0.072757
0.503345 0.153533 0.074865
0.549083 0.156311 0.076991
0.595373 0.159127 0.079134
0.642223 0.161980 0.081295
0.689642 0.164870 0.083474
0.000000 0.164714 0.056899
0.038847 0.166651 0.058742
0.080238 0.168995 0.060677
0.122010 0.171548 0.062664
0.164190 0.174189 0.064676
0.206807 0.176897 0.066710
0.249885 0.179662 0.068764
0.293441 0.182479 0.070837
0.337493 0.185344 0.072928
0.382056 0.188254 0.075037
0.427142 0.191207 0.077164
0.472765 0.194202 0.079309
0.518933 0.197239 0.081472
0.565659 0.200315 0.083652
0.612951 0.203430 0.085850
0.660818 0.206584 0.088066
0.709268 0.209777 0.090299
0.004104 0.205348 0.062826
0.045774 0.208130 0.064841
0.087844 0.210987 0.066876
0.130346 0.213908 0.068932
0.173303 0.216888 0.071006
0.216735 0.219920 0.073099
0.260659 0.223002 0.075209
0.305090 0.226132 0.077338
0.350043 0.229307 0.079484
0.395528 0.232527 0.081649
0.441558 0.235791 0.083830
0.488142 0.239096 0.086030
0.535290 0.242443 0.088247
0.583012 0.245831 0.090481
0.631314 0.249259 0.092734
0.680207 0.252727 0.095004
0.729696 0.256234 0.097292
0.010708 0.248180 0.069100
0.053062 0.251323 0.071175
0.095870 0.254523 0.073270
0.139153 0.257779 0.075382
0.182927 0.261085 0.077512
0.227207 0.264442 0.079660
0.272007 0.267846 0.081825
0.317339 0.271297 0.084008
0.363213 0.274793 0.086209
0.409641 0.278333 0.088428
0.456631 0.281916 0.090664
0.504194 0.285543 0.092918
0.552336 0.289212 0.095189
0.601067 0.292922 0.097479
0.650394 0.296674 0.099786
0.700324 0.300467 0.102112
0.750864 0.304300 0.104455
0.017538 0.292583 0.075554
0.060652 0.296068 0.077686
0.104258 0.299606 0.079835
0.148370 0.303195 0.082002
0.193002 0.306833 0.084187
0.238165 0.310520 0.086389
0.283870 0.314254 0.088609
0.330128 0.318034 0.090846
0.376948 0.321860 0.093102
0.424339 0.325730 0.095375
0.472309 0.329644 0.097666
0.520868 0.333602 0.099975
0.570021 0.337602 0.102302
0.619777 0.341646 0.104647
0.670142 0.345731 0.107009
0.721123 0.349859 0.109391
0.772726 0.354028 0.111790
0.024617 0.338573 0.082179
0.068546 0.342400 0.084365
0.112996 0.346278 0.086569
0.157977 0.350207 0.088790
0.203500 0.354184 0.091029
0.249576 0.358208 0.093286
0.296214 0.362280 0.095561
0.343423 0.366398 0.097853
0.391212 0.370562 0.100163
0.439587 0.374771 0.102492
0.488557 0.379025 0.104838
0.538130 0.383322 0.107202
0.588311 0.387664 0.109585
0.639107 0.392049 0.111986
0.690526 0.396477 0.114405
0.742572 0.400948 0.116843
0.795252 0.405461 0.119299
0.031961 0.386191 0.088972
0.076749 0.390365 0.091212
0.122079 0.394590 0.093470
0.167963 0.398864 0.095746
0.214409 0.403186 0.098040
0.261426 0.407556 0.100352
0.309022 0.411974 0.102682
0.357206 0.416438 0.105030
0.405984 0.420948 0.107395
0.455364 0.425504 0.109780
0.505352 0.430105 0.112182
0.555956 0.434751 0.114603
0.607181 0.439441 0.117042
0.659034 0.444176 0.119499
0.711520 0.448955 0.121975
0.764645 0.453777 0.124470
0.818414 0.458642 0.126983
0.039585 0.435480 0.095932
0.085266 0.440007 0.098227
0.131510 0.444584 0.100541
0.178326 0.449210 0.102872
0.225721 0.453885 0.105221
0.273704 0.458608 0.107589
0.322282 0.463379 0.109974
0.371461 0.468196 0.112378
0.421249 0.473060 0.114800
0.471652 0.477971 0.117241
0.522676 0.482927 0.119700
0.574328 0.487928 0.122177
0.626613 0.492975 0.124673
0.679537 0.498067 0.127188
0.733105 0.503203 0.129722
0.787323 0.508384 0.132274
0.842195 0.513609 0.134845
0.047498 0.486481 0.103062
0.094104 0.491367 0.105413
0.141291 0.496303 0.107782
0.189065 0.501289 0.110169
0.237434 0.506323 0.112574
0.286405 0.511405 0.114998
0.335985 0.516536 0.117440
0.386180 0.521713 0.119900
0.436997 0.526938 0.122379
0.488441 0.532210 0.124877
0.540518 0.537528 0.127393
0.593234 0.542892 0.129928
0.646594 0.548302 0.132482
0.700604 0.553757 0.135055
0.755268 0.559258 0.137647
0.810591 0.564804 0.140257
0.866579 0.570396 0.142887
0.055712 0.539233 0.110364
0.103270 0.544484 0.112771
0.151423 0.549785 0.115196
0.200179 0.555136 0.117639
0.249544 0.560536 0.120101
0.299524 0.565984 0.122582
0.350126 0.571481 0.125081
0.401356 0.577025 0.127599
0.453219 0.582617 0.130135
0.505721 0.588257 0.132691
0.558867 0.593943 0.135265
0.612662 0.599676 0.137858
0.667112 0.605456 0.140471
0.722221 0.611281 0.143102
0.777995 0.617153 0.145752
0.834437 0.623071 0.148422
0.891552 0.629035 0.151111
0.064234 0.593772 0.117839
0.112768 0.599394 0.120302
0.161911 0.605066 0.122784
0.211670 0.610788 0.125285
0.262052 0.616560 0.127804
0.313061 0.622380 0.130342
0.364703 0.628249 0.132899
0.416985 0.634166 0.135475
0.469911 0.640131 0.138070
0.523486 0.646145 0.140684
0.577716 0.652205 0.143317
0.632606 0.658313 0.145969
0.688159 0.664468 0.148640
0.744381 0.670671 0.151331
0.801277 0.676919 0.154041
0.855844 0.681026 0.156428
0.908211 0.683433 0.158553
0.073073 0.650132 0.125489
0.122605 0.656130 0.128010
0.172759 0.662179 0.130550
0.223541 0.668278 0.133108
0.274958 0.674426 0.135685
0.327013 0.680624 0.138282
0.379713 0.686871 0.140897
0.433063 0.693167 0.143532
0.487068 0.699512 0.146185
0.541732 0.705904 0.148858
0.597060 0.712345 0.151550
0.653057 0.718834 0.154262
0.706885 0.722711 0.156601
0.759252 0.725118 0.158726
0.811620 0.727526 0.160851
0.863987 0.729933 0.162976
0.916355 0.732341 0.165101
0.082235 0.708344 0.133317
0.132785 0.714724 0.135896
0.183969 0.721155 0.138494
0.235793 0.727636 0.141111
0.288262 0.734167 0.143747
0.341381 0.740748 0.146402
0.395155 0.747378 0.149076
0.449589 0.754058 0.151770
0.504687 0.760787 0.154483
0.557926 0.764395 0.156774
0.610293 0.766803 0.158899
0.662661 0.769210 0.161024
0.715028 0.771618 0.163149
0.767396 0.774025 0.165274
0.819763 0.776433 0.167399
0.872131 0.778840 0.169524
0.924498 0.781248 0.171649
0.000000 0.000000 0.058525
0.007433 0.000000 0.060368
0.048607 0.000000 0.062210
0.089781 0.000000 0.064053
0.130956 0.000000 0.065895
0.172130 0.000000 0.067738
0.213305 0.000000 0.069581
0.254479 0.000000 0.071423
0.295654 0.000000 0.073266
0.336828 0.000000 0.075108
0.378003 0.000000 0.076951
0.419177 0.000000 0.078794
0.460352 0.000000 0.080636
0.501526 0.000000 0.082479
