assets/lighting/cinematic/grade-low-key-drama/lut.cube
TITLE "Low Key Drama"
# TKRS lighting-batch-001 original LUT
# Intended usage: crushed shadows dramatic interior
# License: CC0-1.0
LUT_3D_SIZE 5
DOMAIN_MIN 0.0 0.0 0.0
DOMAIN_MAX 1.0 1.0 1.0
0.000000 0.000000 0.000000
0.088261 0.000000 0.000000
0.265131 0.000000 0.000000
0.442001 0.000000 0.000000
0.618871 0.000000 0.000000
0.000000 0.096446 0.000000
0.101992 0.100467 0.000000
0.280931 0.105210 0.000000
0.475468 0.112886 0.000000
0.686961 0.121537 0.000000
0.000000 0.295384 0.000000
0.127585 0.311339 0.000000
0.336568 0.328573 0.000000
0.563728 0.346905 0.000000
0.810193 0.366230 0.000000
0.000000 0.558879 0.000000
0.164821 0.587024 0.000000
0.406942 0.616365 0.000000
0.669386 0.646830 0.000000
0.939592 0.669353 0.000000
0.000000 0.892834 0.000000
0.203821 0.908748 0.000000
0.455593 0.914355 0.000000
0.707366 0.919962 0.000000
0.959138 0.925568 0.000000
0.000000 0.000000 0.087697
0.089647 0.000000 0.091880
0.266517 0.000000 0.096063
0.443387 0.000000 0.100247
0.620257 0.000000 0.104430
0.000000 0.097812 0.101770
0.103378 0.101833 0.105953
0.285422 0.107674 0.111420
0.483279 0.115732 0.118450
0.698263 0.124651 0.126088
0.000000 0.300641 0.121168
0.130974 0.317060 0.128997
0.343123 0.334682 0.137318
0.573715 0.353360 0.146101
0.823818 0.373006 0.155332
0.000000 0.568297 0.149411
0.169016 0.596858 0.158802
0.414673 0.626588 0.168629
0.680826 0.657422 0.178891
0.941566 0.671257 0.185857
0.000000 0.905045 0.182485
0.205794 0.910652 0.187787
0.457567 0.916259 0.193089
0.709339 0.921866 0.198391
0.961111 0.927472 0.203693
0.000000 0.000000 0.266210
0.091033 0.000000 0.270393
0.267903 0.000000 0.274577
0.444773 0.000000 0.278760
0.621643 0.000000 0.282943
0.000000 0.099177 0.280283
0.104764 0.103198 0.284466
0.290311 0.110296 0.294264
0.491401 0.118674 0.306097
0.709864 0.127848 0.319000
0.000000 0.306068 0.310686
0.134449 0.322919 0.323916
0.349811 0.340912 0.337952
0.583866 0.359927 0.352708
0.837630 0.379888 0.368132
0.000000 0.577861 0.358248
0.173290 0.606827 0.373905
0.422512 0.636938 0.390183
0.691766 0.667555 0.406796
0.943539 0.673161 0.412098
0.000000 0.906949 0.408727
0.207767 0.912556 0.414028
0.459540 0.918163 0.419330
0.711312 0.923770 0.424632
0.963085 0.929377 0.429934
0.000000 0.000000 0.444724
0.092419 0.000000 0.448907
0.269289 0.000000 0.453090
0.446159 0.000000 0.457274
0.623029 0.000000 0.461457
0.000000 0.100543 0.458797
0.106998 0.105341 0.465314
0.295490 0.113041 0.480158
0.499797 0.121707 0.497169
0.721742 0.131125 0.515597
0.000000 0.311652 0.503733
0.138010 0.328909 0.522598
0.356626 0.347260 0.542537
0.594174 0.366603 0.563424
0.851623 0.386872 0.585177
0.000000 0.587565 0.571247
0.177641 0.616928 0.593300
0.430458 0.647414 0.616144
0.693740 0.669459 0.633037
0.945512 0.675065 0.638339
0.000000 0.908853 0.634968
0.209741 0.914460 0.640269
0.461513 0.920067 0.645571
0.713285 0.925674 0.650873
0.965058 0.931281 0.656175
0.000000 0.000000 0.623237
0.093805 0.000000 0.627420
0.270675 0.000000 0.631604
0.447545 0.000000 0.635787
0.628944 0.000000 0.642901
0.000000 0.101908 0.637310
0.109592 0.107816 0.649237
0.300908 0.115892 0.669328
0.508442 0.124826 0.691811
0.733880 0.134480 0.715989
0.000000 0.317381 0.700438
0.141654 0.335024 0.725145
0.363565 0.353721 0.751158
0.604636 0.373385 0.778322
0.865794 0.393959 0.806533
0.000000 0.597407 0.788476
0.182069 0.627158 0.817048
0.438510 0.658012 0.846569
0.695713 0.671363 0.859278
0.947485 0.676970 0.864580
0.000000 0.910758 0.861209
0.211714 0.916364 0.866510
0.463486 0.921971 0.871812
0.715259 0.927578 0.877114
0.967031 0.933185 0.882416
