assets/lighting/cinematic/grade-low-key-drama/lut.cube
TITLE "Low Key Drama"
# TKRS lighting-batch-001 original LUT
# Intended usage: crushed shadows dramatic interior
# License: CC0-1.0
LUT_3D_SIZE 17
DOMAIN_MIN 0.0 0.0 0.0
DOMAIN_MAX 1.0 1.0 1.0
0.000000 0.000000 0.000000
0.000000 0.000000 0.000000
0.000000 0.000000 0.000000
0.044043 0.000000 0.000000
0.088261 0.000000 0.000000
0.132478 0.000000 0.000000
0.176696 0.000000 0.000000
0.220913 0.000000 0.000000
0.265131 0.000000 0.000000
0.309348 0.000000 0.000000
0.353566 0.000000 0.000000
0.397783 0.000000 0.000000
0.442001 0.000000 0.000000
0.486218 0.000000 0.000000
0.530436 0.000000 0.000000
0.574653 0.000000 0.000000
0.618871 0.000000 0.000000
0.000000 0.000000 0.000000
0.000000 0.000000 0.000000
0.003258 0.000000 0.000000
0.047476 0.000000 0.000000
0.091693 0.000000 0.000000
0.135911 0.000000 0.000000
0.180128 0.000000 0.000000
0.224346 0.000000 0.000000
0.268563 0.000000 0.000000
0.312781 0.000000 0.000000
0.356999 0.000000 0.000000
0.401216 0.000000 0.000000
0.445434 0.000000 0.000000
0.489651 0.000000 0.000000
0.533869 0.000000 0.000000
0.578086 0.000000 0.000000
0.622304 0.000000 0.000000
0.000000 0.004581 0.000000
0.000000 0.005586 0.000000
0.006691 0.006591 0.000000
0.050909 0.007596 0.000000
0.095126 0.008601 0.000000
0.139344 0.009607 0.000000
0.183561 0.010612 0.000000
0.227779 0.011617 0.000000
0.271996 0.012622 0.000000
0.316214 0.013627 0.000000
0.360431 0.014632 0.000000
0.404649 0.015637 0.000000
0.448866 0.016643 0.000000
0.493084 0.017648 0.000000
0.538591 0.018695 0.000000
0.587038 0.019832 0.000000
0.636822 0.021004 0.000000
0.000000 0.050514 0.000000
0.000000 0.051519 0.000000
0.010124 0.052524 0.000000
0.054341 0.053529 0.000000
0.098559 0.054534 0.000000
0.142776 0.055539 0.000000
0.186994 0.056545 0.000000
0.231211 0.057550 0.000000
0.275429 0.058555 0.000000
0.319646 0.059560 0.000000
0.363864 0.060565 0.000000
0.410039 0.061846 0.000000
0.457901 0.063298 0.000000
0.506893 0.064818 0.000000
0.556981 0.066394 0.000000
0.608169 0.068016 0.000000
0.660467 0.069682 0.000000
0.000000 0.096446 0.000000
0.000000 0.097452 0.000000
0.013557 0.098457 0.000000
0.057774 0.099462 0.000000
0.101992 0.100467 0.000000
0.146209 0.101472 0.000000
0.190427 0.102477 0.000000
0.234841 0.103564 0.000000
0.280931 0.105210 0.000000
0.328054 0.107006 0.000000
0.376172 0.108895 0.000000
0.425302 0.110859 0.000000
0.475468 0.112886 0.000000
0.526694 0.114971 0.000000
0.579004 0.117110 0.000000
0.632419 0.119299 0.000000
0.686961 0.121537 0.000000
0.000000 0.142379 0.000000
0.000000 0.143385 0.000000
0.016989 0.144390 0.000000
0.061207 0.145395 0.000000
0.105738 0.146806 0.000000
0.151170 0.148808 0.000000
0.197448 0.150970 0.000000
0.244625 0.153244 0.000000
0.292746 0.155609 0.000000
0.341850 0.158052 0.000000
0.391968 0.160566 0.000000
0.443133 0.163145 0.000000
0.495369 0.165785 0.000000
0.548701 0.168484 0.000000
0.603152 0.171237 0.000000
0.658742 0.174044 0.000000
0.715490 0.176903 0.000000
0.000000 0.188312 0.000000
0.000000 0.190277 0.000000
0.020690 0.192652 0.000000
0.066043 0.195199 0.000000
0.112222 0.197872 0.000000
0.159290 0.200651 0.000000
0.207293 0.203520 0.000000
0.256272 0.206472 0.000000
0.306263 0.209500 0.000000
0.357294 0.212598 0.000000
0.409393 0.215764 0.000000
0.462585 0.218993 0.000000
0.516893 0.222283 0.000000
0.572336 0.225632 0.000000
0.628936 0.229039 0.000000
0.686709 0.232502 0.000000
0.745674 0.236019 0.000000
0.000000 0.239701 0.000000
0.000000 0.242787 0.000000
0.024910 0.245990 0.000000
0.071779 0.249296 0.000000
0.119589 0.252694 0.000000
0.168379 0.256178 0.000000
0.218181 0.259742 0.000000
0.269025 0.263381 0.000000
0.320938 0.267091 0.000000
0.373944 0.270871 0.000000
0.428066 0.274716 0.000000
0.483323 0.278625 0.000000
0.539737 0.282597 0.000000
0.597323 0.286629 0.000000
0.656100 0.290720 0.000000
0.716085 0.294869 0.000000
0.777291 0.299075 0.000000
0.000000 0.295384 0.000000
0.000000 0.299237 0.000000
0.029467 0.303184 0.000000
0.078017 0.307220 0.000000
0.127585 0.311339 0.000000
0.178200 0.315536 0.000000
0.229886 0.319810 0.000000
0.282669 0.324157 0.000000
0.336568 0.328573 0.000000
0.391605 0.333058 0.000000
0.447800 0.337610 0.000000
0.505168 0.342226 0.000000
0.563728 0.346905 0.000000
0.623496 0.351646 0.000000
0.684487 0.356448 0.000000
0.746714 0.361310 0.000000
0.810193 0.366230 0.000000
0.000000 0.355035 0.000000
0.000000 0.359640 0.000000
0.034359 0.364331 0.000000
0.084709 0.369104 0.000000
0.136135 0.373957 0.000000
0.188661 0.378886 0.000000
0.242308 0.383889 0.000000
0.297095 0.388963 0.000000
0.353042 0.394108 0.000000
0.410165 0.399322 0.000000
0.468482 0.404602 0.000000
0.528008 0.409947 0.000000
0.588758 0.415358 0.000000
0.650746 0.420831 0.000000
0.713986 0.426366 0.000000
0.778491 0.431963 0.000000
0.844275 0.437621 0.000000
0.000000 0.418756 0.000000
0.000000 0.424119 0.000000
0.039594 0.429565 0.000000
0.091836 0.435090 0.000000
0.145203 0.440693 0.000000
0.199714 0.446370 0.000000
0.255388 0.452121 0.000000
0.312242 0.457944 0.000000
0.370291 0.463837 0.000000
0.429552 0.469799 0.000000
0.490039 0.475829 0.000000
0.551765 0.481925 0.000000
0.614746 0.488086 0.000000
0.678993 0.494312 0.000000
0.744520 0.500602 0.000000
0.811337 0.506954 0.000000
0.879458 0.513369 0.000000
0.000000 0.486665 0.000000
0.000000 0.492799 0.000000
0.045177 0.499014 0.000000
0.099390 0.505307 0.000000
0.154768 0.511676 0.000000
0.211330 0.518120 0.000000
0.269091 0.524637 0.000000
0.328066 0.531226 0.000000
0.388269 0.537886 0.000000
0.449715 0.544615 0.000000
0.512416 0.551412 0.000000
0.576386 0.558277 0.000000
0.641637 0.565209 0.000000
0.708180 0.572206 0.000000
0.776028 0.579268 0.000000
0.845191 0.586394 0.000000
0.915680 0.593583 0.000000
0.000000 0.558879 0.000000
0.000000 0.565798 0.000000
0.051119 0.572796 0.000000
0.107369 0.579872 0.000000
0.164821 0.587024 0.000000
0.223491 0.594250 0.000000
0.283392 0.601550 0.000000
0.344538 0.608922 0.000000
0.406942 0.616365 0.000000
0.470617 0.623878 0.000000
0.535575 0.631461 0.000000
0.601827 0.639112 0.000000
0.669386 0.646830 0.000000
0.738261 0.654615 0.000000
0.808464 0.662466 0.000000
0.876649 0.667951 0.000000
0.939592 0.669353 0.000000
0.000000 0.635506 0.000000
0.000299 0.643224 0.000000
0.057425 0.651020 0.000000
0.115771 0.658893 0.000000
0.175353 0.666843 0.000000
0.236182 0.674867 0.000000
0.298273 0.682965 0.000000
0.361636 0.691135 0.000000
0.426285 0.699378 0.000000
0.492231 0.707691 0.000000
0.559484 0.716074 0.000000
0.628057 0.724526 0.000000
0.692707 0.727800 0.000000
0.755650 0.729202 0.000000
0.818593 0.730604 0.000000
0.881536 0.732005 0.000000
0.944479 0.733407 0.000000
0.000000 0.716647 0.000000
0.004857 0.725176 0.000000
0.064102 0.733784 0.000000
0.124600 0.742469 0.000000
0.186360 0.751231 0.000000
0.249397 0.760067 0.000000
0.313722 0.768977 0.000000
0.379346 0.777961 0.000000
0.445821 0.786247 0.000000
0.508764 0.787649 0.000000
0.571707 0.789051 0.000000
0.634650 0.790452 0.000000
0.697593 0.791854 0.000000
0.760536 0.793256 0.000000
0.823479 0.794657 0.000000
0.886422 0.796059 0.000000
0.949365 0.797461 0.000000
0.000000 0.802394 0.000000
0.009742 0.811748 0.000000
0.071159 0.821181 0.000000
0.133855 0.830691 0.000000
0.197841 0.840278 0.000000
0.261878 0.846096 0.000000
0.324821 0.847498 0.000000
0.387764 0.848899 0.000000
0.450707 0.850301 0.000000
0.513650 0.851703 0.000000
0.576593 0.853104 0.000000
0.639536 0.854506 0.000000
0.702479 0.855908 0.000000
0.765422 0.857309 0.000000
0.828366 0.858711 0.000000
0.891309 0.860113 0.000000
0.954252 0.861515 0.000000
0.000000 0.892834 0.000000
0.014965 0.903025 0.000000
0.077935 0.905945 0.000000
0.140878 0.907346 0.000000
0.203821 0.908748 0.000000
0.266764 0.910150 0.000000
0.329707 0.911551 0.000000
0.392650 0.912953 0.000000
0.455593 0.914355 0.000000
0.518537 0.915756 0.000000
0.581480 0.917158 0.000000
0.644423 0.918560 0.000000
0.707366 0.919962 0.000000
0.770309 0.921363 0.000000
0.833252 0.922765 0.000000
0.896195 0.924167 0.000000
0.959138 0.925568 0.000000
0.000000 0.000000 0.000000
0.000000 0.000000 0.000000
0.000172 0.000000 0.000000
0.044390 0.000000 0.000000
0.088607 0.000000 0.000000
0.132825 0.000000 0.000000
0.177042 0.000000 0.000000
0.221260 0.000000 0.000000
0.265477 0.000000 0.000000
0.309695 0.000000 0.000000
0.353912 0.000000 0.000000
0.398130 0.000000 0.000000
0.442347 0.000000 0.000000
0.486565 0.000000 0.000000
0.530782 0.000000 0.000000
0.575000 0.000000 0.000000
0.619217 0.000000 0.000000
0.000000 0.000000 0.000000
0.000000 0.000000 0.000000
0.003605 0.000000 0.000000
0.047822 0.000000 0.000000
0.092040 0.000000 0.000000
0.136257 0.000000 0.000000
0.180475 0.000000 0.000000
0.224692 0.000000 0.000000
0.268910 0.000000 0.000000
0.313128 0.000000 0.000000
0.357345 0.000000 0.000000
0.401563 0.000000 0.000000
0.445780 0.000000 0.000000
0.489998 0.000000 0.000000
0.534215 0.000000 0.000000
0.578433 0.000000 0.000000
0.622650 0.000000 0.000000
0.000000 0.004922 0.000000
0.000000 0.005927 0.000000
0.007038 0.006932 0.000000
0.051255 0.007938 0.000000
0.095473 0.008943 0.000000
0.139690 0.009948 0.000000
0.183908 0.010953 0.000000
0.228125 0.011958 0.000000
0.272343 0.012963 0.000000
0.316560 0.013969 0.000000
0.360778 0.014974 0.000000
0.404995 0.015979 0.000000
0.449213 0.016984 0.000000
0.493430 0.017989 0.000000
0.540136 0.019076 0.000000
0.588957 0.020227 0.000000
0.639031 0.021409 0.000000
0.000000 0.050855 0.000000
0.000000 0.051860 0.000000
0.010470 0.052865 0.000000
0.054688 0.053870 0.000000
0.098905 0.054876 0.000000
0.143123 0.055881 0.000000
0.187340 0.056886 0.000000
0.231558 0.057891 0.000000
0.275775 0.058896 0.000000
0.319993 0.059901 0.000000
0.364471 0.060947 0.000000
0.411385 0.062329 0.000000
0.459522 0.063807 0.000000
0.508759 0.065348 0.000000
0.559083 0.066940 0.000000
0.610502 0.068577 0.000000
0.663032 0.070258 0.000000
0.000000 0.096788 0.000000
0.000000 0.097793 0.000000
0.013903 0.098798 0.000000
0.058121 0.099803 0.000000
0.102338 0.100808 0.000000
0.146556 0.101814 0.000000
0.190773 0.102819 0.000000
0.235654 0.104097 0.000000
0.282006 0.105808 0.000000
0.329345 0.107639 0.000000
0.377672 0.109554 0.000000
0.427012 0.111540 0.000000
0.477389 0.113588 0.000000
0.528829 0.115692 0.000000
0.581356 0.117848 0.000000
0.634992 0.120054 0.000000
0.689757 0.122308 0.000000
0.000000 0.142721 0.000000
0.000000 0.143726 0.000000
0.017336 0.144731 0.000000
0.061553 0.145736 0.000000
0.106328 0.147462 0.000000
0.151929 0.149527 0.000000
0.198381 0.151731 0.000000
0.245739 0.154038 0.000000
0.294048 0.156430 0.000000
0.343345 0.158898 0.000000
0.393663 0.161435 0.000000
0.445030 0.164035 0.000000
0.497475 0.166695 0.000000
0.551019 0.169413 0.000000
0.605686 0.172184 0.000000
0.661495 0.175009 0.000000
0.718466 0.177885 0.000000
0.000000 0.188865 0.000000
0.000000 0.191060 0.000000
0.021100 0.193501 0.000000
0.066596 0.196094 0.000000
0.112933 0.198805 0.000000
0.160169 0.201615 0.000000
0.208350 0.204514 0.000000
0.257515 0.207492 0.000000
0.307696 0.210544 0.000000
0.358924 0.213666 0.000000
0.411226 0.216853 0.000000
0.464624 0.220103 0.000000
0.519142 0.223414 0.000000
0.574801 0.226783 0.000000
0.631619 0.230209 0.000000
0.689614 0.233690 0.000000
0.748804 0.237226 0.000000
0.000000 0.240735 0.000000
0.000000 0.243863 0.000000
0.025355 0.247102 0.000000
0.072387 0.250440 0.000000
0.120370 0.253868 0.000000
0.169339 0.257380 0.000000
0.219328 0.260969 0.000000
0.270364 0.264633 0.000000
0.322475 0.268367 0.000000
0.375684 0.272169 0.000000
0.430012 0.276037 0.000000
0.485481 0.279967 0.000000
0.542109 0.283959 0.000000
0.599914 0.288012 0.000000
0.658913 0.292123 0.000000
0.719122 0.296291 0.000000
0.780556 0.300516 0.000000
0.000000 0.296681 0.000000
0.000000 0.300567 0.000000
0.029945 0.304545 0.000000
0.078672 0.308609 0.000000
0.128424 0.312755 0.000000
0.179228 0.316979 0.000000
0.231109 0.321278 0.000000
0.284091 0.325649 0.000000
0.338194 0.330089 0.000000
0.393440 0.334597 0.000000
0.449846 0.339170 0.000000
0.507430 0.343808 0.000000
0.566210 0.348508 0.000000
0.626200 0.353270 0.000000
0.687416 0.358092 0.000000
0.749872 0.362974 0.000000
0.813582 0.367914 0.000000
0.000000 0.356589 0.000000
0.000000 0.361224 0.000000
0.034872 0.365943 0.000000
0.085409 0.370743 0.000000
0.137027 0.375622 0.000000
0.189751 0.380576 0.000000
0.243599 0.385604 0.000000
0.298593 0.390703 0.000000
0.354749 0.395871 0.000000
0.412086 0.401107 0.000000
0.470620 0.406410 0.000000
0.530366 0.411778 0.000000
0.591339 0.417209 0.000000
0.653553 0.422704 0.000000
0.717023 0.428260 0.000138
0.781760 0.433878 0.001376
0.847778 0.439555 0.002633
0.000000 0.420568 0.000000
0.000000 0.425959 0.000000
0.040141 0.431432 0.000000
0.092579 0.436984 0.000000
0.146146 0.442612 0.000000
0.200862 0.448315 0.000000
0.256744 0.454091 0.000000
0.313809 0.459938 0.000000
0.372074 0.465854 0.000000
0.431553 0.471839 0.000000
0.492261 0.477892 0.000000
0.554213 0.484010 0.000587
0.617421 0.490194 0.001832
0.681898 0.496441 0.003095
0.747657 0.502752 0.004377
0.814710 0.509126 0.005678
0.883068 0.515561 0.006997
0.000000 0.488739 0.000000
0.000000 0.494901 0.000000
0.045761 0.501142 0.000000
0.100176 0.507461 0.000000
0.155761 0.513856 0.000000
0.212533 0.520325 0.000000
0.270508 0.526867 0.000000
0.329699 0.533480 0.000000
0.390123 0.540163 0.001038
0.451792 0.546916 0.002290
0.514719 0.553736 0.003560
0.578918 0.560624 0.004848
0.644400 0.567578 0.006156
0.711177 0.574597 0.007482
0.779261 0.581681 0.008828
0.848663 0.588828 0.010193
0.919393 0.596039 0.011577
0.000000 0.561220 0.000000
0.000000 0.568166 0.000000
0.051739 0.575191 0.000000
0.108198 0.582292 0.000000
0.165862 0.589469 0.000251
0.224748 0.596721 0.001491
0.284868 0.604045 0.002750
0.346236 0.611442 0.004027
0.408865 0.618909 0.005322
0.472767 0.626446 0.006637
0.537955 0.634051 0.007970
0.604440 0.641725 0.009322
0.672233 0.649466 0.010694
0.741346 0.657274 0.012086
0.811788 0.665147 0.013497
0.877143 0.668427 0.014851
0.940086 0.669829 0.016176
0.000000 0.638118 0.000000
0.000744 0.645863 0.000701
0.058082 0.653685 0.001947
0.116643 0.661584 0.003213
0.176443 0.669559 0.004496
0.237493 0.677609 0.005799
0.299807 0.685731 0.007120
0.363397 0.693926 0.008460
0.428274 0.702193 0.009820
0.494451 0.710530 0.011199
0.561939 0.718937 0.012597
0.630257 0.726874 0.014008
0.693200 0.728276 0.015333
0.756143 0.729678 0.016659
0.819086 0.731080 0.017984
0.882029 0.732481 0.019310
0.944972 0.733883 0.020635
0.000000 0.719535 0.003678
0.005335 0.728091 0.004968
0.064798 0.736725 0.006277
0.125514 0.745436 0.007606
0.187498 0.754223 0.008953
0.250760 0.763085 0.010319
0.315313 0.772020 0.011706
0.381167 0.781028 0.013111
0.446314 0.786723 0.014491
0.509257 0.788125 0.015816
0.572200 0.789527 0.017141
0.635143 0.790928 0.018467
0.698086 0.792330 0.019792
0.761029 0.793732 0.021118
0.823972 0.795133 0.022443
0.886916 0.796535 0.023769
0.949859 0.797937 0.025094
0.000000 0.805562 0.008094
0.010254 0.814943 0.009448
0.071892 0.824402 0.010822
0.134813 0.833938 0.012215
0.199026 0.843551 0.013628
0.262371 0.846572 0.014973
0.325314 0.847974 0.016299
0.388257 0.849375 0.017624
0.451200 0.850777 0.018949
0.514143 0.852179 0.020275
0.577087 0.853580 0.021600
0.640030 0.854982 0.022926
0.702973 0.856384 0.024251
0.765916 0.857785 0.025577
0.828859 0.859187 0.026902
0.891802 0.860589 0.028228
0.954745 0.861991 0.029553
0.000000 0.896286 0.012727
0.015485 0.905019 0.014130
0.078428 0.906421 0.015456
0.141371 0.907822 0.016781
0.204314 0.909224 0.018106
0.267257 0.910626 0.019432
0.330201 0.912027 0.020757
0.393144 0.913429 0.022083
0.456087 0.914831 0.023408
0.519030 0.916232 0.024734
0.581973 0.917634 0.026059
0.644916 0.919036 0.027385
0.707859 0.920438 0.028710
0.770802 0.921839 0.030036
0.833745 0.923241 0.031361
0.896688 0.924643 0.032686
0.959632 0.926044 0.034012
0.000000 0.000000 0.000000
0.000000 0.000000 0.000000
0.000519 0.000000 0.000532
0.044736 0.000000 0.001577
0.088954 0.000000 0.002623
0.133171 0.000000 0.003669
0.177389 0.000000 0.004715
0.221606 0.000000 0.005761
0.265824 0.000000 0.006807
0.310041 0.000000 0.007852
0.354259 0.000000 0.008898
0.398476 0.000000 0.009944
0.442694 0.000000 0.010990
0.486911 0.000000 0.012036
0.531129 0.000000 0.013082
0.575346 0.000000 0.014127
0.619564 0.000000 0.015173
0.000000 0.000000 0.001958
0.000000 0.000000 0.003004
0.003951 0.000000 0.004050
0.048169 0.000000 0.005096
0.092386 0.000000 0.006141
0.136604 0.000000 0.007187
0.180821 0.000000 0.008233
0.225039 0.000000 0.009279
0.269257 0.000000 0.010325
0.313474 0.000000 0.011371
0.357692 0.000000 0.012416
0.401909 0.000000 0.013462
0.446127 0.000000 0.014508
0.490344 0.000000 0.015554
0.534562 0.000000 0.016600
0.578779 0.000000 0.017646
0.622997 0.000000 0.018691
0.000000 0.005263 0.005476
0.000000 0.006269 0.006522
0.007384 0.007274 0.007568
0.051602 0.008279 0.008614
0.095819 0.009284 0.009660
0.140037 0.010289 0.010706
0.184254 0.011294 0.011751
0.228472 0.012300 0.012797
0.272689 0.013305 0.013843
0.316907 0.014310 0.014889
0.361124 0.015315 0.015935
0.405342 0.016320 0.016981
0.449559 0.017325 0.018026
0.494070 0.018341 0.019079
0.541791 0.019463 0.020208
0.590938 0.020625 0.021364
0.641289 0.021818 0.022542
0.000000 0.051196 0.008995
0.000000 0.052201 0.010040
0.010817 0.053207 0.011086
0.055034 0.054212 0.012132
0.099252 0.055217 0.013178
0.143469 0.056222 0.014224
0.187687 0.057227 0.015270
0.231904 0.058232 0.016315
0.276122 0.059238 0.017361
0.320340 0.060243 0.018407
0.365530 0.061400 0.019486
0.412792 0.062823 0.020626
0.461186 0.064324 0.021791
0.510660 0.065883 0.022976
0.561216 0.067491 0.024182
0.612865 0.069143 0.025406
0.665624 0.070837 0.026650
0.000000 0.097129 0.012513
0.000000 0.098134 0.013559
0.014250 0.099140 0.014605
0.058467 0.100145 0.015650
0.102685 0.101150 0.016696
0.146902 0.102155 0.017742
0.191120 0.103160 0.018788
0.236537 0.104660 0.019898
0.283116 0.106418 0.021047
0.330663 0.108281 0.022220
0.379197 0.110222 0.023413
0.428744 0.112229 0.024625
0.479332 0.114296 0.025857
0.530986 0.116418 0.027108
0.583729 0.118592 0.028378
0.637585 0.120814 0.029666
0.692573 0.123084 0.030974
0.000000 0.143062 0.016031
0.000000 0.144067 0.017077
0.017682 0.145072 0.018123
0.061966 0.146223 0.019182
0.106939 0.148144 0.020313
0.152705 0.150263 0.021472
0.199330 0.152504 0.022652
0.246869 0.154841 0.023852
0.295365 0.157260 0.025072
0.344856 0.159752 0.026310
0.395372 0.162311 0.027568
0.446944 0.164932 0.028845
0.499596 0.167612 0.030140
0.553353 0.170348 0.031455
0.608236 0.173138 0.032790
0.664265 0.175980 0.034144
0.721460 0.178873 0.035517
0.000000 0.189569 0.019590
0.000000 0.191868 0.020732
0.021514 0.194366 0.021899
0.067156 0.197002 0.023087
0.113652 0.199749 0.024294
0.161058 0.202590 0.025520
0.209418 0.205517 0.026766
0.258768 0.208521 0.028030
0.309141 0.211597 0.029314
0.360567 0.214741 0.030617
0.413070 0.217950 0.031939
0.466676 0.221221 0.033280
0.521405 0.224552 0.034641
0.577279 0.227940 0.036022
0.634315 0.231385 0.037422
0.692533 0.234885 0.038842
0.751948 0.238438 0.040283
0.000000 0.241784 0.023524
0.000000 0.244951 0.024738
0.025803 0.248225 0.025972
0.073000 0.251595 0.027224
0.121156 0.255052 0.028496
0.170307 0.258590 0.029786
0.220483 0.262205 0.031096
0.271712 0.265893 0.032425
0.324021 0.269651 0.033774
0.377433 0.273475 0.035142
0.431969 0.277364 0.036529
0.487649 0.281316 0.037937
0.544492 0.285329 0.039364
0.602516 0.289401 0.040812
0.661737 0.293532 0.042280
0.722172 0.297720 0.043768
0.783834 0.301964 0.045276
0.000000 0.297990 0.027685
0.000000 0.301908 0.028963
0.030427 0.305916 0.030261
0.079332 0.310008 0.031578
0.129268 0.314181 0.032914
0.180262 0.318431 0.034269
0.232339 0.322754 0.035645
0.285521 0.327149 0.037040
0.339829 0.331612 0.038454
0.395283 0.336142 0.039889
0.451902 0.340738 0.041344
0.509702 0.345397 0.042819
0.568701 0.350118 0.044315
0.628914 0.354901 0.045831
0.690356 0.359744 0.047367
0.753041 0.364645 0.048925
0.816982 0.369605 0.050503
0.000000 0.358153 0.032062
0.000000 0.362817 0.033405
0.035388 0.367564 0.034768
0.086113 0.372392 0.036150
0.137925 0.377296 0.037552
0.190846 0.382276 0.038974
0.244897 0.387328 0.040416
0.300097 0.392450 0.041879
0.356464 0.397642 0.043361
0.414015 0.402901 0.044864
0.472766 0.408226 0.046388
0.532733 0.413615 0.047932
0.593929 0.419068 0.049497
0.656371 0.424584 0.051083
0.720070 0.430161 0.052690
0.785039 0.435799 0.054318
0.851292 0.441497 0.055967
0.000000 0.422390 0.036658
0.000000 0.427809 0.038068
0.040693 0.433309 0.039497
0.093326 0.438887 0.040946
0.147094 0.444541 0.042416
0.202015 0.450269 0.043906
0.258106 0.456069 0.045416
0.315383 0.461939 0.046947
0.373863 0.467879 0.048499
0.433562 0.473887 0.050072
0.494492 0.479962 0.051665
0.556668 0.486103 0.053280
0.620104 0.492308 0.054916
0.684812 0.498577 0.056573
0.750804 0.504910 0.058252
0.818093 0.511304 0.059952
0.886689 0.517760 0.061674
0.000000 0.490823 0.041479
0.000000 0.497012 0.042956
0.046348 0.503280 0.044454
0.100967 0.509624 0.045971
0.156759 0.516045 0.047510
0.213742 0.522538 0.049069
0.271931 0.529104 0.050650
0.331340 0.535742 0.052251
0.391984 0.542449 0.053873
0.453876 0.549224 0.055517
0.517030 0.556068 0.057182
0.581458 0.562978 0.058868
0.647171 0.569954 0.060576
0.714183 0.576995 0.062306
0.782503 0.584101 0.064058
0.852144 0.591270 0.065831
0.923115 0.598502 0.067627
0.000000 0.563570 0.046529
0.000000 0.570543 0.048075
0.052362 0.577594 0.049642
0.109031 0.584721 0.051230
0.166909 0.591924 0.052839
0.226011 0.599200 0.054469
0.286350 0.606549 0.056120
0.347940 0.613970 0.057793
0.410794 0.621460 0.059488
0.474924 0.629021 0.061204
0.540342 0.636650 0.062941
0.607060 0.644347 0.064701
0.675089 0.652110 0.066482
0.744439 0.659940 0.068286
0.814693 0.667502 0.070086
0.877636 0.668904 0.071411
0.940579 0.670305 0.072737
0.000000 0.640739 0.051813
0.001193 0.648510 0.053430
0.058743 0.656359 0.055068
0.117520 0.664284 0.056727
0.177537 0.672285 0.058408
0.238809 0.680359 0.060110
0.301347 0.688506 0.061834
0.365163 0.696726 0.063579
0.430270 0.705016 0.065347
0.496679 0.713377 0.067137
0.564400 0.721807 0.068948
0.630750 0.727351 0.070568
0.693693 0.728752 0.071894
0.756636 0.730154 0.073219
0.819579 0.731556 0.074545
0.882522 0.732957 0.075870
0.945465 0.734359 0.077195
0.000000 0.722432 0.057336
0.005816 0.731014 0.059025
0.065496 0.739675 0.060735
0.126434 0.748412 0.062467
0.188640 0.757224 0.064220
0.252128 0.766111 0.065996
0.316909 0.775071 0.067794
0.382994 0.784104 0.069613
0.446807 0.787199 0.071051
0.509750 0.788601 0.072376
0.572693 0.790003 0.073702
0.635636 0.791404 0.075027
0.698580 0.792806 0.076353
0.761523 0.794208 0.077678
0.824466 0.795609 0.079003
0.887409 0.797011 0.080329
0.950352 0.798413 0.081654
0.000000 0.808739 0.063103
0.010769 0.818147 0.064864
0.072630 0.827632 0.066648
0.135775 0.837194 0.068453
0.199921 0.845646 0.070208
0.262864 0.847048 0.071533
0.325807 0.848450 0.072859
0.388751 0.849851 0.074184
0.451694 0.851253 0.075510
0.514637 0.852655 0.076835
0.577580 0.854056 0.078161
0.640523 0.855458 0.079486
0.703466 0.856860 0.080811
0.766409 0.858262 0.082137
0.829352 0.859663 0.083462
0.892295 0.861065 0.084788
0.955238 0.862467 0.086113
0.000000 0.899747 0.069116
0.015978 0.905495 0.070690
0.078921 0.906897 0.072016
0.141865 0.908298 0.073341
0.204808 0.909700 0.074667
0.267751 0.911102 0.075992
0.330694 0.912503 0.077318
0.393637 0.913905 0.078643
0.456580 0.915307 0.079969
0.519523 0.916709 0.081294
0.582466 0.918110 0.082619
0.645409 0.919512 0.083945
0.708352 0.920914 0.085270
0.771296 0.922315 0.086596
0.834239 0.923717 0.087921
0.897182 0.925119 0.089247
0.960125 0.926520 0.090572
0.000000 0.000000 0.043068
0.000000 0.000000 0.044114
0.000865 0.000000 0.045160
0.045083 0.000000 0.046206
0.089300 0.000000 0.047252
0.133518 0.000000 0.048297
0.177735 0.000000 0.049343
0.221953 0.000000 0.050389
0.266170 0.000000 0.051435
0.310388 0.000000 0.052481
0.354605 0.000000 0.053527
0.398823 0.000000 0.054572
0.443040 0.000000 0.055618
0.487258 0.000000 0.056664
