assets/lighting/cinematic/grade-low-key-drama/lut.cube
TITLE "Low Key Drama"
# TKRS lighting-batch-001 original LUT
# Intended usage: crushed shadows dramatic interior
# License: CC0-1.0
LUT_3D_SIZE 9
DOMAIN_MIN 0.0 0.0 0.0
DOMAIN_MAX 1.0 1.0 1.0
0.000000 0.000000 0.000000
0.000000 0.000000 0.000000
0.088261 0.000000 0.000000
0.176696 0.000000 0.000000
0.265131 0.000000 0.000000
0.353566 0.000000 0.000000
0.442001 0.000000 0.000000
0.530436 0.000000 0.000000
0.618871 0.000000 0.000000
0.000000 0.004581 0.000000
0.006691 0.006591 0.000000
0.095126 0.008601 0.000000
0.183561 0.010612 0.000000
0.271996 0.012622 0.000000
0.360431 0.014632 0.000000
0.448866 0.016643 0.000000
0.538591 0.018695 0.000000
0.636822 0.021004 0.000000
0.000000 0.096446 0.000000
0.013557 0.098457 0.000000
0.101992 0.100467 0.000000
0.190427 0.102477 0.000000
0.280931 0.105210 0.000000
0.376172 0.108895 0.000000
0.475468 0.112886 0.000000
0.579004 0.117110 0.000000
0.686961 0.121537 0.000000
0.000000 0.188312 0.000000
0.020690 0.192652 0.000000
0.112222 0.197872 0.000000
0.207293 0.203520 0.000000
0.306263 0.209500 0.000000
0.409393 0.215764 0.000000
0.516893 0.222283 0.000000
0.628936 0.229039 0.000000
0.745674 0.236019 0.000000
0.000000 0.295384 0.000000
0.029467 0.303184 0.000000
0.127585 0.311339 0.000000
0.229886 0.319810 0.000000
0.336568 0.328573 0.000000
0.447800 0.337610 0.000000
0.563728 0.346905 0.000000
0.684487 0.356448 0.000000
0.810193 0.366230 0.000000
0.000000 0.418756 0.000000
0.039594 0.429565 0.000000
0.145203 0.440693 0.000000
0.255388 0.452121 0.000000
0.370291 0.463837 0.000000
0.490039 0.475829 0.000000
0.614746 0.488086 0.000000
0.744520 0.500602 0.000000
0.879458 0.513369 0.000000
0.000000 0.558879 0.000000
0.051119 0.572796 0.000000
0.164821 0.587024 0.000000
0.283392 0.601550 0.000000
0.406942 0.616365 0.000000
0.535575 0.631461 0.000000
0.669386 0.646830 0.000000
0.808464 0.662466 0.000000
0.939592 0.669353 0.000000
0.000000 0.716647 0.000000
0.064102 0.733784 0.000000
0.186360 0.751231 0.000000
0.313722 0.768977 0.000000
0.445821 0.786247 0.000000
0.571707 0.789051 0.000000
0.697593 0.791854 0.000000
0.823479 0.794657 0.000000
0.949365 0.797461 0.000000
0.000000 0.892834 0.000000
0.077935 0.905945 0.000000
0.203821 0.908748 0.000000
0.329707 0.911551 0.000000
0.455593 0.914355 0.000000
0.581480 0.917158 0.000000
0.707366 0.919962 0.000000
0.833252 0.922765 0.000000
0.959138 0.925568 0.000000
0.000000 0.000000 0.000000
0.000519 0.000000 0.000532
0.088954 0.000000 0.002623
0.177389 0.000000 0.004715
0.265824 0.000000 0.006807
0.354259 0.000000 0.008898
0.442694 0.000000 0.010990
0.531129 0.000000 0.013082
0.619564 0.000000 0.015173
0.000000 0.005263 0.005476
0.007384 0.007274 0.007568
0.095819 0.009284 0.009660
0.184254 0.011294 0.011751
0.272689 0.013305 0.013843
0.361124 0.015315 0.015935
0.449559 0.017325 0.018026
0.541791 0.019463 0.020208
0.641289 0.021818 0.022542
0.000000 0.097129 0.012513
0.014250 0.099140 0.014605
0.102685 0.101150 0.016696
0.191120 0.103160 0.018788
0.283116 0.106418 0.021047
0.379197 0.110222 0.023413
0.479332 0.114296 0.025857
0.583729 0.118592 0.028378
0.692573 0.123084 0.030974
0.000000 0.189569 0.019590
0.021514 0.194366 0.021899
0.113652 0.199749 0.024294
0.209418 0.205517 0.026766
0.309141 0.211597 0.029314
0.413070 0.217950 0.031939
0.521405 0.224552 0.034641
0.634315 0.231385 0.037422
0.751948 0.238438 0.040283
0.000000 0.297990 0.027685
0.030427 0.305916 0.030261
0.129268 0.314181 0.032914
0.232339 0.322754 0.035645
0.339829 0.331612 0.038454
0.451902 0.340738 0.041344
0.568701 0.350118 0.044315
0.690356 0.359744 0.047367
0.816982 0.369605 0.050503
0.000000 0.422390 0.036658
0.040693 0.433309 0.039497
0.147094 0.444541 0.042416
0.258106 0.456069 0.045416
0.373863 0.467879 0.048499
0.494492 0.479962 0.051665
0.620104 0.492308 0.054916
0.750804 0.504910 0.058252
0.886689 0.517760 0.061674
0.000000 0.563570 0.046529
0.052362 0.577594 0.049642
0.166909 0.591924 0.052839
0.286350 0.606549 0.056120
0.410794 0.621460 0.059488
0.540342 0.636650 0.062941
0.675089 0.652110 0.066482
0.814693 0.667502 0.070086
0.940579 0.670305 0.072737
0.000000 0.722432 0.057336
0.065496 0.739675 0.060735
0.188640 0.757224 0.064220
0.316909 0.775071 0.067794
0.446807 0.787199 0.071051
0.572693 0.790003 0.073702
0.698580 0.792806 0.076353
0.824466 0.795609 0.079003
0.950352 0.798413 0.081654
0.000000 0.899747 0.069116
0.078921 0.906897 0.072016
0.204808 0.909700 0.074667
0.330694 0.912503 0.077318
0.456580 0.915307 0.079969
0.582466 0.918110 0.082619
0.708352 0.920914 0.085270
0.834239 0.923717 0.087921
0.960125 0.926520 0.090572
0.000000 0.000000 0.087697
0.001212 0.000000 0.089788
0.089647 0.000000 0.091880
0.178082 0.000000 0.093972
0.266517 0.000000 0.096063
0.354952 0.000000 0.098155
0.443387 0.000000 0.100247
0.531822 0.000000 0.102338
0.620257 0.000000 0.104430
0.000000 0.005946 0.094733
0.008077 0.007956 0.096825
0.096512 0.009967 0.098916
0.184947 0.011977 0.101008
0.273382 0.013987 0.103100
0.361817 0.015998 0.105191
0.450252 0.018008 0.107283
0.545335 0.020249 0.110227
0.645932 0.022644 0.113577
0.000000 0.097812 0.101770
0.014943 0.099822 0.103861
0.103378 0.101833 0.105953
0.192377 0.104128 0.108245
0.285422 0.107674 0.111420
0.382313 0.111578 0.114847
0.483279 0.115732 0.118450
0.588535 0.120096 0.122202
0.698263 0.124651 0.126088
0.000000 0.191104 0.109361
0.022352 0.196144 0.112645
0.115113 0.201669 0.116141
0.211581 0.207549 0.119800
0.312064 0.213725 0.123601
0.416796 0.220165 0.127534
0.525970 0.226847 0.131592
0.639749 0.233756 0.135769
0.758278 0.240882 0.140062
0.000000 0.300641 0.121168
0.031402 0.308687 0.125018
0.130974 0.317060 0.128997
0.234820 0.325732 0.133099
0.343123 0.334682 0.137318
0.456042 0.343896 0.141653
0.573715 0.353360 0.146101
0.696270 0.363066 0.150661
0.823818 0.373006 0.155332
0.000000 0.426062 0.134621
0.041806 0.437089 0.138883
0.149006 0.448423 0.143260
0.260848 0.460049 0.147749
0.377465 0.471953 0.152349
0.498978 0.484126 0.157059
0.625499 0.496559 0.161879
0.757128 0.509246 0.166808
0.893962 0.522180 0.171845
0.000000 0.568297 0.149411
0.053621 0.582427 0.154051
0.169016 0.596858 0.158802
0.289332 0.611581 0.163661
0.414673 0.626588 0.168629
0.545140 0.641870 0.173706
0.680826 0.657422 0.178891
0.815679 0.668454 0.183206
0.941566 0.671257 0.185857
0.000000 0.728253 0.165457
0.066906 0.745601 0.170465
0.190939 0.763252 0.175581
0.320119 0.781199 0.180805
0.447794 0.788151 0.184171
0.573680 0.790955 0.186822
0.699566 0.793758 0.189473
0.825452 0.796561 0.192124
0.951338 0.799365 0.194775
0.000000 0.905045 0.182485
0.079908 0.907849 0.185136
0.205794 0.910652 0.187787
0.331680 0.913455 0.190438
0.457567 0.916259 0.193089
0.583453 0.919062 0.195740
0.709339 0.921866 0.198391
0.835225 0.924669 0.201042
0.961111 0.927472 0.203693
0.000000 0.000000 0.176953
0.001905 0.000000 0.179045
0.090340 0.000000 0.181137
0.178775 0.000000 0.183228
0.267210 0.000000 0.185320
0.355645 0.000000 0.187412
0.444080 0.000000 0.189503
0.532515 0.000000 0.191595
0.620950 0.000000 0.193687
0.000000 0.006629 0.183990
0.008770 0.008639 0.186082
0.097205 0.010650 0.188173
0.185640 0.012660 0.190265
0.274075 0.014670 0.192357
0.362510 0.016680 0.194448
0.452133 0.018737 0.196867
0.549111 0.021049 0.200894
0.650727 0.023484 0.205348
0.000000 0.098495 0.191026
0.015636 0.100505 0.193118
0.104071 0.102515 0.195210
0.193989 0.105276 0.198261
0.287826 0.108968 0.202478
0.385512 0.112963 0.207041
0.487304 0.117191 0.211856
0.593416 0.121622 0.216880
0.704027 0.126239 0.222091
0.000000 0.192745 0.199744
0.023205 0.197975 0.204106
0.116603 0.203630 0.208768
0.213782 0.209615 0.213662
0.315029 0.215884 0.218757
0.420568 0.222408 0.224031
0.530584 0.229169 0.229472
0.645236 0.236152 0.235071
0.764664 0.243350 0.240820
0.000000 0.303334 0.215495
0.032390 0.311495 0.220657
0.132701 0.319972 0.225993
0.237329 0.328741 0.231493
0.346451 0.337782 0.237147
0.460219 0.347082 0.242950
0.578770 0.356630 0.248896
0.702227 0.366416 0.254982
0.830701 0.376434 0.261205
0.000000 0.429771 0.233534
0.042933 0.440905 0.239243
0.150938 0.452339 0.245098
0.263615 0.464061 0.251096
0.381096 0.476057 0.257232
0.503497 0.488320 0.263504
0.630929 0.500840 0.269910
0.763491 0.513611 0.276447
0.901277 0.526628 0.283113
0.000000 0.573061 0.253314
0.054894 0.587294 0.259500
0.171143 0.601826 0.265821
0.292337 0.616646 0.272274
0.418579 0.631747 0.278859
0.549969 0.647122 0.285573
0.686596 0.662763 0.292414
0.816666 0.669406 0.296327
0.942552 0.672209 0.298978
0.000000 0.734110 0.274656
0.068331 0.751562 0.281288
0.193258 0.769314 0.288049
0.322894 0.786300 0.294641
0.448780 0.789103 0.297292
0.574667 0.791907 0.299943
0.700553 0.794710 0.302594
0.826439 0.797514 0.305244
0.952325 0.800317 0.307895
0.000000 0.905997 0.295606
0.080895 0.908801 0.298257
0.206781 0.911604 0.300908
0.332667 0.914407 0.303559
0.458553 0.917211 0.306210
0.584439 0.920014 0.308860
0.710326 0.922818 0.311511
0.836212 0.925621 0.314162
0.962098 0.928425 0.316813
0.000000 0.000000 0.266210
0.002598 0.000000 0.268302
0.091033 0.000000 0.270393
0.179468 0.000000 0.272485
0.267903 0.000000 0.274577
0.356338 0.000000 0.276668
0.444773 0.000000 0.278760
0.533208 0.000000 0.280852
0.621643 0.000000 0.282943
0.000000 0.007312 0.273247
0.009463 0.009322 0.275338
0.097898 0.011332 0.277430
0.186333 0.013343 0.279522
0.274768 0.015353 0.281613
0.363204 0.017363 0.283705
0.454952 0.019506 0.287120
0.553069 0.021863 0.292262
0.655656 0.024335 0.297888
0.000000 0.099177 0.280283
0.016329 0.101188 0.282375
0.104764 0.103198 0.284466
0.195719 0.106487 0.288918
0.290311 0.110296 0.294264
0.388785 0.114375 0.300024
0.491401 0.118674 0.306097
0.598368 0.123170 0.312433
0.709864 0.127848 0.319000
0.000000 0.194463 0.290806
0.024071 0.199854 0.296321
0.118119 0.205629 0.302202
0.216018 0.211714 0.308375
0.318036 0.218072 0.314798
0.424387 0.224678 0.321445
0.535248 0.231516 0.328297
0.650775 0.238573 0.335342
0.771105 0.245841 0.342569
0.000000 0.306068 0.310686
0.033392 0.314340 0.317193
0.134449 0.322919 0.323916
0.239865 0.331782 0.330840
0.349811 0.340912 0.337952
0.464433 0.350297 0.345244
0.583866 0.359927 0.352708
0.708228 0.369793 0.360339
0.837630 0.379888 0.368132
0.000000 0.433518 0.333408
0.044076 0.444755 0.340587
0.152890 0.456288 0.347942
0.266407 0.468104 0.355467
0.384755 0.480192 0.363158
0.508049 0.492543 0.371008
0.636395 0.505149 0.379015
0.769893 0.518004 0.387175
0.908633 0.531103 0.395485
0.000000 0.577861 0.358248
0.056183 0.592196 0.365997
0.173290 0.606827 0.373905
0.295365 0.621744 0.381968
0.422512 0.636938 0.390183
0.554827 0.652404 0.398548
0.691766 0.667555 0.406796
0.817653 0.670358 0.409447
0.943539 0.673161 0.412098
0.000000 0.740002 0.384941
0.069772 0.757557 0.393211
0.195595 0.775410 0.401630
0.323881 0.787252 0.407761
0.449767 0.790055 0.410412
0.575653 0.792859 0.413063
0.701539 0.795662 0.415714
0.827425 0.798466 0.418365
0.953312 0.801269 0.421016
0.000000 0.906949 0.408727
0.081881 0.909753 0.411377
0.207767 0.912556 0.414028
0.333654 0.915360 0.416679
0.459540 0.918163 0.419330
0.585426 0.920966 0.421981
0.711312 0.923770 0.424632
0.837198 0.926573 0.427283
0.963085 0.929377 0.429934
0.000000 0.000000 0.355467
0.003291 0.000000 0.357559
0.091726 0.000000 0.359650
0.180161 0.000000 0.361742
0.268596 0.000000 0.363833
0.357031 0.000000 0.365925
0.445466 0.000000 0.368017
0.533901 0.000000 0.370108
0.622336 0.000000 0.372200
0.000000 0.007994 0.362503
0.010156 0.010005 0.364595
0.098591 0.012015 0.366687
0.187027 0.014025 0.368778
0.275462 0.016036 0.370870
0.363897 0.018046 0.372962
0.458052 0.020292 0.378048
0.557178 0.022690 0.384371
0.660707 0.025200 0.391225
0.000000 0.099860 0.369540
0.017022 0.101870 0.371631
0.105793 0.104189 0.374475
0.197535 0.107745 0.380273
0.292868 0.111654 0.386814
0.392127 0.115812 0.393823
0.495566 0.120180 0.401195
0.603390 0.124739 0.408876
0.715770 0.129477 0.416831
0.000000 0.196244 0.382590
0.024952 0.201777 0.389319
0.119662 0.207663 0.396468
0.218289 0.213844 0.403958
0.321083 0.220289 0.411742
0.428249 0.226975 0.419789
0.539959 0.233888 0.428078
0.656365 0.241018 0.436592
0.777598 0.248356 0.445319
0.000000 0.308841 0.406760
0.034407 0.317220 0.414643
0.136219 0.325898 0.422780
0.242429 0.334853 0.431153
0.353202 0.344071 0.439745
0.468683 0.353541 0.448547
0.589000 0.363251 0.457548
0.714272 0.373196 0.466741
0.844604 0.383367 0.476120
0.000000 0.437300 0.434256
0.045232 0.448639 0.442926
0.154862 0.460270 0.451801
0.269224 0.472179 0.460873
0.388443 0.484357 0.470134
0.512633 0.496796 0.479579
0.641896 0.509487 0.489202
0.776332 0.522426 0.499000
0.916030 0.535606 0.508968
0.000000 0.582695 0.464223
0.057486 0.597132 0.473552
0.175455 0.611861 0.483062
0.298417 0.626873 0.492749
0.426472 0.642160 0.502609
0.559715 0.657717 0.512638
0.692753 0.668507 0.519917
0.818639 0.671310 0.522568
0.944525 0.674113 0.525219
0.000000 0.745930 0.496319
0.071228 0.763587 0.506241
0.197952 0.781539 0.516331
0.324867 0.788204 0.520882
0.450753 0.791007 0.523533
0.576640 0.793811 0.526184
0.702526 0.796614 0.528835
0.828412 0.799418 0.531485
0.954298 0.802221 0.534136
0.000000 0.907901 0.521847
0.082868 0.910705 0.524498
0.208754 0.913508 0.527149
0.334640 0.916312 0.529800
0.460526 0.919115 0.532451
0.586413 0.921918 0.535101
0.712299 0.924722 0.537752
0.838185 0.927525 0.540403
0.964071 0.930329 0.543054
0.000000 0.000000 0.444724
0.003984 0.000000 0.446815
0.092419 0.000000 0.448907
0.180854 0.000000 0.450999
0.269289 0.000000 0.453090
0.357724 0.000000 0.455182
0.446159 0.000000 0.457274
0.534594 0.000000 0.459365
0.623029 0.000000 0.461457
0.000000 0.008677 0.451760
0.010849 0.010687 0.453852
0.099285 0.012698 0.455943
0.187720 0.014708 0.458035
0.276155 0.016718 0.460127
0.365637 0.018779 0.463056
0.461345 0.021094 0.469694
0.561418 0.023530 0.477255
0.665870 0.026077 0.485386
0.000000 0.100543 0.458797
0.017715 0.102553 0.460888
0.106998 0.105341 0.465314
0.199420 0.109041 0.472368
0.295490 0.113041 0.480158
0.395534 0.117273 0.488459
0.499797 0.121707 0.497169
0.608477 0.126328 0.506227
0.721742 0.131125 0.515597
0.000000 0.198078 0.475135
0.025845 0.203740 0.483128
0.121231 0.209731 0.491586
0.220592 0.216004 0.500429
0.324168 0.222533 0.509604
0.432154 0.229298 0.519079
0.544717 0.236286 0.528829
0.662004 0.243487 0.538834
0.784144 0.250895 0.549080
0.000000 0.311652 0.503733
0.035437 0.320135 0.513021
0.138010 0.328909 0.522598
0.245020 0.337955 0.532443
0.356626 0.347260 0.542537
0.472968 0.356812 0.552868
0.594174 0.366603 0.563424
0.720357 0.376625 0.574197
0.851623 0.386872 0.585177
0.000000 0.441117 0.536090
0.046403 0.452557 0.546272
0.156853 0.464284 0.556686
0.272065 0.476285 0.567321
0.392160 0.488553 0.578170
0.517248 0.501078 0.589225
0.647433 0.513854 0.600480
0.782809 0.526875 0.611929
0.923466 0.540136 0.623568
0.000000 0.587565 0.571247
0.058805 0.602102 0.582172
0.177641 0.616928 0.593300
0.301492 0.632034 0.604626
0.430458 0.647414 0.616144
0.564633 0.663060 0.627851
0.693740 0.669459 0.633037
0.819626 0.672262 0.635688
0.945512 0.675065 0.638339
0.000000 0.751893 0.608797
0.072700 0.769651 0.620385
0.199968 0.786353 0.631352
0.325854 0.789156 0.634002
0.451740 0.791959 0.636653
0.577626 0.794763 0.639304
0.703512 0.797566 0.641955
0.829399 0.800370 0.644606
0.955285 0.803173 0.647257
0.000000 0.908853 0.634968
0.083854 0.911657 0.637618
0.209741 0.914460 0.640269
0.335627 0.917264 0.642920
0.461513 0.920067 0.645571
0.587399 0.922870 0.648222
0.713285 0.925674 0.650873
0.839172 0.928477 0.653524
0.965058 0.931281 0.656175
0.000000 0.000000 0.533980
0.004677 0.000000 0.536072
0.093112 0.000000 0.538164
0.181547 0.000000 0.540255
0.269982 0.000000 0.542347
0.358417 0.000000 0.544439
0.446852 0.000000 0.546530
0.535287 0.000000 0.548622
0.625321 0.000000 0.551605
0.000000 0.009360 0.541017
0.011543 0.011370 0.543108
0.099978 0.013380 0.545200
0.188413 0.015391 0.547292
0.276848 0.017401 0.549383
0.368065 0.019549 0.554127
0.464790 0.021909 0.562095
0.565775 0.024383 0.570943
0.671135 0.026966 0.580392
0.000000 0.101225 0.548053
0.018408 0.103236 0.550145
0.108270 0.106555 0.556893
0.201364 0.110370 0.565235
0.298171 0.114454 0.574322
0.399002 0.118757 0.583955
0.504090 0.123256 0.594035
0.613628 0.127938 0.604501
0.727780 0.132793 0.615312
0.000000 0.199960 0.568471
0.026753 0.205740 0.577772
0.122823 0.211831 0.587577
0.222927 0.218194 0.597803
0.327290 0.224805 0.608399
0.436101 0.231647 0.619327
0.549521 0.238708 0.630560
0.667692 0.245980 0.642078
0.790741 0.253456 0.653863
0.000000 0.314499 0.601620
0.036481 0.323083 0.612340
0.139821 0.331951 0.623382
0.247637 0.341086 0.634721
0.360080 0.350476 0.646338
0.477289 0.360110 0.658217
0.599386 0.369980 0.670346
0.726484 0.380080 0.682714
0.858687 0.390403 0.695312
0.000000 0.444969 0.638919
0.047589 0.456508 0.650633
0.158865 0.468329 0.662605
0.274930 0.480422 0.674822
0.395904 0.492778 0.687274
0.521895 0.505389 0.699955
0.653004 0.518249 0.712855
0.789324 0.531352 0.725969
0.930943 0.544694 0.739292
0.000000 0.592469 0.679328
0.060139 0.607105 0.691865
0.179845 0.622027 0.704626
0.304590 0.637227 0.717605
0.434471 0.652697 0.730796
0.568840 0.667607 0.743507
0.694726 0.670411 0.746158
0.820612 0.673214 0.748809
0.946498 0.676018 0.751460
0.000000 0.757890 0.722383
0.074187 0.775748 0.735649
0.200954 0.787305 0.744472
0.326840 0.790108 0.747123
0.452727 0.792912 0.749774
0.578613 0.795715 0.752425
0.704499 0.798518 0.755076
0.830385 0.801322 0.757727
0.956271 0.804125 0.760377
0.000000 0.909805 0.748088
0.084841 0.912609 0.750739
0.210727 0.915412 0.753390
0.336613 0.918216 0.756041
0.462500 0.921019 0.758692
0.588386 0.923823 0.761342
0.714272 0.926626 0.763993
0.840158 0.929429 0.766644
0.966044 0.932233 0.769295
0.000000 0.000000 0.623237
0.005370 0.000000 0.625329
0.093805 0.000000 0.627420
0.182240 0.000000 0.629512
0.270675 0.000000 0.631604
0.359110 0.000000 0.633695
0.447545 0.000000 0.635787
0.535980 0.000000 0.637879
0.628944 0.000000 0.642901
0.000000 0.010042 0.630274
0.012236 0.012053 0.632365
0.100671 0.014063 0.634457
0.189106 0.016073 0.636549
0.277541 0.018084 0.638640
0.370716 0.020337 0.645972
0.468363 0.022737 0.655284
0.570237 0.025248 0.665460
0.676497 0.027868 0.676264
0.000000 0.101908 0.637310
0.019167 0.104251 0.640787
0.109592 0.107816 0.649237
0.203360 0.111730 0.658905
0.300908 0.115892 0.669328
0.402526 0.120264 0.680329
0.508442 0.124826 0.691811
0.618840 0.129567 0.703712
0.733880 0.134480 0.715989
0.000000 0.201885 0.662624
0.027674 0.207776 0.673272
0.124440 0.213963 0.684457
0.225293 0.220412 0.696098
0.330449 0.227103 0.708140
0.440089 0.234021 0.720545
0.554369 0.241154 0.733284
0.673427 0.248496 0.746333
0.797388 0.256040 0.759676
0.000000 0.317381 0.700438
0.037539 0.326064 0.712616
0.141654 0.335024 0.725145
0.250280 0.344247 0.738000
0.363565 0.353721 0.751158
0.481644 0.363436 0.764603
0.604636 0.373385 0.778322
0.732652 0.383561 0.792302
0.865794 0.393959 0.806533
0.000000 0.448856 0.742756
0.048790 0.460491 0.756021
0.160896 0.472406 0.769567
0.277819 0.484589 0.783382
0.399676 0.497032 0.797454
0.526573 0.509728 0.811774
0.658609 0.522672 0.826335
0.795876 0.535856 0.841127
0.937712 0.548862 0.855662
0.000000 0.597407 0.788476
0.061488 0.612141 0.802639
0.182069 0.627158 0.817048
0.307711 0.642451 0.831693
0.438510 0.658012 0.846569
0.569827 0.668559 0.856627
0.695713 0.671363 0.859278
0.821599 0.674166 0.861929
0.947485 0.676970 0.864580
0.000000 0.763922 0.837083
0.075691 0.781880 0.852041
0.201941 0.788257 0.857593
0.327827 0.791060 0.860243
0.453713 0.793864 0.862894
0.579599 0.796667 0.865545
0.705486 0.799470 0.868196
0.831372 0.802274 0.870847
0.957258 0.805077 0.873498
0.000000 0.910758 0.861209
0.085828 0.913561 0.863859
0.211714 0.916364 0.866510
0.337600 0.919168 0.869161
0.463486 0.921971 0.871812
0.589372 0.924775 0.874463
0.715259 0.927578 0.877114
0.841145 0.930381 0.879765
0.967031 0.933185 0.882416
