assets/lighting/cinematic/grade-high-key-commercial/lut.cube
TITLE "High Key Commercial"
# TKRS lighting-batch-001 original LUT
# Intended usage: bright clean product / lobby look
# License: CC0-1.0
LUT_3D_SIZE 17
DOMAIN_MIN 0.0 0.0 0.0
DOMAIN_MAX 1.0 1.0 1.0
0.074940 0.074940 0.080307
0.146161 0.075729 0.081095
0.217382 0.076517 0.081883
0.288603 0.077305 0.082671
0.359823 0.078093 0.083459
0.431044 0.078881 0.084247
0.502265 0.079669 0.085035
0.573486 0.080457 0.085823
0.644706 0.081245 0.086612
0.715927 0.082033 0.087400
0.787148 0.082821 0.088188
0.858369 0.083610 0.088976
0.929589 0.084398 0.089764
1.000000 0.085186 0.090552
1.000000 0.085974 0.091340
1.000000 0.086762 0.092128
1.000000 0.087550 0.092916
0.077592 0.148024 0.082958
0.148812 0.148812 0.083746
0.220033 0.149601 0.084534
0.291254 0.150389 0.085322
0.362475 0.151177 0.086110
0.433695 0.151965 0.086898
0.504916 0.152753 0.087687
0.576137 0.153541 0.088475
0.647358 0.154329 0.089263
0.718578 0.155117 0.090051
0.789799 0.155905 0.090839
0.861020 0.156693 0.091627
0.932241 0.157482 0.092415
1.000000 0.158270 0.093203
1.000000 0.159058 0.093991
1.000000 0.159846 0.094780
1.000000 0.160634 0.095568
0.080243 0.221108 0.085609
0.151464 0.221896 0.086397
0.222684 0.222684 0.087185
0.293905 0.223473 0.087974
0.365126 0.224261 0.088762
0.436347 0.225049 0.089550
0.507567 0.225837 0.090338
0.578788 0.226625 0.091126
0.650009 0.227413 0.091914
0.721230 0.228201 0.092702
0.792450 0.228989 0.093490
0.863671 0.229777 0.094278
0.934892 0.230565 0.095066
1.000000 0.231354 0.095855
1.000000 0.232142 0.096643
1.000000 0.232930 0.097431
1.000000 0.233718 0.098219
0.082894 0.294192 0.088260
0.154115 0.294980 0.089049
0.225336 0.295768 0.089837
0.296556 0.296556 0.090625
0.367777 0.297345 0.091413
0.438998 0.298133 0.092201
0.510219 0.298921 0.092989
0.581439 0.299709 0.093777
0.652660 0.300497 0.094565
0.723881 0.301285 0.095353
0.795102 0.302073 0.096141
0.866322 0.302861 0.096930
0.937543 0.303649 0.097718
1.000000 0.304437 0.098506
1.000000 0.305226 0.099294
1.000000 0.306014 0.100082
1.000000 0.306802 0.100870
0.085545 0.367276 0.090912
0.156766 0.368064 0.091700
0.227987 0.368852 0.092488
0.299208 0.369640 0.093276
0.370428 0.370428 0.094064
0.441649 0.371216 0.094852
0.512870 0.372005 0.095640
0.584091 0.372793 0.096428
0.655311 0.373581 0.097217
0.726532 0.374369 0.098005
0.797753 0.375157 0.098793
0.868974 0.375945 0.099581
0.940194 0.376733 0.100369
1.000000 0.377521 0.101157
1.000000 0.378309 0.101945
1.000000 0.379098 0.102733
1.000000 0.379886 0.103521
0.088197 0.440360 0.093563
0.159417 0.441148 0.094351
0.230638 0.441936 0.095139
0.301859 0.442724 0.095927
0.373080 0.443512 0.096715
0.444300 0.444300 0.097503
0.515521 0.445088 0.098292
0.586742 0.445877 0.099080
0.657963 0.446665 0.099868
0.729183 0.447453 0.100656
0.800404 0.448241 0.101444
0.871625 0.449029 0.102232
0.942846 0.449817 0.103020
1.000000 0.450605 0.103808
1.000000 0.451393 0.104596
1.000000 0.452181 0.105384
1.000000 0.452970 0.106173
0.090848 0.513444 0.096214
0.162069 0.514232 0.097002
0.233289 0.515020 0.097790
0.304510 0.515808 0.098578
0.375731 0.516596 0.099367
0.446952 0.517384 0.100155
0.518172 0.518172 0.100943
0.589393 0.518960 0.101731
0.660614 0.519749 0.102519
0.731835 0.520537 0.103307
0.803055 0.521325 0.104095
0.874276 0.522113 0.104883
0.945497 0.522901 0.105671
1.000000 0.523689 0.106459
1.000000 0.524477 0.107248
1.000000 0.525265 0.108036
1.000000 0.526053 0.108824
0.093499 0.586528 0.098865
0.164720 0.587316 0.099653
0.235941 0.588104 0.100442
0.307161 0.588892 0.101230
0.378382 0.589680 0.102018
0.449603 0.590468 0.102806
0.520824 0.591256 0.103594
0.592044 0.592044 0.104382
0.663265 0.592832 0.105170
0.734486 0.593621 0.105958
0.805707 0.594409 0.106746
0.876927 0.595197 0.107535
0.948148 0.595985 0.108323
1.000000 0.596773 0.109111
1.000000 0.597561 0.109899
1.000000 0.598349 0.110687
1.000000 0.599137 0.111475
0.096150 0.659612 0.101517
0.167371 0.660400 0.102305
0.238592 0.661188 0.103093
0.309813 0.661976 0.103881
0.381033 0.662764 0.104669
0.452254 0.663552 0.105457
0.523475 0.664340 0.106245
0.594696 0.665128 0.107033
0.665916 0.665916 0.107821
0.737137 0.666704 0.108610
0.808358 0.667493 0.109398
0.879579 0.668281 0.110186
0.950799 0.669069 0.110974
1.000000 0.669857 0.111762
1.000000 0.670645 0.112550
1.000000 0.671433 0.113338
1.000000 0.672221 0.114126
0.098802 0.732695 0.104168
0.170022 0.733483 0.104956
0.241243 0.734272 0.105744
0.312464 0.735060 0.106532
0.383685 0.735848 0.107320
0.454905 0.736636 0.108108
0.526126 0.737424 0.108896
0.597347 0.738212 0.109685
0.668568 0.739000 0.110473
0.739788 0.739788 0.111261
0.811009 0.740576 0.112049
0.882230 0.741365 0.112837
0.953451 0.742153 0.113625
1.000000 0.742941 0.114413
1.000000 0.743729 0.115201
1.000000 0.744517 0.115989
1.000000 0.745305 0.116778
0.101453 0.805779 0.106819
0.172674 0.806567 0.107607
0.243894 0.807355 0.108395
0.315115 0.808144 0.109183
0.386336 0.808932 0.109971
0.457557 0.809720 0.110760
0.528777 0.810508 0.111548
0.599998 0.811296 0.112336
0.671219 0.812084 0.113124
0.742440 0.812872 0.113912
0.813660 0.813660 0.114700
0.884881 0.814448 0.115488
0.956102 0.815237 0.116276
1.000000 0.816025 0.117064
1.000000 0.816813 0.117853
1.000000 0.817601 0.118641
1.000000 0.818389 0.119429
0.104104 0.878863 0.109470
0.175325 0.879651 0.110258
0.246546 0.880439 0.111047
0.317766 0.881227 0.111835
0.388987 0.882016 0.112623
0.460208 0.882804 0.113411
0.531429 0.883592 0.114199
0.602649 0.884380 0.114987
0.673870 0.885168 0.115775
0.745091 0.885956 0.116563
0.816312 0.886744 0.117351
0.887532 0.887532 0.118139
0.958753 0.888320 0.118928
1.000000 0.889109 0.119716
1.000000 0.889897 0.120504
1.000000 0.890685 0.121292
1.000000 0.891473 0.122080
0.106755 0.951947 0.112122
0.177976 0.952735 0.112910
0.249197 0.953523 0.113698
0.320418 0.954311 0.114486
0.391638 0.955099 0.115274
0.462859 0.955888 0.116062
0.534080 0.956676 0.116850
0.605301 0.957464 0.117638
0.676521 0.958252 0.118426
0.747742 0.959040 0.119214
0.818963 0.959828 0.120003
0.890184 0.960616 0.120791
0.961404 0.961404 0.121579
1.000000 0.962192 0.122367
1.000000 0.962980 0.123155
1.000000 0.963769 0.123943
1.000000 0.964557 0.124731
0.109406 1.000000 0.114773
0.180627 1.000000 0.115561
0.251848 1.000000 0.116349
0.323069 1.000000 0.117137
0.394289 1.000000 0.117925
0.465510 1.000000 0.118713
0.536731 1.000000 0.119501
0.607952 1.000000 0.120289
0.679173 1.000000 0.121078
0.750393 1.000000 0.121866
0.821614 1.000000 0.122654
0.892835 1.000000 0.123442
0.964056 1.000000 0.124230
1.000000 1.000000 0.125018
1.000000 1.000000 0.125806
1.000000 1.000000 0.126594
1.000000 1.000000 0.127382
0.112058 1.000000 0.117424
0.183278 1.000000 0.118212
0.254499 1.000000 0.119000
0.325720 1.000000 0.119788
0.396941 1.000000 0.120576
0.468161 1.000000 0.121365
0.539382 1.000000 0.122153
0.610603 1.000000 0.122941
0.681824 1.000000 0.123729
0.753044 1.000000 0.124517
0.824265 1.000000 0.125305
0.895486 1.000000 0.126093
0.966707 1.000000 0.126881
1.000000 1.000000 0.127669
1.000000 1.000000 0.128457
1.000000 1.000000 0.129246
1.000000 1.000000 0.130034
0.114709 1.000000 0.120075
0.185930 1.000000 0.120863
0.257150 1.000000 0.121651
0.328371 1.000000 0.122440
0.399592 1.000000 0.123228
0.470813 1.000000 0.124016
0.542033 1.000000 0.124804
0.613254 1.000000 0.125592
0.684475 1.000000 0.126380
0.755696 1.000000 0.127168
0.826916 1.000000 0.127956
0.898137 1.000000 0.128744
0.969358 1.000000 0.129532
1.000000 1.000000 0.130321
1.000000 1.000000 0.131109
1.000000 1.000000 0.131897
1.000000 1.000000 0.132685
0.117360 1.000000 0.122726
0.188581 1.000000 0.123515
0.259802 1.000000 0.124303
0.331022 1.000000 0.125091
0.402243 1.000000 0.125879
0.473464 1.000000 0.126667
0.544685 1.000000 0.127455
0.615905 1.000000 0.128243
0.687126 1.000000 0.129031
0.758347 1.000000 0.129819
0.829568 1.000000 0.130608
0.900788 1.000000 0.131396
0.972009 1.000000 0.132184
1.000000 1.000000 0.132972
1.000000 1.000000 0.133760
1.000000 1.000000 0.134548
1.000000 1.000000 0.135336
0.075211 0.075211 0.151680
0.146431 0.075999 0.152468
0.217652 0.076787 0.153257
0.288873 0.077575 0.154045
0.360094 0.078363 0.154833
0.431314 0.079151 0.155621
0.502535 0.079939 0.156409
0.573756 0.080727 0.157197
0.644977 0.081515 0.157985
0.716197 0.082304 0.158773
0.787418 0.083092 0.159561
0.858639 0.083880 0.160350
0.929860 0.084668 0.161138
1.000000 0.085456 0.161926
1.000000 0.086244 0.162714
1.000000 0.087032 0.163502
1.000000 0.087820 0.164290
0.077862 0.148295 0.154332
0.149083 0.149083 0.155120
0.220303 0.149871 0.155908
0.291524 0.150659 0.156696
0.362745 0.151447 0.157484
0.433966 0.152235 0.158272
0.505186 0.153023 0.159060
0.576407 0.153811 0.159848
0.647628 0.154599 0.160636
0.718849 0.155387 0.161425
0.790069 0.156176 0.162213
0.861290 0.156964 0.163001
0.932511 0.157752 0.163789
1.000000 0.158540 0.164577
1.000000 0.159328 0.165365
1.000000 0.160116 0.166153
1.000000 0.160904 0.166941
0.080513 0.221378 0.156983
0.151734 0.222167 0.157771
0.222955 0.222955 0.158559
0.294175 0.223743 0.159347
0.365396 0.224531 0.160135
0.436617 0.225319 0.160923
0.507838 0.226107 0.161711
0.579058 0.226895 0.162500
0.650279 0.227683 0.163288
0.721500 0.228471 0.164076
0.792721 0.229259 0.164864
0.863941 0.230048 0.165652
0.935162 0.230836 0.166440
1.000000 0.231624 0.167228
1.000000 0.232412 0.168016
1.000000 0.233200 0.168804
1.000000 0.233988 0.169593
0.083164 0.294462 0.159634
0.154385 0.295250 0.160422
0.225606 0.296038 0.161210
0.296827 0.296827 0.161998
0.368047 0.297615 0.162786
0.439268 0.298403 0.163575
0.510489 0.299191 0.164363
0.581710 0.299979 0.165151
0.652930 0.300767 0.165939
0.724151 0.301555 0.166727
0.795372 0.302343 0.167515
0.866593 0.303131 0.168303
0.937813 0.303920 0.169091
1.000000 0.304708 0.169879
1.000000 0.305496 0.170668
1.000000 0.306284 0.171456
1.000000 0.307072 0.172244
0.085816 0.367546 0.162285
0.157036 0.368334 0.163073
0.228257 0.369122 0.163862
0.299478 0.369910 0.164650
0.370699 0.370699 0.165438
0.441919 0.371487 0.166226
0.513140 0.372275 0.167014
0.584361 0.373063 0.167802
0.655582 0.373851 0.168590
0.726802 0.374639 0.169378
0.798023 0.375427 0.170166
0.869244 0.376215 0.170954
0.940465 0.377003 0.171743
1.000000 0.377792 0.172531
1.000000 0.378580 0.173319
1.000000 0.379368 0.174107
1.000000 0.380156 0.174895
0.088467 0.440630 0.164937
0.159688 0.441418 0.165725
0.230908 0.442206 0.166513
0.302129 0.442994 0.167301
0.373350 0.443782 0.168089
0.444571 0.444571 0.168877
0.515791 0.445359 0.169665
0.587012 0.446147 0.170453
0.658233 0.446935 0.171241
0.729454 0.447723 0.172029
0.800674 0.448511 0.172818
0.871895 0.449299 0.173606
0.943116 0.450087 0.174394
1.000000 0.450875 0.175182
1.000000 0.451664 0.175970
1.000000 0.452452 0.176758
1.000000 0.453240 0.177546
0.091118 0.513714 0.167588
0.162339 0.514502 0.168376
0.233560 0.515290 0.169164
0.304780 0.516078 0.169952
0.376001 0.516866 0.170740
0.447222 0.517654 0.171528
0.518443 0.518443 0.172316
0.589663 0.519231 0.173104
0.660884 0.520019 0.173893
0.732105 0.520807 0.174681
0.803326 0.521595 0.175469
0.874546 0.522383 0.176257
0.945767 0.523171 0.177045
1.000000 0.523959 0.177833
1.000000 0.524747 0.178621
1.000000 0.525535 0.179409
1.000000 0.526324 0.180197
0.093769 0.586798 0.170239
0.164990 0.587586 0.171027
0.236211 0.588374 0.171815
0.307432 0.589162 0.172603
0.378652 0.589950 0.173391
0.449873 0.590738 0.174180
0.521094 0.591526 0.174968
0.592315 0.592315 0.175756
0.663535 0.593103 0.176544
0.734756 0.593891 0.177332
0.805977 0.594679 0.178120
0.877198 0.595467 0.178908
0.948418 0.596255 0.179696
1.000000 0.597043 0.180484
1.000000 0.597831 0.181272
1.000000 0.598619 0.182061
1.000000 0.599407 0.182849
0.096420 0.659882 0.172890
0.167641 0.660670 0.173678
0.238862 0.661458 0.174466
0.310083 0.662246 0.175255
0.381304 0.663034 0.176043
0.452524 0.663822 0.176831
0.523745 0.664610 0.177619
0.594966 0.665398 0.178407
0.666187 0.666187 0.179195
0.737407 0.666975 0.179983
0.808628 0.667763 0.180771
0.879849 0.668551 0.181559
0.951070 0.669339 0.182347
1.000000 0.670127 0.183136
1.000000 0.670915 0.183924
1.000000 0.671703 0.184712
1.000000 0.672491 0.185500
0.099072 0.732966 0.175541
0.170292 0.733754 0.176330
0.241513 0.734542 0.177118
0.312734 0.735330 0.177906
0.383955 0.736118 0.178694
0.455176 0.736906 0.179482
0.526396 0.737694 0.180270
0.597617 0.738482 0.181058
0.668838 0.739270 0.181846
0.740059 0.740059 0.182634
0.811279 0.740847 0.183423
0.882500 0.741635 0.184211
0.953721 0.742423 0.184999
1.000000 0.743211 0.185787
1.000000 0.743999 0.186575
1.000000 0.744787 0.187363
1.000000 0.745575 0.188151
0.101723 0.806049 0.178193
0.172944 0.806838 0.178981
0.244164 0.807626 0.179769
0.315385 0.808414 0.180557
0.386606 0.809202 0.181345
0.457827 0.809990 0.182133
0.529047 0.810778 0.182921
0.600268 0.811566 0.183709
0.671489 0.812354 0.184498
0.742710 0.813142 0.185286
0.813931 0.813931 0.186074
0.885151 0.814719 0.186862
0.956372 0.815507 0.187650
1.000000 0.816295 0.188438
1.000000 0.817083 0.189226
1.000000 0.817871 0.190014
1.000000 0.818659 0.190802
0.104374 0.879133 0.180844
0.175595 0.879921 0.181632
0.246816 0.880710 0.182420
0.318036 0.881498 0.183208
0.389257 0.882286 0.183996
0.460478 0.883074 0.184784
0.531699 0.883862 0.185573
0.602919 0.884650 0.186361
0.674140 0.885438 0.187149
0.745361 0.886226 0.187937
0.816582 0.887014 0.188725
0.887802 0.887802 0.189513
0.959023 0.888591 0.190301
1.000000 0.889379 0.191089
1.000000 0.890167 0.191877
1.000000 0.890955 0.192665
1.000000 0.891743 0.193454
0.107025 0.952217 0.183495
0.178246 0.953005 0.184283
0.249467 0.953793 0.185071
0.320688 0.954582 0.185859
0.391908 0.955370 0.186648
0.463129 0.956158 0.187436
0.534350 0.956946 0.188224
0.605571 0.957734 0.189012
0.676791 0.958522 0.189800
0.748012 0.959310 0.190588
0.819233 0.960098 0.191376
0.890454 0.960886 0.192164
0.961674 0.961674 0.192952
1.000000 0.962463 0.193741
1.000000 0.963251 0.194529
1.000000 0.964039 0.195317
1.000000 0.964827 0.196105
0.109677 1.000000 0.186146
0.180897 1.000000 0.186935
0.252118 1.000000 0.187723
0.323339 1.000000 0.188511
0.394560 1.000000 0.189299
0.465780 1.000000 0.190087
0.537001 1.000000 0.190875
0.608222 1.000000 0.191663
0.679443 1.000000 0.192451
0.750663 1.000000 0.193239
0.821884 1.000000 0.194027
0.893105 1.000000 0.194816
0.964326 1.000000 0.195604
1.000000 1.000000 0.196392
1.000000 1.000000 0.197180
1.000000 1.000000 0.197968
1.000000 1.000000 0.198756
0.112328 1.000000 0.188798
0.183549 1.000000 0.189586
0.254769 1.000000 0.190374
0.325990 1.000000 0.191162
0.397211 1.000000 0.191950
0.468432 1.000000 0.192738
0.539652 1.000000 0.193526
0.610873 1.000000 0.194314
0.682094 1.000000 0.195102
0.753315 1.000000 0.195891
0.824535 1.000000 0.196679
0.895756 1.000000 0.197467
0.966977 1.000000 0.198255
1.000000 1.000000 0.199043
1.000000 1.000000 0.199831
1.000000 1.000000 0.200619
1.000000 1.000000 0.201407
0.114979 1.000000 0.191449
0.186200 1.000000 0.192237
0.257421 1.000000 0.193025
0.328641 1.000000 0.193813
0.399862 1.000000 0.194601
0.471083 1.000000 0.195389
0.542304 1.000000 0.196177
0.613524 1.000000 0.196966
0.684745 1.000000 0.197754
0.755966 1.000000 0.198542
0.827187 1.000000 0.199330
0.898407 1.000000 0.200118
0.969628 1.000000 0.200906
1.000000 1.000000 0.201694
1.000000 1.000000 0.202482
1.000000 1.000000 0.203270
1.000000 1.000000 0.204059
0.117630 1.000000 0.194100
0.188851 1.000000 0.194888
0.260072 1.000000 0.195676
0.331293 1.000000 0.196464
0.402513 1.000000 0.197253
0.473734 1.000000 0.198041
0.544955 1.000000 0.198829
0.616176 1.000000 0.199617
0.687396 1.000000 0.200405
0.758617 1.000000 0.201193
0.829838 1.000000 0.201981
0.901059 1.000000 0.202769
0.972279 1.000000 0.203557
1.000000 1.000000 0.204345
1.000000 1.000000 0.205134
1.000000 1.000000 0.205922
1.000000 1.000000 0.206710
0.075481 0.075481 0.223054
0.146702 0.076269 0.223842
0.217922 0.077057 0.224630
0.289143 0.077845 0.225418
0.360364 0.078633 0.226206
0.431585 0.079421 0.226995
0.502805 0.080209 0.227783
0.574026 0.080998 0.228571
0.645247 0.081786 0.229359
0.716468 0.082574 0.230147
0.787688 0.083362 0.230935
0.858909 0.084150 0.231723
0.930130 0.084938 0.232511
1.000000 0.085726 0.233299
1.000000 0.086514 0.234087
1.000000 0.087302 0.234876
1.000000 0.088090 0.235664
0.078132 0.148565 0.225705
0.149353 0.149353 0.226493
0.220574 0.150141 0.227281
0.291794 0.150929 0.228070
0.363015 0.151717 0.228858
0.434236 0.152505 0.229646
0.505457 0.153293 0.230434
0.576677 0.154081 0.231222
0.647898 0.154870 0.232010
0.719119 0.155658 0.232798
0.790340 0.156446 0.233586
0.861560 0.157234 0.234374
0.932781 0.158022 0.235162
1.000000 0.158810 0.235951
1.000000 0.159598 0.236739
1.000000 0.160386 0.237527
1.000000 0.161174 0.238315
0.080783 0.221649 0.228356
0.152004 0.222437 0.229145
0.223225 0.223225 0.229933
0.294446 0.224013 0.230721
0.365666 0.224801 0.231509
0.436887 0.225589 0.232297
0.508108 0.226377 0.233085
0.579329 0.227165 0.233873
0.650549 0.227953 0.234661
0.721770 0.228742 0.235449
0.792991 0.229530 0.236238
0.864212 0.230318 0.237026
0.935432 0.231106 0.237814
1.000000 0.231894 0.238602
1.000000 0.232682 0.239390
1.000000 0.233470 0.240178
1.000000 0.234258 0.240966
0.083435 0.294732 0.231008
0.154655 0.295521 0.231796
0.225876 0.296309 0.232584
0.297097 0.297097 0.233372
0.368318 0.297885 0.234160
0.439538 0.298673 0.234948
0.510759 0.299461 0.235736
0.581980 0.300249 0.236524
0.653201 0.301037 0.237313
0.724421 0.301825 0.238101
0.795642 0.302614 0.238889
0.866863 0.303402 0.239677
0.938084 0.304190 0.240465
1.000000 0.304978 0.241253
1.000000 0.305766 0.242041
1.000000 0.306554 0.242829
1.000000 0.307342 0.243617
0.086086 0.367816 0.233659
0.157307 0.368604 0.234447
0.228527 0.369393 0.235235
0.299748 0.370181 0.236023
0.370969 0.370969 0.236811
0.442190 0.371757 0.237599
0.513410 0.372545 0.238388
0.584631 0.373333 0.239176
0.655852 0.374121 0.239964
0.727073 0.374909 0.240752
0.798293 0.375697 0.241540
0.869514 0.376486 0.242328
0.940735 0.377274 0.243116
1.000000 0.378062 0.243904
1.000000 0.378850 0.244692
1.000000 0.379638 0.245480
1.000000 0.380426 0.246269
0.088737 0.440900 0.236310
0.159958 0.441688 0.237098
0.231178 0.442476 0.237886
0.302399 0.443265 0.238674
0.373620 0.444053 0.239463
0.444841 0.444841 0.240251
0.516062 0.445629 0.241039
0.587282 0.446417 0.241827
0.658503 0.447205 0.242615
0.729724 0.447993 0.243403
0.800945 0.448781 0.244191
0.872165 0.449569 0.244979
0.943386 0.450357 0.245767
1.000000 0.451146 0.246556
1.000000 0.451934 0.247344
1.000000 0.452722 0.248132
1.000000 0.453510 0.248920
0.091388 0.513984 0.238961
0.162609 0.514772 0.239750
0.233830 0.515560 0.240538
0.305050 0.516348 0.241326
0.376271 0.517137 0.242114
0.447492 0.517925 0.242902
0.518713 0.518713 0.243690
0.589934 0.519501 0.244478
0.661154 0.520289 0.245266
0.732375 0.521077 0.246054
0.803596 0.521865 0.246842
0.874817 0.522653 0.247631
0.946037 0.523441 0.248419
1.000000 0.524229 0.249207
1.000000 0.525018 0.249995
1.000000 0.525806 0.250783
1.000000 0.526594 0.251571
0.094039 0.587068 0.241613
0.165260 0.587856 0.242401
0.236481 0.588644 0.243189
0.307702 0.589432 0.243977
0.378922 0.590220 0.244765
0.450143 0.591009 0.245553
0.521364 0.591797 0.246341
0.592585 0.592585 0.247129
0.663805 0.593373 0.247917
0.735026 0.594161 0.248706
0.806247 0.594949 0.249494
0.877468 0.595737 0.250282
0.948689 0.596525 0.251070
1.000000 0.597313 0.251858
1.000000 0.598101 0.252646
1.000000 0.598890 0.253434
1.000000 0.599678 0.254222
0.096691 0.660152 0.244264
0.167911 0.660940 0.245052
0.239132 0.661728 0.245840
0.310353 0.662516 0.246628
0.381574 0.663304 0.247416
0.452794 0.664092 0.248204
0.524015 0.664881 0.248992
0.595236 0.665669 0.249781
0.666457 0.666457 0.250569
0.737677 0.667245 0.251357
0.808898 0.668033 0.252145
0.880119 0.668821 0.252933
0.951340 0.669609 0.253721
1.000000 0.670397 0.254509
1.000000 0.671185 0.255297
1.000000 0.671973 0.256085
1.000000 0.672762 0.256874
0.099342 0.733236 0.246915
0.170563 0.734024 0.247703
0.241783 0.734812 0.248491
0.313004 0.735600 0.249279
0.384225 0.736388 0.250068
0.455446 0.737176 0.250856
0.526666 0.737964 0.251644
0.597887 0.738753 0.252432
0.669108 0.739541 0.253220
0.740329 0.740329 0.254008
0.811549 0.741117 0.254796
0.882770 0.741905 0.255584
0.953991 0.742693 0.256372
1.000000 0.743481 0.257160
1.000000 0.744269 0.257949
1.000000 0.745057 0.258737
1.000000 0.745845 0.259525
0.101993 0.806320 0.249566
0.173214 0.807108 0.250354
0.244435 0.807896 0.251143
0.315655 0.808684 0.251931
0.386876 0.809472 0.252719
0.458097 0.810260 0.253507
0.529318 0.811048 0.254295
0.600538 0.811836 0.255083
0.671759 0.812624 0.255871
0.742980 0.813413 0.256659
0.814201 0.814201 0.257447
0.885421 0.814989 0.258235
0.956642 0.815777 0.259024
1.000000 0.816565 0.259812
1.000000 0.817353 0.260600
1.000000 0.818141 0.261388
1.000000 0.818929 0.262176
0.104644 0.879404 0.252218
0.175865 0.880192 0.253006
0.247086 0.880980 0.253794
0.318307 0.881768 0.254582
0.389527 0.882556 0.255370
0.460748 0.883344 0.256158
0.531969 0.884132 0.256946
0.603190 0.884920 0.257734
0.674410 0.885708 0.258522
0.745631 0.886496 0.259311
0.816852 0.887285 0.260099
0.888073 0.888073 0.260887
0.959293 0.888861 0.261675
1.000000 0.889649 0.262463
1.000000 0.890437 0.263251
1.000000 0.891225 0.264039
1.000000 0.892013 0.264827
0.107296 0.952487 0.254869
0.178516 0.953276 0.255657
0.249737 0.954064 0.256445
0.320958 0.954852 0.257233
0.392179 0.955640 0.258021
0.463399 0.956428 0.258809
0.534620 0.957216 0.259597
0.605841 0.958004 0.260386
0.677062 0.958792 0.261174
0.748282 0.959580 0.261962
0.819503 0.960368 0.262750
0.890724 0.961157 0.263538
0.961945 0.961945 0.264326
1.000000 0.962733 0.265114
1.000000 0.963521 0.265902
1.000000 0.964309 0.266690
1.000000 0.965097 0.267478
0.109947 1.000000 0.257520
0.181168 1.000000 0.258308
0.252388 1.000000 0.259096
0.323609 1.000000 0.259884
0.394830 1.000000 0.260672
0.466051 1.000000 0.261461
0.537271 1.000000 0.262249
0.608492 1.000000 0.263037
0.679713 1.000000 0.263825
0.750934 1.000000 0.264613
0.822154 1.000000 0.265401
0.893375 1.000000 0.266189
0.964596 1.000000 0.266977
1.000000 1.000000 0.267765
1.000000 1.000000 0.268553
1.000000 1.000000 0.269342
1.000000 1.000000 0.270130
0.112598 1.000000 0.260171
0.183819 1.000000 0.260959
0.255040 1.000000 0.261747
0.326260 1.000000 0.262536
0.397481 1.000000 0.263324
0.468702 1.000000 0.264112
0.539923 1.000000 0.264900
0.611143 1.000000 0.265688
0.682364 1.000000 0.266476
0.753585 1.000000 0.267264
0.824806 1.000000 0.268052
0.896026 1.000000 0.268840
0.967247 1.000000 0.269629
1.000000 1.000000 0.270417
1.000000 1.000000 0.271205
1.000000 1.000000 0.271993
1.000000 1.000000 0.272781
0.115249 1.000000 0.262822
0.186470 1.000000 0.263611
0.257691 1.000000 0.264399
0.328912 1.000000 0.265187
0.400132 1.000000 0.265975
0.471353 1.000000 0.266763
0.542574 1.000000 0.267551
0.613795 1.000000 0.268339
0.685015 1.000000 0.269127
0.756236 1.000000 0.269915
0.827457 1.000000 0.270704
0.898678 1.000000 0.271492
0.969898 1.000000 0.272280
1.000000 1.000000 0.273068
1.000000 1.000000 0.273856
1.000000 1.000000 0.274644
1.000000 1.000000 0.275432
0.117901 1.000000 0.265474
0.189121 1.000000 0.266262
0.260342 1.000000 0.267050
0.331563 1.000000 0.267838
0.402784 1.000000 0.268626
0.474004 1.000000 0.269414
0.545225 1.000000 0.270202
0.616446 1.000000 0.270990
0.687667 1.000000 0.271779
0.758887 1.000000 0.272567
0.830108 1.000000 0.273355
0.901329 1.000000 0.274143
0.972550 1.000000 0.274931
1.000000 1.000000 0.275719
1.000000 1.000000 0.276507
1.000000 1.000000 0.277295
1.000000 1.000000 0.278083
0.075751 0.075751 0.294428
0.146972 0.076539 0.295216
0.218193 0.077327 0.296004
0.289413 0.078115 0.296792
0.360634 0.078903 0.297580
0.431855 0.079692 0.298368
0.503076 0.080480 0.299156
0.574296 0.081268 0.299944
0.645517 0.082056 0.300732
0.716738 0.082844 0.301521
0.787959 0.083632 0.302309
0.859179 0.084420 0.303097
0.930400 0.085208 0.303885
1.000000 0.085996 0.304673
