assets/lighting/cinematic/grade-high-key-commercial/lut.cube
TITLE "High Key Commercial"
# TKRS lighting-batch-001 original LUT
# Intended usage: bright clean product / lobby look
# License: CC0-1.0
LUT_3D_SIZE 9
DOMAIN_MIN 0.0 0.0 0.0
DOMAIN_MAX 1.0 1.0 1.0
0.074940 0.074940 0.080307
0.217382 0.076517 0.081883
0.359823 0.078093 0.083459
0.502265 0.079669 0.085035
0.644706 0.081245 0.086612
0.787148 0.082821 0.088188
0.929589 0.084398 0.089764
1.000000 0.085974 0.091340
1.000000 0.087550 0.092916
0.080243 0.221108 0.085609
0.222684 0.222684 0.087185
0.365126 0.224261 0.088762
0.507567 0.225837 0.090338
0.650009 0.227413 0.091914
0.792450 0.228989 0.093490
0.934892 0.230565 0.095066
1.000000 0.232142 0.096643
1.000000 0.233718 0.098219
0.085545 0.367276 0.090912
0.227987 0.368852 0.092488
0.370428 0.370428 0.094064
0.512870 0.372005 0.095640
0.655311 0.373581 0.097217
0.797753 0.375157 0.098793
0.940194 0.376733 0.100369
1.000000 0.378309 0.101945
1.000000 0.379886 0.103521
0.090848 0.513444 0.096214
0.233289 0.515020 0.097790
0.375731 0.516596 0.099367
0.518172 0.518172 0.100943
0.660614 0.519749 0.102519
0.803055 0.521325 0.104095
0.945497 0.522901 0.105671
1.000000 0.524477 0.107248
1.000000 0.526053 0.108824
0.096150 0.659612 0.101517
0.238592 0.661188 0.103093
0.381033 0.662764 0.104669
0.523475 0.664340 0.106245
0.665916 0.665916 0.107821
0.808358 0.667493 0.109398
0.950799 0.669069 0.110974
1.000000 0.670645 0.112550
1.000000 0.672221 0.114126
0.101453 0.805779 0.106819
0.243894 0.807355 0.108395
0.386336 0.808932 0.109971
0.528777 0.810508 0.111548
0.671219 0.812084 0.113124
0.813660 0.813660 0.114700
0.956102 0.815237 0.116276
1.000000 0.816813 0.117853
1.000000 0.818389 0.119429
0.106755 0.951947 0.112122
0.249197 0.953523 0.113698
0.391638 0.955099 0.115274
0.534080 0.956676 0.116850
0.676521 0.958252 0.118426
0.818963 0.959828 0.120003
0.961404 0.961404 0.121579
1.000000 0.962980 0.123155
1.000000 0.964557 0.124731
0.112058 1.000000 0.117424
0.254499 1.000000 0.119000
0.396941 1.000000 0.120576
0.539382 1.000000 0.122153
0.681824 1.000000 0.123729
0.824265 1.000000 0.125305
0.966707 1.000000 0.126881
1.000000 1.000000 0.128457
1.000000 1.000000 0.130034
0.117360 1.000000 0.122726
0.259802 1.000000 0.124303
0.402243 1.000000 0.125879
0.544685 1.000000 0.127455
0.687126 1.000000 0.129031
0.829568 1.000000 0.130608
0.972009 1.000000 0.132184
1.000000 1.000000 0.133760
1.000000 1.000000 0.135336
0.075481 0.075481 0.223054
0.217922 0.077057 0.224630
0.360364 0.078633 0.226206
0.502805 0.080209 0.227783
0.645247 0.081786 0.229359
0.787688 0.083362 0.230935
0.930130 0.084938 0.232511
1.000000 0.086514 0.234087
1.000000 0.088090 0.235664
0.080783 0.221649 0.228356
0.223225 0.223225 0.229933
0.365666 0.224801 0.231509
0.508108 0.226377 0.233085
0.650549 0.227953 0.234661
0.792991 0.229530 0.236238
0.935432 0.231106 0.237814
1.000000 0.232682 0.239390
1.000000 0.234258 0.240966
0.086086 0.367816 0.233659
0.228527 0.369393 0.235235
0.370969 0.370969 0.236811
0.513410 0.372545 0.238388
0.655852 0.374121 0.239964
0.798293 0.375697 0.241540
0.940735 0.377274 0.243116
1.000000 0.378850 0.244692
1.000000 0.380426 0.246269
0.091388 0.513984 0.238961
0.233830 0.515560 0.240538
0.376271 0.517137 0.242114
0.518713 0.518713 0.243690
0.661154 0.520289 0.245266
0.803596 0.521865 0.246842
0.946037 0.523441 0.248419
1.000000 0.525018 0.249995
1.000000 0.526594 0.251571
0.096691 0.660152 0.244264
0.239132 0.661728 0.245840
0.381574 0.663304 0.247416
0.524015 0.664881 0.248992
0.666457 0.666457 0.250569
0.808898 0.668033 0.252145
0.951340 0.669609 0.253721
1.000000 0.671185 0.255297
1.000000 0.672762 0.256874
0.101993 0.806320 0.249566
0.244435 0.807896 0.251143
0.386876 0.809472 0.252719
0.529318 0.811048 0.254295
0.671759 0.812624 0.255871
0.814201 0.814201 0.257447
0.956642 0.815777 0.259024
1.000000 0.817353 0.260600
1.000000 0.818929 0.262176
0.107296 0.952487 0.254869
0.249737 0.954064 0.256445
0.392179 0.955640 0.258021
0.534620 0.957216 0.259597
0.677062 0.958792 0.261174
0.819503 0.960368 0.262750
0.961945 0.961945 0.264326
1.000000 0.963521 0.265902
1.000000 0.965097 0.267478
0.112598 1.000000 0.260171
0.255040 1.000000 0.261747
0.397481 1.000000 0.263324
0.539923 1.000000 0.264900
0.682364 1.000000 0.266476
0.824806 1.000000 0.268052
0.967247 1.000000 0.269629
1.000000 1.000000 0.271205
1.000000 1.000000 0.272781
0.117901 1.000000 0.265474
0.260342 1.000000 0.267050
0.402784 1.000000 0.268626
0.545225 1.000000 0.270202
0.687667 1.000000 0.271779
0.830108 1.000000 0.273355
0.972550 1.000000 0.274931
1.000000 1.000000 0.276507
1.000000 1.000000 0.278083
0.076021 0.076021 0.365801
0.218463 0.077597 0.367377
0.360904 0.079174 0.368954
0.503346 0.080750 0.370530
0.645787 0.082326 0.372106
0.788229 0.083902 0.373682
0.930670 0.085478 0.375259
1.000000 0.087055 0.376835
1.000000 0.088631 0.378411
0.081324 0.222189 0.371104
0.223765 0.223765 0.372680
0.366207 0.225341 0.374256
0.508648 0.226918 0.375832
0.651090 0.228494 0.377409
0.793531 0.230070 0.378985
0.935973 0.231646 0.380561
1.000000 0.233222 0.382137
1.000000 0.234799 0.383713
0.086626 0.368357 0.376406
0.229068 0.369933 0.377982
0.371509 0.371509 0.379559
0.513951 0.373085 0.381135
0.656392 0.374662 0.382711
0.798834 0.376238 0.384287
0.941275 0.377814 0.385863
1.000000 0.379390 0.387440
1.000000 0.380966 0.389016
0.091929 0.514525 0.381709
0.234370 0.516101 0.383285
0.376812 0.517677 0.384861
0.519253 0.519253 0.386437
0.661695 0.520829 0.388013
0.804136 0.522406 0.389590
0.946578 0.523982 0.391166
1.000000 0.525558 0.392742
1.000000 0.527134 0.394318
0.097231 0.660692 0.387011
0.239673 0.662268 0.388587
0.382114 0.663845 0.390164
0.524556 0.665421 0.391740
0.666997 0.666997 0.393316
0.809439 0.668573 0.394892
0.951880 0.670150 0.396468
1.000000 0.671726 0.398045
1.000000 0.673302 0.399621
0.102534 0.806860 0.392314
0.244975 0.808436 0.393890
0.387417 0.810012 0.395466
0.529858 0.811589 0.397042
0.672300 0.813165 0.398618
0.814741 0.814741 0.400195
0.957183 0.816317 0.401771
1.000000 0.817893 0.403347
1.000000 0.819470 0.404923
0.107836 0.953028 0.397616
0.250278 0.954604 0.399192
0.392719 0.956180 0.400768
0.535161 0.957756 0.402345
0.677602 0.959333 0.403921
0.820044 0.960909 0.405497
0.962485 0.962485 0.407073
1.000000 0.964061 0.408650
1.000000 0.965637 0.410226
0.113138 1.000000 0.402919
0.255580 1.000000 0.404495
0.398021 1.000000 0.406071
0.540463 1.000000 0.407647
0.682905 1.000000 0.409223
0.825346 1.000000 0.410800
0.967788 1.000000 0.412376
1.000000 1.000000 0.413952
1.000000 1.000000 0.415528
0.118441 1.000000 0.408221
0.260882 1.000000 0.409797
0.403324 1.000000 0.411373
0.545765 1.000000 0.412950
0.688207 1.000000 0.414526
0.830648 1.000000 0.416102
0.973090 1.000000 0.417678
1.000000 1.000000 0.419254
1.000000 1.000000 0.420831
0.076562 0.076562 0.508549
0.219003 0.078138 0.510125
0.361445 0.079714 0.511701
0.503886 0.081290 0.513277
0.646328 0.082866 0.514853
0.788769 0.084443 0.516430
0.931211 0.086019 0.518006
1.000000 0.087595 0.519582
1.000000 0.089171 0.521158
0.081864 0.222729 0.513851
0.224306 0.224306 0.515427
0.366747 0.225882 0.517003
0.509189 0.227458 0.518580
0.651630 0.229034 0.520156
0.794072 0.230610 0.521732
0.936513 0.232187 0.523308
1.000000 0.233763 0.524884
1.000000 0.235339 0.526461
0.087167 0.368897 0.519153
0.229608 0.370473 0.520730
0.372050 0.372050 0.522306
0.514491 0.373626 0.523882
0.656933 0.375202 0.525458
0.799374 0.376778 0.527034
0.941816 0.378354 0.528611
1.000000 0.379931 0.530187
1.000000 0.381507 0.531763
0.092469 0.515065 0.524456
0.234911 0.516641 0.526032
0.377352 0.518217 0.527608
0.519794 0.519794 0.529185
0.662235 0.521370 0.530761
0.804677 0.522946 0.532337
0.947118 0.524522 0.533913
1.000000 0.526098 0.535489
1.000000 0.527675 0.537066
0.097771 0.661233 0.529758
0.240213 0.662809 0.531335
0.382654 0.664385 0.532911
0.525096 0.665961 0.534487
0.667537 0.667537 0.536063
0.809979 0.669114 0.537639
0.952421 0.670690 0.539216
1.000000 0.672266 0.540792
1.000000 0.673842 0.542368
0.103074 0.807400 0.535061
0.245515 0.808977 0.536637
0.387957 0.810553 0.538213
0.530398 0.812129 0.539789
0.672840 0.813705 0.541366
0.815281 0.815281 0.542942
0.957723 0.816858 0.544518
1.000000 0.818434 0.546094
1.000000 0.820010 0.547671
0.108376 0.953568 0.540363
0.250818 0.955144 0.541940
0.393259 0.956721 0.543516
0.535701 0.958297 0.545092
0.678142 0.959873 0.546668
0.820584 0.961449 0.548244
0.963025 0.963025 0.549821
1.000000 0.964602 0.551397
1.000000 0.966178 0.552973
0.113679 1.000000 0.545666
0.256120 1.000000 0.547242
0.398562 1.000000 0.548818
0.541003 1.000000 0.550394
0.683445 1.000000 0.551971
0.825886 1.000000 0.553547
0.968328 1.000000 0.555123
1.000000 1.000000 0.556699
1.000000 1.000000 0.558275
0.118981 1.000000 0.550968
0.261423 1.000000 0.552544
0.403864 1.000000 0.554121
0.546306 1.000000 0.555697
0.688747 1.000000 0.557273
0.831189 1.000000 0.558849
0.973630 1.000000 0.560425
1.000000 1.000000 0.562002
1.000000 1.000000 0.563578
0.077102 0.077102 0.651296
0.219543 0.078678 0.652872
0.361985 0.080254 0.654448
0.504427 0.081831 0.656024
0.646868 0.083407 0.657601
0.789310 0.084983 0.659177
0.931751 0.086559 0.660753
1.000000 0.088135 0.662329
1.000000 0.089712 0.663905
0.082404 0.223270 0.656598
0.224846 0.224846 0.658174
0.367287 0.226422 0.659751
0.509729 0.227998 0.661327
0.652170 0.229575 0.662903
0.794612 0.231151 0.664479
0.937053 0.232727 0.666055
1.000000 0.234303 0.667632
1.000000 0.235879 0.669208
0.087707 0.369438 0.661901
0.230148 0.371014 0.663477
0.372590 0.372590 0.665053
0.515031 0.374166 0.666629
0.657473 0.375742 0.668206
0.799914 0.377319 0.669782
0.942356 0.378895 0.671358
1.000000 0.380471 0.672934
1.000000 0.382047 0.674510
0.093009 0.515605 0.667203
0.235451 0.517181 0.668779
0.377892 0.518758 0.670356
0.520334 0.520334 0.671932
0.662775 0.521910 0.673508
0.805217 0.523486 0.675084
0.947658 0.525063 0.676660
1.000000 0.526639 0.678237
1.000000 0.528215 0.679813
0.098312 0.661773 0.672506
0.240753 0.663349 0.674082
0.383195 0.664925 0.675658
0.525636 0.666502 0.677234
0.668078 0.668078 0.678810
0.810519 0.669654 0.680387
0.952961 0.671230 0.681963
1.000000 0.672807 0.683539
1.000000 0.674383 0.685115
0.103614 0.807941 0.677808
0.246056 0.809517 0.679384
0.388497 0.811093 0.680961
0.530939 0.812669 0.682537
0.673380 0.814246 0.684113
0.815822 0.815822 0.685689
0.958263 0.817398 0.687265
1.000000 0.818974 0.688842
1.000000 0.820550 0.690418
0.108917 0.954109 0.683111
0.251358 0.955685 0.684687
0.393800 0.957261 0.686263
0.536241 0.958837 0.687839
0.678683 0.960413 0.689415
0.821124 0.961990 0.690992
0.963566 0.963566 0.692568
1.000000 0.965142 0.694144
1.000000 0.966718 0.695720
0.114219 1.000000 0.688413
0.256661 1.000000 0.689989
0.399102 1.000000 0.691565
0.541544 1.000000 0.693142
0.683985 1.000000 0.694718
0.826427 1.000000 0.696294
0.968868 1.000000 0.697870
1.000000 1.000000 0.699446
1.000000 1.000000 0.701023
0.119522 1.000000 0.693716
0.261963 1.000000 0.695292
0.404405 1.000000 0.696868
0.546846 1.000000 0.698444
0.689288 1.000000 0.700020
0.831729 1.000000 0.701597
0.974171 1.000000 0.703173
1.000000 1.000000 0.704749
1.000000 1.000000 0.706325
0.077642 0.077642 0.794043
0.220084 0.079219 0.795619
0.362525 0.080795 0.797195
0.504967 0.082371 0.798772
0.647408 0.083947 0.800348
0.789850 0.085523 0.801924
0.932291 0.087100 0.803500
1.000000 0.088676 0.805076
1.000000 0.090252 0.806653
0.082945 0.223810 0.799346
0.225386 0.225386 0.800922
0.367828 0.226963 0.802498
0.510269 0.228539 0.804074
0.652711 0.230115 0.805650
0.795152 0.231691 0.807227
0.937594 0.233267 0.808803
1.000000 0.234844 0.810379
1.000000 0.236420 0.811955
0.088247 0.369978 0.804648
0.230689 0.371554 0.806224
0.373130 0.373130 0.807800
0.515572 0.374707 0.809377
0.658013 0.376283 0.810953
0.800455 0.377859 0.812529
0.942896 0.379435 0.814105
1.000000 0.381011 0.815681
1.000000 0.382588 0.817258
0.093550 0.516146 0.809950
0.235991 0.517722 0.811527
0.378433 0.519298 0.813103
0.520874 0.520874 0.814679
0.663316 0.522451 0.816255
0.805757 0.524027 0.817831
0.948199 0.525603 0.819408
1.000000 0.527179 0.820984
1.000000 0.528755 0.822560
0.098852 0.662313 0.815253
0.241294 0.663890 0.816829
0.383735 0.665466 0.818405
0.526177 0.667042 0.819982
0.668618 0.668618 0.821558
0.811060 0.670194 0.823134
0.953501 0.671771 0.824710
1.000000 0.673347 0.826286
1.000000 0.674923 0.827863
0.104155 0.808481 0.820555
0.246596 0.810057 0.822132
0.389038 0.811634 0.823708
0.531479 0.813210 0.825284
0.673921 0.814786 0.826860
0.816362 0.816362 0.828436
0.958804 0.817938 0.830013
1.000000 0.819515 0.831589
1.000000 0.821091 0.833165
0.109457 0.954649 0.825858
0.251899 0.956225 0.827434
0.394340 0.957801 0.829010
0.536782 0.959378 0.830586
0.679223 0.960954 0.832163
0.821665 0.962530 0.833739
0.964106 0.964106 0.835315
1.000000 0.965682 0.836891
1.000000 0.967259 0.838468
0.114760 1.000000 0.831160
0.257201 1.000000 0.832737
0.399643 1.000000 0.834313
0.542084 1.000000 0.835889
0.684526 1.000000 0.837465
0.826967 1.000000 0.839041
0.969409 1.000000 0.840618
1.000000 1.000000 0.842194
1.000000 1.000000 0.843770
0.120062 1.000000 0.836463
0.262504 1.000000 0.838039
0.404945 1.000000 0.839615
0.547387 1.000000 0.841191
0.689828 1.000000 0.842768
0.832270 1.000000 0.844344
0.974711 1.000000 0.845920
1.000000 1.000000 0.847496
1.000000 1.000000 0.849072
0.078183 0.078183 0.936790
0.220624 0.079759 0.938367
0.363066 0.081335 0.939943
0.505507 0.082911 0.941519
0.647949 0.084488 0.943095
0.790390 0.086064 0.944671
0.932832 0.087640 0.946248
1.000000 0.089216 0.947824
1.000000 0.090792 0.949400
0.083485 0.224351 0.942093
0.225927 0.225927 0.943669
0.368368 0.227503 0.945245
0.510810 0.229079 0.946821
0.653251 0.230655 0.948398
0.795693 0.232232 0.949974
0.938134 0.233808 0.951550
1.000000 0.235384 0.953126
1.000000 0.236960 0.954702
0.088788 0.370518 0.947395
0.231229 0.372094 0.948971
0.373671 0.373671 0.950548
0.516112 0.375247 0.952124
0.658554 0.376823 0.953700
0.800995 0.378399 0.955276
0.943437 0.379976 0.956852
1.000000 0.381552 0.958429
1.000000 0.383128 0.960005
0.094090 0.516686 0.952698
0.236532 0.518262 0.954274
0.378973 0.519838 0.955850
0.521415 0.521415 0.957426
0.663856 0.522991 0.959003
0.806298 0.524567 0.960579
0.948739 0.526143 0.962155
1.000000 0.527720 0.963731
1.000000 0.529296 0.965307
0.099393 0.662854 0.958000
0.241834 0.664430 0.959576
0.384276 0.666006 0.961153
0.526717 0.667582 0.962729
0.669159 0.669159 0.964305
0.811600 0.670735 0.965881
0.954042 0.672311 0.967457
1.000000 0.673887 0.969034
1.000000 0.675463 0.970610
0.104695 0.809022 0.963303
0.247137 0.810598 0.964879
0.389578 0.812174 0.966455
0.532020 0.813750 0.968031
0.674461 0.815326 0.969607
0.816903 0.816903 0.971184
0.959344 0.818479 0.972760
1.000000 0.820055 0.974336
1.000000 0.821631 0.975912
0.109998 0.955189 0.968605
0.252439 0.956766 0.970181
0.394881 0.958342 0.971758
0.537322 0.959918 0.973334
0.679764 0.961494 0.974910
0.822205 0.963070 0.976486
0.964647 0.964647 0.978062
1.000000 0.966223 0.979639
1.000000 0.967799 0.981215
0.115300 1.000000 0.973908
0.257742 1.000000 0.975484
0.400183 1.000000 0.977060
0.542625 1.000000 0.978636
0.685066 1.000000 0.980212
0.827508 1.000000 0.981789
0.969949 1.000000 0.983365
1.000000 1.000000 0.984941
1.000000 1.000000 0.986517
0.120602 1.000000 0.979210
0.263044 1.000000 0.980786
0.405486 1.000000 0.982362
0.547927 1.000000 0.983939
0.690369 1.000000 0.985515
0.832810 1.000000 0.987091
0.975252 1.000000 0.988667
1.000000 1.000000 0.990243
1.000000 1.000000 0.991820
0.078723 0.078723 1.000000
0.221165 0.080299 1.000000
0.363606 0.081876 1.000000
0.506048 0.083452 1.000000
0.648489 0.085028 1.000000
0.790931 0.086604 1.000000
0.933372 0.088180 1.000000
1.000000 0.089757 1.000000
1.000000 0.091333 1.000000
0.084026 0.224891 1.000000
0.226467 0.226467 1.000000
0.368909 0.228043 1.000000
0.511350 0.229620 1.000000
0.653792 0.231196 1.000000
0.796233 0.232772 1.000000
0.938675 0.234348 1.000000
1.000000 0.235924 1.000000
1.000000 0.237501 1.000000
0.089328 0.371059 1.000000
0.231770 0.372635 1.000000
0.374211 0.374211 1.000000
0.516653 0.375787 1.000000
0.659094 0.377364 1.000000
0.801536 0.378940 1.000000
0.943977 0.380516 1.000000
1.000000 0.382092 1.000000
1.000000 0.383668 1.000000
0.094631 0.517226 1.000000
0.237072 0.518803 1.000000
0.379514 0.520379 1.000000
0.521955 0.521955 1.000000
0.664397 0.523531 1.000000
0.806838 0.525107 1.000000
0.949280 0.526684 1.000000
1.000000 0.528260 1.000000
1.000000 0.529836 1.000000
0.099933 0.663394 1.000000
0.242375 0.664970 1.000000
0.384816 0.666547 1.000000
0.527258 0.668123 1.000000
0.669699 0.669699 1.000000
0.812141 0.671275 1.000000
0.954582 0.672851 1.000000
1.000000 0.674428 1.000000
1.000000 0.676004 1.000000
0.105235 0.809562 1.000000
0.247677 0.811138 1.000000
0.390118 0.812714 1.000000
0.532560 0.814291 1.000000
0.675002 0.815867 1.000000
0.817443 0.817443 1.000000
0.959885 0.819019 1.000000
1.000000 0.820595 1.000000
1.000000 0.822172 1.000000
0.110538 0.955730 1.000000
0.252979 0.957306 1.000000
0.395421 0.958882 1.000000
0.537862 0.960458 1.000000
0.680304 0.962035 1.000000
0.822745 0.963611 1.000000
0.965187 0.965187 1.000000
1.000000 0.966763 1.000000
1.000000 0.968339 1.000000
0.115840 1.000000 1.000000
0.258282 1.000000 1.000000
0.400723 1.000000 1.000000
0.543165 1.000000 1.000000
0.685606 1.000000 1.000000
0.828048 1.000000 1.000000
0.970489 1.000000 1.000000
1.000000 1.000000 1.000000
1.000000 1.000000 1.000000
0.121143 1.000000 1.000000
0.263584 1.000000 1.000000
0.406026 1.000000 1.000000
0.548467 1.000000 1.000000
0.690909 1.000000 1.000000
0.833350 1.000000 1.000000
0.975792 1.000000 1.000000
1.000000 1.000000 1.000000
1.000000 1.000000 1.000000
0.079264 0.079264 1.000000
0.221705 0.080840 1.000000
0.364147 0.082416 1.000000
0.506588 0.083992 1.000000
0.649030 0.085568 1.000000
0.791471 0.087145 1.000000
0.933913 0.088721 1.000000
1.000000 0.090297 1.000000
1.000000 0.091873 1.000000
0.084566 0.225431 1.000000
0.227008 0.227008 1.000000
0.369449 0.228584 1.000000
0.511891 0.230160 1.000000
0.654332 0.231736 1.000000
0.796774 0.233312 1.000000
0.939215 0.234889 1.000000
1.000000 0.236465 1.000000
1.000000 0.238041 1.000000
0.089868 0.371599 1.000000
0.232310 0.373175 1.000000
0.374751 0.374751 1.000000
0.517193 0.376328 1.000000
0.659634 0.377904 1.000000
0.802076 0.379480 1.000000
0.944518 0.381056 1.000000
1.000000 0.382633 1.000000
1.000000 0.384209 1.000000
0.095171 0.517767 1.000000
0.237612 0.519343 1.000000
0.380054 0.520919 1.000000
0.522495 0.522495 1.000000
0.664937 0.524072 1.000000
0.807378 0.525648 1.000000
0.949820 0.527224 1.000000
1.000000 0.528800 1.000000
1.000000 0.530376 1.000000
0.100473 0.663935 1.000000
0.242915 0.665511 1.000000
0.385356 0.667087 1.000000
0.527798 0.668663 1.000000
0.670239 0.670239 1.000000
0.812681 0.671816 1.000000
0.955122 0.673392 1.000000
1.000000 0.674968 1.000000
1.000000 0.676544 1.000000
0.105776 0.810102 1.000000
0.248217 0.811679 1.000000
0.390659 0.813255 1.000000
0.533100 0.814831 1.000000
0.675542 0.816407 1.000000
0.817983 0.817983 1.000000
0.960425 0.819560 1.000000
1.000000 0.821136 1.000000
1.000000 0.822712 1.000000
0.111078 0.956270 1.000000
0.253520 0.957846 1.000000
0.395961 0.959423 1.000000
0.538403 0.960999 1.000000
0.680844 0.962575 1.000000
0.823286 0.964151 1.000000
0.965727 0.965727 1.000000
1.000000 0.967304 1.000000
1.000000 0.968880 1.000000
0.116381 1.000000 1.000000
0.258822 1.000000 1.000000
0.401264 1.000000 1.000000
0.543705 1.000000 1.000000
0.686147 1.000000 1.000000
0.828588 1.000000 1.000000
0.971030 1.000000 1.000000
1.000000 1.000000 1.000000
1.000000 1.000000 1.000000
0.121683 1.000000 1.000000
0.264125 1.000000 1.000000
0.406566 1.000000 1.000000
0.549008 1.000000 1.000000
0.691449 1.000000 1.000000
0.833891 1.000000 1.000000
0.976332 1.000000 1.000000
1.000000 1.000000 1.000000
1.000000 1.000000 1.000000
