assets/lighting/cinematic/grade-high-key-commercial/lut.cube
TITLE "High Key Commercial"
# TKRS lighting-batch-001 original LUT
# Intended usage: bright clean product / lobby look
# License: CC0-1.0
LUT_3D_SIZE 5
DOMAIN_MIN 0.0 0.0 0.0
DOMAIN_MAX 1.0 1.0 1.0
0.074940 0.074940 0.080307
0.359823 0.078093 0.083459
0.644706 0.081245 0.086612
0.929589 0.084398 0.089764
1.000000 0.087550 0.092916
0.085545 0.367276 0.090912
0.370428 0.370428 0.094064
0.655311 0.373581 0.097217
0.940194 0.376733 0.100369
1.000000 0.379886 0.103521
0.096150 0.659612 0.101517
0.381033 0.662764 0.104669
0.665916 0.665916 0.107821
0.950799 0.669069 0.110974
1.000000 0.672221 0.114126
0.106755 0.951947 0.112122
0.391638 0.955099 0.115274
0.676521 0.958252 0.118426
0.961404 0.961404 0.121579
1.000000 0.964557 0.124731
0.117360 1.000000 0.122726
0.402243 1.000000 0.125879
0.687126 1.000000 0.129031
0.972009 1.000000 0.132184
1.000000 1.000000 0.135336
0.076021 0.076021 0.365801
0.360904 0.079174 0.368954
0.645787 0.082326 0.372106
0.930670 0.085478 0.375259
1.000000 0.088631 0.378411
0.086626 0.368357 0.376406
0.371509 0.371509 0.379559
0.656392 0.374662 0.382711
0.941275 0.377814 0.385863
1.000000 0.380966 0.389016
0.097231 0.660692 0.387011
0.382114 0.663845 0.390164
0.666997 0.666997 0.393316
0.951880 0.670150 0.396468
1.000000 0.673302 0.399621
0.107836 0.953028 0.397616
0.392719 0.956180 0.400768
0.677602 0.959333 0.403921
0.962485 0.962485 0.407073
1.000000 0.965637 0.410226
0.118441 1.000000 0.408221
0.403324 1.000000 0.411373
0.688207 1.000000 0.414526
0.973090 1.000000 0.417678
1.000000 1.000000 0.420831
0.077102 0.077102 0.651296
0.361985 0.080254 0.654448
0.646868 0.083407 0.657601
0.931751 0.086559 0.660753
1.000000 0.089712 0.663905
0.087707 0.369438 0.661901
0.372590 0.372590 0.665053
0.657473 0.375742 0.668206
0.942356 0.378895 0.671358
1.000000 0.382047 0.674510
0.098312 0.661773 0.672506
0.383195 0.664925 0.675658
0.668078 0.668078 0.678810
0.952961 0.671230 0.681963
1.000000 0.674383 0.685115
0.108917 0.954109 0.683111
0.393800 0.957261 0.686263
0.678683 0.960413 0.689415
0.963566 0.963566 0.692568
1.000000 0.966718 0.695720
0.119522 1.000000 0.693716
0.404405 1.000000 0.696868
0.689288 1.000000 0.700020
0.974171 1.000000 0.703173
1.000000 1.000000 0.706325
0.078183 0.078183 0.936790
0.363066 0.081335 0.939943
0.647949 0.084488 0.943095
0.932832 0.087640 0.946248
1.000000 0.090792 0.949400
0.088788 0.370518 0.947395
0.373671 0.373671 0.950548
0.658554 0.376823 0.953700
0.943437 0.379976 0.956852
1.000000 0.383128 0.960005
0.099393 0.662854 0.958000
0.384276 0.666006 0.961153
0.669159 0.669159 0.964305
0.954042 0.672311 0.967457
1.000000 0.675463 0.970610
0.109998 0.955189 0.968605
0.394881 0.958342 0.971758
0.679764 0.961494 0.974910
0.964647 0.964647 0.978062
1.000000 0.967799 0.981215
0.120602 1.000000 0.979210
0.405486 1.000000 0.982362
0.690369 1.000000 0.985515
0.975252 1.000000 0.988667
1.000000 1.000000 0.991820
0.079264 0.079264 1.000000
0.364147 0.082416 1.000000
0.649030 0.085568 1.000000
0.933913 0.088721 1.000000
1.000000 0.091873 1.000000
0.089868 0.371599 1.000000
0.374751 0.374751 1.000000
0.659634 0.377904 1.000000
0.944518 0.381056 1.000000
1.000000 0.384209 1.000000
0.100473 0.663935 1.000000
0.385356 0.667087 1.000000
0.670239 0.670239 1.000000
0.955122 0.673392 1.000000
1.000000 0.676544 1.000000
0.111078 0.956270 1.000000
0.395961 0.959423 1.000000
0.680844 0.962575 1.000000
0.965727 0.965727 1.000000
1.000000 0.968880 1.000000
0.121683 1.000000 1.000000
0.406566 1.000000 1.000000
0.691449 1.000000 1.000000
0.976332 1.000000 1.000000
1.000000 1.000000 1.000000
