assets/lighting/cinematic/grade-fog-muted/lut.cube
TITLE "Fog Muted"
# TKRS lighting-batch-001 original LUT
# Intended usage: low-contrast fog / mist exterior
# License: CC0-1.0
LUT_3D_SIZE 17
DOMAIN_MIN 0.0 0.0 0.0
DOMAIN_MAX 1.0 1.0 1.0
0.185660 0.190186 0.197284
0.214450 0.193760 0.200858
0.242554 0.197249 0.204347
0.270216 0.200683 0.207781
0.297552 0.204077 0.211174
0.324631 0.207438 0.214536
0.351497 0.210773 0.217871
0.378182 0.214086 0.221184
0.404709 0.217379 0.224477
0.431097 0.220655 0.227752
0.457360 0.223915 0.231013
0.483510 0.227161 0.234259
0.509557 0.230395 0.237492
0.535509 0.233616 0.240714
0.561373 0.236827 0.243925
0.587156 0.240028 0.247125
0.612862 0.243219 0.250316
0.197910 0.228131 0.209535
0.226700 0.231705 0.213109
0.254804 0.235194 0.216598
0.282467 0.238628 0.220032
0.309803 0.242021 0.223425
0.336882 0.245383 0.226787
0.363748 0.248718 0.230122
0.390432 0.252031 0.233434
0.416960 0.255324 0.236727
0.443348 0.258599 0.240003
0.469611 0.261860 0.243263
0.495761 0.265106 0.246510
0.521808 0.268339 0.249743
0.547760 0.271561 0.252965
0.573624 0.274772 0.256176
0.599407 0.277972 0.259376
0.625113 0.281164 0.262567
0.209890 0.265236 0.221515
0.238680 0.268810 0.225089
0.266784 0.272299 0.228577
0.294446 0.275733 0.232011
0.321783 0.279126 0.235405
0.348862 0.282488 0.238766
0.375727 0.285823 0.242102
0.402412 0.289136 0.245414
0.428939 0.292429 0.248707
0.455327 0.295705 0.251983
0.481590 0.298965 0.255243
0.507741 0.302211 0.258489
0.533787 0.305444 0.261723
0.559740 0.308666 0.264945
0.585604 0.311877 0.268155
0.611386 0.315077 0.271356
0.637093 0.318269 0.274547
0.221691 0.301786 0.233315
0.250481 0.305360 0.236889
0.278585 0.308848 0.240378
0.306247 0.312282 0.243812
0.333583 0.315676 0.247205
0.360662 0.319037 0.250567
0.387528 0.322372 0.253902
0.414213 0.325685 0.257214
0.440740 0.328978 0.260507
0.467128 0.332254 0.263783
0.493391 0.335514 0.267044
0.519541 0.338760 0.270290
0.545588 0.341994 0.273523
0.571540 0.345215 0.276745
0.597404 0.348426 0.279956
0.623187 0.351627 0.283156
0.648893 0.354818 0.286347
0.233357 0.337920 0.244981
0.262147 0.341494 0.248555
0.290251 0.344983 0.252044
0.317913 0.348416 0.255478
0.345249 0.351810 0.258872
0.372328 0.355172 0.262233
0.399194 0.358507 0.265568
0.425879 0.361819 0.268881
0.452406 0.365112 0.272174
0.478794 0.368388 0.275450
0.505057 0.371648 0.278710
0.531207 0.374895 0.281956
0.557254 0.378128 0.285189
0.583206 0.381350 0.288411
0.609070 0.384560 0.291622
0.634853 0.387761 0.294823
0.660559 0.390952 0.298014
0.244916 0.373723 0.256541
0.273706 0.377297 0.260115
0.301810 0.380786 0.263604
0.329472 0.384220 0.267037
0.356809 0.387613 0.270431
0.383888 0.390975 0.273792
0.410754 0.394310 0.277128
0.437438 0.397623 0.280440
0.463966 0.400916 0.283733
0.490353 0.404191 0.287009
0.516616 0.407452 0.290269
0.542767 0.410698 0.293516
0.568814 0.413931 0.296749
0.594766 0.417153 0.299971
0.620630 0.420364 0.303181
0.646413 0.423564 0.306382
0.672119 0.426755 0.309573
0.256387 0.409252 0.268012
0.285177 0.412826 0.271585
0.313281 0.416314 0.275074
0.340943 0.419748 0.278508
0.368280 0.423142 0.281902
0.395358 0.426503 0.285263
0.422224 0.429839 0.288598
0.448909 0.433151 0.291911
0.475436 0.436444 0.295204
0.501824 0.439720 0.298480
0.528087 0.442980 0.301740
0.554237 0.446226 0.304986
0.580284 0.449460 0.308220
0.606236 0.452682 0.311441
0.632101 0.455892 0.314652
0.657883 0.459093 0.317853
0.683590 0.462284 0.321044
0.267782 0.444546 0.279407
0.296572 0.448120 0.282981
0.324676 0.451608 0.286469
0.352338 0.455042 0.289903
0.379675 0.458436 0.293297
0.406753 0.461797 0.296658
0.433619 0.465132 0.299993
0.460304 0.468445 0.303306
0.486831 0.471738 0.306599
0.513219 0.475014 0.309875
0.539482 0.478274 0.313135
0.565632 0.481520 0.316381
0.591679 0.484754 0.319615
0.617631 0.487975 0.322836
0.643496 0.491186 0.326047
0.669278 0.494387 0.329248
0.694985 0.497578 0.332439
0.279111 0.479635 0.290735
0.307901 0.483209 0.294309
0.336005 0.486698 0.297798
0.363667 0.490132 0.301232
0.391004 0.493525 0.304626
0.418082 0.496887 0.307987
0.444948 0.500222 0.311322
0.471633 0.503534 0.314635
0.498160 0.506827 0.317928
0.524548 0.510103 0.321204
0.550811 0.513363 0.324464
0.576961 0.516610 0.327710
0.603008 0.519843 0.330944
0.628960 0.523065 0.334165
0.654825 0.526276 0.337376
0.680607 0.529476 0.340577
0.706313 0.532667 0.343768
0.290381 0.514543 0.302006
0.319171 0.518117 0.305580
0.347275 0.521606 0.309069
0.374938 0.525040 0.312503
0.402274 0.528433 0.315896
0.429353 0.531795 0.319258
0.456219 0.535130 0.322593
0.482903 0.538442 0.325905
0.509431 0.541735 0.329198
0.535819 0.545011 0.332474
0.562082 0.548271 0.335734
0.588232 0.551518 0.338981
0.614279 0.554751 0.342214
0.640231 0.557973 0.345436
0.666095 0.561183 0.348646
0.691878 0.564384 0.351847
0.717584 0.567575 0.355038
0.301599 0.549288 0.313224
0.330389 0.552862 0.316798
0.358493 0.556351 0.320286
0.386155 0.559785 0.323720
0.413492 0.563178 0.327114
0.440571 0.566540 0.330475
0.467437 0.569875 0.333811
0.494121 0.573188 0.337123
0.520648 0.576481 0.340416
0.547036 0.579756 0.343692
0.573299 0.583017 0.346952
0.599450 0.586263 0.350198
0.625497 0.589496 0.353432
0.651449 0.592718 0.356654
0.677313 0.595929 0.359864
0.703096 0.599129 0.363065
0.728802 0.602321 0.366256
0.312770 0.583886 0.324394
0.341560 0.587460 0.327968
0.369664 0.590949 0.331457
0.397326 0.594383 0.334891
0.424662 0.597776 0.338284
0.451741 0.601138 0.341646
0.478607 0.604473 0.344981
0.505292 0.607785 0.348293
0.531819 0.611078 0.351586
0.558207 0.614354 0.354862
0.584470 0.617614 0.358122
0.610620 0.620861 0.361369
0.636667 0.624094 0.364602
0.662619 0.627316 0.367824
0.688483 0.630527 0.371035
0.714266 0.633727 0.374235
0.739972 0.636918 0.377426
0.323896 0.618349 0.335521
0.352686 0.621923 0.339095
0.380790 0.625412 0.342583
0.408452 0.628846 0.346017
0.435789 0.632239 0.349411
0.462868 0.635601 0.352772
0.489734 0.638936 0.356108
0.516418 0.642248 0.359420
0.542945 0.645541 0.362713
0.569333 0.648817 0.365989
0.595596 0.652077 0.369249
0.621747 0.655324 0.372495
0.647794 0.658557 0.375729
0.673746 0.661779 0.378951
0.699610 0.664989 0.382161
0.725392 0.668190 0.385362
0.751099 0.671381 0.388553
0.334983 0.652688 0.346607
0.363773 0.656262 0.350181
0.391877 0.659750 0.353670
0.419539 0.663184 0.357104
0.446875 0.666578 0.360498
0.473954 0.669939 0.363859
0.500820 0.673275 0.367194
0.527505 0.676587 0.370507
0.554032 0.679880 0.373800
0.580420 0.683156 0.377076
0.606683 0.686416 0.380336
0.632833 0.689662 0.383582
0.658880 0.692896 0.386816
0.684832 0.696118 0.390037
0.710697 0.699328 0.393248
0.736479 0.702529 0.396449
0.762185 0.705720 0.399640
0.346032 0.686912 0.357657
0.374822 0.690485 0.361231
0.402926 0.693974 0.364720
0.430589 0.697408 0.368154
0.457925 0.700802 0.371547
0.485004 0.704163 0.374909
0.511870 0.707498 0.378244
0.538554 0.710811 0.381556
0.565082 0.714104 0.384849
0.591469 0.717380 0.388125
0.617733 0.720640 0.391385
0.643883 0.723886 0.394632
0.669930 0.727120 0.397865
0.695882 0.730341 0.401087
0.721746 0.733552 0.404297
0.747529 0.736753 0.407498
0.773235 0.739944 0.410689
0.357047 0.721028 0.368672
0.385837 0.724602 0.372246
0.413941 0.728091 0.375735
0.441604 0.731525 0.379168
0.468940 0.734918 0.382562
0.496019 0.738280 0.385924
0.522885 0.741615 0.389259
0.549569 0.744928 0.392571
0.576097 0.748221 0.395864
0.602484 0.751497 0.399140
0.628748 0.754757 0.402400
0.654898 0.758003 0.405647
0.680945 0.761236 0.408880
0.706897 0.764458 0.412102
0.732761 0.767669 0.415312
0.758544 0.770870 0.418513
0.784250 0.774061 0.421704
0.368030 0.755045 0.379654
0.396820 0.758619 0.383228
0.424924 0.762108 0.386717
0.452586 0.765542 0.390151
0.479923 0.768935 0.393545
0.507001 0.772297 0.396906
0.533867 0.775632 0.400241
0.560552 0.778944 0.403554
0.587079 0.782237 0.406847
0.613467 0.785513 0.410123
0.639730 0.788773 0.413383
0.665880 0.792020 0.416629
0.691927 0.795253 0.419863
0.717879 0.798475 0.423084
0.743744 0.801686 0.426295
0.769526 0.804886 0.429496
0.795232 0.808077 0.432687
0.186981 0.191508 0.226067
0.215771 0.195082 0.229641
0.243875 0.198571 0.233129
0.271538 0.202005 0.236563
0.298874 0.205398 0.239957
0.325953 0.208760 0.243318
0.352819 0.212095 0.246654
0.379503 0.215408 0.249966
0.406031 0.218701 0.253259
0.432418 0.221976 0.256535
0.458682 0.225237 0.259795
0.484832 0.228483 0.263041
0.510879 0.231716 0.266275
0.536831 0.234938 0.269497
0.562695 0.238149 0.272707
0.588478 0.241349 0.275908
0.614184 0.244541 0.279099
0.199232 0.229453 0.238318
0.228022 0.233027 0.241891
0.256126 0.236516 0.245380
0.283788 0.239950 0.248814
0.311125 0.243343 0.252208
0.338204 0.246705 0.255569
0.365069 0.250040 0.258904
0.391754 0.253352 0.262217
0.418281 0.256645 0.265510
0.444669 0.259921 0.268786
0.470932 0.263181 0.272046
0.497083 0.266428 0.275292
0.523130 0.269661 0.278526
0.549082 0.272883 0.281747
0.574946 0.276094 0.284958
0.600728 0.279294 0.288159
0.626435 0.282485 0.291350
0.211212 0.266558 0.250297
0.240002 0.270132 0.253871
0.268106 0.273621 0.257360
0.295768 0.277055 0.260794
0.323105 0.280448 0.264187
0.350183 0.283810 0.267549
0.377049 0.287145 0.270884
0.403734 0.290457 0.274197
0.430261 0.293751 0.277490
0.456649 0.297026 0.280766
0.482912 0.300287 0.284026
0.509062 0.303533 0.287272
0.535109 0.306766 0.290505
0.561061 0.309988 0.293727
0.586926 0.313199 0.296938
0.612708 0.316399 0.300139
0.638414 0.319590 0.303330
0.223012 0.303107 0.262098
0.251802 0.306681 0.265672
0.279906 0.310170 0.269160
0.307569 0.313604 0.272594
0.334905 0.316998 0.275988
0.361984 0.320359 0.279349
0.388850 0.323694 0.282684
0.415534 0.327007 0.285997
0.442062 0.330300 0.289290
0.468449 0.333576 0.292566
0.494713 0.336836 0.295826
0.520863 0.340082 0.299072
0.546910 0.343316 0.302306
0.572862 0.346537 0.305527
0.598726 0.349748 0.308738
0.624509 0.352949 0.311939
0.650215 0.356140 0.315130
0.234679 0.339242 0.273764
0.263469 0.342816 0.277338
0.291573 0.346304 0.280827
0.319235 0.349738 0.284261
0.346571 0.353132 0.287654
0.373650 0.356493 0.291016
0.400516 0.359828 0.294351
0.427201 0.363141 0.297663
0.453728 0.366434 0.300956
0.480116 0.369710 0.304232
0.506379 0.372970 0.307492
0.532529 0.376216 0.310739
0.558576 0.379450 0.313972
0.584528 0.382671 0.317194
0.610392 0.385882 0.320405
0.636175 0.389083 0.323605
0.661881 0.392274 0.326796
0.246238 0.375045 0.285323
0.275028 0.378619 0.288897
0.303132 0.382108 0.292386
0.330794 0.385542 0.295820
0.358131 0.388935 0.299214
0.385209 0.392297 0.302575
0.412075 0.395632 0.305910
0.438760 0.398944 0.309223
0.465287 0.402237 0.312516
0.491675 0.405513 0.315792
0.517938 0.408773 0.319052
0.544088 0.412020 0.322298
0.570135 0.415253 0.325532
0.596087 0.418475 0.328753
0.621952 0.421685 0.331964
0.647734 0.424886 0.335165
0.673441 0.428077 0.338356
0.257709 0.410573 0.296794
0.286499 0.414147 0.300368
0.314603 0.417636 0.303857
0.342265 0.421070 0.307291
0.369601 0.424464 0.310684
0.396680 0.427825 0.314046
0.423546 0.431160 0.317381
0.450231 0.434473 0.320694
0.476758 0.437766 0.323987
0.503146 0.441042 0.327262
0.529409 0.444302 0.330523
0.555559 0.447548 0.333769
0.581606 0.450782 0.337002
0.607558 0.454003 0.340224
0.633423 0.457214 0.343435
0.659205 0.460415 0.346635
0.684911 0.463606 0.349827
0.269104 0.445867 0.308189
0.297894 0.449441 0.311763
0.325998 0.452930 0.315252
0.353660 0.456364 0.318686
0.380996 0.459758 0.322079
0.408075 0.463119 0.325441
0.434941 0.466454 0.328776
0.461626 0.469767 0.332089
0.488153 0.473060 0.335382
0.514541 0.476336 0.338657
0.540804 0.479596 0.341918
0.566954 0.482842 0.345164
0.593001 0.486076 0.348397
0.618953 0.489297 0.351619
0.644818 0.492508 0.354830
0.670600 0.495709 0.358030
0.696306 0.498900 0.361222
0.280433 0.480957 0.319518
0.309223 0.484531 0.323092
0.337327 0.488019 0.326581
0.364989 0.491453 0.330015
0.392325 0.494847 0.333408
0.419404 0.498208 0.336770
0.446270 0.501544 0.340105
0.472955 0.504856 0.343418
0.499482 0.508149 0.346711
0.525870 0.511425 0.349986
0.552133 0.514685 0.353247
0.578283 0.517931 0.356493
0.604330 0.521165 0.359726
0.630282 0.524387 0.362948
0.656146 0.527597 0.366159
0.681929 0.530798 0.369359
0.707635 0.533989 0.372550
0.291703 0.515865 0.330788
0.320493 0.519439 0.334362
0.348597 0.522927 0.337851
0.376259 0.526361 0.341285
0.403596 0.529755 0.344679
0.430675 0.533116 0.348040
0.457540 0.536451 0.351375
0.484225 0.539764 0.354688
0.510752 0.543057 0.357981
0.537140 0.546333 0.361257
0.563403 0.549593 0.364517
0.589553 0.552839 0.367763
0.615600 0.556073 0.370997
0.641553 0.559295 0.374218
0.667417 0.562505 0.377429
0.693199 0.565706 0.380630
0.718906 0.568897 0.383821
0.302921 0.550610 0.342006
0.331711 0.554184 0.345580
0.359815 0.557673 0.349069
0.387477 0.561107 0.352503
0.414814 0.564500 0.355897
0.441892 0.567862 0.359258
0.468758 0.571197 0.362593
0.495443 0.574509 0.365906
0.521970 0.577802 0.369199
0.548358 0.581078 0.372475
0.574621 0.584338 0.375735
0.600771 0.587585 0.378981
0.626818 0.590818 0.382215
0.652770 0.594040 0.385436
0.678635 0.597251 0.388647
0.704417 0.600451 0.391848
0.730124 0.603642 0.395039
0.314091 0.585208 0.353177
0.342881 0.588782 0.356751
0.370985 0.592270 0.360239
0.398647 0.595704 0.363673
0.425984 0.599098 0.367067
0.453063 0.602459 0.370428
0.479929 0.605795 0.373763
0.506613 0.609107 0.377076
0.533141 0.612400 0.380369
0.559528 0.615676 0.383645
0.585791 0.618936 0.386905
0.611942 0.622182 0.390151
0.637989 0.625416 0.393385
0.663941 0.628638 0.396606
0.689805 0.631848 0.399817
0.715588 0.635049 0.403018
0.741294 0.638240 0.406209
0.325218 0.619671 0.364303
0.354008 0.623245 0.367877
0.382112 0.626733 0.371366
0.409774 0.630167 0.374800
0.437111 0.633561 0.378194
0.464189 0.636922 0.381555
0.491055 0.640257 0.384890
0.517740 0.643570 0.388203
0.544267 0.646863 0.391496
0.570655 0.650139 0.394772
0.596918 0.653399 0.398032
0.623068 0.656645 0.401278
0.649115 0.659879 0.404512
0.675067 0.663101 0.407733
0.700932 0.666311 0.410944
0.726714 0.669512 0.414145
0.752420 0.672703 0.417336
0.336305 0.654009 0.375390
0.365095 0.657583 0.378964
0.393199 0.661072 0.382453
0.420861 0.664506 0.385887
0.448197 0.667900 0.389280
0.475276 0.671261 0.392642
0.502142 0.674596 0.395977
0.528827 0.677909 0.399289
0.555354 0.681202 0.402582
0.581742 0.684478 0.405858
0.608005 0.687738 0.409118
0.634155 0.690984 0.412365
0.660202 0.694218 0.415598
0.686154 0.697439 0.418820
0.712018 0.700650 0.422031
0.737801 0.703851 0.425231
0.763507 0.707042 0.428422
0.347354 0.688233 0.386439
0.376144 0.691807 0.390013
0.404248 0.695296 0.393502
0.431910 0.698730 0.396936
0.459247 0.702124 0.400330
0.486326 0.705485 0.403691
0.513191 0.708820 0.407026
0.539876 0.712133 0.410339
0.566403 0.715426 0.413632
0.592791 0.718702 0.416908
0.619054 0.721962 0.420168
0.645204 0.725208 0.423414
0.671251 0.728441 0.426648
0.697204 0.731663 0.429869
0.723068 0.734874 0.433080
0.748850 0.738075 0.436281
0.774557 0.741266 0.439472
0.358369 0.722350 0.397454
0.387159 0.725924 0.401028
0.415263 0.729413 0.404517
0.442925 0.732847 0.407951
0.470262 0.736240 0.411345
0.497340 0.739602 0.414706
0.524206 0.742937 0.418041
0.550891 0.746250 0.421354
0.577418 0.749543 0.424647
0.603806 0.752818 0.427923
0.630069 0.756079 0.431183
0.656219 0.759325 0.434429
0.682266 0.762558 0.437663
0.708218 0.765780 0.440884
0.734083 0.768991 0.444095
0.759865 0.772191 0.447296
0.785572 0.775382 0.450487
0.369352 0.756367 0.408437
0.398142 0.759941 0.412011
0.426246 0.763429 0.415500
0.453908 0.766863 0.418934
0.481244 0.770257 0.422327
0.508323 0.773618 0.425689
0.535189 0.776954 0.429024
0.561874 0.780266 0.432336
0.588401 0.783559 0.435630
0.614789 0.786835 0.438905
0.641052 0.790095 0.442166
0.667202 0.793341 0.445412
0.693249 0.796575 0.448645
0.719201 0.799797 0.451867
0.745065 0.803007 0.455078
0.770848 0.806208 0.458278
0.796554 0.809399 0.461469
0.188260 0.192787 0.253917
0.217050 0.196361 0.257491
0.245154 0.199850 0.260979
0.272817 0.203284 0.264413
0.300153 0.206677 0.267807
0.327232 0.210039 0.271168
0.354098 0.213374 0.274504
0.380782 0.216687 0.277816
0.407310 0.219980 0.281109
0.433697 0.223255 0.284385
0.459961 0.226516 0.287645
0.486111 0.229762 0.290891
0.512158 0.232995 0.294125
0.538110 0.236217 0.297347
0.563974 0.239428 0.300557
0.589757 0.242628 0.303758
0.615463 0.245820 0.306949
0.200511 0.230732 0.266168
0.229301 0.234306 0.269741
0.257405 0.237795 0.273230
0.285067 0.241229 0.276664
0.312404 0.244622 0.280058
0.339483 0.247984 0.283419
0.366348 0.251319 0.286754
0.393033 0.254631 0.290067
0.419560 0.257924 0.293360
0.445948 0.261200 0.296636
0.472211 0.264460 0.299896
0.498361 0.267707 0.303142
0.524408 0.270940 0.306376
0.550361 0.274162 0.309597
0.576225 0.277372 0.312808
0.602007 0.280573 0.316009
0.627714 0.283764 0.319200
0.212491 0.267837 0.278147
0.241281 0.271411 0.281721
0.269385 0.274900 0.285210
0.297047 0.278334 0.288644
0.324384 0.281727 0.292038
0.351462 0.285089 0.295399
0.378328 0.288424 0.298734
0.405013 0.291736 0.302047
0.431540 0.295029 0.305340
0.457928 0.298305 0.308616
0.484191 0.301566 0.311876
0.510341 0.304812 0.315122
0.536388 0.308045 0.318355
0.562340 0.311267 0.321577
0.588205 0.314478 0.324788
0.613987 0.317678 0.327989
0.639693 0.320869 0.331180
0.224291 0.304386 0.289948
0.253081 0.307960 0.293522
0.281185 0.311449 0.297010
0.308847 0.314883 0.300444
0.336184 0.318277 0.303838
0.363263 0.321638 0.307199
0.390129 0.324973 0.310534
0.416813 0.328286 0.313847
0.443340 0.331579 0.317140
0.469728 0.334855 0.320416
0.495991 0.338115 0.323676
0.522142 0.341361 0.326922
0.548189 0.344595 0.330156
0.574141 0.347816 0.333377
0.600005 0.351027 0.336588
0.625788 0.354228 0.339789
0.651494 0.357419 0.342980
0.235958 0.340521 0.301614
0.264748 0.344094 0.305188
0.292852 0.347583 0.308677
0.320514 0.351017 0.312111
0.347850 0.354411 0.315504
0.374929 0.357772 0.318866
0.401795 0.361107 0.322201
0.428480 0.364420 0.325513
0.455007 0.367713 0.328806
0.481395 0.370989 0.332082
0.507658 0.374249 0.335342
0.533808 0.377495 0.338589
0.559855 0.380729 0.341822
0.585807 0.383950 0.345044
0.611671 0.387161 0.348255
0.637454 0.390362 0.351455
0.663160 0.393553 0.354646
0.247517 0.376324 0.313173
0.276307 0.379898 0.316747
0.304411 0.383387 0.320236
0.332073 0.386821 0.323670
0.359410 0.390214 0.327064
0.386488 0.393576 0.330425
0.413354 0.396911 0.333760
0.440039 0.400223 0.337073
0.466566 0.403516 0.340366
0.492954 0.406792 0.343642
0.519217 0.410052 0.346902
0.545367 0.413299 0.350148
0.571414 0.416532 0.353382
0.597366 0.419754 0.356603
0.623231 0.422964 0.359814
0.649013 0.426165 0.363015
0.674719 0.429356 0.366206
0.258988 0.411852 0.324644
0.287778 0.415426 0.328218
0.315882 0.418915 0.331707
0.343544 0.422349 0.335141
0.370880 0.425743 0.338534
0.397959 0.429104 0.341896
0.424825 0.432439 0.345231
0.451510 0.435752 0.348544
0.478037 0.439045 0.351837
0.504425 0.442321 0.355112
0.530688 0.445581 0.358373
0.556838 0.448827 0.361619
0.582885 0.452061 0.364852
0.608837 0.455282 0.368074
0.634701 0.458493 0.371285
0.660484 0.461694 0.374485
0.686190 0.464885 0.377677
0.270383 0.447146 0.336039
0.299173 0.450720 0.339613
0.327277 0.454209 0.343102
0.354939 0.457643 0.346536
0.382275 0.461037 0.349929
0.409354 0.464398 0.353291
0.436220 0.467733 0.356626
0.462905 0.471046 0.359939
0.489432 0.474339 0.363232
0.515820 0.477615 0.366507
0.542083 0.480875 0.369768
0.568233 0.484121 0.373014
0.594280 0.487355 0.376247
0.620232 0.490576 0.379469
0.646096 0.493787 0.382680
0.671879 0.496988 0.385880
0.697585 0.500179 0.389072
0.281712 0.482236 0.347368
0.310502 0.485810 0.350942
0.338606 0.489298 0.354431
0.366268 0.492732 0.357865
0.393604 0.496126 0.361258
0.420683 0.499487 0.364620
0.447549 0.502822 0.367955
0.474234 0.506135 0.371268
0.500761 0.509428 0.374561
0.527149 0.512704 0.377836
0.553412 0.515964 0.381097
0.579562 0.519210 0.384343
0.605609 0.522444 0.387576
0.631561 0.525666 0.390798
0.657425 0.528876 0.394009
0.683208 0.532077 0.397209
0.708914 0.535268 0.400400
0.292982 0.517144 0.358638
0.321772 0.520718 0.362212
0.349876 0.524206 0.365701
0.377538 0.527640 0.369135
0.404875 0.531034 0.372529
0.431954 0.534395 0.375890
0.458819 0.537730 0.379225
0.485504 0.541043 0.382538
0.512031 0.544336 0.385831
0.538419 0.547612 0.389107
0.564682 0.550872 0.392367
0.590832 0.554118 0.395613
0.616879 0.557352 0.398847
0.642832 0.560573 0.402068
0.668696 0.563784 0.405279
0.694478 0.566985 0.408480
0.720185 0.570176 0.411671
0.304200 0.551889 0.369856
0.332990 0.555463 0.373430
0.361094 0.558952 0.376919
0.388756 0.562386 0.380353
0.416093 0.565779 0.383747
0.443171 0.569141 0.387108
0.470037 0.572476 0.390443
0.496722 0.575788 0.393756
0.523249 0.579081 0.397049
0.549637 0.582357 0.400325
0.575900 0.585617 0.403585
0.602050 0.588864 0.406831
0.628097 0.592097 0.410065
0.654049 0.595319 0.413286
0.679914 0.598529 0.416497
0.705696 0.601730 0.419698
0.731402 0.604921 0.422889
0.315370 0.586487 0.381027
0.344160 0.590061 0.384601
0.372264 0.593549 0.388089
0.399926 0.596983 0.391523
0.427263 0.600377 0.394917
0.454342 0.603738 0.398278
0.481208 0.607073 0.401613
0.507892 0.610386 0.404926
0.534419 0.613679 0.408219
0.560807 0.616955 0.411495
0.587070 0.620215 0.414755
0.613221 0.623461 0.418001
0.639268 0.626695 0.421235
0.665220 0.629917 0.424456
0.691084 0.633127 0.427667
0.716867 0.636328 0.430868
0.742573 0.639519 0.434059
0.326497 0.620950 0.392153
0.355287 0.624524 0.395727
0.383391 0.628012 0.399216
0.411053 0.631446 0.402650
0.438390 0.634840 0.406044
0.465468 0.638201 0.409405
0.492334 0.641536 0.412740
0.519019 0.644849 0.416053
0.545546 0.648142 0.419346
0.571934 0.651418 0.422622
0.598197 0.654678 0.425882
0.624347 0.657924 0.429128
0.650394 0.661158 0.432362
0.676346 0.664379 0.435583
0.702211 0.667590 0.438794
0.727993 0.670791 0.441995
0.753699 0.673982 0.445186
0.337584 0.655288 0.403240
0.366374 0.658862 0.406814
0.394478 0.662351 0.410303
0.422140 0.665785 0.413737
0.449476 0.669179 0.417130
0.476555 0.672540 0.420492
0.503421 0.675875 0.423827
0.530106 0.679188 0.427139
0.556633 0.682481 0.430432
0.583021 0.685757 0.433708
0.609284 0.689017 0.436968
0.635434 0.692263 0.440215
0.661481 0.695497 0.443448
0.687433 0.698718 0.446670
0.713297 0.701929 0.449881
0.739080 0.705130 0.453081
0.764786 0.708321 0.456272
0.348633 0.689512 0.414289
0.377423 0.693086 0.417863
0.405527 0.696575 0.421352
0.433189 0.700009 0.424786
0.460526 0.703402 0.428180
0.487604 0.706764 0.431541
0.514470 0.710099 0.434876
0.541155 0.713412 0.438189
0.567682 0.716705 0.441482
0.594070 0.719981 0.444758
0.620333 0.723241 0.448018
0.646483 0.726487 0.451264
0.672530 0.729720 0.454498
0.698482 0.732942 0.457719
0.724347 0.736153 0.460930
0.750129 0.739353 0.464131
0.775836 0.742545 0.467322
0.359648 0.723629 0.425304
0.388438 0.727203 0.428878
0.416542 0.730692 0.432367
0.444204 0.734126 0.435801
0.471541 0.737519 0.439195
0.498619 0.740881 0.442556
0.525485 0.744216 0.445891
0.552170 0.747528 0.449204
0.578697 0.750822 0.452497
0.605085 0.754097 0.455773
0.631348 0.757358 0.459033
0.657498 0.760604 0.462279
0.683545 0.763837 0.465513
0.709497 0.767059 0.468734
0.735362 0.770270 0.471945
0.761144 0.773470 0.475146
0.786851 0.776661 0.478337
0.370631 0.757646 0.436287
0.399421 0.761220 0.439861
0.427525 0.764708 0.443350
0.455187 0.768142 0.446784
0.482523 0.771536 0.450177
0.509602 0.774897 0.453539
0.536468 0.778232 0.456874
0.563153 0.781545 0.460186
0.589680 0.784838 0.463480
0.616068 0.788114 0.466755
0.642331 0.791374 0.470016
0.668481 0.794620 0.473262
0.694528 0.797854 0.476495
0.720480 0.801076 0.479717
0.746344 0.804286 0.482928
0.772127 0.807487 0.486128
0.797833 0.810678 0.489319
0.189511 0.194038 0.281144
0.218301 0.197612 0.284718
0.246405 0.201100 0.288206
0.274067 0.204534 0.291640
0.301403 0.207928 0.295034
0.328482 0.211289 0.298395
0.355348 0.214624 0.301730
0.382033 0.217937 0.305043
0.408560 0.221230 0.308336
0.434948 0.224506 0.311612
0.461211 0.227766 0.314872
0.487361 0.231012 0.318118
0.513408 0.234246 0.321352
0.539360 0.237467 0.324573
