assets/lighting/cinematic/grade-fog-muted/lut.cube
TITLE "Fog Muted"
# TKRS lighting-batch-001 original LUT
# Intended usage: low-contrast fog / mist exterior
# License: CC0-1.0
LUT_3D_SIZE 9
DOMAIN_MIN 0.0 0.0 0.0
DOMAIN_MAX 1.0 1.0 1.0
0.185660 0.190186 0.197284
0.242554 0.197249 0.204347
0.297552 0.204077 0.211174
0.351497 0.210773 0.217871
0.404709 0.217379 0.224477
0.457360 0.223915 0.231013
0.509557 0.230395 0.237492
0.561373 0.236827 0.243925
0.612862 0.243219 0.250316
0.209890 0.265236 0.221515
0.266784 0.272299 0.228577
0.321783 0.279126 0.235405
0.375727 0.285823 0.242102
0.428939 0.292429 0.248707
0.481590 0.298965 0.255243
0.533787 0.305444 0.261723
0.585604 0.311877 0.268155
0.637093 0.318269 0.274547
0.233357 0.337920 0.244981
0.290251 0.344983 0.252044
0.345249 0.351810 0.258872
0.399194 0.358507 0.265568
0.452406 0.365112 0.272174
0.505057 0.371648 0.278710
0.557254 0.378128 0.285189
0.609070 0.384560 0.291622
0.660559 0.390952 0.298014
0.256387 0.409252 0.268012
0.313281 0.416314 0.275074
0.368280 0.423142 0.281902
0.422224 0.429839 0.288598
0.475436 0.436444 0.295204
0.528087 0.442980 0.301740
0.580284 0.449460 0.308220
0.632101 0.455892 0.314652
0.683590 0.462284 0.321044
0.279111 0.479635 0.290735
0.336005 0.486698 0.297798
0.391004 0.493525 0.304626
0.444948 0.500222 0.311322
0.498160 0.506827 0.317928
0.550811 0.513363 0.324464
0.603008 0.519843 0.330944
0.654825 0.526276 0.337376
0.706313 0.532667 0.343768
0.301599 0.549288 0.313224
0.358493 0.556351 0.320286
0.413492 0.563178 0.327114
0.467437 0.569875 0.333811
0.520648 0.576481 0.340416
0.573299 0.583017 0.346952
0.625497 0.589496 0.353432
0.677313 0.595929 0.359864
0.728802 0.602321 0.366256
0.323896 0.618349 0.335521
0.380790 0.625412 0.342583
0.435789 0.632239 0.349411
0.489734 0.638936 0.356108
0.542945 0.645541 0.362713
0.595596 0.652077 0.369249
0.647794 0.658557 0.375729
0.699610 0.664989 0.382161
0.751099 0.671381 0.388553
0.346032 0.686912 0.357657
0.402926 0.693974 0.364720
0.457925 0.700802 0.371547
0.511870 0.707498 0.378244
0.565082 0.714104 0.384849
0.617733 0.720640 0.391385
0.669930 0.727120 0.397865
0.721746 0.733552 0.404297
0.773235 0.739944 0.410689
0.368030 0.755045 0.379654
0.424924 0.762108 0.386717
0.479923 0.768935 0.393545
0.533867 0.775632 0.400241
0.587079 0.782237 0.406847
0.639730 0.788773 0.413383
0.691927 0.795253 0.419863
0.743744 0.801686 0.426295
0.795232 0.808077 0.432687
0.188260 0.192787 0.253917
0.245154 0.199850 0.260979
0.300153 0.206677 0.267807
0.354098 0.213374 0.274504
0.407310 0.219980 0.281109
0.459961 0.226516 0.287645
0.512158 0.232995 0.294125
0.563974 0.239428 0.300557
0.615463 0.245820 0.306949
0.212491 0.267837 0.278147
0.269385 0.274900 0.285210
0.324384 0.281727 0.292038
0.378328 0.288424 0.298734
0.431540 0.295029 0.305340
0.484191 0.301566 0.311876
0.536388 0.308045 0.318355
0.588205 0.314478 0.324788
0.639693 0.320869 0.331180
0.235958 0.340521 0.301614
0.292852 0.347583 0.308677
0.347850 0.354411 0.315504
0.401795 0.361107 0.322201
0.455007 0.367713 0.328806
0.507658 0.374249 0.335342
0.559855 0.380729 0.341822
0.611671 0.387161 0.348255
0.663160 0.393553 0.354646
0.258988 0.411852 0.324644
0.315882 0.418915 0.331707
0.370880 0.425743 0.338534
0.424825 0.432439 0.345231
0.478037 0.439045 0.351837
0.530688 0.445581 0.358373
0.582885 0.452061 0.364852
0.634701 0.458493 0.371285
0.686190 0.464885 0.377677
0.281712 0.482236 0.347368
0.338606 0.489298 0.354431
0.393604 0.496126 0.361258
0.447549 0.502822 0.367955
0.500761 0.509428 0.374561
0.553412 0.515964 0.381097
0.605609 0.522444 0.387576
0.657425 0.528876 0.394009
0.708914 0.535268 0.400400
0.304200 0.551889 0.369856
0.361094 0.558952 0.376919
0.416093 0.565779 0.383747
0.470037 0.572476 0.390443
0.523249 0.579081 0.397049
0.575900 0.585617 0.403585
0.628097 0.592097 0.410065
0.679914 0.598529 0.416497
0.731402 0.604921 0.422889
0.326497 0.620950 0.392153
0.383391 0.628012 0.399216
0.438390 0.634840 0.406044
0.492334 0.641536 0.412740
0.545546 0.648142 0.419346
0.598197 0.654678 0.425882
0.650394 0.661158 0.432362
0.702211 0.667590 0.438794
0.753699 0.673982 0.445186
0.348633 0.689512 0.414289
0.405527 0.696575 0.421352
0.460526 0.703402 0.428180
0.514470 0.710099 0.434876
0.567682 0.716705 0.441482
0.620333 0.723241 0.448018
0.672530 0.729720 0.454498
0.724347 0.736153 0.460930
0.775836 0.742545 0.467322
0.370631 0.757646 0.436287
0.427525 0.764708 0.443350
0.482523 0.771536 0.450177
0.536468 0.778232 0.456874
0.589680 0.784838 0.463480
0.642331 0.791374 0.470016
0.694528 0.797854 0.476495
0.746344 0.804286 0.482928
0.797833 0.810678 0.489319
0.190740 0.195266 0.307904
0.247634 0.202329 0.314967
0.302632 0.209157 0.321794
0.356577 0.215853 0.328491
0.409789 0.222459 0.335097
0.462440 0.228995 0.341633
0.514637 0.235475 0.348112
0.566453 0.241907 0.354545
0.617942 0.248299 0.360936
0.214970 0.270316 0.332135
0.271864 0.277379 0.339197
0.326863 0.284206 0.346025
0.380807 0.290903 0.352721
0.434019 0.297509 0.359327
0.486670 0.304045 0.365863
0.538867 0.310524 0.372343
0.590684 0.316957 0.378775
0.642173 0.323349 0.385167
0.238437 0.343000 0.355601
0.295331 0.350063 0.362664
0.350329 0.356890 0.369491
0.404274 0.363587 0.376188
0.457486 0.370192 0.382794
0.510137 0.376728 0.389330
0.562334 0.383208 0.395809
0.614150 0.389640 0.402242
0.665639 0.396032 0.408634
0.261467 0.414332 0.378631
0.318361 0.421394 0.385694
0.373360 0.428222 0.392522
0.427304 0.434919 0.399218
0.480516 0.441524 0.405824
0.533167 0.448060 0.412360
0.585364 0.454540 0.418840
0.637181 0.460972 0.425272
0.688670 0.467364 0.431664
0.284191 0.484715 0.401355
0.341085 0.491778 0.408418
0.396084 0.498605 0.415246
0.450028 0.505302 0.421942
0.503240 0.511907 0.428548
0.555891 0.518443 0.435084
0.608088 0.524923 0.441564
0.659905 0.531356 0.447996
0.711393 0.537747 0.454388
0.306679 0.554368 0.423844
0.363573 0.561431 0.430906
0.418572 0.568258 0.437734
0.472517 0.574955 0.444431
0.525728 0.581561 0.451036
0.578379 0.588097 0.457572
0.630577 0.594576 0.464052
0.682393 0.601009 0.470484
0.733882 0.607401 0.476876
0.328976 0.623429 0.446141
0.385870 0.630492 0.453203
0.440869 0.637319 0.460031
0.494813 0.644016 0.466727
0.548025 0.650621 0.473333
0.600676 0.657157 0.479869
0.652873 0.663637 0.486349
0.704690 0.670069 0.492781
0.756179 0.676461 0.499173
0.351112 0.691992 0.468277
0.408006 0.699054 0.475340
0.463005 0.705882 0.482167
0.516950 0.712578 0.488864
0.570162 0.719184 0.495469
0.622813 0.725720 0.502005
0.675010 0.732200 0.508485
0.726826 0.738632 0.514917
0.778315 0.745024 0.521309
0.373110 0.760125 0.490274
0.430004 0.767188 0.497337
0.485003 0.774015 0.504165
0.538947 0.780712 0.510861
0.592159 0.787317 0.517467
0.644810 0.793853 0.524003
0.697007 0.800333 0.530483
0.748824 0.806766 0.536915
0.800312 0.813157 0.543307
0.193149 0.197676 0.360373
0.250043 0.204739 0.367435
0.305042 0.211566 0.374263
0.358986 0.218263 0.380960
0.412198 0.224868 0.387565
0.464849 0.231404 0.394101
0.517046 0.237884 0.400581
0.568863 0.244317 0.407013
0.620352 0.250708 0.413405
0.217380 0.272726 0.384603
0.274274 0.279789 0.391666
0.329272 0.286616 0.398494
0.383217 0.293313 0.405190
0.436429 0.299918 0.411796
0.489080 0.306454 0.418332
0.541277 0.312934 0.424812
0.593093 0.319366 0.431244
0.644582 0.325758 0.437636
0.240846 0.345409 0.408070
0.297740 0.352472 0.415133
0.352739 0.359299 0.421960
0.406684 0.365996 0.428657
0.459896 0.372602 0.435262
0.512547 0.379138 0.441798
0.564744 0.385617 0.448278
0.616560 0.392050 0.454711
0.668049 0.398442 0.461102
0.263877 0.416741 0.431100
0.320771 0.423804 0.438163
0.375769 0.430631 0.444990
0.429714 0.437328 0.451687
0.482926 0.443934 0.458293
0.535577 0.450470 0.464829
0.587774 0.456949 0.471308
0.639590 0.463382 0.477741
0.691079 0.469774 0.484133
0.286601 0.487124 0.453824
0.343495 0.494187 0.460887
0.398493 0.501015 0.467714
0.452438 0.507711 0.474411
0.505650 0.514317 0.481017
0.558301 0.520853 0.487553
0.610498 0.527333 0.494032
0.662314 0.533765 0.500465
0.713803 0.540157 0.506857
0.309089 0.556778 0.476312
0.365983 0.563840 0.483375
0.420981 0.570668 0.490203
0.474926 0.577364 0.496899
0.528138 0.583970 0.503505
0.580789 0.590506 0.510041
0.632986 0.596986 0.516521
0.684802 0.603418 0.522953
0.736291 0.609810 0.529345
0.331386 0.625838 0.498609
0.388280 0.632901 0.505672
0.443278 0.639729 0.512500
0.497223 0.646425 0.519196
0.550435 0.653031 0.525802
0.603086 0.659567 0.532338
0.655283 0.666047 0.538818
0.707099 0.672479 0.545250
0.758588 0.678871 0.551642
0.353522 0.694401 0.520746
0.410416 0.701464 0.527808
0.465414 0.708291 0.534636
0.519359 0.714988 0.541332
0.572571 0.721594 0.547938
0.625222 0.728130 0.554474
0.677419 0.734609 0.560954
0.729236 0.741042 0.567386
0.780724 0.747433 0.573778
0.375520 0.762534 0.542743
0.432413 0.769597 0.549806
0.487412 0.776425 0.556633
0.541357 0.783121 0.563330
0.594569 0.789727 0.569936
0.647220 0.796263 0.576472
0.699417 0.802743 0.582951
0.751233 0.809175 0.589384
0.802722 0.815567 0.595775
0.195510 0.200037 0.411777
0.252404 0.207099 0.418840
0.307402 0.213927 0.425668
0.361347 0.220623 0.432364
0.414559 0.227229 0.438970
0.467210 0.233765 0.445506
0.519407 0.240245 0.451986
0.571223 0.246677 0.458418
0.622712 0.253069 0.464810
0.219740 0.275086 0.436008
0.276634 0.282149 0.443071
0.331633 0.288977 0.449898
0.385578 0.295673 0.456595
0.438790 0.302279 0.463200
0.491441 0.308815 0.469736
0.543638 0.315295 0.476216
0.595454 0.321727 0.482649
0.646943 0.328119 0.489040
0.243207 0.347770 0.459475
0.300101 0.354833 0.466537
0.355100 0.361660 0.473365
0.409044 0.368357 0.480061
0.462256 0.374962 0.486667
0.514907 0.381498 0.493203
0.567104 0.387978 0.499683
0.618921 0.394411 0.506115
0.670409 0.400802 0.512507
0.266237 0.419102 0.482505
0.323131 0.426165 0.489568
0.378130 0.432992 0.496395
0.432074 0.439689 0.503092
0.485286 0.446294 0.509697
0.537937 0.452830 0.516233
0.590135 0.459310 0.522713
0.641951 0.465742 0.529145
0.693440 0.472134 0.535537
0.288961 0.489485 0.505229
0.345855 0.496548 0.512292
0.400854 0.503375 0.519119
0.454798 0.510072 0.525816
0.508010 0.516678 0.532421
0.560661 0.523214 0.538957
0.612858 0.529693 0.545437
0.664675 0.536126 0.551869
0.716164 0.542517 0.558261
0.311449 0.559138 0.527717
0.368343 0.566201 0.534780
0.423342 0.573029 0.541607
0.477287 0.579725 0.548304
0.530499 0.586331 0.554910
0.583150 0.592867 0.561446
0.635347 0.599346 0.567925
0.687163 0.605779 0.574358
0.738652 0.612171 0.580749
0.333746 0.628199 0.550014
0.390640 0.635262 0.557077
0.445639 0.642089 0.563904
0.499584 0.648786 0.570601
0.552796 0.655392 0.577206
0.605447 0.661928 0.583742
0.657644 0.668407 0.590222
0.709460 0.674840 0.596655
0.760949 0.681231 0.603046
0.355883 0.696762 0.572150
0.412777 0.703824 0.579213
0.467775 0.710652 0.586040
0.521720 0.717349 0.592737
0.574932 0.723954 0.599343
0.627583 0.730490 0.605879
0.679780 0.736970 0.612358
0.731596 0.743402 0.618791
0.783085 0.749794 0.625182
0.377880 0.764895 0.594148
0.434774 0.771958 0.601210
0.489773 0.778785 0.608038
0.543717 0.785482 0.614735
0.596929 0.792088 0.621340
0.649580 0.798624 0.627876
0.701777 0.805103 0.634356
0.753594 0.811536 0.640788
0.805083 0.817927 0.647180
0.197833 0.202360 0.462365
0.254727 0.209423 0.469428
0.309726 0.216250 0.476256
0.363670 0.222947 0.482952
0.416882 0.229552 0.489558
0.469533 0.236088 0.496094
0.521730 0.242568 0.502574
0.573547 0.249000 0.509006
0.625035 0.255392 0.515398
0.222064 0.277410 0.486596
0.278958 0.284472 0.493659
0.333956 0.291300 0.500486
0.387901 0.297996 0.507183
0.441113 0.304602 0.513788
0.493764 0.311138 0.520325
0.545961 0.317618 0.526804
0.597777 0.324050 0.533237
0.649266 0.330442 0.539628
0.245530 0.350093 0.510063
0.302424 0.357156 0.517125
0.357423 0.363983 0.523953
0.411367 0.370680 0.530649
0.464579 0.377286 0.537255
0.517230 0.383822 0.543791
0.569427 0.390301 0.550271
0.621244 0.396734 0.556703
0.672733 0.403125 0.563095
0.268560 0.421425 0.533093
0.325454 0.428488 0.540156
0.380453 0.435315 0.546983
0.434398 0.442012 0.553680
0.487610 0.448617 0.560285
0.540261 0.455154 0.566821
0.592458 0.461633 0.573301
0.644274 0.468066 0.579733
0.695763 0.474457 0.586125
0.291284 0.491808 0.555817
0.348178 0.498871 0.562880
0.403177 0.505698 0.569707
0.457122 0.512395 0.576404
0.510334 0.519001 0.583009
0.562985 0.525537 0.589545
0.615182 0.532016 0.596025
0.666998 0.538449 0.602457
0.718487 0.544841 0.608849
0.313773 0.561461 0.578305
0.370667 0.568524 0.585368
0.425665 0.575352 0.592195
0.479610 0.582048 0.598892
0.532822 0.588654 0.605498
0.585473 0.595190 0.612034
0.637670 0.601670 0.618513
0.689486 0.608102 0.624946
0.740975 0.614494 0.631337
0.336070 0.630522 0.600602
0.392964 0.637585 0.607665
0.447962 0.644412 0.614492
0.501907 0.651109 0.621189
0.555119 0.657715 0.627794
0.607770 0.664251 0.634331
0.659967 0.670730 0.640810
0.711783 0.677163 0.647243
0.763272 0.683555 0.653634
0.358206 0.699085 0.622738
0.415100 0.706148 0.629801
0.470098 0.712975 0.636628
0.524043 0.719672 0.643325
0.577255 0.726277 0.649931
0.629906 0.732813 0.656467
0.682103 0.739293 0.662946
0.733919 0.745725 0.669379
0.785408 0.752117 0.675771
0.380203 0.767218 0.644736
0.437097 0.774281 0.651798
0.492096 0.781108 0.658626
0.546041 0.787805 0.665323
0.599252 0.794411 0.671928
0.651903 0.800947 0.678464
0.704101 0.807426 0.684944
0.755917 0.813859 0.691376
0.807406 0.820251 0.697768
0.200126 0.204653 0.512293
0.257020 0.211715 0.519355
0.312018 0.218543 0.526183
0.365963 0.225239 0.532879
0.419175 0.231845 0.539485
0.471826 0.238381 0.546021
0.524023 0.244861 0.552501
0.575839 0.251293 0.558933
0.627328 0.257685 0.565325
0.224356 0.279702 0.536523
0.281250 0.286765 0.543586
0.336249 0.293593 0.550413
0.390194 0.300289 0.557110
0.443406 0.306895 0.563716
0.496056 0.313431 0.570252
0.548254 0.319911 0.576731
0.600070 0.326343 0.583164
0.651559 0.332735 0.589555
0.247823 0.352386 0.559990
0.304717 0.359449 0.567052
0.359716 0.366276 0.573880
0.413660 0.372973 0.580577
0.466872 0.379578 0.587182
0.519523 0.386114 0.593718
0.571720 0.392594 0.600198
0.623537 0.399026 0.606630
0.675025 0.405418 0.613022
0.270853 0.423718 0.583020
0.327747 0.430781 0.590083
0.382746 0.437608 0.596910
0.436690 0.444305 0.603607
0.489902 0.450910 0.610212
0.542553 0.457446 0.616748
0.594750 0.463926 0.623228
0.646567 0.470358 0.629661
0.698056 0.476750 0.636052
0.293577 0.494101 0.605744
0.350471 0.501164 0.612807
0.405470 0.507991 0.619634
0.459414 0.514688 0.626331
0.512626 0.521294 0.632936
0.565277 0.527830 0.639472
0.617474 0.534309 0.645952
0.669291 0.540742 0.652385
0.720780 0.547133 0.658776
0.316065 0.563754 0.628232
0.372959 0.570817 0.635295
0.427958 0.577644 0.642122
0.481903 0.584341 0.648819
0.535115 0.590947 0.655425
0.587766 0.597483 0.661961
0.639963 0.603962 0.668440
0.691779 0.610395 0.674873
0.743268 0.616787 0.681265
0.338362 0.632815 0.650529
0.395256 0.639878 0.657592
0.450255 0.646705 0.664419
0.504200 0.653402 0.671116
0.557412 0.660007 0.677722
0.610063 0.666543 0.684258
0.662260 0.673023 0.690737
0.714076 0.679456 0.697170
0.765565 0.685847 0.703561
0.360499 0.701378 0.672665
0.417393 0.708440 0.679728
0.472391 0.715268 0.686555
0.526336 0.721964 0.693252
0.579548 0.728570 0.699858
0.632199 0.735106 0.706394
0.684396 0.741586 0.712873
0.736212 0.748018 0.719306
0.787701 0.754410 0.725698
0.382496 0.769511 0.694663
0.439390 0.776574 0.701726
0.494389 0.783401 0.708553
0.548333 0.790098 0.715250
0.601545 0.796704 0.721855
0.654196 0.803240 0.728391
0.706393 0.809719 0.734871
0.758210 0.816152 0.741303
0.809699 0.822543 0.747695
0.202393 0.206920 0.561666
0.259287 0.213983 0.568728
0.314286 0.220810 0.575556
0.368230 0.227507 0.582252
0.421442 0.234112 0.588858
0.474093 0.240648 0.595394
0.526290 0.247128 0.601874
0.578107 0.253561 0.608306
0.629596 0.259952 0.614698
0.226624 0.281970 0.585896
0.283518 0.289032 0.592959
0.338516 0.295860 0.599786
0.392461 0.302557 0.606483
0.445673 0.309162 0.613089
0.498324 0.315698 0.619625
0.550521 0.322178 0.626104
0.602337 0.328610 0.632537
0.653826 0.335002 0.638928
0.250090 0.354653 0.609363
0.306984 0.361716 0.616425
0.361983 0.368543 0.623253
0.415928 0.375240 0.629950
0.469139 0.381846 0.636555
0.521790 0.388382 0.643091
0.573988 0.394861 0.649571
0.625804 0.401294 0.656003
0.677293 0.407686 0.662395
0.273121 0.425985 0.632393
0.330015 0.433048 0.639456
0.385013 0.439875 0.646283
0.438958 0.446572 0.652980
0.492170 0.453178 0.659585
0.544821 0.459714 0.666121
0.597018 0.466193 0.672601
0.648834 0.472626 0.679034
0.700323 0.479018 0.685425
0.295845 0.496368 0.655117
0.352738 0.503431 0.662180
0.407737 0.510259 0.669007
0.461682 0.516955 0.675704
0.514894 0.523561 0.682309
0.567545 0.530097 0.688845
0.619742 0.536577 0.695325
0.671558 0.543009 0.701758
0.723047 0.549401 0.708149
0.318333 0.566022 0.677605
0.375227 0.573084 0.684668
0.430225 0.579912 0.691495
0.484170 0.586608 0.698192
0.537382 0.593214 0.704798
0.590033 0.599750 0.711334
0.642230 0.606230 0.717813
0.694046 0.612662 0.724246
0.745535 0.619054 0.730638
0.340630 0.635082 0.699902
0.397524 0.642145 0.706965
0.452522 0.648973 0.713792
0.506467 0.655669 0.720489
0.559679 0.662275 0.727095
0.612330 0.668811 0.733631
0.664527 0.675291 0.740110
0.716343 0.681723 0.746543
0.767832 0.688115 0.752935
0.362766 0.703645 0.722038
0.419660 0.710708 0.729101
0.474658 0.717535 0.735928
0.528603 0.724232 0.742625
0.581815 0.730837 0.749231
0.634466 0.737373 0.755767
0.686663 0.743853 0.762246
0.738480 0.750286 0.768679
0.789968 0.756677 0.775071
0.384763 0.771778 0.744036
0.441657 0.778841 0.751099
0.496656 0.785669 0.757926
0.550601 0.792365 0.764623
0.603813 0.798971 0.771228
0.656464 0.805507 0.777764
0.708661 0.811987 0.784244
0.760477 0.818419 0.790676
0.811966 0.824811 0.797068
0.204639 0.209165 0.610562
0.261533 0.216228 0.617625
0.316531 0.223056 0.624452
0.370476 0.229752 0.631149
0.423688 0.236358 0.637755
0.476339 0.242894 0.644291
0.528536 0.249374 0.650770
0.580352 0.255806 0.657203
0.631841 0.262198 0.663595
0.228869 0.284215 0.634793
0.285763 0.291278 0.641856
0.340762 0.298105 0.648683
0.394706 0.304802 0.655380
0.447918 0.311408 0.661985
0.500569 0.317944 0.668521
0.552766 0.324423 0.675001
0.604583 0.330856 0.681433
0.656072 0.337248 0.687825
0.252336 0.356899 0.658259
0.309230 0.363961 0.665322
0.364228 0.370789 0.672150
0.418173 0.377486 0.678846
0.471385 0.384091 0.685452
0.524036 0.390627 0.691988
0.576233 0.397107 0.698468
0.628049 0.403539 0.704900
0.679538 0.409931 0.711292
0.275366 0.428231 0.681290
0.332260 0.435293 0.688352
0.387259 0.442121 0.695180
0.441203 0.448817 0.701876
0.494415 0.455423 0.708482
0.547066 0.461959 0.715018
0.599263 0.468439 0.721498
0.651080 0.474871 0.727930
0.702568 0.481263 0.734322
0.298090 0.498614 0.704014
0.354984 0.505677 0.711076
0.409983 0.512504 0.717904
0.463927 0.519201 0.724600
0.517139 0.525806 0.731206
0.569790 0.532342 0.737742
0.621987 0.538822 0.744222
0.673804 0.545254 0.750654
0.725292 0.551646 0.757046
0.320578 0.568267 0.726502
0.377472 0.575330 0.733565
0.432471 0.582157 0.740392
0.486415 0.588854 0.747089
0.539627 0.595460 0.753694
0.592278 0.601996 0.760230
0.644475 0.608475 0.766710
0.696292 0.614908 0.773142
0.747781 0.621299 0.779534
0.342875 0.637328 0.748799
0.399769 0.644391 0.755862
0.454768 0.651218 0.762689
0.508712 0.657915 0.769386
0.561924 0.664520 0.775991
0.614575 0.671056 0.782527
0.666772 0.677536 0.789007
0.718589 0.683968 0.795439
0.770078 0.690360 0.801831
0.365011 0.705890 0.770935
0.421905 0.712953 0.777998
0.476904 0.719781 0.784825
0.530849 0.726477 0.791522
0.584061 0.733083 0.798127
0.636712 0.739619 0.804663
0.688909 0.746099 0.811143
0.740725 0.752531 0.817576
0.792214 0.758923 0.823967
0.387009 0.774024 0.792933
0.443903 0.781087 0.799995
0.498901 0.787914 0.806823
0.552846 0.794611 0.813519
0.606058 0.801216 0.820125
0.658709 0.807752 0.826661
0.710906 0.814232 0.833141
0.762723 0.820664 0.839573
0.814211 0.827056 0.845965
