assets/lighting/cinematic/grade-fog-muted/lut.cube
TITLE "Fog Muted"
# TKRS lighting-batch-001 original LUT
# Intended usage: low-contrast fog / mist exterior
# License: CC0-1.0
LUT_3D_SIZE 5
DOMAIN_MIN 0.0 0.0 0.0
DOMAIN_MAX 1.0 1.0 1.0
0.185660 0.190186 0.197284
0.297552 0.204077 0.211174
0.404709 0.217379 0.224477
0.509557 0.230395 0.237492
0.612862 0.243219 0.250316
0.233357 0.337920 0.244981
0.345249 0.351810 0.258872
0.452406 0.365112 0.272174
0.557254 0.378128 0.285189
0.660559 0.390952 0.298014
0.279111 0.479635 0.290735
0.391004 0.493525 0.304626
0.498160 0.506827 0.317928
0.603008 0.519843 0.330944
0.706313 0.532667 0.343768
0.323896 0.618349 0.335521
0.435789 0.632239 0.349411
0.542945 0.645541 0.362713
0.647794 0.658557 0.375729
0.751099 0.671381 0.388553
0.368030 0.755045 0.379654
0.479923 0.768935 0.393545
0.587079 0.782237 0.406847
0.691927 0.795253 0.419863
0.795232 0.808077 0.432687
0.190740 0.195266 0.307904
0.302632 0.209157 0.321794
0.409789 0.222459 0.335097
0.514637 0.235475 0.348112
0.617942 0.248299 0.360936
0.238437 0.343000 0.355601
0.350329 0.356890 0.369491
0.457486 0.370192 0.382794
0.562334 0.383208 0.395809
0.665639 0.396032 0.408634
0.284191 0.484715 0.401355
0.396084 0.498605 0.415246
0.503240 0.511907 0.428548
0.608088 0.524923 0.441564
0.711393 0.537747 0.454388
0.328976 0.623429 0.446141
0.440869 0.637319 0.460031
0.548025 0.650621 0.473333
0.652873 0.663637 0.486349
0.756179 0.676461 0.499173
0.373110 0.760125 0.490274
0.485003 0.774015 0.504165
0.592159 0.787317 0.517467
0.697007 0.800333 0.530483
0.800312 0.813157 0.543307
0.195510 0.200037 0.411777
0.307402 0.213927 0.425668
0.414559 0.227229 0.438970
0.519407 0.240245 0.451986
0.622712 0.253069 0.464810
0.243207 0.347770 0.459475
0.355100 0.361660 0.473365
0.462256 0.374962 0.486667
0.567104 0.387978 0.499683
0.670409 0.400802 0.512507
0.288961 0.489485 0.505229
0.400854 0.503375 0.519119
0.508010 0.516678 0.532421
0.612858 0.529693 0.545437
0.716164 0.542517 0.558261
0.333746 0.628199 0.550014
0.445639 0.642089 0.563904
0.552796 0.655392 0.577206
0.657644 0.668407 0.590222
0.760949 0.681231 0.603046
0.377880 0.764895 0.594148
0.489773 0.778785 0.608038
0.596929 0.792088 0.621340
0.701777 0.805103 0.634356
0.805083 0.817927 0.647180
0.200126 0.204653 0.512293
0.312018 0.218543 0.526183
0.419175 0.231845 0.539485
0.524023 0.244861 0.552501
0.627328 0.257685 0.565325
0.247823 0.352386 0.559990
0.359716 0.366276 0.573880
0.466872 0.379578 0.587182
0.571720 0.392594 0.600198
0.675025 0.405418 0.613022
0.293577 0.494101 0.605744
0.405470 0.507991 0.619634
0.512626 0.521294 0.632936
0.617474 0.534309 0.645952
0.720780 0.547133 0.658776
0.338362 0.632815 0.650529
0.450255 0.646705 0.664419
0.557412 0.660007 0.677722
0.662260 0.673023 0.690737
0.765565 0.685847 0.703561
0.382496 0.769511 0.694663
0.494389 0.783401 0.708553
0.601545 0.796704 0.721855
0.706393 0.809719 0.734871
0.809699 0.822543 0.747695
0.204639 0.209165 0.610562
0.316531 0.223056 0.624452
0.423688 0.236358 0.637755
0.528536 0.249374 0.650770
0.631841 0.262198 0.663595
0.252336 0.356899 0.658259
0.364228 0.370789 0.672150
0.471385 0.384091 0.685452
0.576233 0.397107 0.698468
0.679538 0.409931 0.711292
0.298090 0.498614 0.704014
0.409983 0.512504 0.717904
0.517139 0.525806 0.731206
0.621987 0.538822 0.744222
0.725292 0.551646 0.757046
0.342875 0.637328 0.748799
0.454768 0.651218 0.762689
0.561924 0.664520 0.775991
0.666772 0.677536 0.789007
0.770078 0.690360 0.801831
0.387009 0.774024 0.792933
0.498901 0.787914 0.806823
0.606058 0.801216 0.820125
0.710906 0.814232 0.833141
0.814211 0.827056 0.845965
