assets/lighting/day-night-palettes/grade-midday-punchy/lut.cube
TITLE "Midday Punchy"
# TKRS lighting-batch-001 original LUT
# Intended usage: hard noon sun, contrasty outdoor
# License: CC0-1.0
LUT_3D_SIZE 17
DOMAIN_MIN 0.0 0.0 0.0
DOMAIN_MAX 1.0 1.0 1.0
0.000000 0.000000 0.000000
0.000000 0.000000 0.000000
0.053944 0.000000 0.000000
0.137855 0.000000 0.000000
0.221767 0.000000 0.000000
0.305678 0.000000 0.000000
0.389590 0.000000 0.000000
0.473501 0.000000 0.000000
0.557413 0.000000 0.000000
0.641324 0.000000 0.000000
0.725236 0.000000 0.000000
0.809147 0.000000 0.000000
0.893059 0.000000 0.000000
0.976970 0.000000 0.000000
1.000000 0.000000 0.000000
1.000000 0.000000 0.000000
1.000000 0.000000 0.000000
0.000000 0.000000 0.000000
0.000000 0.000000 0.000000
0.049467 0.000000 0.000000
0.133378 0.000000 0.000000
0.217290 0.000000 0.000000
0.301201 0.000000 0.000000
0.385113 0.000000 0.000000
0.469024 0.000000 0.000000
0.552936 0.000000 0.000000
0.636847 0.000000 0.000000
0.720759 0.000000 0.000000
0.804670 0.000000 0.000000
0.888581 0.000000 0.000000
0.972493 0.000000 0.000000
1.000000 0.000000 0.000000
1.000000 0.000000 0.000000
1.000000 0.000000 0.000000
0.000000 0.046183 0.000000
0.000000 0.044840 0.000000
0.044990 0.043498 0.000000
0.128901 0.042155 0.000000
0.212813 0.040812 0.000000
0.296724 0.039470 0.000000
0.380636 0.038127 0.000000
0.464547 0.036785 0.000000
0.548459 0.035442 0.000000
0.632370 0.034099 0.000000
0.716281 0.032757 0.000000
0.800193 0.031414 0.000000
0.884104 0.030072 0.000000
0.968016 0.028729 0.000000
1.000000 0.027386 0.000000
1.000000 0.026044 0.000000
1.000000 0.024701 0.000000
0.000000 0.126214 0.000000
0.000000 0.124871 0.000000
0.040513 0.123529 0.000000
0.124424 0.122186 0.000000
0.208336 0.120843 0.000000
0.292247 0.119501 0.000000
0.376159 0.118158 0.000000
0.460070 0.116816 0.000000
0.543982 0.115473 0.000000
0.627893 0.114130 0.000000
0.711804 0.112788 0.000000
0.795716 0.111445 0.000000
0.879627 0.110103 0.000000
0.963539 0.108760 0.000000
1.000000 0.107417 0.000000
1.000000 0.106075 0.000000
1.000000 0.104732 0.000000
0.000000 0.206245 0.000000
0.000000 0.204902 0.000000
0.036036 0.203560 0.000000
0.119947 0.202217 0.000000
0.203859 0.200874 0.000000
0.287770 0.199532 0.000000
0.371682 0.198189 0.000000
0.455593 0.196847 0.000000
0.539504 0.195504 0.000000
0.623416 0.194161 0.000000
0.707327 0.192819 0.000000
0.791239 0.191476 0.000000
0.875150 0.190134 0.000000
0.959062 0.188791 0.000000
1.000000 0.187448 0.000000
1.000000 0.186106 0.000000
1.000000 0.184763 0.000000
0.000000 0.286276 0.000000
0.000000 0.284933 0.000000
0.031559 0.283591 0.000000
0.115470 0.282248 0.000000
0.199382 0.280905 0.000000
0.283293 0.279563 0.000000
0.367204 0.278220 0.000000
0.451116 0.276878 0.000000
0.535027 0.275535 0.000000
0.618939 0.274192 0.000000
0.702850 0.272850 0.000000
0.786762 0.271507 0.000000
0.870673 0.270165 0.000000
0.954585 0.268822 0.000000
1.000000 0.267479 0.000000
1.000000 0.266137 0.000000
1.000000 0.264794 0.000000
0.000000 0.366307 0.000000
0.000000 0.364964 0.000000
0.027082 0.363621 0.000000
0.110993 0.362279 0.000000
0.194904 0.360936 0.000000
0.278816 0.359594 0.000000
0.362727 0.358251 0.000000
0.446639 0.356908 0.000000
0.530550 0.355566 0.000000
0.614462 0.354223 0.000000
0.698373 0.352881 0.000000
0.782285 0.351538 0.000000
0.866196 0.350196 0.000000
0.950108 0.348853 0.000000
1.000000 0.347510 0.000000
1.000000 0.346168 0.000000
1.000000 0.344825 0.000000
0.000000 0.446338 0.000000
0.000000 0.444995 0.000000
0.022604 0.443652 0.000000
0.106516 0.442310 0.000000
0.190427 0.440967 0.000000
0.274339 0.439625 0.000000
0.358250 0.438282 0.000000
0.442162 0.436939 0.000000
0.526073 0.435597 0.000000
0.609985 0.434254 0.000000
0.693896 0.432912 0.000000
0.777808 0.431569 0.000000
0.861719 0.430226 0.000000
0.945631 0.428884 0.000000
1.000000 0.427541 0.000000
1.000000 0.426199 0.000000
1.000000 0.424856 0.000000
0.000000 0.526369 0.000000
0.000000 0.525026 0.000000
0.018127 0.523683 0.000000
0.102039 0.522341 0.000000
0.185950 0.520998 0.000000
0.269862 0.519656 0.000000
0.353773 0.518313 0.000000
0.437685 0.516970 0.000000
0.521596 0.515628 0.000000
0.605508 0.514285 0.000000
0.689419 0.512943 0.000000
0.773331 0.511600 0.000000
0.857242 0.510257 0.000000
0.941154 0.508915 0.000000
1.000000 0.507572 0.000000
1.000000 0.506230 0.000000
1.000000 0.504887 0.000000
0.000000 0.606400 0.000000
0.000000 0.605057 0.000000
0.013650 0.603714 0.000000
0.097562 0.602372 0.000000
0.181473 0.601029 0.000000
0.265385 0.599687 0.000000
0.349296 0.598344 0.000000
0.433208 0.597001 0.000000
0.517119 0.595659 0.000000
0.601031 0.594316 0.000000
0.684942 0.592974 0.000000
0.768854 0.591631 0.000000
0.852765 0.590288 0.000000
0.936677 0.588946 0.000000
1.000000 0.587603 0.000000
1.000000 0.586261 0.000000
1.000000 0.584918 0.000000
0.000000 0.686431 0.000000
0.000000 0.685088 0.000000
0.009173 0.683745 0.000000
0.093085 0.682403 0.000000
0.176996 0.681060 0.000000
0.260908 0.679718 0.000000
0.344819 0.678375 0.000000
0.428731 0.677032 0.000000
0.512642 0.675690 0.000000
0.596554 0.674347 0.000000
0.680465 0.673005 0.000000
0.764377 0.671662 0.000000
0.848288 0.670319 0.000000
0.932200 0.668977 0.000000
1.000000 0.667634 0.000000
1.000000 0.666292 0.000000
1.000000 0.664949 0.000000
0.000000 0.766461 0.000000
0.000000 0.765119 0.000000
0.004696 0.763776 0.000000
0.088608 0.762434 0.000000
0.172519 0.761091 0.000000
0.256431 0.759749 0.000000
0.340342 0.758406 0.000000
0.424254 0.757063 0.000000
0.508165 0.755721 0.000000
0.592077 0.754378 0.000000
0.675988 0.753036 0.000000
0.759900 0.751693 0.000000
0.843811 0.750350 0.000000
0.927722 0.749008 0.000000
1.000000 0.747665 0.000000
1.000000 0.746323 0.000000
1.000000 0.744980 0.000000
0.000000 0.846492 0.000000
0.000000 0.845150 0.000000
0.000219 0.843807 0.000000
0.084131 0.842465 0.000000
0.168042 0.841122 0.000000
0.251954 0.839779 0.000000
0.335865 0.838437 0.000000
0.419777 0.837094 0.000000
0.503688 0.835752 0.000000
0.587600 0.834409 0.000000
0.671511 0.833067 0.000000
0.755422 0.831724 0.000000
0.839334 0.830381 0.000000
0.923245 0.829039 0.000000
1.000000 0.827696 0.000000
1.000000 0.826354 0.000000
1.000000 0.825011 0.000000
0.000000 0.926523 0.000000
0.000000 0.925181 0.000000
0.000000 0.923838 0.000000
0.079654 0.922496 0.000000
0.163565 0.921153 0.000000
0.247477 0.919810 0.000000
0.331388 0.918468 0.000000
0.415300 0.917125 0.000000
0.499211 0.915783 0.000000
0.583123 0.914440 0.000000
0.667034 0.913097 0.000000
0.750945 0.911755 0.000000
0.834857 0.910412 0.000000
0.918768 0.909070 0.000000
1.000000 0.907727 0.000000
1.000000 0.906385 0.000000
1.000000 0.905042 0.000000
0.000000 1.000000 0.000000
0.000000 1.000000 0.000000
0.000000 1.000000 0.000000
0.075177 1.000000 0.000000
0.159088 1.000000 0.000000
0.243000 0.999841 0.000000
0.326911 0.998499 0.000000
0.410823 0.997156 0.000000
0.494734 0.995814 0.000000
0.578645 0.994471 0.000000
0.662557 0.993128 0.000000
0.746468 0.991786 0.000000
0.830380 0.990443 0.000000
0.914291 0.989101 0.000000
0.998203 0.987758 0.000000
1.000000 0.986415 0.000000
1.000000 0.985073 0.000000
0.000000 1.000000 0.000000
0.000000 1.000000 0.000000
0.000000 1.000000 0.000000
0.070700 1.000000 0.000000
0.154611 1.000000 0.000000
0.238523 1.000000 0.000000
0.322434 1.000000 0.000000
0.406345 1.000000 0.000000
0.490257 1.000000 0.000000
0.574168 1.000000 0.000000
0.658080 1.000000 0.000000
0.741991 1.000000 0.000000
0.825903 1.000000 0.000000
0.909814 1.000000 0.000000
0.993726 1.000000 0.000000
1.000000 1.000000 0.000000
1.000000 1.000000 0.000000
0.000000 1.000000 0.000000
0.000000 1.000000 0.000000
0.000000 1.000000 0.000000
0.066223 1.000000 0.000000
0.150134 1.000000 0.000000
0.234045 1.000000 0.000000
0.317957 1.000000 0.000000
0.401868 1.000000 0.000000
0.485780 1.000000 0.000000
0.569691 1.000000 0.000000
0.653603 1.000000 0.000000
0.737514 1.000000 0.000000
0.821426 1.000000 0.000000
0.905337 1.000000 0.000000
0.989249 1.000000 0.000000
1.000000 1.000000 0.000000
1.000000 1.000000 0.000000
0.000000 0.000000 0.000000
0.000000 0.000000 0.000000
0.053495 0.000000 0.000000
0.137406 0.000000 0.000000
0.221318 0.000000 0.000000
0.305229 0.000000 0.000000
0.389141 0.000000 0.000000
0.473052 0.000000 0.000000
0.556963 0.000000 0.000000
0.640875 0.000000 0.000000
0.724786 0.000000 0.000000
0.808698 0.000000 0.000000
0.892609 0.000000 0.000000
0.976521 0.000000 0.000000
1.000000 0.000000 0.000000
1.000000 0.000000 0.000000
1.000000 0.000000 0.000000
0.000000 0.000000 0.000000
0.000000 0.000000 0.000000
0.049018 0.000000 0.000000
0.132929 0.000000 0.000000
0.216841 0.000000 0.000000
0.300752 0.000000 0.000000
0.384663 0.000000 0.000000
0.468575 0.000000 0.000000
0.552486 0.000000 0.000000
0.636398 0.000000 0.000000
0.720309 0.000000 0.000000
0.804221 0.000000 0.000000
0.888132 0.000000 0.000000
0.972044 0.000000 0.000000
1.000000 0.000000 0.000000
1.000000 0.000000 0.000000
1.000000 0.000000 0.000000
0.000000 0.045734 0.000000
0.000000 0.044391 0.000000
0.044541 0.043048 0.000000
0.128452 0.041706 0.000000
0.212363 0.040363 0.000000
0.296275 0.039021 0.000000
0.380186 0.037678 0.000000
0.464098 0.036335 0.000000
0.548009 0.034993 0.000000
0.631921 0.033650 0.000000
0.715832 0.032308 0.000000
0.799744 0.030965 0.000000
0.883655 0.029622 0.000000
0.967567 0.028280 0.000000
1.000000 0.026937 0.000000
1.000000 0.025595 0.000000
1.000000 0.024252 0.000000
0.000000 0.125765 0.000000
0.000000 0.124422 0.000000
0.040063 0.123079 0.000000
0.123975 0.121737 0.000000
0.207886 0.120394 0.000000
0.291798 0.119052 0.000000
0.375709 0.117709 0.000000
0.459621 0.116366 0.000000
0.543532 0.115024 0.000000
0.627444 0.113681 0.000000
0.711355 0.112339 0.000000
0.795267 0.110996 0.000000
0.879178 0.109653 0.000000
0.963090 0.108311 0.000000
1.000000 0.106968 0.000000
1.000000 0.105626 0.000000
1.000000 0.104283 0.000000
0.000000 0.205796 0.000000
0.000000 0.204453 0.000000
0.035586 0.203110 0.000000
0.119498 0.201768 0.000000
0.203409 0.200425 0.000000
0.287321 0.199083 0.000000
0.371232 0.197740 0.000000
0.455144 0.196397 0.000000
0.539055 0.195055 0.000000
0.622967 0.193712 0.000000
0.706878 0.192370 0.000000
0.790790 0.191027 0.000000
0.874701 0.189684 0.000000
0.958613 0.188342 0.000000
1.000000 0.186999 0.000000
1.000000 0.185657 0.000000
1.000000 0.184314 0.000000
0.000000 0.285827 0.000000
0.000000 0.284484 0.000000
0.031109 0.283141 0.000000
0.115021 0.281799 0.000000
0.198932 0.280456 0.000000
0.282844 0.279114 0.000000
0.366755 0.277771 0.000000
0.450667 0.276428 0.000000
0.534578 0.275086 0.000000
0.618490 0.273743 0.000000
0.702401 0.272401 0.000000
0.786313 0.271058 0.000000
0.870224 0.269715 0.000000
0.954136 0.268373 0.000000
1.000000 0.267030 0.000000
1.000000 0.265688 0.000000
1.000000 0.264345 0.000000
0.000000 0.365857 0.000000
0.000000 0.364515 0.000000
0.026632 0.363172 0.000000
0.110544 0.361830 0.000000
0.194455 0.360487 0.000000
0.278367 0.359145 0.000000
0.362278 0.357802 0.000000
0.446190 0.356459 0.000000
0.530101 0.355117 0.000000
0.614013 0.353774 0.000000
0.697924 0.352432 0.000000
0.781836 0.351089 0.000000
0.865747 0.349746 0.000000
0.949659 0.348404 0.000000
1.000000 0.347061 0.000000
1.000000 0.345719 0.000000
1.000000 0.344376 0.000000
0.000000 0.445888 0.000000
0.000000 0.444546 0.000000
0.022155 0.443203 0.000000
0.106067 0.441861 0.000000
0.189978 0.440518 0.000000
0.273890 0.439175 0.000000
0.357801 0.437833 0.000000
0.441713 0.436490 0.000000
0.525624 0.435148 0.000000
0.609536 0.433805 0.000000
0.693447 0.432463 0.000000
0.777359 0.431120 0.000000
0.861270 0.429777 0.000000
0.945181 0.428435 0.000000
1.000000 0.427092 0.000000
1.000000 0.425750 0.000000
1.000000 0.424407 0.000000
0.000000 0.525919 0.000000
0.000000 0.524577 0.000000
0.017678 0.523234 0.000000
0.101590 0.521892 0.000000
0.185501 0.520549 0.000000
0.269413 0.519206 0.000000
0.353324 0.517864 0.000000
0.437236 0.516521 0.000000
0.521147 0.515179 0.000000
0.605059 0.513836 0.000000
0.688970 0.512493 0.000000
0.772882 0.511151 0.000000
0.856793 0.509808 0.000000
0.940704 0.508466 0.000000
1.000000 0.507123 0.000000
1.000000 0.505781 0.000000
1.000000 0.504438 0.000000
0.000000 0.605950 0.000000
0.000000 0.604608 0.000000
0.013201 0.603265 0.000000
0.097113 0.601923 0.000000
0.181024 0.600580 0.000000
0.264936 0.599237 0.000000
0.348847 0.597895 0.000000
0.432759 0.596552 0.000000
0.516670 0.595210 0.000000
0.600582 0.593867 0.000000
0.684493 0.592524 0.000000
0.768404 0.591182 0.000000
0.852316 0.589839 0.000000
0.936227 0.588497 0.000000
1.000000 0.587154 0.000000
1.000000 0.585811 0.000000
1.000000 0.584469 0.000000
0.000000 0.685981 0.000000
0.000000 0.684639 0.000000
0.008724 0.683296 0.000000
0.092636 0.681954 0.000000
0.176547 0.680611 0.000000
0.260459 0.679268 0.000000
0.344370 0.677926 0.000000
0.428282 0.676583 0.000000
0.512193 0.675241 0.000000
0.596104 0.673898 0.000000
0.680016 0.672555 0.000000
0.763927 0.671213 0.000000
0.847839 0.669870 0.000000
0.931750 0.668528 0.000000
1.000000 0.667185 0.000000
1.000000 0.665842 0.000000
1.000000 0.664500 0.000000
0.000000 0.766012 0.000000
0.000000 0.764670 0.000000
0.004247 0.763327 0.000000
0.088159 0.761985 0.000000
0.172070 0.760642 0.000000
0.255982 0.759299 0.000000
0.339893 0.757957 0.000000
0.423804 0.756614 0.000000
0.507716 0.755272 0.000000
0.591627 0.753929 0.000000
0.675539 0.752586 0.000000
0.759450 0.751244 0.000000
0.843362 0.749901 0.000000
0.927273 0.748559 0.000000
1.000000 0.747216 0.000000
1.000000 0.745873 0.000000
1.000000 0.744531 0.000000
0.000000 0.846043 0.000000
0.000000 0.844701 0.000000
0.000000 0.843358 0.000000
0.083682 0.842015 0.000000
0.167593 0.840673 0.000000
0.251504 0.839330 0.000000
0.335416 0.837988 0.000000
0.419327 0.836645 0.000000
0.503239 0.835303 0.000000
0.587150 0.833960 0.000000
0.671062 0.832617 0.000000
0.754973 0.831275 0.000000
0.838885 0.829932 0.000000
0.922796 0.828590 0.000000
1.000000 0.827247 0.000000
1.000000 0.825904 0.000000
1.000000 0.824562 0.000000
0.000000 0.926074 0.000000
0.000000 0.924732 0.000000
0.000000 0.923389 0.000000
0.079204 0.922046 0.000000
0.163116 0.920704 0.000000
0.247027 0.919361 0.000000
0.330939 0.918019 0.000000
0.414850 0.916676 0.000000
0.498762 0.915333 0.000000
0.582673 0.913991 0.000000
0.666585 0.912648 0.000000
0.750496 0.911306 0.000000
0.834408 0.909963 0.000000
0.918319 0.908621 0.000000
1.000000 0.907278 0.000000
1.000000 0.905935 0.000000
1.000000 0.904593 0.000000
0.000000 1.000000 0.000000
0.000000 1.000000 0.000000
0.000000 1.000000 0.000000
0.074727 1.000000 0.000000
0.158639 1.000000 0.000000
0.242550 0.999392 0.000000
0.326462 0.998050 0.000000
0.410373 0.996707 0.000000
0.494285 0.995364 0.000000
0.578196 0.994022 0.000000
0.662108 0.992679 0.000000
0.746019 0.991337 0.000000
0.829931 0.989994 0.000000
0.913842 0.988651 0.000000
0.997754 0.987309 0.000000
1.000000 0.985966 0.000000
1.000000 0.984624 0.000000
0.000000 1.000000 0.000000
0.000000 1.000000 0.000000
0.000000 1.000000 0.000000
0.070250 1.000000 0.000000
0.154162 1.000000 0.000000
0.238073 1.000000 0.000000
0.321985 1.000000 0.000000
0.405896 1.000000 0.000000
0.489808 1.000000 0.000000
0.573719 1.000000 0.000000
0.657631 1.000000 0.000000
0.741542 1.000000 0.000000
0.825454 1.000000 0.000000
0.909365 1.000000 0.000000
0.993277 1.000000 0.000000
1.000000 1.000000 0.000000
1.000000 1.000000 0.000000
0.000000 1.000000 0.000000
0.000000 1.000000 0.000000
0.000000 1.000000 0.000000
0.065773 1.000000 0.000000
0.149685 1.000000 0.000000
0.233596 1.000000 0.000000
0.317508 1.000000 0.000000
0.401419 1.000000 0.000000
0.485331 1.000000 0.000000
0.569242 1.000000 0.000000
0.653154 1.000000 0.000000
0.737065 1.000000 0.000000
0.820977 1.000000 0.000000
0.904888 1.000000 0.000000
0.988800 1.000000 0.000000
1.000000 1.000000 0.000000
1.000000 1.000000 0.000000
0.000000 0.000000 0.053199
0.000000 0.000000 0.051856
0.053045 0.000000 0.050514
0.136957 0.000000 0.049171
0.220868 0.000000 0.047828
0.304780 0.000000 0.046486
0.388691 0.000000 0.045143
0.472603 0.000000 0.043801
0.556514 0.000000 0.042458
0.640426 0.000000 0.041115
0.724337 0.000000 0.039773
0.808249 0.000000 0.038430
0.892160 0.000000 0.037088
0.976072 0.000000 0.035745
1.000000 0.000000 0.034402
1.000000 0.000000 0.033060
1.000000 0.000000 0.031717
0.000000 0.000000 0.048722
0.000000 0.000000 0.047379
0.048568 0.000000 0.046037
0.132480 0.000000 0.044694
0.216391 0.000000 0.043351
0.300303 0.000000 0.042009
0.384214 0.000000 0.040666
0.468126 0.000000 0.039324
0.552037 0.000000 0.037981
0.635949 0.000000 0.036638
0.719860 0.000000 0.035296
0.803772 0.000000 0.033953
0.887683 0.000000 0.032611
0.971595 0.000000 0.031268
1.000000 0.000000 0.029925
1.000000 0.000000 0.028583
1.000000 0.000000 0.027240
0.000000 0.045284 0.044245
0.000000 0.043942 0.042902
0.044091 0.042599 0.041560
0.128003 0.041257 0.040217
0.211914 0.039914 0.038874
0.295826 0.038571 0.037532
0.379737 0.037229 0.036189
0.463649 0.035886 0.034847
0.547560 0.034544 0.033504
0.631472 0.033201 0.032161
0.715383 0.031858 0.030819
0.799295 0.030516 0.029476
0.883206 0.029173 0.028134
0.967118 0.027831 0.026791
1.000000 0.026488 0.025448
1.000000 0.025146 0.024106
1.000000 0.023803 0.022763
0.000000 0.125315 0.039768
0.000000 0.123973 0.038425
0.039614 0.122630 0.037082
0.123526 0.121288 0.035740
0.207437 0.119945 0.034397
0.291349 0.118602 0.033055
0.375260 0.117260 0.031712
0.459172 0.115917 0.030370
0.543083 0.114575 0.029027
0.626995 0.113232 0.027684
0.710906 0.111889 0.026342
0.794818 0.110547 0.024999
0.878729 0.109204 0.023657
0.962641 0.107862 0.022314
1.000000 0.106519 0.020971
1.000000 0.105176 0.019629
1.000000 0.103834 0.018286
0.000000 0.205346 0.035291
0.000000 0.204004 0.033948
0.035137 0.202661 0.032605
0.119049 0.201319 0.031263
0.202960 0.199976 0.029920
0.286872 0.198633 0.028578
0.370783 0.197291 0.027235
0.454695 0.195948 0.025892
0.538606 0.194606 0.024550
0.622518 0.193263 0.023207
0.706429 0.191920 0.021865
0.790341 0.190578 0.020522
0.874252 0.189235 0.019179
0.958163 0.187893 0.017837
1.000000 0.186550 0.016494
1.000000 0.185207 0.015152
1.000000 0.183865 0.013809
0.000000 0.285377 0.030814
0.000000 0.284035 0.029471
0.030660 0.282692 0.028128
0.114572 0.281350 0.026786
0.198483 0.280007 0.025443
0.282395 0.278664 0.024101
0.366306 0.277322 0.022758
0.450218 0.275979 0.021415
0.534129 0.274637 0.020073
0.618041 0.273294 0.018730
0.701952 0.271951 0.017388
0.785863 0.270609 0.016045
0.869775 0.269266 0.014702
0.953686 0.267924 0.013360
1.000000 0.266581 0.012017
1.000000 0.265238 0.010675
1.000000 0.263896 0.009332
0.000000 0.365408 0.026337
0.000000 0.364066 0.024994
0.026183 0.362723 0.023651
0.110095 0.361381 0.022309
0.194006 0.360038 0.020966
0.277918 0.358695 0.019624
0.361829 0.357353 0.018281
0.445741 0.356010 0.016938
0.529652 0.354668 0.015596
0.613563 0.353325 0.014253
0.697475 0.351982 0.012911
0.781386 0.350640 0.011568
0.865298 0.349297 0.010225
0.949209 0.347955 0.008883
1.000000 0.346612 0.007540
1.000000 0.345269 0.006198
1.000000 0.343927 0.004855
0.000000 0.445439 0.021859
0.000000 0.444097 0.020517
0.021706 0.442754 0.019174
0.105618 0.441411 0.017832
0.189529 0.440069 0.016489
0.273441 0.438726 0.015147
0.357352 0.437384 0.013804
0.441263 0.436041 0.012461
0.525175 0.434699 0.011119
0.609086 0.433356 0.009776
0.692998 0.432013 0.008434
0.776909 0.430671 0.007091
0.860821 0.429328 0.005748
0.944732 0.427986 0.004406
1.000000 0.426643 0.003063
1.000000 0.425300 0.001721
1.000000 0.423958 0.000378
0.000000 0.525470 0.017382
0.000000 0.524128 0.016040
0.017229 0.522785 0.014697
0.101141 0.521442 0.013355
0.185052 0.520100 0.012012
0.268963 0.518757 0.010669
0.352875 0.517415 0.009327
0.436786 0.516072 0.007984
0.520698 0.514729 0.006642
0.604609 0.513387 0.005299
0.688521 0.512044 0.003956
0.772432 0.510702 0.002614
0.856344 0.509359 0.001271
0.940255 0.508017 0.000000
1.000000 0.506674 0.000000
1.000000 0.505331 0.000000
1.000000 0.503989 0.000000
0.000000 0.605501 0.012905
0.000000 0.604159 0.011563
0.012752 0.602816 0.010220
0.096663 0.601473 0.008878
0.180575 0.600131 0.007535
0.264486 0.598788 0.006192
0.348398 0.597446 0.004850
0.432309 0.596103 0.003507
0.516221 0.594760 0.002165
0.600132 0.593418 0.000822
0.684044 0.592075 0.000000
0.767955 0.590733 0.000000
0.851867 0.589390 0.000000
0.935778 0.588047 0.000000
1.000000 0.586705 0.000000
1.000000 0.585362 0.000000
1.000000 0.584020 0.000000
0.000000 0.685532 0.008428
0.000000 0.684190 0.007086
0.008275 0.682847 0.005743
0.092186 0.681504 0.004401
0.176098 0.680162 0.003058
0.260009 0.678819 0.001715
0.343921 0.677477 0.000373
0.427832 0.676134 0.000000
0.511744 0.674791 0.000000
0.595655 0.673449 0.000000
0.679567 0.672106 0.000000
0.763478 0.670764 0.000000
0.847390 0.669421 0.000000
0.931301 0.668078 0.000000
1.000000 0.666736 0.000000
1.000000 0.665393 0.000000
1.000000 0.664051 0.000000
0.000000 0.765563 0.003951
0.000000 0.764221 0.002609
0.003798 0.762878 0.001266
0.087709 0.761535 0.000000
0.171621 0.760193 0.000000
0.255532 0.758850 0.000000
0.339444 0.757508 0.000000
0.423355 0.756165 0.000000
0.507267 0.754822 0.000000
0.591178 0.753480 0.000000
0.675090 0.752137 0.000000
0.759001 0.750795 0.000000
0.842913 0.749452 0.000000
0.926824 0.748109 0.000000
1.000000 0.746767 0.000000
1.000000 0.745424 0.000000
1.000000 0.744082 0.000000
0.000000 0.845594 0.000000
0.000000 0.844251 0.000000
0.000000 0.842909 0.000000
0.083232 0.841566 0.000000
0.167144 0.840224 0.000000
0.251055 0.838881 0.000000
0.334967 0.837539 0.000000
0.418878 0.836196 0.000000
0.502790 0.834853 0.000000
0.586701 0.833511 0.000000
0.670613 0.832168 0.000000
0.754524 0.830826 0.000000
0.838436 0.829483 0.000000
0.922347 0.828140 0.000000
1.000000 0.826798 0.000000
1.000000 0.825455 0.000000
1.000000 0.824113 0.000000
0.000000 0.925625 0.000000
0.000000 0.924282 0.000000
0.000000 0.922940 0.000000
0.078755 0.921597 0.000000
0.162667 0.920255 0.000000
0.246578 0.918912 0.000000
0.330490 0.917569 0.000000
0.414401 0.916227 0.000000
0.498313 0.914884 0.000000
0.582224 0.913542 0.000000
0.666136 0.912199 0.000000
0.750047 0.910857 0.000000
0.833959 0.909514 0.000000
0.917870 0.908171 0.000000
1.000000 0.906829 0.000000
1.000000 0.905486 0.000000
1.000000 0.904144 0.000000
0.000000 1.000000 0.000000
0.000000 1.000000 0.000000
0.000000 1.000000 0.000000
0.074278 1.000000 0.000000
0.158190 1.000000 0.000000
0.242101 0.998943 0.000000
0.326013 0.997600 0.000000
0.409924 0.996258 0.000000
0.493836 0.994915 0.000000
0.577747 0.993573 0.000000
0.661659 0.992230 0.000000
0.745570 0.990887 0.000000
0.829482 0.989545 0.000000
0.913393 0.988202 0.000000
0.997304 0.986860 0.000000
1.000000 0.985517 0.000000
1.000000 0.984175 0.000000
0.000000 1.000000 0.000000
0.000000 1.000000 0.000000
0.000000 1.000000 0.000000
0.069801 1.000000 0.000000
0.153713 1.000000 0.000000
0.237624 1.000000 0.000000
0.321536 1.000000 0.000000
0.405447 1.000000 0.000000
0.489359 1.000000 0.000000
0.573270 1.000000 0.000000
0.657182 1.000000 0.000000
0.741093 1.000000 0.000000
0.825004 1.000000 0.000000
0.908916 1.000000 0.000000
0.992827 1.000000 0.000000
1.000000 1.000000 0.000000
1.000000 1.000000 0.000000
0.000000 1.000000 0.000000
0.000000 1.000000 0.000000
0.000000 1.000000 0.000000
0.065324 1.000000 0.000000
0.149236 1.000000 0.000000
0.233147 1.000000 0.000000
0.317059 1.000000 0.000000
0.400970 1.000000 0.000000
0.484882 1.000000 0.000000
0.568793 1.000000 0.000000
0.652704 1.000000 0.000000
0.736616 1.000000 0.000000
0.820527 1.000000 0.000000
0.904439 1.000000 0.000000
0.988350 1.000000 0.000000
1.000000 1.000000 0.000000
1.000000 1.000000 0.000000
0.000000 0.000000 0.136738
0.000000 0.000000 0.135395
0.052596 0.000000 0.134053
0.136508 0.000000 0.132710
0.220419 0.000000 0.131367
0.304331 0.000000 0.130025
0.388242 0.000000 0.128682
0.472154 0.000000 0.127340
0.556065 0.000000 0.125997
0.639977 0.000000 0.124654
0.723888 0.000000 0.123312
0.807800 0.000000 0.121969
0.891711 0.000000 0.120627
0.975622 0.000000 0.119284
