assets/lighting/day-night-palettes/grade-midday-punchy/lut.cube
TITLE "Midday Punchy"
# TKRS lighting-batch-001 original LUT
# Intended usage: hard noon sun, contrasty outdoor
# License: CC0-1.0
LUT_3D_SIZE 9
DOMAIN_MIN 0.0 0.0 0.0
DOMAIN_MAX 1.0 1.0 1.0
0.000000 0.000000 0.000000
0.053944 0.000000 0.000000
0.221767 0.000000 0.000000
0.389590 0.000000 0.000000
0.557413 0.000000 0.000000
0.725236 0.000000 0.000000
0.893059 0.000000 0.000000
1.000000 0.000000 0.000000
1.000000 0.000000 0.000000
0.000000 0.046183 0.000000
0.044990 0.043498 0.000000
0.212813 0.040812 0.000000
0.380636 0.038127 0.000000
0.548459 0.035442 0.000000
0.716281 0.032757 0.000000
0.884104 0.030072 0.000000
1.000000 0.027386 0.000000
1.000000 0.024701 0.000000
0.000000 0.206245 0.000000
0.036036 0.203560 0.000000
0.203859 0.200874 0.000000
0.371682 0.198189 0.000000
0.539504 0.195504 0.000000
0.707327 0.192819 0.000000
0.875150 0.190134 0.000000
1.000000 0.187448 0.000000
1.000000 0.184763 0.000000
0.000000 0.366307 0.000000
0.027082 0.363621 0.000000
0.194904 0.360936 0.000000
0.362727 0.358251 0.000000
0.530550 0.355566 0.000000
0.698373 0.352881 0.000000
0.866196 0.350196 0.000000
1.000000 0.347510 0.000000
1.000000 0.344825 0.000000
0.000000 0.526369 0.000000
0.018127 0.523683 0.000000
0.185950 0.520998 0.000000
0.353773 0.518313 0.000000
0.521596 0.515628 0.000000
0.689419 0.512943 0.000000
0.857242 0.510257 0.000000
1.000000 0.507572 0.000000
1.000000 0.504887 0.000000
0.000000 0.686431 0.000000
0.009173 0.683745 0.000000
0.176996 0.681060 0.000000
0.344819 0.678375 0.000000
0.512642 0.675690 0.000000
0.680465 0.673005 0.000000
0.848288 0.670319 0.000000
1.000000 0.667634 0.000000
1.000000 0.664949 0.000000
0.000000 0.846492 0.000000
0.000219 0.843807 0.000000
0.168042 0.841122 0.000000
0.335865 0.838437 0.000000
0.503688 0.835752 0.000000
0.671511 0.833067 0.000000
0.839334 0.830381 0.000000
1.000000 0.827696 0.000000
1.000000 0.825011 0.000000
0.000000 1.000000 0.000000
0.000000 1.000000 0.000000
0.159088 1.000000 0.000000
0.326911 0.998499 0.000000
0.494734 0.995814 0.000000
0.662557 0.993128 0.000000
0.830380 0.990443 0.000000
0.998203 0.987758 0.000000
1.000000 0.985073 0.000000
0.000000 1.000000 0.000000
0.000000 1.000000 0.000000
0.150134 1.000000 0.000000
0.317957 1.000000 0.000000
0.485780 1.000000 0.000000
0.653603 1.000000 0.000000
0.821426 1.000000 0.000000
0.989249 1.000000 0.000000
1.000000 1.000000 0.000000
0.000000 0.000000 0.053199
0.053045 0.000000 0.050514
0.220868 0.000000 0.047828
0.388691 0.000000 0.045143
0.556514 0.000000 0.042458
0.724337 0.000000 0.039773
0.892160 0.000000 0.037088
1.000000 0.000000 0.034402
1.000000 0.000000 0.031717
0.000000 0.045284 0.044245
0.044091 0.042599 0.041560
0.211914 0.039914 0.038874
0.379737 0.037229 0.036189
0.547560 0.034544 0.033504
0.715383 0.031858 0.030819
0.883206 0.029173 0.028134
1.000000 0.026488 0.025448
1.000000 0.023803 0.022763
0.000000 0.205346 0.035291
0.035137 0.202661 0.032605
0.202960 0.199976 0.029920
0.370783 0.197291 0.027235
0.538606 0.194606 0.024550
0.706429 0.191920 0.021865
0.874252 0.189235 0.019179
1.000000 0.186550 0.016494
1.000000 0.183865 0.013809
0.000000 0.365408 0.026337
0.026183 0.362723 0.023651
0.194006 0.360038 0.020966
0.361829 0.357353 0.018281
0.529652 0.354668 0.015596
0.697475 0.351982 0.012911
0.865298 0.349297 0.010225
1.000000 0.346612 0.007540
1.000000 0.343927 0.004855
0.000000 0.525470 0.017382
0.017229 0.522785 0.014697
0.185052 0.520100 0.012012
0.352875 0.517415 0.009327
0.520698 0.514729 0.006642
0.688521 0.512044 0.003956
0.856344 0.509359 0.001271
1.000000 0.506674 0.000000
1.000000 0.503989 0.000000
0.000000 0.685532 0.008428
0.008275 0.682847 0.005743
0.176098 0.680162 0.003058
0.343921 0.677477 0.000373
0.511744 0.674791 0.000000
0.679567 0.672106 0.000000
0.847390 0.669421 0.000000
1.000000 0.666736 0.000000
1.000000 0.664051 0.000000
0.000000 0.845594 0.000000
0.000000 0.842909 0.000000
0.167144 0.840224 0.000000
0.334967 0.837539 0.000000
0.502790 0.834853 0.000000
0.670613 0.832168 0.000000
0.838436 0.829483 0.000000
1.000000 0.826798 0.000000
1.000000 0.824113 0.000000
0.000000 1.000000 0.000000
0.000000 1.000000 0.000000
0.158190 1.000000 0.000000
0.326013 0.997600 0.000000
0.493836 0.994915 0.000000
0.661659 0.992230 0.000000
0.829482 0.989545 0.000000
0.997304 0.986860 0.000000
1.000000 0.984175 0.000000
0.000000 1.000000 0.000000
0.000000 1.000000 0.000000
0.149236 1.000000 0.000000
0.317059 1.000000 0.000000
0.484882 1.000000 0.000000
0.652704 1.000000 0.000000
0.820527 1.000000 0.000000
0.988350 1.000000 0.000000
1.000000 1.000000 0.000000
0.000000 0.000000 0.220277
0.052147 0.000000 0.217592
0.219970 0.000000 0.214906
0.387793 0.000000 0.212221
0.555616 0.000000 0.209536
0.723439 0.000000 0.206851
0.891262 0.000000 0.204166
1.000000 0.000000 0.201480
1.000000 0.000000 0.198795
0.000000 0.044386 0.211323
0.043193 0.041701 0.208637
0.211016 0.039016 0.205952
0.378839 0.036331 0.203267
0.546662 0.033645 0.200582
0.714485 0.030960 0.197897
0.882308 0.028275 0.195212
1.000000 0.025590 0.192526
1.000000 0.022905 0.189841
0.000000 0.204448 0.202369
0.034239 0.201763 0.199683
0.202062 0.199078 0.196998
0.369885 0.196392 0.194313
0.537708 0.193707 0.191628
0.705531 0.191022 0.188943
0.873354 0.188337 0.186257
1.000000 0.185652 0.183572
1.000000 0.182966 0.180887
0.000000 0.364510 0.193414
0.025285 0.361825 0.190729
0.193108 0.359140 0.188044
0.360931 0.356454 0.185359
0.528754 0.353769 0.182674
0.696577 0.351084 0.179989
0.864400 0.348399 0.177303
1.000000 0.345714 0.174618
1.000000 0.343028 0.171933
0.000000 0.524572 0.184460
0.016331 0.521887 0.181775
0.184154 0.519201 0.179090
0.351977 0.516516 0.176405
0.519800 0.513831 0.173720
0.687622 0.511146 0.171034
0.855445 0.508461 0.168349
1.000000 0.505776 0.165664
1.000000 0.503090 0.162979
0.000000 0.684634 0.175506
0.007377 0.681949 0.172821
0.175200 0.679263 0.170136
0.343023 0.676578 0.167451
0.510845 0.673893 0.164766
0.678668 0.671208 0.162080
0.846491 0.668523 0.159395
1.000000 0.665837 0.156710
1.000000 0.663152 0.154025
0.000000 0.844696 0.166552
0.000000 0.842011 0.163867
0.166245 0.839325 0.161182
0.334068 0.836640 0.158497
0.501891 0.833955 0.155811
0.669714 0.831270 0.153126
0.837537 0.828585 0.150441
1.000000 0.825899 0.147756
1.000000 0.823214 0.145071
0.000000 1.000000 0.157598
0.000000 1.000000 0.154913
0.157291 0.999387 0.152228
0.325114 0.996702 0.149543
0.492937 0.994017 0.146857
0.660760 0.991332 0.144172
0.828583 0.988647 0.141487
0.996406 0.985961 0.138802
1.000000 0.983276 0.136117
0.000000 1.000000 0.148644
0.000000 1.000000 0.145959
0.148337 1.000000 0.143274
0.316160 1.000000 0.140588
0.483983 1.000000 0.137903
0.651806 1.000000 0.135218
0.819629 1.000000 0.132533
0.987452 1.000000 0.129848
1.000000 1.000000 0.127163
0.000000 0.000000 0.387355
0.051249 0.000000 0.384670
0.219072 0.000000 0.381984
0.386895 0.000000 0.379299
0.554718 0.000000 0.376614
0.722540 0.000000 0.373929
0.890363 0.000000 0.371244
1.000000 0.000000 0.368558
1.000000 0.000000 0.365873
0.000000 0.043488 0.378401
0.042295 0.040803 0.375715
0.210118 0.038117 0.373030
0.377941 0.035432 0.370345
0.545763 0.032747 0.367660
0.713586 0.030062 0.364975
0.881409 0.027377 0.362289
1.000000 0.024691 0.359604
1.000000 0.022006 0.356919
0.000000 0.203550 0.369447
0.033341 0.200864 0.366761
0.201163 0.198179 0.364076
0.368986 0.195494 0.361391
0.536809 0.192809 0.358706
0.704632 0.190124 0.356021
0.872455 0.187439 0.353335
1.000000 0.184753 0.350650
1.000000 0.182068 0.347965
0.000000 0.363612 0.360492
0.024386 0.360926 0.357807
0.192209 0.358241 0.355122
0.360032 0.355556 0.352437
0.527855 0.352871 0.349752
0.695678 0.350186 0.347066
0.863501 0.347500 0.344381
1.000000 0.344815 0.341696
1.000000 0.342130 0.339011
0.000000 0.523674 0.351538
0.015432 0.520988 0.348853
0.183255 0.518303 0.346168
0.351078 0.515618 0.343483
0.518901 0.512933 0.340798
0.686724 0.510248 0.338112
0.854547 0.507562 0.335427
1.000000 0.504877 0.332742
1.000000 0.502192 0.330057
0.000000 0.683735 0.342584
0.006478 0.681050 0.339899
0.174301 0.678365 0.337214
0.342124 0.675680 0.334529
0.509947 0.672995 0.331843
0.677770 0.670309 0.329158
0.845593 0.667624 0.326473
1.000000 0.664939 0.323788
1.000000 0.662254 0.321103
0.000000 0.843797 0.333630
0.000000 0.841112 0.330945
0.165347 0.838427 0.328260
0.333170 0.835742 0.325575
0.500993 0.833057 0.322889
0.668816 0.830371 0.320204
0.836639 0.827686 0.317519
1.000000 0.825001 0.314834
1.000000 0.822316 0.312149
0.000000 1.000000 0.324676
0.000000 1.000000 0.321991
0.156393 0.998489 0.319306
0.324216 0.995804 0.316620
0.492039 0.993119 0.313935
0.659862 0.990433 0.311250
0.827685 0.987748 0.308565
0.995508 0.985063 0.305880
1.000000 0.982378 0.303195
0.000000 1.000000 0.315722
0.000000 1.000000 0.313037
0.147439 1.000000 0.310352
0.315262 1.000000 0.307666
0.483085 1.000000 0.304981
0.650908 1.000000 0.302296
0.818731 1.000000 0.299611
0.986554 1.000000 0.296926
1.000000 1.000000 0.294240
0.000000 0.000000 0.554433
0.050350 0.000000 0.551747
0.218173 0.000000 0.549062
0.385996 0.000000 0.546377
0.553819 0.000000 0.543692
0.721642 0.000000 0.541007
0.889465 0.000000 0.538322
1.000000 0.000000 0.535636
1.000000 0.000000 0.532951
0.000000 0.042589 0.545479
0.041396 0.039904 0.542793
0.209219 0.037219 0.540108
0.377042 0.034534 0.537423
0.544865 0.031849 0.534738
0.712688 0.029163 0.532053
0.880511 0.026478 0.529367
1.000000 0.023793 0.526682
1.000000 0.021108 0.523997
0.000000 0.202651 0.536524
0.032442 0.199966 0.533839
0.200265 0.197281 0.531154
0.368088 0.194596 0.528469
0.535911 0.191911 0.525784
0.703734 0.189225 0.523099
0.871557 0.186540 0.520413
1.000000 0.183855 0.517728
1.000000 0.181170 0.515043
0.000000 0.362713 0.527570
0.023488 0.360028 0.524885
0.191311 0.357343 0.522200
0.359134 0.354658 0.519515
0.526957 0.351972 0.516830
0.694780 0.349287 0.514144
0.862603 0.346602 0.511459
1.000000 0.343917 0.508774
1.000000 0.341232 0.506089
0.000000 0.522775 0.518616
0.014534 0.520090 0.515931
0.182357 0.517405 0.513246
0.350180 0.514720 0.510561
0.518003 0.512034 0.507876
0.685826 0.509349 0.505190
0.853649 0.506664 0.502505
1.000000 0.503979 0.499820
1.000000 0.501294 0.497135
0.000000 0.682837 0.509662
0.005580 0.680152 0.506977
0.173403 0.677467 0.504292
0.341226 0.674782 0.501607
0.509049 0.672096 0.498921
0.676872 0.669411 0.496236
0.844695 0.666726 0.493551
1.000000 0.664041 0.490866
1.000000 0.661356 0.488181
0.000000 0.842899 0.500708
0.000000 0.840214 0.498023
0.164449 0.837529 0.495338
0.332272 0.834843 0.492653
0.500095 0.832158 0.489967
0.667918 0.829473 0.487282
0.835741 0.826788 0.484597
1.000000 0.824103 0.481912
1.000000 0.821418 0.479227
0.000000 1.000000 0.491754
0.000000 1.000000 0.489069
0.155495 0.997591 0.486384
0.323318 0.994905 0.483698
0.491141 0.992220 0.481013
0.658963 0.989535 0.478328
0.826786 0.986850 0.475643
0.994609 0.984165 0.472958
1.000000 0.981479 0.470272
0.000000 1.000000 0.482800
0.000000 1.000000 0.480115
0.146541 1.000000 0.477430
0.314363 1.000000 0.474744
0.482186 1.000000 0.472059
0.650009 1.000000 0.469374
0.817832 1.000000 0.466689
0.985655 1.000000 0.464004
1.000000 1.000000 0.461318
0.000000 0.000000 0.721511
0.049452 0.000000 0.718825
0.217275 0.000000 0.716140
0.385098 0.000000 0.713455
0.552921 0.000000 0.710770
0.720744 0.000000 0.708085
0.888567 0.000000 0.705399
1.000000 0.000000 0.702714
1.000000 0.000000 0.700029
0.000000 0.041691 0.712556
0.040498 0.039006 0.709871
0.208321 0.036321 0.707186
0.376144 0.033635 0.704501
0.543967 0.030950 0.701816
0.711790 0.028265 0.699131
0.879613 0.025580 0.696445
1.000000 0.022895 0.693760
1.000000 0.020209 0.691075
0.000000 0.201753 0.703602
0.031544 0.199068 0.700917
0.199367 0.196383 0.698232
0.367190 0.193697 0.695547
0.535013 0.191012 0.692862
0.702836 0.188327 0.690176
0.870659 0.185642 0.687491
1.000000 0.182957 0.684806
1.000000 0.180271 0.682121
0.000000 0.361815 0.694648
0.022590 0.359130 0.691963
0.190413 0.356444 0.689278
0.358236 0.353759 0.686593
0.526059 0.351074 0.683908
0.693881 0.348389 0.681222
0.861704 0.345704 0.678537
1.000000 0.343019 0.675852
1.000000 0.340333 0.673167
0.000000 0.521877 0.685694
0.013636 0.519192 0.683009
0.181459 0.516506 0.680324
0.349282 0.513821 0.677639
0.517104 0.511136 0.674953
0.684927 0.508451 0.672268
0.852750 0.505766 0.669583
1.000000 0.503080 0.666898
1.000000 0.500395 0.664213
0.000000 0.681939 0.676740
0.004682 0.679254 0.674055
0.172504 0.676568 0.671370
0.340327 0.673883 0.668685
0.508150 0.671198 0.665999
0.675973 0.668513 0.663314
0.843796 0.665828 0.660629
1.000000 0.663142 0.657944
1.000000 0.660457 0.655259
0.000000 0.842001 0.667786
0.000000 0.839315 0.665101
0.163550 0.836630 0.662416
0.331373 0.833945 0.659730
0.499196 0.831260 0.657045
0.667019 0.828575 0.654360
0.834842 0.825890 0.651675
1.000000 0.823204 0.648990
1.000000 0.820519 0.646305
0.000000 1.000000 0.658832
0.000000 0.999377 0.656147
0.154596 0.996692 0.653462
0.322419 0.994007 0.650776
0.490242 0.991322 0.648091
0.658065 0.988637 0.645406
0.825888 0.985951 0.642721
0.993711 0.983266 0.640036
1.000000 0.980581 0.637350
0.000000 1.000000 0.649878
0.000000 1.000000 0.647193
0.145642 1.000000 0.644507
0.313465 1.000000 0.641822
0.481288 1.000000 0.639137
0.649111 1.000000 0.636452
0.816934 1.000000 0.633767
0.984757 1.000000 0.631082
1.000000 1.000000 0.628396
0.000000 0.000000 0.888589
0.048554 0.000000 0.885903
0.216377 0.000000 0.883218
0.384200 0.000000 0.880533
0.552022 0.000000 0.877848
0.719845 0.000000 0.875163
0.887668 0.000000 0.872477
1.000000 0.000000 0.869792
1.000000 0.000000 0.867107
0.000000 0.040793 0.879634
0.039600 0.038107 0.876949
0.207422 0.035422 0.874264
0.375245 0.032737 0.871579
0.543068 0.030052 0.868894
0.710891 0.027367 0.866209
0.878714 0.024681 0.863523
1.000000 0.021996 0.860838
1.000000 0.019311 0.858153
0.000000 0.200855 0.870680
0.030645 0.198169 0.867995
0.198468 0.195484 0.865310
0.366291 0.192799 0.862625
0.534114 0.190114 0.859940
0.701937 0.187429 0.857254
0.869760 0.184743 0.854569
1.000000 0.182058 0.851884
1.000000 0.179373 0.849199
0.000000 0.360916 0.861726
0.021691 0.358231 0.859041
0.189514 0.355546 0.856356
0.357337 0.352861 0.853671
0.525160 0.350176 0.850986
0.692983 0.347491 0.848300
0.860806 0.344805 0.845615
1.000000 0.342120 0.842930
1.000000 0.339435 0.840245
0.000000 0.520978 0.852772
0.012737 0.518293 0.850087
0.180560 0.515608 0.847402
0.348383 0.512923 0.844717
0.516206 0.510238 0.842031
0.684029 0.507552 0.839346
0.851852 0.504867 0.836661
1.000000 0.502182 0.833976
1.000000 0.499497 0.831291
0.000000 0.681040 0.843818
0.003783 0.678355 0.841133
0.171606 0.675670 0.838448
0.339429 0.672985 0.835763
0.507252 0.670300 0.833077
0.675075 0.667614 0.830392
0.842898 0.664929 0.827707
1.000000 0.662244 0.825022
1.000000 0.659559 0.822337
0.000000 0.841102 0.834864
0.000000 0.838417 0.832179
0.162652 0.835732 0.829494
0.330475 0.833047 0.826808
0.498298 0.830362 0.824123
0.666121 0.827676 0.821438
0.833944 0.824991 0.818753
1.000000 0.822306 0.816068
1.000000 0.819621 0.813382
0.000000 1.000000 0.825910
0.000000 0.998479 0.823225
0.153698 0.995794 0.820540
0.321521 0.993109 0.817854
0.489344 0.990423 0.815169
0.657167 0.987738 0.812484
0.824990 0.985053 0.809799
0.992813 0.982368 0.807114
1.000000 0.979683 0.804428
0.000000 1.000000 0.816956
0.000000 1.000000 0.814271
0.144744 1.000000 0.811585
0.312567 1.000000 0.808900
0.480390 1.000000 0.806215
0.648213 1.000000 0.803530
0.816036 1.000000 0.800845
0.983859 1.000000 0.798159
1.000000 1.000000 0.795474
0.000000 0.000000 1.000000
0.047655 0.000000 1.000000
0.215478 0.000000 1.000000
0.383301 0.000000 1.000000
0.551124 0.000000 1.000000
0.718947 0.000000 1.000000
0.886770 0.000000 1.000000
1.000000 0.000000 1.000000
1.000000 0.000000 1.000000
0.000000 0.039894 1.000000
0.038701 0.037209 1.000000
0.206524 0.034524 1.000000
0.374347 0.031839 1.000000
0.542170 0.029154 1.000000
0.709993 0.026468 1.000000
0.877816 0.023783 1.000000
1.000000 0.021098 1.000000
1.000000 0.018413 1.000000
0.000000 0.199956 1.000000
0.029747 0.197271 1.000000
0.197570 0.194586 1.000000
0.365393 0.191901 1.000000
0.533216 0.189215 1.000000
0.701039 0.186530 1.000000
0.868862 0.183845 1.000000
1.000000 0.181160 1.000000
1.000000 0.178475 1.000000
0.000000 0.360018 1.000000
0.020793 0.357333 1.000000
0.188616 0.354648 1.000000
0.356439 0.351963 1.000000
0.524262 0.349277 1.000000
0.692085 0.346592 1.000000
0.859908 0.343907 1.000000
1.000000 0.341222 1.000000
1.000000 0.338537 1.000000
0.000000 0.520080 1.000000
0.011839 0.517395 1.000000
0.179662 0.514710 1.000000
0.347485 0.512024 1.000000
0.515308 0.509339 1.000000
0.683131 0.506654 1.000000
0.850954 0.503969 1.000000
1.000000 0.501284 1.000000
1.000000 0.498599 0.998369
0.000000 0.680142 1.000000
0.002885 0.677457 1.000000
0.170708 0.674772 1.000000
0.338531 0.672086 1.000000
0.506354 0.669401 1.000000
0.674177 0.666716 0.997470
0.842000 0.664031 0.994785
1.000000 0.661346 0.992100
1.000000 0.658660 0.989415
0.000000 0.840204 1.000000
0.000000 0.837519 0.999257
0.161754 0.834834 0.996572
0.329577 0.832148 0.993886
0.497400 0.829463 0.991201
0.665222 0.826778 0.988516
0.833045 0.824093 0.985831
1.000000 0.821408 0.983146
1.000000 0.818722 0.980460
0.000000 1.000000 0.992988
0.000000 0.997581 0.990303
0.152800 0.994895 0.987617
0.320623 0.992210 0.984932
0.488445 0.989525 0.982247
0.656268 0.986840 0.979562
0.824091 0.984155 0.976877
0.991914 0.981470 0.974192
1.000000 0.978784 0.971506
0.000000 1.000000 0.984034
0.000000 1.000000 0.981349
0.143845 1.000000 0.978663
0.311668 1.000000 0.975978
0.479491 1.000000 0.973293
0.647314 1.000000 0.970608
0.815137 1.000000 0.967923
0.982960 1.000000 0.965237
1.000000 1.000000 0.962552
0.000000 0.000000 1.000000
0.046757 0.000000 1.000000
0.214580 0.000000 1.000000
0.382403 0.000000 1.000000
0.550226 0.000000 1.000000
0.718049 0.000000 1.000000
0.885872 0.000000 1.000000
1.000000 0.000000 1.000000
1.000000 0.000000 1.000000
0.000000 0.038996 1.000000
0.037803 0.036311 1.000000
0.205626 0.033626 1.000000
0.373449 0.030940 1.000000
0.541272 0.028255 1.000000
0.709095 0.025570 1.000000
0.876918 0.022885 1.000000
1.000000 0.020200 1.000000
1.000000 0.017514 1.000000
0.000000 0.199058 1.000000
0.028849 0.196373 1.000000
0.196672 0.193687 1.000000
0.364495 0.191002 1.000000
0.532318 0.188317 1.000000
0.700141 0.185632 1.000000
0.867963 0.182947 1.000000
1.000000 0.180262 1.000000
1.000000 0.177576 1.000000
0.000000 0.359120 1.000000
0.019895 0.356435 1.000000
0.187718 0.353749 1.000000
0.355541 0.351064 1.000000
0.523363 0.348379 1.000000
0.691186 0.345694 1.000000
0.859009 0.343009 1.000000
1.000000 0.340323 1.000000
1.000000 0.337638 1.000000
0.000000 0.519182 1.000000
0.010941 0.516497 1.000000
0.178763 0.513811 1.000000
0.346586 0.511126 1.000000
0.514409 0.508441 1.000000
0.682232 0.505756 1.000000
0.850055 0.503071 1.000000
1.000000 0.500385 1.000000
1.000000 0.497700 1.000000
0.000000 0.679244 1.000000
0.001986 0.676558 1.000000
0.169809 0.673873 1.000000
0.337632 0.671188 1.000000
0.505455 0.668503 1.000000
0.673278 0.665818 1.000000
0.841101 0.663132 1.000000
1.000000 0.660447 1.000000
1.000000 0.657762 1.000000
0.000000 0.839306 1.000000
0.000000 0.836620 1.000000
0.160855 0.833935 1.000000
0.328678 0.831250 1.000000
0.496501 0.828565 1.000000
0.664324 0.825880 1.000000
0.832147 0.823194 1.000000
0.999970 0.820509 1.000000
1.000000 0.817824 1.000000
0.000000 0.999367 1.000000
0.000000 0.996682 1.000000
0.151901 0.993997 1.000000
0.319724 0.991312 1.000000
0.487547 0.988627 1.000000
0.655370 0.985942 1.000000
0.823193 0.983256 1.000000
0.991016 0.980571 1.000000
1.000000 0.977886 1.000000
0.000000 1.000000 1.000000
0.000000 1.000000 1.000000
0.142947 1.000000 1.000000
0.310770 1.000000 1.000000
0.478593 1.000000 1.000000
0.646416 1.000000 1.000000
0.814239 1.000000 1.000000
0.982062 1.000000 1.000000
1.000000 1.000000 1.000000
