assets/lighting/day-night-palettes/grade-midday-punchy/lut.cube
TITLE "Midday Punchy"
# TKRS lighting-batch-001 original LUT
# Intended usage: hard noon sun, contrasty outdoor
# License: CC0-1.0
LUT_3D_SIZE 5
DOMAIN_MIN 0.0 0.0 0.0
DOMAIN_MAX 1.0 1.0 1.0
0.000000 0.000000 0.000000
0.221767 0.000000 0.000000
0.557413 0.000000 0.000000
0.893059 0.000000 0.000000
1.000000 0.000000 0.000000
0.000000 0.206245 0.000000
0.203859 0.200874 0.000000
0.539504 0.195504 0.000000
0.875150 0.190134 0.000000
1.000000 0.184763 0.000000
0.000000 0.526369 0.000000
0.185950 0.520998 0.000000
0.521596 0.515628 0.000000
0.857242 0.510257 0.000000
1.000000 0.504887 0.000000
0.000000 0.846492 0.000000
0.168042 0.841122 0.000000
0.503688 0.835752 0.000000
0.839334 0.830381 0.000000
1.000000 0.825011 0.000000
0.000000 1.000000 0.000000
0.150134 1.000000 0.000000
0.485780 1.000000 0.000000
0.821426 1.000000 0.000000
1.000000 1.000000 0.000000
0.000000 0.000000 0.220277
0.219970 0.000000 0.214906
0.555616 0.000000 0.209536
0.891262 0.000000 0.204166
1.000000 0.000000 0.198795
0.000000 0.204448 0.202369
0.202062 0.199078 0.196998
0.537708 0.193707 0.191628
0.873354 0.188337 0.186257
1.000000 0.182966 0.180887
0.000000 0.524572 0.184460
0.184154 0.519201 0.179090
0.519800 0.513831 0.173720
0.855445 0.508461 0.168349
1.000000 0.503090 0.162979
0.000000 0.844696 0.166552
0.166245 0.839325 0.161182
0.501891 0.833955 0.155811
0.837537 0.828585 0.150441
1.000000 0.823214 0.145071
0.000000 1.000000 0.148644
0.148337 1.000000 0.143274
0.483983 1.000000 0.137903
0.819629 1.000000 0.132533
1.000000 1.000000 0.127163
0.000000 0.000000 0.554433
0.218173 0.000000 0.549062
0.553819 0.000000 0.543692
0.889465 0.000000 0.538322
1.000000 0.000000 0.532951
0.000000 0.202651 0.536524
0.200265 0.197281 0.531154
0.535911 0.191911 0.525784
0.871557 0.186540 0.520413
1.000000 0.181170 0.515043
0.000000 0.522775 0.518616
0.182357 0.517405 0.513246
0.518003 0.512034 0.507876
0.853649 0.506664 0.502505
1.000000 0.501294 0.497135
0.000000 0.842899 0.500708
0.164449 0.837529 0.495338
0.500095 0.832158 0.489967
0.835741 0.826788 0.484597
1.000000 0.821418 0.479227
0.000000 1.000000 0.482800
0.146541 1.000000 0.477430
0.482186 1.000000 0.472059
0.817832 1.000000 0.466689
1.000000 1.000000 0.461318
0.000000 0.000000 0.888589
0.216377 0.000000 0.883218
0.552022 0.000000 0.877848
0.887668 0.000000 0.872477
1.000000 0.000000 0.867107
0.000000 0.200855 0.870680
0.198468 0.195484 0.865310
0.534114 0.190114 0.859940
0.869760 0.184743 0.854569
1.000000 0.179373 0.849199
0.000000 0.520978 0.852772
0.180560 0.515608 0.847402
0.516206 0.510238 0.842031
0.851852 0.504867 0.836661
1.000000 0.499497 0.831291
0.000000 0.841102 0.834864
0.162652 0.835732 0.829494
0.498298 0.830362 0.824123
0.833944 0.824991 0.818753
1.000000 0.819621 0.813382
0.000000 1.000000 0.816956
0.144744 1.000000 0.811585
0.480390 1.000000 0.806215
0.816036 1.000000 0.800845
1.000000 1.000000 0.795474
0.000000 0.000000 1.000000
0.214580 0.000000 1.000000
0.550226 0.000000 1.000000
0.885872 0.000000 1.000000
1.000000 0.000000 1.000000
0.000000 0.199058 1.000000
0.196672 0.193687 1.000000
0.532318 0.188317 1.000000
0.867963 0.182947 1.000000
1.000000 0.177576 1.000000
0.000000 0.519182 1.000000
0.178763 0.513811 1.000000
0.514409 0.508441 1.000000
0.850055 0.503071 1.000000
1.000000 0.497700 1.000000
0.000000 0.839306 1.000000
0.160855 0.833935 1.000000
0.496501 0.828565 1.000000
0.832147 0.823194 1.000000
1.000000 0.817824 1.000000
0.000000 1.000000 1.000000
0.142947 1.000000 1.000000
0.478593 1.000000 1.000000
0.814239 1.000000 1.000000
1.000000 1.000000 1.000000
