assets/lighting/cinematic/grade-bleach-bypass/lut.cube
TITLE "Bleach Bypass"
# TKRS lighting-batch-001 original LUT
# Intended usage: harsh desat high-contrast war/industrial look
# License: CC0-1.0
LUT_3D_SIZE 5
DOMAIN_MIN 0.0 0.0 0.0
DOMAIN_MAX 1.0 1.0 1.0
0.000000 0.000000 0.000000
0.012771 0.000000 0.000000
0.162326 0.000000 0.000000
0.311881 0.000000 0.000000
0.461437 0.000000 0.000000
0.000000 0.085693 0.000000
0.116539 0.116539 0.000000
0.266720 0.147706 0.029388
0.427964 0.183134 0.062161
0.600899 0.221337 0.096538
0.073676 0.320000 0.074480
0.237109 0.363025 0.109487
0.412093 0.409076 0.146315
0.599589 0.458139 0.185077
0.800331 0.510240 0.225863
0.204091 0.614141 0.199687
0.392795 0.672054 0.241231
0.594945 0.733223 0.284902
0.811097 0.797675 0.330766
1.000000 0.851106 0.373858
0.366882 0.975763 0.348019
0.566678 1.000000 0.387951
0.764764 1.000000 0.426662
0.962851 1.000000 0.465372
1.000000 1.000000 0.504083
0.000000 0.000000 0.000000
0.023246 0.000000 0.023785
0.172802 0.000000 0.055346
0.322357 0.000000 0.086907
0.471912 0.000000 0.118468
0.000000 0.096168 0.098397
0.127014 0.127014 0.129958
0.279459 0.159392 0.162697
0.443397 0.195809 0.198544
0.619072 0.234919 0.236461
0.085515 0.334268 0.212111
0.251288 0.378327 0.250778
0.428866 0.425400 0.291537
0.619140 0.475490 0.334439
0.822805 0.528632 0.379541
0.218985 0.633445 0.350601
0.410448 0.692461 0.396517
0.615500 0.754742 0.444704
0.834673 0.820315 0.495210
1.000000 0.864738 0.535981
0.382466 0.993690 0.511363
0.580553 1.000000 0.550074
0.778639 1.000000 0.588784
0.976726 1.000000 0.627495
1.000000 1.000000 0.666206
0.000000 0.000000 0.124403
0.033722 0.000000 0.155964
0.183277 0.000000 0.187525
0.332832 0.000000 0.219086
0.482388 0.007550 0.250647
0.000000 0.106644 0.230576
0.137490 0.137490 0.262137
0.292760 0.171448 0.297780
0.459285 0.208791 0.337057
0.637701 0.248811 0.378725
0.097634 0.348891 0.351957
0.265805 0.393976 0.394471
0.446014 0.442071 0.439301
0.639094 0.493193 0.486459
0.845705 0.547380 0.535974
0.234215 0.653122 0.504211
0.428468 0.713245 0.554592
0.636446 0.776640 0.607377
0.853160 0.838229 0.659393
1.000000 0.878370 0.698103
0.396341 1.000000 0.673486
0.594428 1.000000 0.712196
0.792514 1.000000 0.750907
0.990600 1.000000 0.789618
1.000000 1.000000 0.828328
0.000000 0.000000 0.256582
0.044197 0.000000 0.288143
0.193752 0.000000 0.319704
0.343308 0.000000 0.351265
0.492863 0.018026 0.382826
0.000000 0.117119 0.362755
0.148371 0.148342 0.395071
0.306510 0.183828 0.434861
0.475608 0.222082 0.477819
0.656777 0.263016 0.523413
0.110041 0.363864 0.494121
0.280661 0.409972 0.540641
0.463538 0.459091 0.589668
0.659450 0.511250 0.641188
0.869029 0.566486 0.695207
0.249784 0.673175 0.660564
0.446858 0.734406 0.715498
0.657786 0.798919 0.772957
0.867034 0.851861 0.821515
1.000000 0.892002 0.860226
0.410216 1.000000 0.835608
0.608302 1.000000 0.874319
0.806389 1.000000 0.913030
1.000000 1.000000 0.951740
1.000000 1.000000 0.990451
0.000000 0.000000 0.388761
0.054673 0.000000 0.420322
0.204228 0.000000 0.451883
0.353783 0.000000 0.483444
0.504464 0.028560 0.515809
0.008885 0.127594 0.494934
0.160174 0.160051 0.530518
0.320671 0.196520 0.574090
0.492354 0.235680 0.620926
0.676292 0.277537 0.670597
0.122742 0.379185 0.638691
0.295861 0.426314 0.689354
0.481439 0.476462 0.742693
0.680210 0.529661 0.798672
0.892778 0.585953 0.857283
0.265698 0.693603 0.819706
0.465620 0.755945 0.879274
0.679521 0.821581 0.941482
0.880909 0.865493 0.983638
1.000000 0.905634 1.000000
0.424091 1.000000 0.997731
0.622177 1.000000 1.000000
0.820263 1.000000 1.000000
1.000000 1.000000 1.000000
1.000000 1.000000 1.000000
