assets/lighting/cinematic/grade-bleach-bypass/lut.cube
TITLE "Bleach Bypass"
# TKRS lighting-batch-001 original LUT
# Intended usage: harsh desat high-contrast war/industrial look
# License: CC0-1.0
LUT_3D_SIZE 17
DOMAIN_MIN 0.0 0.0 0.0
DOMAIN_MAX 1.0 1.0 1.0
0.000000 0.000000 0.000000
0.000000 0.000000 0.000000
0.000000 0.000000 0.000000
0.000000 0.000000 0.000000
0.012771 0.000000 0.000000
0.050160 0.000000 0.000000
0.087548 0.000000 0.000000
0.124937 0.000000 0.000000
0.162326 0.000000 0.000000
0.199715 0.000000 0.000000
0.237104 0.000000 0.000000
0.274493 0.000000 0.000000
0.311881 0.000000 0.000000
0.349270 0.000000 0.000000
0.386659 0.000000 0.000000
0.424048 0.000000 0.000000
0.461437 0.000000 0.000000
0.000000 0.000000 0.000000
0.000000 0.000000 0.000000
0.000000 0.000000 0.000000
0.001324 0.000000 0.000000
0.038713 0.000000 0.000000
0.076102 0.000000 0.000000
0.113490 0.000000 0.000000
0.150879 0.000000 0.000000
0.188268 0.000000 0.000000
0.225657 0.000000 0.000000
0.263046 0.000000 0.000000
0.300435 0.003661 0.000000
0.337823 0.011373 0.000000
0.375212 0.019084 0.000000
0.412601 0.026796 0.000000
0.449990 0.034507 0.004942
0.487379 0.042219 0.012832
0.000000 0.000000 0.000000
0.000000 0.000000 0.000000
0.000000 0.000000 0.000000
0.027266 0.000000 0.000000
0.064655 0.005300 0.000000
0.102044 0.013012 0.000000
0.139432 0.020723 0.000000
0.176821 0.028435 0.000000
0.214210 0.036146 0.000000
0.251599 0.043858 0.000000
0.288988 0.051569 0.000000
0.326376 0.059281 0.000000
0.363765 0.066992 0.007814
0.401154 0.074703 0.015705
0.438543 0.082415 0.023595
0.477743 0.090445 0.031569
0.518394 0.098736 0.039647
0.000000 0.030073 0.000000
0.000000 0.037785 0.000000
0.015819 0.045496 0.000000
0.053208 0.053208 0.000000
0.090597 0.060919 0.000000
0.127986 0.068631 0.000000
0.165374 0.076342 0.000000
0.202763 0.084054 0.000000
0.240152 0.091765 0.002797
0.277541 0.099477 0.010687
0.314930 0.107188 0.018577
0.352545 0.114968 0.026479
0.392009 0.123284 0.034499
0.432348 0.131811 0.042611
0.473459 0.140511 0.050814
0.515328 0.149374 0.059114
0.557955 0.158397 0.067514
0.000000 0.085693 0.000000
0.004372 0.093404 0.000000
0.041761 0.101116 0.000000
0.079150 0.108827 0.000000
0.116539 0.116539 0.000000
0.153927 0.124250 0.005669
0.191316 0.131962 0.013559
0.228705 0.139673 0.021450
0.266720 0.147706 0.029388
0.305954 0.156269 0.037442
0.345914 0.165044 0.045586
0.386582 0.174002 0.053825
0.427964 0.183134 0.062161
0.470073 0.192435 0.070597
0.512923 0.201902 0.079137
0.556527 0.211536 0.087783
0.600899 0.221337 0.096538
0.000000 0.141312 0.000000
0.030314 0.149023 0.000652
0.067703 0.156735 0.008542
0.105092 0.164446 0.016432
0.142481 0.172158 0.024322
0.180647 0.180591 0.032310
0.219536 0.189407 0.040396
0.259068 0.198441 0.048575
0.299259 0.207666 0.056848
0.340129 0.217073 0.065220
0.381699 0.226658 0.073694
0.423987 0.236417 0.082272
0.467009 0.246349 0.090958
0.510781 0.256454 0.099753
0.555317 0.266732 0.108660
0.600631 0.277183 0.117681
0.646735 0.287808 0.126817
0.018867 0.196931 0.019305
0.056315 0.204840 0.027215
0.094250 0.213628 0.035243
0.132727 0.222706 0.043363
0.171790 0.232006 0.051575
0.211475 0.241506 0.059884
0.251810 0.251195 0.068293
0.292822 0.261069 0.076805
0.334530 0.271124 0.085422
0.376956 0.281359 0.094147
0.420115 0.291773 0.102983
0.464024 0.302364 0.111931
0.508697 0.313135 0.120994
0.554148 0.324084 0.130173
0.600390 0.335213 0.139470
0.647435 0.346521 0.148887
0.695294 0.358010 0.158425
0.045501 0.256170 0.046342
0.084063 0.265745 0.054589
0.123216 0.275525 0.062934
0.162996 0.285503 0.071380
0.203431 0.295672 0.079930
0.244545 0.306028 0.088586
0.286359 0.316570 0.097351
0.328893 0.327296 0.106227
0.372163 0.338205 0.115217
0.416185 0.349298 0.124322
0.460974 0.360575 0.133544
0.506543 0.372035 0.142884
0.552904 0.383679 0.152345
0.600070 0.395508 0.161928
0.648052 0.407521 0.171635
0.696859 0.419721 0.181466
0.746503 0.432107 0.191423
0.073676 0.320000 0.074480
0.113518 0.330468 0.083068
0.154023 0.341130 0.091764
0.195213 0.351983 0.100569
0.237109 0.363025 0.109487
0.279729 0.374256 0.118518
0.323090 0.385675 0.127665
0.367207 0.397282 0.136930
0.412093 0.409076 0.146315
0.457763 0.421059 0.155820
0.504227 0.433230 0.165448
0.551499 0.445590 0.175200
0.599589 0.458139 0.185077
0.648508 0.470878 0.195080
0.698264 0.483808 0.205212
0.748869 0.496928 0.215472
0.800331 0.510240 0.225863
0.103509 0.387601 0.103803
0.144756 0.398964 0.112762
0.186716 0.410519 0.121835
0.229405 0.422267 0.131025
0.272841 0.434207 0.140333
0.317036 0.446339 0.149761
0.362005 0.458663 0.159311
0.407761 0.471180 0.168984
0.454316 0.483888 0.178781
0.501681 0.496789 0.188704
0.549867 0.509884 0.198754
0.598884 0.523172 0.208932
0.648742 0.536654 0.219240
0.699451 0.550330 0.229679
0.751018 0.564202 0.240250
0.803453 0.578270 0.250953
0.856765 0.592534 0.261791
0.135126 0.459076 0.134400
0.177871 0.471353 0.143751
0.221367 0.483825 0.153224
0.265628 0.496493 0.162818
0.310668 0.509357 0.172536
0.356498 0.522417 0.182379
0.403132 0.535672 0.192348
0.450578 0.549124 0.202445
0.498849 0.562773 0.212670
0.547955 0.576619 0.223025
0.597903 0.590662 0.233512
0.648705 0.604903 0.244131
0.700369 0.619343 0.254883
0.752902 0.633982 0.265770
0.806314 0.648821 0.276791
0.860613 0.663860 0.287950
0.915805 0.679100 0.299245
0.168626 0.534550 0.166342
0.212942 0.547764 0.176105
0.258041 0.561177 0.185993
0.303936 0.574789 0.196009
0.350637 0.588601 0.206152
0.398156 0.602613 0.216425
0.446502 0.616824 0.226828
0.495686 0.631236 0.237363
0.545717 0.645849 0.248030
0.596603 0.660663 0.258831
0.648354 0.675679 0.269766
0.700977 0.690897 0.280838
0.754481 0.706318 0.292046
0.808874 0.721941 0.303392
0.864163 0.737769 0.314876
0.920355 0.753801 0.326500
0.977457 0.770037 0.338264
0.204091 0.614141 0.199687
0.250040 0.628315 0.209877
0.296800 0.642692 0.220197
0.344382 0.657271 0.230648
0.392795 0.672054 0.241231
0.442049 0.687040 0.251947
0.492152 0.702230 0.262796
0.543115 0.717624 0.273781
0.594945 0.733223 0.284902
0.647651 0.749028 0.296161
0.701239 0.765037 0.307557
0.755719 0.781253 0.319092
0.811097 0.797675 0.330766
0.867381 0.814304 0.342582
0.924453 0.831036 0.354503
0.973975 0.841071 0.364180
1.000000 0.851106 0.373858
0.241590 0.697961 0.234485
0.289227 0.713116 0.245117
0.337698 0.728478 0.255881
0.387015 0.744045 0.266780
0.437184 0.759820 0.277814
0.488216 0.775802 0.288985
0.540118 0.791991 0.300293
0.592898 0.808388 0.311740
0.646564 0.824994 0.323326
0.701124 0.841808 0.335052
0.756585 0.858831 0.346918
0.810249 0.873309 0.358026
0.859770 0.883344 0.367704
0.909292 0.893379 0.377381
0.958814 0.903414 0.387059
1.000000 0.913450 0.396737
1.000000 0.923485 0.406414
0.281186 0.786110 0.270781
0.330557 0.802267 0.281865
0.380786 0.818633 0.293086
0.431879 0.835209 0.304445
0.483846 0.851995 0.315942
0.536695 0.868992 0.327578
0.590432 0.886199 0.339355
0.645065 0.903618 0.351274
0.696044 0.915582 0.361549
0.745566 0.925617 0.371227
0.795087 0.935653 0.380905
0.844609 0.945688 0.390582
0.894130 0.955723 0.400260
0.943652 0.965758 0.409938
0.993174 0.975793 0.419615
1.000000 0.985828 0.429293
1.000000 0.995863 0.438971
0.322933 0.878682 0.308614
0.374083 0.895858 0.320162
0.426109 0.913248 0.331850
0.479019 0.930851 0.343678
0.532318 0.947820 0.355395
0.581839 0.957856 0.365073
0.631361 0.967891 0.374750
0.680883 0.977926 0.384428
0.730404 0.987961 0.394106
0.779926 0.997996 0.403783
0.829447 1.000000 0.413461
0.878969 1.000000 0.423139
0.928491 1.000000 0.432816
0.978012 1.000000 0.442494
1.000000 1.000000 0.452172
1.000000 1.000000 0.461849
1.000000 1.000000 0.471527
0.366882 0.975763 0.348019
0.418113 0.990094 0.358918
0.467635 1.000000 0.368596
0.517156 1.000000 0.378274
0.566678 1.000000 0.387951
0.616200 1.000000 0.397629
0.665721 1.000000 0.407306
0.715243 1.000000 0.416984
0.764764 1.000000 0.426662
0.814286 1.000000 0.436339
0.863808 1.000000 0.446017
0.913329 1.000000 0.455695
0.962851 1.000000 0.465372
1.000000 1.000000 0.475050
1.000000 1.000000 0.484728
1.000000 1.000000 0.494405
1.000000 1.000000 0.504083
0.000000 0.000000 0.000000
0.000000 0.000000 0.000000
0.000000 0.000000 0.000000
0.000000 0.000000 0.000000
0.015390 0.000000 0.000000
0.052779 0.000000 0.000000
0.090167 0.000000 0.000000
0.127556 0.000000 0.000000
0.164945 0.000000 0.000000
0.202334 0.000000 0.000000
0.239723 0.000000 0.000000
0.277111 0.000000 0.000000
0.314500 0.000000 0.000000
0.351889 0.000000 0.000000
0.389278 0.000000 0.003553
0.426667 0.000000 0.011443
0.464055 0.000000 0.019334
0.000000 0.000000 0.000000
0.000000 0.000000 0.000000
0.000000 0.000000 0.000000
0.003943 0.000000 0.000000
0.041332 0.000000 0.000000
0.078720 0.000000 0.000000
0.116109 0.000000 0.000000
0.153498 0.000000 0.000000
0.190887 0.000000 0.000000
0.228276 0.000000 0.000000
0.265665 0.000000 0.000000
0.303053 0.006280 0.006426
0.340442 0.013992 0.014316
0.377831 0.021703 0.022206
0.415220 0.029415 0.030096
0.452609 0.037126 0.037987
0.489997 0.044838 0.045877
0.000000 0.000000 0.000000
0.000000 0.000000 0.000000
0.000000 0.000000 0.000000
0.029885 0.000207 0.000000
0.067274 0.007919 0.000000
0.104662 0.015630 0.000000
0.142051 0.023342 0.000000
0.179440 0.031053 0.001408
0.216829 0.038765 0.009298
0.254218 0.046476 0.017188
0.291606 0.054188 0.025079
0.328995 0.061899 0.032969
0.366384 0.069611 0.040859
0.403773 0.077322 0.048749
0.441401 0.085077 0.056661
0.481307 0.093241 0.064789
0.522199 0.101588 0.073033
0.000000 0.032692 0.000000
0.000000 0.040404 0.000000
0.018438 0.048115 0.000000
0.055827 0.055827 0.000000
0.093216 0.063538 0.004281
0.130604 0.071250 0.012171
0.167993 0.078961 0.020061
0.205382 0.086673 0.027951
0.242771 0.094384 0.035841
0.280160 0.102096 0.043732
0.317548 0.109807 0.051622
0.355728 0.117762 0.059605
0.395460 0.126159 0.067778
0.435998 0.134747 0.076061
0.477295 0.143503 0.084450
0.519343 0.152420 0.092945
0.562150 0.161497 0.101547
0.000000 0.088312 0.000000
0.006991 0.096023 0.007153
0.044380 0.103735 0.015043
0.081769 0.111446 0.022934
0.119157 0.119157 0.030824
0.156546 0.126869 0.038714
0.193935 0.134580 0.046604
0.231324 0.142292 0.054494
0.269837 0.150586 0.062567
0.309262 0.159227 0.070782
0.349393 0.168066 0.079103
0.390229 0.177084 0.087530
0.431778 0.186274 0.096064
0.474056 0.195631 0.104707
0.517077 0.205155 0.113460
0.560853 0.214846 0.122325
0.605399 0.224704 0.131305
0.000000 0.143931 0.025806
0.032933 0.151642 0.033696
0.070322 0.159354 0.041587
0.107711 0.167065 0.049477
0.145235 0.174928 0.057404
0.183640 0.183558 0.065545
0.222682 0.192452 0.073799
0.262364 0.201553 0.082159
0.302707 0.210841 0.090625
0.343734 0.220309 0.099198
0.385463 0.229952 0.107880
0.427913 0.239770 0.116674
0.471101 0.249761 0.125581
0.515041 0.259925 0.134602
0.559748 0.270262 0.143741
0.605235 0.280772 0.152997
0.651515 0.291457 0.162374
0.021486 0.199550 0.052349
0.059034 0.207782 0.060353
0.097089 0.216684 0.068537
0.135693 0.225841 0.076830
0.174890 0.235210 0.085228
0.214716 0.244775 0.093733
0.255198 0.254528 0.102346
0.296360 0.264464 0.111069
0.338224 0.274580 0.119903
0.380808 0.284875 0.128852
0.424130 0.295350 0.137916
0.468204 0.306002 0.147097
0.513046 0.316833 0.156397
0.558669 0.327843 0.165817
0.605085 0.339033 0.175360
0.652306 0.350402 0.185026
0.700344 0.361953 0.194816
0.048274 0.259398 0.079875
0.086958 0.269044 0.088312
0.126242 0.278892 0.096856
0.166160 0.288935 0.105509
0.206739 0.299168 0.114272
0.248001 0.309587 0.123148
0.289969 0.320192 0.132138
0.332659 0.330980 0.141245
0.376090 0.341952 0.150469
0.420276 0.353107 0.159812
0.465232 0.364446 0.169277
0.510971 0.375968 0.178864
0.557505 0.387675 0.188575
0.604846 0.399567 0.198412
0.653005 0.411643 0.208375
0.701993 0.423906 0.218465
0.751819 0.436356 0.228685
0.076610 0.323533 0.108686
0.116589 0.334068 0.117490
0.157236 0.344795 0.126408
0.198574 0.355712 0.135440
0.240622 0.366818 0.144589
0.283399 0.378113 0.153857
0.326919 0.389596 0.163244
0.371199 0.401266 0.172753
0.416251 0.413125 0.182385
0.462090 0.425171 0.192142
0.508726 0.437407 0.202024
0.556173 0.449831 0.212033
0.604439 0.462444 0.222171
0.653537 0.475248 0.232438
0.703475 0.488242 0.242835
0.754263 0.501427 0.253365
0.805910 0.514805 0.264027
0.106618 0.391438 0.138757
0.148013 0.402866 0.147949
0.190124 0.414487 0.157260
0.232969 0.426301 0.166692
0.276563 0.438306 0.176246
0.320921 0.450503 0.185923
0.366056 0.462892 0.195725
0.411981 0.475474 0.205653
0.458707 0.488248 0.215709
0.506246 0.501215 0.225894
0.554608 0.514375 0.236208
0.603803 0.527728 0.246654
0.653842 0.541276 0.257231
0.704733 0.555019 0.267942
0.756485 0.568958 0.278787
0.809107 0.583092 0.289767
0.862606 0.597423 0.300883
0.138421 0.463223 0.170156
0.181321 0.475566 0.179754
0.224976 0.488105 0.189477
0.269400 0.500840 0.199325
0.314605 0.513770 0.209299
0.360604 0.526896 0.219402
0.407408 0.540219 0.229634
0.455028 0.553737 0.239996
0.503474 0.567453 0.250489
0.552758 0.581366 0.261115
0.602887 0.595476 0.271874
0.653871 0.609785 0.282769
0.705718 0.624293 0.293798
0.758438 0.638999 0.304965
0.812038 0.653906 0.316268
0.866526 0.669013 0.327710
0.921910 0.684321 0.339292
0.172116 0.539015 0.202942
0.216594 0.552296 0.212963
0.261859 0.565777 0.223112
0.307921 0.579457 0.233391
0.354793 0.593337 0.243801
0.402485 0.607416 0.254342
0.451007 0.621696 0.265017
0.500368 0.636176 0.275825
0.550579 0.650857 0.286768
0.601647 0.665740 0.297848
0.653582 0.680824 0.309064
0.706391 0.696111 0.320418
0.760083 0.711601 0.331911
0.814665 0.727294 0.343543
0.870145 0.743191 0.355316
0.926530 0.759292 0.367230
0.983827 0.775598 0.379287
0.207783 0.618932 0.237166
0.253900 0.633175 0.247623
0.300831 0.647620 0.258213
0.348586 0.662269 0.268936
0.397174 0.677120 0.279793
0.446605 0.692176 0.290786
0.496889 0.707435 0.301915
0.548033 0.722899 0.313181
0.600047 0.738568 0.324586
0.652938 0.754441 0.336129
0.706715 0.770521 0.347813
0.761384 0.786807 0.359637
0.816953 0.803299 0.371603
0.873429 0.819999 0.383712
0.927922 0.834444 0.395033
0.977444 0.844479 0.404711
1.000000 0.854514 0.414389
0.245491 0.703085 0.272873
0.293301 0.718310 0.283780
0.341948 0.733741 0.294822
0.391442 0.749379 0.306001
0.441791 0.765224 0.317317
0.493004 0.781276 0.328772
0.545090 0.797536 0.340367
0.598055 0.814004 0.352101
0.651909 0.830680 0.363977
0.706658 0.847565 0.375995
0.762309 0.864660 0.388155
0.813717 0.876717 0.398557
0.863239 0.886752 0.408234
0.912761 0.896787 0.417912
0.962282 0.906822 0.427590
1.000000 0.916858 0.437267
1.000000 0.926893 0.446945
0.285302 0.791573 0.310105
0.334851 0.807801 0.321472
0.385259 0.824238 0.332977
0.436534 0.840886 0.344623
0.488685 0.857743 0.356409
0.541719 0.874812 0.368336
0.595643 0.892091 0.380405
0.649991 0.908955 0.392402
0.699513 0.918990 0.402080
0.749034 0.929025 0.411758
0.798556 0.939061 0.421435
0.848078 0.949096 0.431113
0.897599 0.959131 0.440791
0.947121 0.969166 0.450468
0.996642 0.979201 0.460146
1.000000 0.989236 0.469824
1.000000 0.999271 0.479501
0.327269 0.884491 0.348897
0.378600 0.901740 0.360734
0.430810 0.919202 0.372713
0.483905 0.936877 0.384835
0.535787 0.951228 0.395926
0.585308 0.961264 0.405603
0.634830 0.971299 0.415281
0.684351 0.981334 0.424959
0.733873 0.991369 0.434636
0.783395 1.000000 0.444314
0.832916 1.000000 0.453992
0.882438 1.000000 0.463669
0.931959 1.000000 0.473347
0.981481 1.000000 0.483024
1.000000 1.000000 0.492702
1.000000 1.000000 0.502380
1.000000 1.000000 0.512057
0.371443 0.981924 0.389284
0.421582 0.993502 0.399449
0.471103 1.000000 0.409126
0.520625 1.000000 0.418804
0.570147 1.000000 0.428482
0.619668 1.000000 0.438159
0.669190 1.000000 0.447837
0.718712 1.000000 0.457515
0.768233 1.000000 0.467192
0.817755 1.000000 0.476870
0.867276 1.000000 0.486548
0.916798 1.000000 0.496225
0.966320 1.000000 0.505903
1.000000 1.000000 0.515581
1.000000 1.000000 0.525258
1.000000 1.000000 0.534936
1.000000 1.000000 0.544614
0.000000 0.000000 0.000000
0.000000 0.000000 0.000000
0.000000 0.000000 0.000000
0.000000 0.000000 0.000000
0.018009 0.000000 0.000000
0.055397 0.000000 0.000000
0.092786 0.000000 0.000000
0.130175 0.000000 0.000000
0.167564 0.000000 0.000000
0.204953 0.000000 0.000000
0.242341 0.000000 0.005037
0.279730 0.000000 0.012927
0.317119 0.000000 0.020817
0.354508 0.000000 0.028708
0.391897 0.000000 0.036598
0.429286 0.000000 0.044488
0.466674 0.000000 0.052378
0.000000 0.000000 0.000000
0.000000 0.000000 0.000000
0.000000 0.000000 0.000000
0.006562 0.000000 0.000000
0.043951 0.000000 0.000000
0.081339 0.000000 0.000000
0.118728 0.000000 0.000019
0.156117 0.000000 0.007910
0.193506 0.000000 0.015800
0.230895 0.000000 0.023690
0.268283 0.001187 0.031580
0.305672 0.008899 0.039470
0.343061 0.016610 0.047361
0.380450 0.024322 0.055251
0.417839 0.032033 0.063141
0.455227 0.039745 0.071031
0.492616 0.047456 0.078922
0.000000 0.000000 0.000000
0.000000 0.000000 0.000000
0.000000 0.000000 0.000000
0.032504 0.002826 0.002892
0.069892 0.010538 0.010782
0.107281 0.018249 0.018672
0.144670 0.025961 0.026563
0.182059 0.033672 0.034453
0.219448 0.041384 0.042343
0.256837 0.049095 0.050233
0.294225 0.056807 0.058123
0.331614 0.064518 0.066014
0.369003 0.072230 0.073904
0.406392 0.079941 0.081794
0.444714 0.087824 0.089816
0.484939 0.096058 0.098108
0.526053 0.104459 0.106529
0.000000 0.035311 0.005764
0.000000 0.043023 0.013655
0.021057 0.050734 0.021545
0.058446 0.058446 0.029435
0.095834 0.066157 0.037325
0.133223 0.073869 0.045216
0.170612 0.081580 0.053106
0.208001 0.089292 0.060996
0.245390 0.097003 0.068886
0.282778 0.104715 0.076776
0.320167 0.112426 0.084667
0.359003 0.120589 0.092818
0.398960 0.129056 0.101160
0.439688 0.137702 0.109624
0.481166 0.146513 0.118204
0.523393 0.155485 0.126900
0.566378 0.164616 0.135711
0.000000 0.090930 0.032308
0.009610 0.098642 0.040198
0.046999 0.106353 0.048088
0.084388 0.114065 0.055978
0.121776 0.121776 0.063869
0.159165 0.129488 0.071759
0.196554 0.137199 0.079649
0.234136 0.145022 0.087590
0.273005 0.153496 0.095840
0.312607 0.162208 0.104228
0.352905 0.171109 0.112734
0.393906 0.180186 0.121357
0.435622 0.189433 0.130094
0.478068 0.198847 0.138947
0.521259 0.208428 0.147917
0.565207 0.218175 0.157005
0.609928 0.228089 0.166213
0.000000 0.146550 0.058851
0.035552 0.154261 0.066741
0.072941 0.161973 0.074631
0.110329 0.169684 0.082522
0.148099 0.177820 0.090574
0.186665 0.186554 0.098880
0.225854 0.195521 0.107311
0.265686 0.204686 0.115860
0.306182 0.214036 0.124524
0.347364 0.223564 0.133304
0.389253 0.233267 0.142199
0.431866 0.243144 0.151212
0.475219 0.253193 0.160344
0.519327 0.263416 0.169595
0.564206 0.273811 0.178967
0.609867 0.284381 0.188462
0.656323 0.295125 0.198081
0.024105 0.202169 0.085394
0.061775 0.210771 0.093582
0.099948 0.219768 0.101935
0.138679 0.229000 0.110410
0.178012 0.238437 0.119001
0.217980 0.248067 0.127707
0.258608 0.257882 0.136529
0.299922 0.267879 0.145467
0.341942 0.278056 0.154523
0.384685 0.288413 0.163698
0.428170 0.298947 0.172993
0.472410 0.309660 0.182410
0.517421 0.320552 0.191950
0.563216 0.331623 0.201614
0.609806 0.342874 0.211404
0.657204 0.354305 0.221321
0.705421 0.365917 0.231365
0.051063 0.262650 0.113525
0.089871 0.272366 0.122157
0.129287 0.282281 0.130906
0.169344 0.292389 0.139769
0.210067 0.302686 0.148750
0.251479 0.313168 0.157849
0.293600 0.323835 0.167068
0.336448 0.334686 0.176407
0.380040 0.345720 0.185869
0.424391 0.356937 0.195454
0.469515 0.368338 0.205164
0.515424 0.379923 0.214999
0.562131 0.391693 0.224963
0.609648 0.403647 0.235054
0.657985 0.415787 0.245275
0.707152 0.428113 0.255627
0.757161 0.440626 0.266111
0.079561 0.327089 0.143025
0.119678 0.337689 0.152049
0.160469 0.348481 0.161192
0.201956 0.359463 0.170454
0.244157 0.370633 0.179838
0.287090 0.381992 0.189344
0.330770 0.393538 0.198974
0.375214 0.405272 0.208730
0.420433 0.417195 0.218612
0.466441 0.429305 0.228622
0.513250 0.441605 0.238760
0.560871 0.454093 0.249029
0.609315 0.466771 0.259429
0.658591 0.479639 0.269961
0.708711 0.492698 0.280626
0.759682 0.505949 0.291426
0.811515 0.519391 0.302361
0.109745 0.395298 0.173856
0.151288 0.406791 0.183284
0.193552 0.418478 0.192836
0.236553 0.430356 0.202511
0.280308 0.442427 0.212313
0.324829 0.454689 0.222241
0.370130 0.467144 0.232298
0.416223 0.479790 0.242484
0.463121 0.492630 0.252800
0.510834 0.505662 0.263248
0.559372 0.518888 0.273828
0.608747 0.532308 0.284542
0.658966 0.545922 0.295391
0.710040 0.559731 0.306375
0.761977 0.573736 0.317496
0.814786 0.587937 0.328754
0.868475 0.602335 0.340151
0.141735 0.467393 0.206065
0.184792 0.479803 0.215913
0.228606 0.492408 0.225888
0.273193 0.505209 0.235991
0.318564 0.518206 0.246224
0.364731 0.531399 0.256588
0.411706 0.544788 0.267084
0.459500 0.558373 0.277713
0.508123 0.572156 0.288476
0.557585 0.586135 0.299374
0.607894 0.600313 0.310408
0.659061 0.614690 0.321579
0.711093 0.629265 0.332888
0.764000 0.644039 0.344335
0.817788 0.659014 0.355922
0.872466 0.674189 0.367649
0.928042 0.689566 0.379518
0.175626 0.543503 0.239702
0.220267 0.556852 0.249982
0.265697 0.570401 0.260394
0.311928 0.584149 0.270939
0.358971 0.598096 0.281616
0.406837 0.612243 0.292428
0.455534 0.626591 0.303375
0.505074 0.641139 0.314459
0.555465 0.655889 0.325680
0.606715 0.670840 0.337039
0.658834 0.685993 0.348537
0.711830 0.701349 0.360175
0.765710 0.716907 0.371954
0.820482 0.732669 0.383874
0.876154 0.748636 0.395937
0.932732 0.764807 0.408143
0.990223 0.781183 0.420493
0.211496 0.623746 0.274810
0.257782 0.638058 0.285537
0.304884 0.652572 0.296398
0.352812 0.667290 0.307395
0.401576 0.682210 0.318528
0.451185 0.697335 0.329799
0.501649 0.712664 0.341209
0.552976 0.728197 0.352758
0.605174 0.743935 0.364447
0.658251 0.759879 0.376277
0.712215 0.776029 0.388249
0.767073 0.792385 0.400364
0.822834 0.808947 0.412622
0.879503 0.825717 0.425025
0.931391 0.837852 0.435564
0.980912 0.847887 0.445242
1.000000 0.857922 0.454919
0.249414 0.708232 0.311432
0.297397 0.723527 0.322616
0.346220 0.739029 0.333937
0.395892 0.754737 0.345397
0.446421 0.770652 0.356997
0.497816 0.786775 0.368738
0.550086 0.803105 0.380619
0.603237 0.819644 0.392643
0.657279 0.836391 0.404810
0.712217 0.853347 0.417121
0.767664 0.870090 0.429410
0.817186 0.880125 0.439087
0.866708 0.890160 0.448765
0.916229 0.900195 0.458443
0.965751 0.910230 0.468120
1.000000 0.920266 0.477798
1.000000 0.930301 0.487476
0.289440 0.797061 0.349604
0.339167 0.813360 0.361255
0.389755 0.829868 0.373047
0.441212 0.846587 0.384980
0.493547 0.863516 0.397056
0.546766 0.880656 0.409275
0.600878 0.898007 0.421639
0.653460 0.912363 0.432933
0.702981 0.922398 0.442611
0.752503 0.932433 0.452288
0.802025 0.942469 0.461966
0.851546 0.952504 0.471644
0.901068 0.962539 0.481321
0.950589 0.972574 0.490999
1.000000 0.982609 0.500677
1.000000 0.992644 0.510354
1.000000 1.000000 0.520032
0.331628 0.890325 0.389360
0.383141 0.907646 0.401488
0.435534 0.925181 0.413760
0.488816 0.942928 0.426176
0.539255 0.954636 0.436456
0.588777 0.964672 0.446134
0.638298 0.974707 0.455812
0.687820 0.984742 0.465489
0.737342 0.994777 0.475167
0.786863 1.000000 0.484844
0.836385 1.000000 0.494522
0.885906 1.000000 0.504200
0.935428 1.000000 0.513877
0.984950 1.000000 0.523555
1.000000 1.000000 0.533233
1.000000 1.000000 0.542910
1.000000 1.000000 0.552588
0.375529 0.986874 0.430302
0.425051 0.996910 0.439979
0.474572 1.000000 0.449657
0.524094 1.000000 0.459335
0.573615 1.000000 0.469012
0.623137 1.000000 0.478690
0.672659 1.000000 0.488368
0.722180 1.000000 0.498045
0.771702 1.000000 0.507723
0.821223 1.000000 0.517401
0.870745 1.000000 0.527078
0.920267 1.000000 0.536756
0.969788 1.000000 0.546434
1.000000 1.000000 0.556111
1.000000 1.000000 0.565789
1.000000 1.000000 0.575467
1.000000 1.000000 0.585144
0.000000 0.000000 0.000000
0.000000 0.000000 0.000000
0.000000 0.000000 0.000000
0.000000 0.000000 0.000000
0.020627 0.000000 0.000000
0.058016 0.000000 0.000000
0.095405 0.000000 0.006521
0.132794 0.000000 0.014411
0.170183 0.000000 0.022301
0.207572 0.000000 0.030192
0.244960 0.000000 0.038082
0.282349 0.000000 0.045972
0.319738 0.000000 0.053862
0.357127 0.000000 0.061752
