assets/lighting/cinematic/grade-bleach-bypass/lut.cube
TITLE "Bleach Bypass"
# TKRS lighting-batch-001 original LUT
# Intended usage: harsh desat high-contrast war/industrial look
# License: CC0-1.0
LUT_3D_SIZE 9
DOMAIN_MIN 0.0 0.0 0.0
DOMAIN_MAX 1.0 1.0 1.0
0.000000 0.000000 0.000000
0.000000 0.000000 0.000000
0.012771 0.000000 0.000000
0.087548 0.000000 0.000000
0.162326 0.000000 0.000000
0.237104 0.000000 0.000000
0.311881 0.000000 0.000000
0.386659 0.000000 0.000000
0.461437 0.000000 0.000000
0.000000 0.000000 0.000000
0.000000 0.000000 0.000000
0.064655 0.005300 0.000000
0.139432 0.020723 0.000000
0.214210 0.036146 0.000000
0.288988 0.051569 0.000000
0.363765 0.066992 0.007814
0.438543 0.082415 0.023595
0.518394 0.098736 0.039647
0.000000 0.085693 0.000000
0.041761 0.101116 0.000000
0.116539 0.116539 0.000000
0.191316 0.131962 0.013559
0.266720 0.147706 0.029388
0.345914 0.165044 0.045586
0.427964 0.183134 0.062161
0.512923 0.201902 0.079137
0.600899 0.221337 0.096538
0.018867 0.196931 0.019305
0.094250 0.213628 0.035243
0.171790 0.232006 0.051575
0.251810 0.251195 0.068293
0.334530 0.271124 0.085422
0.420115 0.291773 0.102983
0.508697 0.313135 0.120994
0.600390 0.335213 0.139470
0.695294 0.358010 0.158425
0.073676 0.320000 0.074480
0.154023 0.341130 0.091764
0.237109 0.363025 0.109487
0.323090 0.385675 0.127665
0.412093 0.409076 0.146315
0.504227 0.433230 0.165448
0.599589 0.458139 0.185077
0.698264 0.483808 0.205212
0.800331 0.510240 0.225863
0.135126 0.459076 0.134400
0.221367 0.483825 0.153224
0.310668 0.509357 0.172536
0.403132 0.535672 0.192348
0.498849 0.562773 0.212670
0.597903 0.590662 0.233512
0.700369 0.619343 0.254883
0.806314 0.648821 0.276791
0.915805 0.679100 0.299245
0.204091 0.614141 0.199687
0.296800 0.642692 0.220197
0.392795 0.672054 0.241231
0.492152 0.702230 0.262796
0.594945 0.733223 0.284902
0.701239 0.765037 0.307557
0.811097 0.797675 0.330766
0.924453 0.831036 0.354503
1.000000 0.851106 0.373858
0.281186 0.786110 0.270781
0.380786 0.818633 0.293086
0.483846 0.851995 0.315942
0.590432 0.886199 0.339355
0.696044 0.915582 0.361549
0.795087 0.935653 0.380905
0.894130 0.955723 0.400260
0.993174 0.975793 0.419615
1.000000 0.995863 0.438971
0.366882 0.975763 0.348019
0.467635 1.000000 0.368596
0.566678 1.000000 0.387951
0.665721 1.000000 0.407306
0.764764 1.000000 0.426662
0.863808 1.000000 0.446017
0.962851 1.000000 0.465372
1.000000 1.000000 0.484728
1.000000 1.000000 0.504083
0.000000 0.000000 0.000000
0.000000 0.000000 0.000000
0.018009 0.000000 0.000000
0.092786 0.000000 0.000000
0.167564 0.000000 0.000000
0.242341 0.000000 0.005037
0.317119 0.000000 0.020817
0.391897 0.000000 0.036598
0.466674 0.000000 0.052378
0.000000 0.000000 0.000000
0.000000 0.000000 0.000000
0.069892 0.010538 0.010782
0.144670 0.025961 0.026563
0.219448 0.041384 0.042343
0.294225 0.056807 0.058123
0.369003 0.072230 0.073904
0.444714 0.087824 0.089816
0.526053 0.104459 0.106529
0.000000 0.090930 0.032308
0.046999 0.106353 0.048088
0.121776 0.121776 0.063869
0.196554 0.137199 0.079649
0.273005 0.153496 0.095840
0.352905 0.171109 0.112734
0.435622 0.189433 0.130094
0.521259 0.208428 0.147917
0.609928 0.228089 0.166213
0.024105 0.202169 0.085394
0.099948 0.219768 0.101935
0.178012 0.238437 0.119001
0.258608 0.257882 0.136529
0.341942 0.278056 0.154523
0.428170 0.298947 0.172993
0.517421 0.320552 0.191950
0.609806 0.342874 0.211404
0.705421 0.365917 0.231365
0.079561 0.327089 0.143025
0.160469 0.348481 0.161192
0.244157 0.370633 0.179838
0.330770 0.393538 0.198974
0.420433 0.417195 0.218612
0.513250 0.441605 0.238760
0.609315 0.466771 0.259429
0.708711 0.492698 0.280626
0.811515 0.519391 0.302361
0.141735 0.467393 0.206065
0.228606 0.492408 0.225888
0.318564 0.518206 0.246224
0.411706 0.544788 0.267084
0.508123 0.572156 0.288476
0.607894 0.600313 0.310408
0.711093 0.629265 0.332888
0.817788 0.659014 0.355922
0.928042 0.689566 0.379518
0.211496 0.623746 0.274810
0.304884 0.652572 0.296398
0.401576 0.682210 0.318528
0.501649 0.712664 0.341209
0.605174 0.743935 0.364447
0.712215 0.776029 0.388249
0.822834 0.808947 0.412622
0.931391 0.837852 0.435564
1.000000 0.857922 0.454919
0.289440 0.797061 0.349604
0.389755 0.829868 0.373047
0.493547 0.863516 0.397056
0.600878 0.898007 0.421639
0.702981 0.922398 0.442611
0.802025 0.942469 0.461966
0.901068 0.962539 0.481321
1.000000 0.982609 0.500677
1.000000 1.000000 0.520032
0.375529 0.986874 0.430302
0.474572 1.000000 0.449657
0.573615 1.000000 0.469012
0.672659 1.000000 0.488368
0.771702 1.000000 0.507723
0.870745 1.000000 0.527078
0.969788 1.000000 0.546434
1.000000 1.000000 0.565789
1.000000 1.000000 0.585144
0.000000 0.000000 0.000000
0.000000 0.000000 0.008005
0.023246 0.000000 0.023785
0.098024 0.000000 0.039566
0.172802 0.000000 0.055346
0.247579 0.000000 0.071127
0.322357 0.000000 0.086907
0.397134 0.000000 0.102687
0.471912 0.000000 0.118468
0.000000 0.000000 0.045311
0.000353 0.000353 0.061091
0.075130 0.015776 0.076872
0.149908 0.031199 0.092652
0.224685 0.046621 0.108433
0.299463 0.062044 0.124213
0.374241 0.077467 0.139993
0.451655 0.093397 0.156413
0.533895 0.110253 0.173863
0.000000 0.096168 0.098397
0.052236 0.111591 0.114178
0.127014 0.127014 0.129958
0.201792 0.142437 0.145739
0.279459 0.159392 0.162697
0.360022 0.177256 0.180355
0.443397 0.195809 0.198544
0.529709 0.215030 0.217246
0.619072 0.234919 0.236461
0.029425 0.207946 0.151780
0.105723 0.226015 0.169062
0.184320 0.244957 0.186917
0.265497 0.264652 0.205293
0.349448 0.285071 0.224182
0.436324 0.306204 0.243586
0.526248 0.328052 0.263509
0.619327 0.350618 0.283959
0.715656 0.373907 0.304943
0.085515 0.334268 0.212111
0.166993 0.355919 0.231186
0.251288 0.378327 0.250778
0.338540 0.401488 0.270893
0.428866 0.425400 0.291537
0.522369 0.450066 0.312716
0.619140 0.475490 0.334439
0.719261 0.501677 0.356712
0.822805 0.528632 0.379541
0.148422 0.475801 0.278347
0.235929 0.501081 0.299185
0.326547 0.527145 0.320561
0.420373 0.553994 0.342484
0.517492 0.581629 0.364958
0.617984 0.610056 0.387992
0.721919 0.639278 0.411591
0.829366 0.669299 0.435761
0.940385 0.700124 0.460510
0.218985 0.633445 0.350601
0.313055 0.662546 0.373279
0.410448 0.692461 0.396517
0.511240 0.723192 0.420324
0.615500 0.754742 0.444704
0.723291 0.787115 0.469664
0.834673 0.820315 0.495210
0.938328 0.844668 0.516625
1.000000 0.864738 0.535981
0.297782 0.808108 0.429133
0.398816 0.841201 0.453724
0.503342 0.875135 0.478897
0.610876 0.909144 0.504317
0.709919 0.929214 0.523672
0.808962 0.949285 0.543027
0.908005 0.969355 0.562382
1.000000 0.989425 0.581738
1.000000 1.000000 0.601093
0.382466 0.993690 0.511363
0.481510 1.000000 0.530718
0.580553 1.000000 0.550074
0.679596 1.000000 0.569429
0.778639 1.000000 0.588784
0.877682 1.000000 0.608140
0.976726 1.000000 0.627495
1.000000 1.000000 0.646850
1.000000 1.000000 0.666206
0.000000 0.000000 0.058314
0.000000 0.000000 0.074094
0.028484 0.000000 0.089875
0.103262 0.000000 0.105655
0.178039 0.000000 0.121436
0.252817 0.000000 0.137216
0.327595 0.000000 0.152997
0.402372 0.000000 0.168777
0.477150 0.002313 0.184557
0.000000 0.000000 0.111400
0.005590 0.005590 0.127181
0.080368 0.021013 0.142961
0.155146 0.036436 0.158742
0.229923 0.051859 0.174522
0.304701 0.067282 0.190303
0.379478 0.082705 0.206083
0.458857 0.099051 0.223432
0.541899 0.116115 0.241679
0.000000 0.101406 0.164487
0.057474 0.116829 0.180267
0.132252 0.132252 0.196048
0.207556 0.148024 0.212205
0.286049 0.165378 0.230001
0.367255 0.183481 0.248473
0.451286 0.202262 0.267526
0.538273 0.221709 0.287136
0.628330 0.241826 0.307295
0.034812 0.213965 0.218589
0.111575 0.232360 0.236656
0.190711 0.251564 0.255344
0.272475 0.271506 0.274601
0.357049 0.292168 0.294412
0.444576 0.313544 0.314771
0.535176 0.335635 0.335681
0.628953 0.358446 0.357145
0.725998 0.381982 0.379166
0.091539 0.341535 0.281750
0.173595 0.363445 0.301760
0.258504 0.386108 0.322320
0.346399 0.409524 0.343431
0.437393 0.433692 0.365097
0.531586 0.458615 0.387323
0.629067 0.484298 0.410113
0.729914 0.510745 0.433474
0.834202 0.537961 0.457410
0.155187 0.484298 0.351254
0.243335 0.509845 0.373124
0.334619 0.536175 0.395554
0.429131 0.563290 0.418552
0.526957 0.591194 0.442121
0.628172 0.619891 0.466268
0.732847 0.649383 0.490998
0.841048 0.679677 0.516315
0.952835 0.710776 0.542225
0.226557 0.643237 0.427066
0.321314 0.672614 0.450845
0.419412 0.702806 0.475204
0.520926 0.733814 0.500147
0.625924 0.765644 0.525679
0.734467 0.798297 0.551807
0.846222 0.831413 0.578331
0.945265 0.851484 0.597687
1.000000 0.871554 0.617042
0.306212 0.819253 0.509374
0.407968 0.852631 0.535122
0.513232 0.886851 0.561467
0.617813 0.915960 0.585378
0.716856 0.936030 0.604733
0.815899 0.956100 0.624088
0.914943 0.976171 0.643444
1.000000 0.996241 0.662799
1.000000 1.000000 0.682154
0.389404 1.000000 0.592424
0.488447 1.000000 0.611780
0.587490 1.000000 0.631135
0.686533 1.000000 0.650490
0.785577 1.000000 0.669846
0.884620 1.000000 0.689201
0.983663 1.000000 0.708556
1.000000 1.000000 0.727912
1.000000 1.000000 0.747267
0.000000 0.000000 0.124403
0.000000 0.000000 0.140184
0.033722 0.000000 0.155964
0.108499 0.000000 0.171745
0.183277 0.000000 0.187525
0.258055 0.000000 0.203306
0.332832 0.000000 0.219086
0.407610 0.000000 0.234867
0.482388 0.007550 0.250647
0.000000 0.000000 0.177490
0.010828 0.010828 0.193270
0.085606 0.026251 0.209051
0.160383 0.041674 0.224831
0.235161 0.057097 0.240612
0.309939 0.072520 0.256392
0.385599 0.088130 0.272608
0.466255 0.104778 0.290911
0.550054 0.122047 0.309997
0.000000 0.106644 0.230576
0.062712 0.122067 0.246357
0.137490 0.137490 0.262137
0.213624 0.153820 0.279158
0.292760 0.171448 0.297780
0.374599 0.189784 0.317108
0.459285 0.208791 0.337057
0.546948 0.228466 0.357600
0.637701 0.248811 0.378725
0.040257 0.220112 0.285845
0.117500 0.238796 0.304742
0.197185 0.258255 0.324301
0.279542 0.278443 0.344468
0.364744 0.299347 0.365224
0.452926 0.320966 0.386560
0.544206 0.343301 0.408475
0.638683 0.366357 0.430968
0.736447 0.390141 0.454042
0.097634 0.348891 0.351957
0.180276 0.371057 0.372925
0.265805 0.393976 0.394471
0.354347 0.417647 0.416596
0.446014 0.442071 0.439301
0.540901 0.467252 0.462587
0.639094 0.493193 0.486459
0.740671 0.519901 0.510920
0.845705 0.547380 0.535974
0.162031 0.492886 0.424795
0.250825 0.518699 0.447711
0.342779 0.545295 0.471210
0.437982 0.572678 0.495296
0.536517 0.600851 0.519972
0.638459 0.629817 0.545244
0.743877 0.659581 0.571114
0.852834 0.690148 0.597588
0.965392 0.721522 0.624669
0.234215 0.653122 0.504211
0.329661 0.682776 0.529104
0.428468 0.713245 0.554592
0.530708 0.744532 0.580682
0.636446 0.776640 0.607377
0.745744 0.809575 0.634681
0.853160 0.838229 0.659393
0.952203 0.858300 0.678748
1.000000 0.878370 0.698103
0.314732 0.830494 0.590330
0.417213 0.864157 0.617246
0.523217 0.898664 0.644773
0.624750 0.922776 0.666439
0.723794 0.942846 0.685794
0.822837 0.962916 0.705150
0.921880 0.982987 0.724505
1.000000 1.000000 0.743860
1.000000 1.000000 0.763216
0.396341 1.000000 0.673486
0.495384 1.000000 0.692841
0.594428 1.000000 0.712196
0.693471 1.000000 0.731552
0.792514 1.000000 0.750907
0.891557 1.000000 0.770262
0.990600 1.000000 0.789618
1.000000 1.000000 0.808973
1.000000 1.000000 0.828328
0.000000 0.000000 0.190493
0.000000 0.000000 0.206273
0.038959 0.000000 0.222054
0.113737 0.000000 0.237834
0.188515 0.000000 0.253615
0.263292 0.000000 0.269395
0.338070 0.000000 0.285176
0.412848 0.000000 0.300956
0.487625 0.012788 0.316737
0.000000 0.000643 0.243579
0.016066 0.016066 0.259360
0.090843 0.031489 0.275140
0.165621 0.046912 0.290921
0.240399 0.062335 0.306701
0.315176 0.077758 0.322482
0.392332 0.093708 0.339702
0.473819 0.110576 0.358875
0.558349 0.128048 0.378838
0.000000 0.111881 0.296666
0.067950 0.127304 0.312446
0.142727 0.142727 0.328227
0.219831 0.159721 0.346576
0.299582 0.177599 0.366061
0.382053 0.196164 0.386277
0.467393 0.215398 0.407150
0.555733 0.235299 0.428650
0.647184 0.255874 0.450761
0.045761 0.226364 0.353576
0.123500 0.245321 0.373341
0.203742 0.265030 0.393802
0.286698 0.285462 0.414906
0.372532 0.306609 0.436629
0.461374 0.328470 0.458962
0.553336 0.351050 0.481898
0.648517 0.374352 0.505436
0.747003 0.398385 0.529577
0.103801 0.356334 0.422744
0.187036 0.378756 0.444690
0.273190 0.401931 0.467242
0.362386 0.425857 0.490398
0.454729 0.450538 0.514155
0.550313 0.475976 0.538516
0.649222 0.502177 0.563482
0.751532 0.529146 0.589055
0.857314 0.556888 0.615238
0.168954 0.501564 0.498977
0.258400 0.527643 0.522954
0.351028 0.554506 0.547535
0.446925 0.582157 0.572721
0.546173 0.610599 0.598516
0.648845 0.639835 0.624923
0.755008 0.669872 0.651944
0.864725 0.700712 0.679584
0.978056 0.732361 0.707846
0.241957 0.663102 0.582042
0.338098 0.693032 0.608059
0.437617 0.723778 0.634689
0.540585 0.755344 0.661935
0.647066 0.787732 0.689801
0.757123 0.820948 0.718291
0.860097 0.845045 0.740454
0.959140 0.865116 0.759809
1.000000 0.885186 0.779164
0.323341 0.841832 0.672008
0.426550 0.875781 0.700101
0.532645 0.909522 0.728145
0.631688 0.929592 0.747500
0.730731 0.949662 0.766856
0.829774 0.969732 0.786211
0.928817 0.989803 0.805566
1.000000 1.000000 0.824922
1.000000 1.000000 0.844277
0.403278 1.000000 0.754547
0.502322 1.000000 0.773902
0.601365 1.000000 0.793258
0.700408 1.000000 0.812613
0.799451 1.000000 0.831968
0.898495 1.000000 0.851324
0.997538 1.000000 0.870679
1.000000 1.000000 0.890034
1.000000 1.000000 0.909390
0.000000 0.000000 0.256582
0.000000 0.000000 0.272363
0.044197 0.000000 0.288143
0.118975 0.000000 0.303924
0.193752 0.000000 0.319704
0.268530 0.000000 0.335485
0.343308 0.000000 0.351265
0.418085 0.002603 0.367046
0.492863 0.018026 0.382826
0.000000 0.005880 0.309669
0.021303 0.021303 0.325449
0.096081 0.036726 0.341230
0.170859 0.052149 0.357010
0.245636 0.067572 0.372791
0.320414 0.082995 0.388571
0.399292 0.099366 0.407280
0.481532 0.116442 0.427348
0.566777 0.134119 0.448220
0.000000 0.117119 0.362755
0.073187 0.132542 0.378536
0.148371 0.148342 0.395071
0.226154 0.165712 0.414482
0.306510 0.183828 0.434861
0.389611 0.202621 0.455996
0.475608 0.222082 0.477819
0.564627 0.242211 0.500296
0.656777 0.263016 0.523413
0.051327 0.232714 0.421806
0.129575 0.251932 0.442473
0.210381 0.271888 0.463863
0.293943 0.292563 0.485927
0.380414 0.313953 0.508639
0.469919 0.336057 0.531985
0.562568 0.358882 0.555959
0.658455 0.382432 0.580558
0.757665 0.406714 0.605779
0.110041 0.363864 0.494121
0.193876 0.386542 0.517065
0.280661 0.409972 0.540641
0.370514 0.434154 0.564843
0.463538 0.459091 0.589668
0.559822 0.484788 0.615116
0.659450 0.511250 0.641188
0.762496 0.538481 0.667884
0.869029 0.566486 0.695207
0.175957 0.510333 0.573808
0.266060 0.536678 0.598860
0.359366 0.563808 0.624535
0.455962 0.591727 0.650834
0.555926 0.620438 0.677759
0.659330 0.649946 0.705311
0.766241 0.680255 0.733493
0.876721 0.711369 0.762309
0.990827 0.743294 0.791760
0.249784 0.673175 0.660564
0.346623 0.703382 0.687717
0.446858 0.734406 0.715498
0.550557 0.766250 0.743911
0.657786 0.798919 0.772957
0.767991 0.831791 0.802160
0.867034 0.851861 0.821515
0.966078 0.871932 0.840870
1.000000 0.892002 0.860226
0.332039 0.853267 0.754412
0.435981 0.887503 0.783690
0.539582 0.916338 0.809206
0.638625 0.936408 0.828562
0.737668 0.956478 0.847917
0.836712 0.976548 0.867272
0.935755 0.996619 0.886628
1.000000 1.000000 0.905983
1.000000 1.000000 0.925338
0.410216 1.000000 0.835608
0.509259 1.000000 0.854964
0.608302 1.000000 0.874319
0.707345 1.000000 0.893674
0.806389 1.000000 0.913030
0.905432 1.000000 0.932385
1.000000 1.000000 0.951740
1.000000 1.000000 0.971095
1.000000 1.000000 0.990451
0.000000 0.000000 0.322672
0.000000 0.000000 0.338452
0.049435 0.000000 0.354233
0.124213 0.000000 0.370013
0.198990 0.000000 0.385794
0.273768 0.000000 0.401574
0.348545 0.000000 0.417355
0.423323 0.007840 0.433135
0.498101 0.023263 0.448916
0.000000 0.011118 0.375758
0.026541 0.026541 0.391539
0.101319 0.041964 0.407319
0.176096 0.057387 0.423100
0.250874 0.072810 0.438880
0.326462 0.088437 0.455450
0.406426 0.105097 0.475359
0.489384 0.122378 0.496348
0.575335 0.140259 0.518155
0.003647 0.122357 0.428845
0.078425 0.137780 0.444625
0.154217 0.154145 0.462534
0.232582 0.171786 0.482897
0.313541 0.190135 0.504199
0.397274 0.209155 0.526279
0.483929 0.228842 0.549073
0.573628 0.249200 0.572549
0.666480 0.270237 0.596688
0.056955 0.239155 0.490555
0.135724 0.258628 0.512152
0.217104 0.278830 0.534497
0.301277 0.299747 0.557542
0.388389 0.321379 0.581261
0.478562 0.343728 0.605639
0.571900 0.366798 0.630667
0.668497 0.390596 0.656339
0.768434 0.415128 0.682654
0.116354 0.371481 0.566101
0.200796 0.394415 0.590061
0.288218 0.418100 0.614676
0.378733 0.442538 0.639938
0.472441 0.467733 0.665845
0.569430 0.493689 0.692393
0.669780 0.520411 0.719583
0.773564 0.547904 0.747414
0.880850 0.576175 0.775887
0.183042 0.519192 0.649296
0.273805 0.545803 0.675436
0.367794 0.573201 0.702218
0.465092 0.601388 0.729640
0.565775 0.630370 0.757705
0.669915 0.660149 0.786413
0.777577 0.690731 0.815766
0.888821 0.722120 0.845767
1.000000 0.754060 0.876174
0.257698 0.683342 0.739783
0.355239 0.713826 0.768082
0.456192 0.745128 0.797025
0.560626 0.777252 0.826613
0.668604 0.810202 0.856850
0.774929 0.838607 0.883221
0.873972 0.858677 0.902576
0.973015 0.878748 0.921932
1.000000 0.898818 0.941287
0.340828 0.864799 0.837546
0.445504 0.899322 0.868019
0.546519 0.923153 0.890268
0.645562 0.943224 0.909623
0.744606 0.963294 0.928978
0.843649 0.983364 0.948334
0.942692 1.000000 0.967689
1.000000 1.000000 0.987044
1.000000 1.000000 1.000000
0.417153 1.000000 0.916670
0.516196 1.000000 0.936025
0.615240 1.000000 0.955380
0.714283 1.000000 0.974735
0.813326 1.000000 0.994091
0.912369 1.000000 1.000000
1.000000 1.000000 1.000000
1.000000 1.000000 1.000000
1.000000 1.000000 1.000000
0.000000 0.000000 0.388761
0.000000 0.000000 0.404542
0.054673 0.000000 0.420322
0.129450 0.000000 0.436103
0.204228 0.000000 0.451883
0.279005 0.000000 0.467664
0.353783 0.000000 0.483444
0.428561 0.013078 0.499225
0.504464 0.028560 0.515809
0.000000 0.016356 0.441848
0.031779 0.031779 0.457628
0.106556 0.047202 0.473409
0.181334 0.062625 0.489189
0.256112 0.078048 0.504970
0.332982 0.094020 0.523049
0.413711 0.110899 0.543958
0.497367 0.128383 0.565892
0.584017 0.146469 0.588660
0.008885 0.127594 0.494934
0.083663 0.143017 0.510715
0.160174 0.160051 0.530518
0.239109 0.177942 0.551839
0.320671 0.196520 0.574090
0.405038 0.215766 0.597139
0.492354 0.235680 0.620926
0.582737 0.256268 0.645418
0.676292 0.277537 0.670597
0.062647 0.245685 0.559841
0.141949 0.265408 0.582393
0.223909 0.285853 0.605715
0.308699 0.307013 0.629762
0.396457 0.328888 0.654506
0.487302 0.351481 0.679931
0.581333 0.374798 0.706027
0.678642 0.398844 0.732787
0.779310 0.423627 0.760207
0.122742 0.379185 0.638691
0.207798 0.402374 0.663684
0.295861 0.426314 0.689354
0.387043 0.451009 0.715692
0.481439 0.476462 0.742693
0.579135 0.502678 0.770354
0.680210 0.529661 0.798672
0.784736 0.557418 0.827649
0.892778 0.585953 0.857283
0.190207 0.528141 0.725446
0.281636 0.555019 0.752687
0.376311 0.582685 0.780587
0.474315 0.611141 0.809145
0.575721 0.640393 0.838361
0.680600 0.670445 0.868235
0.789015 0.701300 0.898768
0.901026 0.732964 0.929961
1.000000 0.760876 0.957236
0.265698 0.693603 0.819706
0.363944 0.724364 0.849161
0.465620 0.755945 0.879274
0.570791 0.788349 0.910048
0.679521 0.821581 0.941482
0.781866 0.845423 0.964282
0.880909 0.865493 0.983638
0.979952 0.885564 1.000000
1.000000 0.905634 1.000000
0.349708 0.876428 0.921415
0.454413 0.909899 0.951974
0.553457 0.929969 0.971329
0.652500 0.950040 0.990684
0.751543 0.970110 1.000000
0.850586 0.990180 1.000000
0.949629 1.000000 1.000000
1.000000 1.000000 1.000000
1.000000 1.000000 1.000000
0.424091 1.000000 0.997731
0.523134 1.000000 1.000000
0.622177 1.000000 1.000000
0.721220 1.000000 1.000000
0.820263 1.000000 1.000000
0.919307 1.000000 1.000000
1.000000 1.000000 1.000000
1.000000 1.000000 1.000000
1.000000 1.000000 1.000000
