assets/lighting/cinematic/grade-golden-hour/lut.cube
TITLE "Golden Hour"
# TKRS lighting-batch-001 original LUT
# Intended usage: late sun warm grade for sunset/sunrise exteriors
# License: CC0-1.0
LUT_3D_SIZE 5
DOMAIN_MIN 0.0 0.0 0.0
DOMAIN_MAX 1.0 1.0 1.0
0.000000 0.000000 0.000000
0.193222 0.000000 0.000000
0.432254 0.000000 0.000000
0.671286 0.000000 0.000000
0.910318 0.000000 0.000000
0.000000 0.154390 0.000000
0.173344 0.147249 0.000000
0.416833 0.140879 0.000000
0.675889 0.135511 0.000000
0.951295 0.130204 0.000000
0.000000 0.363148 0.000000
0.163539 0.361309 0.000000
0.431272 0.359710 0.000000
0.716113 0.358210 0.000000
1.000000 0.356727 0.000000
0.000000 0.596408 0.000000
0.155970 0.599089 0.000000
0.449225 0.601892 0.000000
0.761408 0.604750 0.000000
1.000000 0.607616 0.000000
0.000000 0.855148 0.000000
0.145746 0.862589 0.000000
0.466666 0.870111 0.000000
0.802405 0.874217 0.000000
1.000000 0.865782 0.000000
0.000000 0.000000 0.168950
0.191462 0.000000 0.160677
0.430495 0.000000 0.152403
0.669527 0.000000 0.144130
0.908559 0.000000 0.135856
0.000000 0.152548 0.144827
0.171585 0.145407 0.136554
0.417669 0.139475 0.127554
0.679025 0.134143 0.118218
0.956869 0.128827 0.108907
0.000000 0.362639 0.119005
0.162929 0.360880 0.109689
0.432815 0.359317 0.100460
0.720002 0.357829 0.091356
1.000000 0.356339 0.082400
0.000000 0.597084 0.092118
0.155194 0.599804 0.083149
0.450819 0.602626 0.074347
0.765505 0.605491 0.065726
1.000000 0.608351 0.057299
0.000000 0.857057 0.066445
0.144672 0.864523 0.058001
0.468125 0.872060 0.049760
0.800020 0.872041 0.042049
1.000000 0.863606 0.034746
0.000000 0.000000 0.393494
0.189703 0.000000 0.385221
0.428735 0.000000 0.376947
0.667767 0.000000 0.368674
0.908843 0.000000 0.360133
0.000000 0.150705 0.369371
0.169965 0.143624 0.361000
0.418657 0.138088 0.350037
0.682279 0.132776 0.338523
0.962551 0.127444 0.326826
0.000000 0.362156 0.339503
0.162313 0.360464 0.327815
0.434375 0.358929 0.316057
0.723923 0.357447 0.304298
1.000000 0.355947 0.292582
0.000000 0.597772 0.305288
0.154395 0.600525 0.293567
0.452408 0.603363 0.281920
0.769609 0.606231 0.270372
1.000000 0.609084 0.258945
0.000000 0.858974 0.271341
0.143568 0.866463 0.259903
0.469567 0.874010 0.248600
0.797635 0.869865 0.240250
1.000000 0.861429 0.232947
0.000000 0.000000 0.618038
0.187944 0.000000 0.609765
0.426976 0.000000 0.601491
0.666008 0.000000 0.593218
0.911874 0.000000 0.583488
0.000000 0.148863 0.593915
0.169027 0.142134 0.584539
0.419759 0.136712 0.571450
0.685633 0.131406 0.557627
0.968333 0.126054 0.543452
0.000000 0.361696 0.558808
0.161690 0.360058 0.544656
0.435948 0.358545 0.530298
0.727873 0.357064 0.515824
1.000000 0.355552 0.501297
0.000000 0.598470 0.517047
0.153572 0.601252 0.502522
0.453988 0.604102 0.487985
0.773717 0.606970 0.473471
1.000000 0.609813 0.459006
0.000000 0.860899 0.474693
0.142434 0.868406 0.460223
0.470990 0.875962 0.445824
0.795250 0.867688 0.438450
1.000000 0.859253 0.431148
0.000000 0.000000 0.842582
0.186185 0.000000 0.834308
0.425217 0.000000 0.826035
0.664249 0.000000 0.817762
0.915584 0.000000 0.805854
0.000000 0.147020 0.818459
0.168232 0.140703 0.807095
0.420953 0.135341 0.791731
0.689076 0.130033 0.775490
0.974203 0.124655 0.758758
0.000000 0.361255 0.776881
0.161056 0.359660 0.760182
0.437533 0.358163 0.743157
0.731847 0.356678 0.725914
1.000000 0.355151 0.708527
0.000000 0.599178 0.727373
0.152726 0.601983 0.709997
0.455560 0.604842 0.692527
0.777829 0.607707 0.675007
1.000000 0.610538 0.657470
0.000000 0.862829 0.676484
0.141269 0.870353 0.658948
0.468753 0.873947 0.643954
0.792865 0.865512 0.636651
1.000000 0.857076 0.629348
