assets/lighting/cinematic/grade-golden-hour/lut.cube
TITLE "Golden Hour"
# TKRS lighting-batch-001 original LUT
# Intended usage: late sun warm grade for sunset/sunrise exteriors
# License: CC0-1.0
LUT_3D_SIZE 17
DOMAIN_MIN 0.0 0.0 0.0
DOMAIN_MAX 1.0 1.0 1.0
0.000000 0.000000 0.000000
0.013948 0.000000 0.000000
0.073706 0.000000 0.000000
0.133464 0.000000 0.000000
0.193222 0.000000 0.000000
0.252980 0.000000 0.000000
0.312738 0.000000 0.000000
0.372496 0.000000 0.000000
0.432254 0.000000 0.000000
0.492012 0.000000 0.000000
0.551770 0.000000 0.000000
0.611528 0.000000 0.000000
0.671286 0.000000 0.000000
0.731044 0.000000 0.000000
0.790802 0.000000 0.000000
0.850560 0.000000 0.000000
0.910318 0.000000 0.000000
0.000000 0.002609 0.000000
0.008978 0.000824 0.000000
0.068736 0.000000 0.000000
0.128494 0.000000 0.000000
0.188252 0.000000 0.000000
0.248010 0.000000 0.000000
0.307768 0.000000 0.000000
0.367526 0.000000 0.000000
0.427284 0.000000 0.000000
0.487042 0.000000 0.000000
0.546800 0.000000 0.000000
0.606558 0.000000 0.000000
0.666316 0.000000 0.000000
0.726074 0.000000 0.000000
0.785832 0.000000 0.000000
0.846939 0.000000 0.000000
0.911283 0.000000 0.000000
0.000000 0.053203 0.000000
0.004009 0.051418 0.000000
0.063767 0.049632 0.000000
0.123525 0.047847 0.000000
0.183283 0.046062 0.000000
0.243041 0.044276 0.000000
0.302799 0.042491 0.000000
0.362557 0.040706 0.000000
0.422315 0.038921 0.000000
0.482073 0.037135 0.000000
0.541831 0.035350 0.000000
0.601589 0.033565 0.000000
0.662166 0.031800 0.000000
0.725503 0.030088 0.000000
0.790088 0.028379 0.000000
0.855794 0.026667 0.000000
0.922595 0.024948 0.000000
0.000000 0.103796 0.000000
0.000000 0.102011 0.000000
0.058797 0.100226 0.000000
0.118555 0.098441 0.000000
0.178313 0.096655 0.000000
0.238071 0.094870 0.000000
0.297829 0.093085 0.000000
0.357587 0.091300 0.000000
0.417345 0.089514 0.000000
0.477533 0.087769 0.000000
0.539894 0.086191 0.000000
0.603367 0.084643 0.000000
0.667869 0.083108 0.000000
0.733396 0.081577 0.000000
0.799958 0.080047 0.000000
0.867571 0.078515 0.000000
0.936250 0.076979 0.000000
0.000000 0.154390 0.000000
0.000000 0.152605 0.000000
0.053828 0.150820 0.000000
0.113586 0.149034 0.000000
0.173344 0.147249 0.000000
0.233102 0.145464 0.000000
0.293030 0.143721 0.000000
0.354453 0.142269 0.000000
0.416833 0.140879 0.000000
0.480146 0.139518 0.000000
0.544409 0.138174 0.000000
0.609649 0.136840 0.000000
0.675889 0.135511 0.000000
0.743153 0.134186 0.000000
0.811462 0.132861 0.000000
0.880836 0.131534 0.000000
0.951295 0.130204 0.000000
0.000000 0.204984 0.000000
0.000000 0.203199 0.000000
0.048858 0.201413 0.000000
0.108648 0.199658 0.000000
0.169177 0.198323 0.000000
0.230485 0.197087 0.000000
0.292621 0.195898 0.000000
0.355633 0.194738 0.000000
0.419559 0.193598 0.000000
0.484435 0.192473 0.000000
0.550289 0.191357 0.000000
0.617150 0.190247 0.000000
0.685040 0.189142 0.000000
0.753981 0.188038 0.000000
0.823995 0.186935 0.000000
0.895100 0.185830 0.000000
0.967315 0.184722 0.000000
0.000000 0.255584 0.000000
0.000000 0.254352 0.000000
0.044320 0.253267 0.000000
0.105295 0.252247 0.000000
0.167065 0.251270 0.000000
0.229688 0.250323 0.000000
0.293207 0.249399 0.000000
0.357659 0.248491 0.000000
0.423077 0.247597 0.000000
0.489488 0.246711 0.000000
0.556918 0.245833 0.000000
0.625389 0.244960 0.000000
0.694924 0.244090 0.000000
0.765542 0.243221 0.000000
0.837260 0.242352 0.000000
0.910096 0.241481 0.000000
0.984067 0.240609 0.000000
0.000000 0.308567 0.000000
0.000000 0.307771 0.000000
0.040034 0.307015 0.000000
0.102205 0.306291 0.000000
0.165262 0.305590 0.000000
0.229243 0.304909 0.000000
0.294181 0.304244 0.000000
0.360104 0.303590 0.000000
0.427038 0.302946 0.000000
0.495007 0.302310 0.000000
0.564032 0.301678 0.000000
0.634133 0.301051 0.000000
0.705328 0.300426 0.000000
0.777636 0.299802 0.000000
0.851072 0.299178 0.000000
0.925652 0.298553 0.000000
1.000000 0.297926 0.000000
0.000000 0.363148 0.000000
0.000000 0.362654 0.000000
0.035647 0.362186 0.000000
0.099117 0.361738 0.000000
0.163539 0.361309 0.000000
0.228941 0.360893 0.000000
0.295348 0.360490 0.000000
0.362784 0.360096 0.000000
0.431272 0.359710 0.000000
0.500830 0.359329 0.000000
0.571478 0.358953 0.000000
0.643234 0.358581 0.000000
0.716113 0.358210 0.000000
0.790131 0.357840 0.000000
0.865304 0.357470 0.000000
0.941645 0.357099 0.000000
1.000000 0.356727 0.000000
0.000000 0.419196 0.000000
0.000000 0.418989 0.000000
0.031097 0.418802 0.000000
0.095947 0.418630 0.000000
0.161799 0.418473 0.000000
0.228677 0.418327 0.000000
0.296602 0.418191 0.000000
0.365594 0.418063 0.000000
0.435672 0.417941 0.000000
0.506854 0.417824 0.000000
0.579155 0.417711 0.000000
0.652592 0.417601 0.000000
0.727180 0.417492 0.000000
0.802932 0.417384 0.000000
0.879863 0.417276 0.000000
0.957985 0.417167 0.000000
1.000000 0.417056 0.000000
0.000000 0.476731 0.000000
0.000000 0.476810 0.000000
0.026348 0.476904 0.000000
0.092644 0.477011 0.000000
0.159983 0.477130 0.000000
0.228387 0.477258 0.000000
0.297874 0.477395 0.000000
0.368462 0.477538 0.000000
0.440166 0.477687 0.000000
0.513003 0.477841 0.000000
0.586987 0.477997 0.000000
0.662134 0.478157 0.000000
0.738455 0.478317 0.000000
0.815965 0.478478 0.000000
0.894676 0.478639 0.000000
0.974599 0.478799 0.000000
1.000000 0.478957 0.000000
0.000000 0.535790 0.000000
0.000000 0.536155 0.000000
0.021378 0.536533 0.000000
0.089174 0.536923 0.000000
0.158050 0.537322 0.000000
0.228025 0.537730 0.000000
0.299114 0.538145 0.000000
0.371333 0.538566 0.000000
0.444698 0.538992 0.000000
0.519221 0.539421 0.000000
0.594918 0.539854 0.000000
0.671800 0.540288 0.000000
0.749880 0.540724 0.000000
0.829171 0.541161 0.000000
0.909684 0.541597 0.000000
0.991429 0.542032 0.000000
1.000000 0.542465 0.000000
0.000000 0.596408 0.000000
0.000000 0.597062 0.000000
0.016169 0.597728 0.000000
0.085513 0.598405 0.000000
0.155970 0.599089 0.000000
0.227555 0.599781 0.000000
0.300283 0.600480 0.000000
0.374169 0.601184 0.000000
0.449225 0.601892 0.000000
0.525464 0.602603 0.000000
0.602900 0.603317 0.000000
0.681544 0.604033 0.000000
0.761408 0.604750 0.000000
0.842502 0.605468 0.000000
0.924838 0.606185 0.000000
1.000000 0.606901 0.000000
1.000000 0.607616 0.000000
0.000000 0.658620 0.000000
0.000000 0.659568 0.000000
0.010706 0.660526 0.000000
0.081641 0.661493 0.000000
0.153718 0.662467 0.000000
0.226950 0.663449 0.000000
0.301352 0.664435 0.000000
0.376935 0.665427 0.000000
0.453712 0.666422 0.000000
0.531696 0.667421 0.000000
0.610897 0.668422 0.000000
0.691328 0.669425 0.000000
0.772998 0.670428 0.000000
0.855918 0.671432 0.000000
0.940099 0.672436 0.000000
1.000000 0.673438 0.000000
1.000000 0.674440 0.000000
0.000000 0.722460 0.000000
0.000000 0.723705 0.000000
0.004976 0.724959 0.000000
0.077541 0.726221 0.000000
0.151274 0.727490 0.000000
0.226187 0.728764 0.000000
0.302293 0.730044 0.000000
0.379604 0.731329 0.000000
0.458131 0.732616 0.000000
0.537885 0.733907 0.000000
0.618877 0.735200 0.000000
0.701118 0.736494 0.000000
0.784617 0.737789 0.000000
0.869385 0.739084 0.000000
0.955431 0.740379 0.000000
1.000000 0.741673 0.000000
1.000000 0.742966 0.000000
0.000000 0.787960 0.000000
0.000000 0.789506 0.000000
0.000000 0.791059 0.000000
0.073199 0.792620 0.000000
0.148621 0.794187 0.000000
0.225247 0.795760 0.000000
0.303087 0.797337 0.000000
0.382153 0.798919 0.000000
0.462456 0.800503 0.000000
0.544006 0.802090 0.000000
0.626813 0.803680 0.000000
0.710886 0.805270 0.000000
0.796237 0.806861 0.000000
0.882872 0.808453 0.000000
0.970803 0.810044 0.000000
1.000000 0.808128 0.000000
1.000000 0.806019 0.000000
0.000000 0.855148 0.000000
0.000000 0.856998 0.000000
0.000000 0.858855 0.000000
0.068604 0.860719 0.000000
0.145746 0.862589 0.000000
0.224113 0.864463 0.000000
0.303715 0.866342 0.000000
0.384563 0.868225 0.000000
0.466666 0.870111 0.000000
0.550035 0.871999 0.000000
0.634680 0.873889 0.000000
0.720608 0.875780 0.000000
0.802405 0.874217 0.000000
0.883433 0.872109 0.000000
0.964461 0.870000 0.000000
1.000000 0.867891 0.000000
1.000000 0.865782 0.000000
0.000000 0.000000 0.000542
0.013508 0.000000 0.000000
0.073266 0.000000 0.000000
0.133024 0.000000 0.000000
0.192782 0.000000 0.000000
0.252540 0.000000 0.000000
0.312298 0.000000 0.000000
0.372056 0.000000 0.000000
0.431814 0.000000 0.000000
0.491572 0.000000 0.000000
0.551330 0.000000 0.000000
0.611088 0.000000 0.000000
0.670846 0.000000 0.000000
0.730604 0.000000 0.000000
0.790362 0.000000 0.000000
0.850120 0.000000 0.000000
0.909878 0.000000 0.000000
0.000000 0.002149 0.000000
0.008538 0.000363 0.000000
0.068296 0.000000 0.000000
0.128054 0.000000 0.000000
0.187812 0.000000 0.000000
0.247570 0.000000 0.000000
0.307328 0.000000 0.000000
0.367086 0.000000 0.000000
0.426844 0.000000 0.000000
0.486602 0.000000 0.000000
0.546360 0.000000 0.000000
0.606118 0.000000 0.000000
0.665876 0.000000 0.000000
0.725634 0.000000 0.000000
0.785392 0.000000 0.000000
0.847484 0.000000 0.000000
0.912133 0.000000 0.000000
0.000000 0.052742 0.000000
0.003569 0.050957 0.000000
0.063327 0.049172 0.000000
0.123085 0.047386 0.000000
0.182843 0.045601 0.000000
0.242601 0.043816 0.000000
0.302359 0.042031 0.000000
0.362117 0.040245 0.000000
0.421875 0.038460 0.000000
0.481633 0.036675 0.000000
0.541391 0.034890 0.000000
0.601149 0.033104 0.000000
0.662472 0.031357 0.000000
0.726079 0.029647 0.000000
0.790865 0.027938 0.000000
0.856754 0.026224 0.000000
0.923730 0.024503 0.000000
0.000000 0.103336 0.000000
0.000000 0.101551 0.000000
0.058357 0.099765 0.000000
0.118115 0.097980 0.000000
0.177873 0.096195 0.000000
0.237631 0.094410 0.000000
0.297389 0.092624 0.000000
0.357147 0.090839 0.000000
0.416905 0.089054 0.000000
0.477611 0.087357 0.000000
0.540201 0.085790 0.000000
0.603850 0.084246 0.000000
0.668516 0.082712 0.000000
0.734202 0.081182 0.000000
0.800923 0.079652 0.000000
0.868694 0.078120 0.000000
0.937534 0.076582 0.000000
0.000000 0.153930 0.000000
0.000000 0.152144 0.000000
0.053388 0.150359 0.000000
0.113146 0.148574 0.000000
0.172904 0.146788 0.000000
0.232662 0.145003 0.000000
0.292893 0.143336 0.000000
0.354496 0.141907 0.000000
0.417025 0.140526 0.000000
0.480481 0.139170 0.000000
0.544888 0.137829 0.000000
0.610274 0.136496 0.000000
0.676661 0.135169 0.000000
0.744074 0.133844 0.000000
0.812535 0.132519 0.000000
0.882063 0.131191 0.000000
0.952678 0.129861 0.000000
0.000000 0.204523 0.000000
0.000000 0.202738 0.000000
0.048418 0.200953 0.000000
0.108313 0.199295 0.000000
0.168963 0.197998 0.000000
0.230390 0.196777 0.000000
0.292649 0.195596 0.000000
0.355788 0.194442 0.000000
0.419846 0.193307 0.000000
0.484857 0.192184 0.000000
0.550851 0.191070 0.000000
0.617853 0.189962 0.000000
0.685889 0.188857 0.000000
0.754978 0.187753 0.000000
0.825143 0.186650 0.000000
0.896401 0.185544 0.000000
0.968770 0.184436 0.000000
0.000000 0.255236 0.000000
0.000000 0.254064 0.000000
0.043942 0.252999 0.000000
0.105017 0.251992 0.000000
0.166899 0.251023 0.000000
0.229639 0.250083 0.000000
0.293281 0.249163 0.000000
0.357862 0.248259 0.000000
0.423413 0.247367 0.000000
0.489960 0.246484 0.000000
0.557530 0.245608 0.000000
0.626145 0.244735 0.000000
0.695826 0.243865 0.000000
0.766593 0.242996 0.000000
0.838462 0.242127 0.000000
0.911452 0.241257 0.000000
0.985579 0.240383 0.000000
0.000000 0.308357 0.000000
0.000000 0.307572 0.000000
0.039651 0.306826 0.000000
0.101933 0.306108 0.000000
0.165108 0.305413 0.000000
0.229212 0.304736 0.000000
0.294278 0.304074 0.000000
0.360333 0.303423 0.000000
0.427404 0.302781 0.000000
0.495512 0.302146 0.000000
0.564679 0.301516 0.000000
0.634925 0.300890 0.000000
0.706269 0.300265 0.000000
0.778727 0.299641 0.000000
0.852316 0.299017 0.000000
0.927051 0.298392 0.000000
1.000000 0.297764 0.000000
0.000000 0.363018 0.000000
0.000000 0.362531 0.000000
0.035252 0.362068 0.000000
0.098841 0.361626 0.000000
0.163387 0.361200 0.000000
0.228917 0.360788 0.000000
0.295457 0.360387 0.000000
0.363029 0.359995 0.000000
0.431656 0.359611 0.000000
0.501356 0.359232 0.000000
0.572150 0.358857 0.000000
0.644053 0.358485 0.000000
0.717082 0.358115 0.000000
0.791253 0.357745 0.000000
0.866580 0.357375 0.000000
0.943078 0.357003 0.000000
1.000000 0.356630 0.000000
0.000000 0.419140 0.000000
0.000000 0.418939 0.000000
0.030685 0.418756 0.000000
0.095660 0.418588 0.000000
0.161642 0.418434 0.000000
0.228653 0.418291 0.000000
0.296715 0.418157 0.000000
0.365847 0.418031 0.000000
0.436067 0.417910 0.000000
0.507394 0.417795 0.000000
0.579843 0.417682 0.000000
0.653430 0.417573 0.000000
0.728170 0.417464 0.000000
0.804077 0.417357 0.000000
0.881165 0.417248 0.000000
0.959445 0.417139 0.000000
1.000000 0.417027 0.000000
0.000000 0.476750 0.000000
0.000000 0.476833 0.000000
0.025918 0.476930 0.000000
0.092344 0.477041 0.000000
0.159817 0.477162 0.000000
0.228359 0.477293 0.000000
0.297986 0.477431 0.000000
0.368716 0.477576 0.000000
0.440566 0.477727 0.000000
0.513551 0.477881 0.000000
0.587686 0.478038 0.000000
0.662985 0.478198 0.000000
0.739461 0.478359 0.000000
0.817127 0.478520 0.000000
0.895997 0.478680 0.000000
0.976081 0.478840 0.000000
1.000000 0.478997 0.000000
0.000000 0.535883 0.000000
0.000000 0.536251 0.000000
0.020927 0.536633 0.000000
0.088858 0.537025 0.000000
0.157873 0.537426 0.000000
0.227988 0.537836 0.000000
0.299221 0.538253 0.000000
0.371586 0.538675 0.000000
0.445099 0.539102 0.000000
0.519773 0.539533 0.000000
0.595623 0.539966 0.000000
0.672660 0.540401 0.000000
0.750897 0.540837 0.000000
0.830346 0.541273 0.000000
0.911019 0.541709 0.000000
0.992927 0.542144 0.000000
1.000000 0.542577 0.000000
0.000000 0.596575 0.000000
0.000000 0.597233 0.000000
0.015696 0.597902 0.000000
0.085179 0.598580 0.000000
0.155778 0.599267 0.000000
0.227507 0.599961 0.000000
0.300382 0.600661 0.000000
0.374417 0.601366 0.000000
0.449624 0.602075 0.000000
0.526017 0.602787 0.000000
0.603608 0.603502 0.000000
0.682409 0.604218 0.000000
0.762431 0.604935 0.000000
0.843687 0.605653 0.000000
0.926185 0.606370 0.000000
1.000000 0.607086 0.000000
1.000000 0.607800 0.000000
0.000000 0.658864 0.000000
0.000000 0.659814 0.000000
0.010209 0.660775 0.000000
0.081288 0.661744 0.000000
0.153510 0.662720 0.000000
0.226889 0.663703 0.000000
0.301440 0.664691 0.000000
0.377175 0.665683 0.000000
0.454106 0.666680 0.000000
0.532246 0.667679 0.000000
0.611605 0.668681 0.000000
0.692194 0.669684 0.000000
0.774026 0.670687 0.000000
0.857108 0.671691 0.000000
0.941453 0.672695 0.000000
1.000000 0.673697 0.000000
1.000000 0.674698 0.000000
0.000000 0.722781 0.000000
0.000000 0.724028 0.000000
0.004456 0.725284 0.000000
0.077167 0.726548 0.000000
0.151048 0.727818 0.000000
0.226111 0.729094 0.000000
0.302370 0.730375 0.000000
0.379835 0.731661 0.000000
0.458518 0.732949 0.000000
0.538430 0.734240 0.000000
0.619582 0.735534 0.000000
0.701984 0.736828 0.000000
0.785646 0.738123 0.000000
0.870578 0.739419 0.000000
0.956790 0.740713 0.000000
1.000000 0.742007 0.000000
1.000000 0.743299 0.000000
0.000000 0.788358 0.000000
0.000000 0.789906 0.000000
0.000000 0.791461 0.000000
0.072803 0.793024 0.000000
0.148376 0.794592 0.000000
0.225155 0.796166 0.000000
0.303150 0.797745 0.000000
0.382372 0.799327 0.000000
0.462834 0.800913 0.000000
0.544543 0.802500 0.000000
0.627512 0.804090 0.000000
0.711749 0.805681 0.000000
0.797264 0.807272 0.000000
0.884066 0.808863 0.000000
0.970603 0.809693 0.000000
1.000000 0.807584 0.000000
1.000000 0.805475 0.000000
0.000000 0.855625 0.000000
0.000000 0.857476 0.000000
0.000000 0.859335 0.000000
0.068185 0.861201 0.000000
0.145480 0.863072 0.000000
0.224002 0.864948 0.000000
0.303762 0.866828 0.000000
0.384768 0.868711 0.000000
0.467033 0.870598 0.000000
0.550564 0.872487 0.000000
0.635372 0.874377 0.000000
0.720781 0.875782 0.000000
0.801809 0.873673 0.000000
0.882837 0.871565 0.000000
0.963865 0.869456 0.000000
1.000000 0.867347 0.000000
1.000000 0.865238 0.000000
0.000000 0.000000 0.056678
0.013068 0.000000 0.054610
0.072826 0.000000 0.052541
0.132584 0.000000 0.050473
0.192342 0.000000 0.048405
0.252100 0.000000 0.046336
0.311858 0.000000 0.044268
0.371616 0.000000 0.042200
0.431374 0.000000 0.040131
0.491132 0.000000 0.038063
0.550890 0.000000 0.035995
0.610648 0.000000 0.033926
0.670406 0.000000 0.031858
0.730164 0.000000 0.029789
0.789922 0.000000 0.027721
0.849680 0.000000 0.025653
0.909438 0.000000 0.023584
0.000000 0.001688 0.050647
0.008099 0.000000 0.048579
0.067857 0.000000 0.046511
0.127615 0.000000 0.044442
0.187373 0.000000 0.042374
0.247131 0.000000 0.040306
0.306889 0.000000 0.038237
0.366647 0.000000 0.036169
0.426405 0.000000 0.034101
0.486163 0.000000 0.032032
0.545921 0.000000 0.029964
0.605679 0.000000 0.027895
0.665437 0.000000 0.025827
0.725195 0.000000 0.023759
0.784953 0.000000 0.021690
0.848105 0.000000 0.019596
0.913022 0.000000 0.017499
0.000000 0.052282 0.044617
0.003129 0.050496 0.042548
0.062887 0.048711 0.040480
0.122645 0.046926 0.038412
0.182403 0.045140 0.036343
0.242161 0.043355 0.034275
0.301919 0.041570 0.032207
0.361677 0.039785 0.030138
0.421435 0.037999 0.028070
0.481193 0.036214 0.026001
0.540951 0.034429 0.023933
0.600709 0.032644 0.021865
0.662844 0.030915 0.019773
0.726686 0.029206 0.017676
0.791666 0.027496 0.015582
0.857733 0.025781 0.013495
0.924881 0.024058 0.011416
0.000000 0.102875 0.038586
0.000000 0.101090 0.036518
0.057918 0.099305 0.034449
0.117676 0.097519 0.032381
0.177434 0.095734 0.030313
0.237192 0.093949 0.028244
0.296950 0.092164 0.026176
0.356708 0.090378 0.024107
0.416466 0.088593 0.022039
0.477742 0.086949 0.019950
0.540532 0.085390 0.017852
0.604350 0.083850 0.015759
0.669176 0.082317 0.013671
0.735021 0.080788 0.011591
0.801899 0.079257 0.009519
0.869829 0.077723 0.007456
0.938827 0.076185 0.005402
0.000000 0.153469 0.032555
0.000000 0.151684 0.030487
0.052948 0.149898 0.028418
0.112706 0.148113 0.026350
0.172464 0.146328 0.024282
0.232222 0.144543 0.022213
0.292793 0.142960 0.020127
0.354557 0.141547 0.018029
0.417229 0.140174 0.015935
0.480826 0.138823 0.013847
0.545377 0.137484 0.011766
0.610907 0.136154 0.009693
0.677441 0.134827 0.007629
0.745004 0.133502 0.005575
0.813616 0.132177 0.003531
0.883298 0.130848 0.001497
0.954068 0.129516 0.000000
0.000000 0.204063 0.026524
0.000000 0.202277 0.024456
0.047979 0.200492 0.022388
0.107994 0.198949 0.020303
0.168758 0.197678 0.018206
0.230301 0.196469 0.016111
0.292682 0.195296 0.014022
0.355948 0.194148 0.011941
0.420138 0.193016 0.009867
0.485285 0.191896 0.007803
0.551418 0.190783 0.005748
0.618563 0.189676 0.003703
0.686743 0.188572 0.001668
0.755981 0.187469 0.000000
0.826296 0.186365 0.000000
0.897707 0.185259 0.000000
0.970232 0.184149 0.000000
0.000000 0.254917 0.020480
0.000000 0.253782 0.018382
0.043564 0.252734 0.016287
0.104741 0.251739 0.014198
0.166734 0.250778 0.012116
0.229592 0.249844 0.010042
0.293359 0.248929 0.007977
0.358068 0.248028 0.005921
0.423752 0.247139 0.003875
0.490436 0.246258 0.001839
0.558147 0.245382 0.000000
0.626905 0.244511 0.000000
0.696732 0.243641 0.000000
0.767648 0.242772 0.000000
0.839669 0.241903 0.000000
0.912813 0.241032 0.000000
0.987095 0.240157 0.000000
0.000000 0.308150 0.014374
0.000000 0.307377 0.012291
0.039268 0.306638 0.010216
0.101661 0.305927 0.008150
0.164955 0.305237 0.006094
0.229183 0.304564 0.004047
0.294377 0.303905 0.002010
0.360565 0.303257 0.000000
0.427771 0.302617 0.000000
0.496019 0.301983 0.000000
0.565329 0.301354 0.000000
0.635721 0.300728 0.000000
0.707212 0.300104 0.000000
0.779821 0.299480 0.000000
0.853563 0.298856 0.000000
0.928453 0.298230 0.000000
1.000000 0.297601 0.000000
0.000000 0.362890 0.008324
0.000000 0.362409 0.006267
0.034855 0.361952 0.004219
0.098564 0.361515 0.002182
0.163234 0.361093 0.000155
0.228893 0.360684 0.000000
0.295566 0.360285 0.000000
0.363275 0.359896 0.000000
0.432041 0.359513 0.000000
0.501884 0.359135 0.000000
0.572823 0.358761 0.000000
0.644874 0.358389 0.000000
0.718053 0.358019 0.000000
0.792377 0.357650 0.000000
0.867859 0.357279 0.000000
0.944514 0.356907 0.000000
1.000000 0.356533 0.000000
0.000000 0.419087 0.002353
0.000000 0.418890 0.000325
0.030271 0.418711 0.000000
0.095373 0.418547 0.000000
0.161485 0.418396 0.000000
0.228629 0.418256 0.000000
0.296828 0.418124 0.000000
0.366099 0.417999 0.000000
0.436463 0.417880 0.000000
0.507935 0.417765 0.000000
0.580532 0.417654 0.000000
0.654269 0.417545 0.000000
0.729162 0.417437 0.000000
0.805224 0.417329 0.000000
0.882468 0.417220 0.000000
0.960907 0.417110 0.000000
1.000000 0.416998 0.000000
0.000000 0.476770 0.000000
0.000000 0.476856 0.000000
0.025485 0.476957 0.000000
0.092042 0.477071 0.000000
0.159651 0.477195 0.000000
0.228330 0.477328 0.000000
0.298097 0.477468 0.000000
0.368971 0.477615 0.000000
0.440967 0.477766 0.000000
0.514100 0.477921 0.000000
0.588385 0.478079 0.000000
0.663837 0.478239 0.000000
0.740468 0.478400 0.000000
0.818291 0.478561 0.000000
0.897319 0.478722 0.000000
0.977564 0.478881 0.000000
1.000000 0.479038 0.000000
0.000000 0.535976 0.000000
0.000000 0.536348 0.000000
0.020474 0.536733 0.000000
0.088541 0.537128 0.000000
0.157694 0.537532 0.000000
0.227951 0.537943 0.000000
0.299327 0.538361 0.000000
0.371839 0.538785 0.000000
0.445500 0.539213 0.000000
0.520326 0.539644 0.000000
0.596328 0.540078 0.000000
0.673520 0.540513 0.000000
0.751914 0.540949 0.000000
0.831523 0.541386 0.000000
0.912356 0.541821 0.000000
0.994426 0.542256 0.000000
1.000000 0.542688 0.000000
0.000000 0.596744 0.000000
0.000000 0.597405 0.000000
0.015221 0.598076 0.000000
0.084844 0.598757 0.000000
0.155585 0.599446 0.000000
0.227459 0.600141 0.000000
0.300481 0.600842 0.000000
0.374664 0.601548 0.000000
0.450023 0.602258 0.000000
0.526569 0.602971 0.000000
0.604316 0.603687 0.000000
0.683274 0.604403 0.000000
0.763456 0.605121 0.000000
0.844872 0.605838 0.000000
0.927533 0.606555 0.000000
1.000000 0.607270 0.000000
1.000000 0.607984 0.000000
0.000000 0.659108 0.000000
0.000000 0.660061 0.000000
0.009711 0.661024 0.000000
0.080932 0.661995 0.000000
0.153300 0.662973 0.000000
0.226827 0.663957 0.000000
0.301528 0.664947 0.000000
0.377415 0.665940 0.000000
0.454500 0.666937 0.000000
0.532795 0.667937 0.000000
0.612312 0.668939 0.000000
0.693061 0.669943 0.000000
0.775053 0.670946 0.000000
0.858299 0.671950 0.000000
0.942808 0.672953 0.000000
1.000000 0.673955 0.000000
1.000000 0.674955 0.000000
0.000000 0.723102 0.000000
0.000000 0.724351 0.000000
0.003933 0.725609 0.000000
0.076791 0.726875 0.000000
0.150820 0.728147 0.000000
0.226034 0.729424 0.000000
0.302445 0.730707 0.000000
0.380064 0.731993 0.000000
0.458904 0.733282 0.000000
0.538974 0.734574 0.000000
0.620286 0.735868 0.000000
0.702849 0.737162 0.000000
0.786675 0.738458 0.000000
0.871771 0.739753 0.000000
0.958149 0.741047 0.000000
1.000000 0.742341 0.000000
1.000000 0.743632 0.000000
0.000000 0.788756 0.000000
0.000000 0.790306 0.000000
0.000000 0.791864 0.000000
0.072405 0.793428 0.000000
0.148129 0.794998 0.000000
0.225061 0.796573 0.000000
0.303211 0.798153 0.000000
0.382590 0.799736 0.000000
0.463210 0.801322 0.000000
0.545080 0.802910 0.000000
0.628211 0.804500 0.000000
0.712611 0.806091 0.000000
0.798291 0.807683 0.000000
0.885260 0.809274 0.000000
0.970007 0.809149 0.000000
1.000000 0.807040 0.000000
1.000000 0.804931 0.000000
0.000000 0.856102 0.000000
0.000000 0.857955 0.000000
0.000000 0.859816 0.000000
0.067763 0.861683 0.000000
0.145213 0.863555 0.000000
0.223891 0.865432 0.000000
0.303807 0.867314 0.000000
0.384973 0.869198 0.000000
0.467398 0.871085 0.000000
0.551092 0.872974 0.000000
0.636063 0.874865 0.000000
0.720185 0.875238 0.000000
0.801213 0.873129 0.000000
0.882241 0.871020 0.000000
0.963268 0.868912 0.000000
1.000000 0.866803 0.000000
1.000000 0.864694 0.000000
0.000000 0.000000 0.112814
0.012628 0.000000 0.110746
0.072386 0.000000 0.108677
0.132144 0.000000 0.106609
0.191902 0.000000 0.104541
0.251660 0.000000 0.102472
0.311418 0.000000 0.100404
0.371176 0.000000 0.098336
0.430934 0.000000 0.096267
0.490692 0.000000 0.094199
0.550450 0.000000 0.092131
0.610208 0.000000 0.090062
0.669966 0.000000 0.087994
0.729724 0.000000 0.085925
