assets/lighting/cinematic/grade-golden-hour/lut.cube
TITLE "Golden Hour"
# TKRS lighting-batch-001 original LUT
# Intended usage: late sun warm grade for sunset/sunrise exteriors
# License: CC0-1.0
LUT_3D_SIZE 9
DOMAIN_MIN 0.0 0.0 0.0
DOMAIN_MAX 1.0 1.0 1.0
0.000000 0.000000 0.000000
0.073706 0.000000 0.000000
0.193222 0.000000 0.000000
0.312738 0.000000 0.000000
0.432254 0.000000 0.000000
0.551770 0.000000 0.000000
0.671286 0.000000 0.000000
0.790802 0.000000 0.000000
0.910318 0.000000 0.000000
0.000000 0.053203 0.000000
0.063767 0.049632 0.000000
0.183283 0.046062 0.000000
0.302799 0.042491 0.000000
0.422315 0.038921 0.000000
0.541831 0.035350 0.000000
0.662166 0.031800 0.000000
0.790088 0.028379 0.000000
0.922595 0.024948 0.000000
0.000000 0.154390 0.000000
0.053828 0.150820 0.000000
0.173344 0.147249 0.000000
0.293030 0.143721 0.000000
0.416833 0.140879 0.000000
0.544409 0.138174 0.000000
0.675889 0.135511 0.000000
0.811462 0.132861 0.000000
0.951295 0.130204 0.000000
0.000000 0.255584 0.000000
0.044320 0.253267 0.000000
0.167065 0.251270 0.000000
0.293207 0.249399 0.000000
0.423077 0.247597 0.000000
0.556918 0.245833 0.000000
0.694924 0.244090 0.000000
0.837260 0.242352 0.000000
0.984067 0.240609 0.000000
0.000000 0.363148 0.000000
0.035647 0.362186 0.000000
0.163539 0.361309 0.000000
0.295348 0.360490 0.000000
0.431272 0.359710 0.000000
0.571478 0.358953 0.000000
0.716113 0.358210 0.000000
0.865304 0.357470 0.000000
1.000000 0.356727 0.000000
0.000000 0.476731 0.000000
0.026348 0.476904 0.000000
0.159983 0.477130 0.000000
0.297874 0.477395 0.000000
0.440166 0.477687 0.000000
0.586987 0.477997 0.000000
0.738455 0.478317 0.000000
0.894676 0.478639 0.000000
1.000000 0.478957 0.000000
0.000000 0.596408 0.000000
0.016169 0.597728 0.000000
0.155970 0.599089 0.000000
0.300283 0.600480 0.000000
0.449225 0.601892 0.000000
0.602900 0.603317 0.000000
0.761408 0.604750 0.000000
0.924838 0.606185 0.000000
1.000000 0.607616 0.000000
0.000000 0.722460 0.000000
0.004976 0.724959 0.000000
0.151274 0.727490 0.000000
0.302293 0.730044 0.000000
0.458131 0.732616 0.000000
0.618877 0.735200 0.000000
0.784617 0.737789 0.000000
0.955431 0.740379 0.000000
1.000000 0.742966 0.000000
0.000000 0.855148 0.000000
0.000000 0.858855 0.000000
0.145746 0.862589 0.000000
0.303715 0.866342 0.000000
0.466666 0.870111 0.000000
0.634680 0.873889 0.000000
0.802405 0.874217 0.000000
0.964461 0.870000 0.000000
1.000000 0.865782 0.000000
0.000000 0.000000 0.056678
0.072826 0.000000 0.052541
0.192342 0.000000 0.048405
0.311858 0.000000 0.044268
0.431374 0.000000 0.040131
0.550890 0.000000 0.035995
0.670406 0.000000 0.031858
0.789922 0.000000 0.027721
0.909438 0.000000 0.023584
0.000000 0.052282 0.044617
0.062887 0.048711 0.040480
0.182403 0.045140 0.036343
0.301919 0.041570 0.032207
0.421435 0.037999 0.028070
0.540951 0.034429 0.023933
0.662844 0.030915 0.019773
0.791666 0.027496 0.015582
0.924881 0.024058 0.011416
0.000000 0.153469 0.032555
0.052948 0.149898 0.028418
0.172464 0.146328 0.024282
0.292793 0.142960 0.020127
0.417229 0.140174 0.015935
0.545377 0.137484 0.011766
0.677441 0.134827 0.007629
0.813616 0.132177 0.003531
0.954068 0.129516 0.000000
0.000000 0.254917 0.020480
0.043564 0.252734 0.016287
0.166734 0.250778 0.012116
0.293359 0.248929 0.007977
0.423752 0.247139 0.003875
0.558147 0.245382 0.000000
0.696732 0.243641 0.000000
0.839669 0.241903 0.000000
0.987095 0.240157 0.000000
0.000000 0.362890 0.008324
0.034855 0.361952 0.004219
0.163234 0.361093 0.000155
0.295566 0.360285 0.000000
0.432041 0.359513 0.000000
0.572823 0.358761 0.000000
0.718053 0.358019 0.000000
0.867859 0.357279 0.000000
1.000000 0.356533 0.000000
0.000000 0.476770 0.000000
0.025485 0.476957 0.000000
0.159651 0.477195 0.000000
0.298097 0.477468 0.000000
0.440967 0.477766 0.000000
0.588385 0.478079 0.000000
0.740468 0.478400 0.000000
0.897319 0.478722 0.000000
1.000000 0.479038 0.000000
0.000000 0.596744 0.000000
0.015221 0.598076 0.000000
0.155585 0.599446 0.000000
0.300481 0.600842 0.000000
0.450023 0.602258 0.000000
0.604316 0.603687 0.000000
0.763456 0.605121 0.000000
0.927533 0.606555 0.000000
1.000000 0.607984 0.000000
0.000000 0.723102 0.000000
0.003933 0.725609 0.000000
0.150820 0.728147 0.000000
0.302445 0.730707 0.000000
0.458904 0.733282 0.000000
0.620286 0.735868 0.000000
0.786675 0.738458 0.000000
0.958149 0.741047 0.000000
1.000000 0.743632 0.000000
0.000000 0.856102 0.000000
0.000000 0.859816 0.000000
0.145213 0.863555 0.000000
0.303807 0.867314 0.000000
0.467398 0.871085 0.000000
0.636063 0.874865 0.000000
0.801213 0.873129 0.000000
0.963268 0.868912 0.000000
1.000000 0.864694 0.000000
0.000000 0.000000 0.168950
0.071946 0.000000 0.164813
0.191462 0.000000 0.160677
0.310979 0.000000 0.156540
0.430495 0.000000 0.152403
0.550011 0.000000 0.148267
0.669527 0.000000 0.144130
0.789043 0.000000 0.139993
0.908559 0.000000 0.135856
0.000000 0.051360 0.156889
0.062008 0.047790 0.152752
0.181524 0.044219 0.148615
0.301040 0.040649 0.144478
0.420556 0.037078 0.140342
0.540072 0.033508 0.136205
0.663725 0.030033 0.131795
0.793328 0.026612 0.127162
0.927230 0.023166 0.122496
0.000000 0.152548 0.144827
0.052069 0.148977 0.140690
0.171585 0.145407 0.136554
0.292665 0.142224 0.132182
0.417669 0.139475 0.127554
0.546380 0.136797 0.122889
0.679025 0.134143 0.118218
0.815800 0.131492 0.113554
0.956869 0.128827 0.108907
0.000000 0.254316 0.132569
0.042808 0.252215 0.127946
0.166408 0.250293 0.123283
0.293520 0.248462 0.118612
0.424439 0.246683 0.113947
0.559390 0.244932 0.109298
0.698556 0.243193 0.104672
0.842094 0.241454 0.100074
0.990141 0.239705 0.095507
0.000000 0.362639 0.119005
0.034057 0.361724 0.114340
0.162929 0.360880 0.109689
0.295786 0.360083 0.105061
0.432815 0.359317 0.100460
0.574174 0.358569 0.095891
0.720002 0.357829 0.091356
0.870424 0.357088 0.086858
1.000000 0.356339 0.082400
0.000000 0.476812 0.105450
0.024615 0.477015 0.100847
0.159314 0.477262 0.096275
0.298319 0.477543 0.091736
0.441768 0.477846 0.087236
0.589786 0.478162 0.082774
0.742485 0.478483 0.078355
0.899968 0.478804 0.073980
1.000000 0.479118 0.069650
0.000000 0.597084 0.092118
0.014265 0.598426 0.087613
0.155194 0.599804 0.083149
0.300674 0.601206 0.078726
0.450819 0.602626 0.074347
0.605731 0.604056 0.070013
0.765505 0.605491 0.065726
0.930230 0.606924 0.061487
1.000000 0.608351 0.057299
0.000000 0.723745 0.079097
0.002882 0.726262 0.074714
0.150360 0.728805 0.070376
0.302592 0.731370 0.066085
0.459674 0.733948 0.061843
0.621693 0.736536 0.057650
0.788732 0.739126 0.053508
0.960869 0.741715 0.049418
1.000000 0.744080 0.045393
0.000000 0.857057 0.066445
0.000000 0.860779 0.062198
0.144672 0.864523 0.058001
0.303894 0.868286 0.053855
0.468125 0.872060 0.049760
0.637444 0.875841 0.045719
0.800020 0.872041 0.042049
0.962076 0.867823 0.038398
1.000000 0.863606 0.034746
0.000000 0.000000 0.281222
0.071067 0.000000 0.277085
0.190583 0.000000 0.272949
0.310099 0.000000 0.268812
0.429615 0.000000 0.264675
0.549131 0.000000 0.260538
0.668647 0.000000 0.256402
0.788163 0.000000 0.252265
0.907856 0.000000 0.248112
0.000000 0.050439 0.269161
0.061128 0.046868 0.265024
0.180644 0.043298 0.260887
0.300160 0.039727 0.256750
0.419676 0.036157 0.252614
0.539192 0.032586 0.248477
0.664739 0.029151 0.243603
0.795064 0.025726 0.238490
0.929635 0.022270 0.233302
0.000000 0.151626 0.257099
0.051189 0.148056 0.252962
0.170705 0.144485 0.248826
0.292599 0.141503 0.244028
0.418146 0.138779 0.238925
0.547415 0.136111 0.233741
0.680638 0.133460 0.228518
0.818011 0.130806 0.223275
0.959697 0.128136 0.218026
0.000000 0.253747 0.244452
0.042051 0.251707 0.239359
0.166089 0.249814 0.234180
0.293691 0.248000 0.228959
0.425138 0.246229 0.223717
0.560646 0.244483 0.218468
0.700394 0.242744 0.213222
0.844534 0.241004 0.207986
0.993202 0.239251 0.202765
0.000000 0.362394 0.229400
0.033254 0.361501 0.224160
0.162622 0.360671 0.218911
0.296008 0.359883 0.213664
0.433593 0.359123 0.208427
0.575531 0.358378 0.203205
0.721959 0.357638 0.198002
0.872999 0.356895 0.192824
1.000000 0.356144 0.187673
0.000000 0.476859 0.214106
0.023738 0.477075 0.208868
0.158974 0.477332 0.203644
0.298539 0.477619 0.198440
0.442570 0.477926 0.193260
0.591189 0.478244 0.188106
0.744506 0.478566 0.182983
0.902623 0.478886 0.177893
1.000000 0.479197 0.172838
0.000000 0.597426 0.198878
0.013301 0.598779 0.193695
0.154797 0.600163 0.188540
0.300865 0.601571 0.183414
0.451614 0.602994 0.178321
0.607147 0.604426 0.173262
0.767556 0.605861 0.168242
0.932930 0.607293 0.163260
1.000000 0.608718 0.158319
0.000000 0.724392 0.183845
0.001821 0.726916 0.178749
0.149893 0.729465 0.173687
0.302734 0.732034 0.168663
0.460440 0.734615 0.163678
0.623098 0.737204 0.158734
0.790788 0.739794 0.153832
0.963589 0.742382 0.148974
1.000000 0.742992 0.144493
0.000000 0.858015 0.169085
0.000000 0.861743 0.164097
0.144124 0.865493 0.159149
0.303975 0.869258 0.154243
0.468848 0.873035 0.149381
0.636772 0.875170 0.144801
0.798828 0.870953 0.141149
0.960883 0.866735 0.137498
1.000000 0.862518 0.133846
0.000000 0.000000 0.393494
0.070187 0.000000 0.389357
0.189703 0.000000 0.385221
0.309219 0.000000 0.381084
0.428735 0.000000 0.376947
0.548251 0.000000 0.372810
0.667767 0.000000 0.368674
0.787283 0.000000 0.364537
0.908843 0.000000 0.360133
0.000000 0.049518 0.381433
0.060248 0.045947 0.377296
0.179764 0.042377 0.373159
0.299280 0.038806 0.369022
0.418797 0.035236 0.364886
0.539125 0.031689 0.360570
0.665855 0.028269 0.355178
0.796864 0.024838 0.349558
0.932093 0.021373 0.343828
0.000000 0.150705 0.369371
0.050310 0.147135 0.365234
0.169965 0.143624 0.361000
0.292579 0.140791 0.355644
0.418657 0.138088 0.350037
0.548478 0.135426 0.344314
0.682279 0.132776 0.338523
0.820249 0.130119 0.332688
0.962551 0.127444 0.326826
0.000000 0.253200 0.356109
0.041292 0.251209 0.350515
0.165774 0.249340 0.344800
0.293870 0.247540 0.339013
0.425847 0.245777 0.333181
0.561914 0.244034 0.327320
0.702245 0.242296 0.321444
0.846990 0.240553 0.315561
0.996280 0.238797 0.309679
0.000000 0.362156 0.339503
0.032445 0.361282 0.333674
0.162313 0.360464 0.327815
0.296231 0.359685 0.321940
0.434375 0.358929 0.316057
0.576894 0.358186 0.310174
0.723923 0.357447 0.304298
0.875582 0.356703 0.298432
1.000000 0.355947 0.292582
0.000000 0.476910 0.322436
0.022854 0.477138 0.316553
0.158629 0.477404 0.310670
0.298758 0.477697 0.304793
0.443373 0.478008 0.298926
0.592594 0.478327 0.293074
0.746531 0.478649 0.287242
0.905283 0.478967 0.281431
1.000000 0.479275 0.275646
0.000000 0.597772 0.305288
0.012328 0.599133 0.299420
0.154395 0.600525 0.293567
0.301052 0.601937 0.287732
0.452408 0.603363 0.281920
0.608562 0.604796 0.276132
0.769609 0.606231 0.270372
0.935633 0.607661 0.264642
1.000000 0.609084 0.258945
0.000000 0.725040 0.288223
0.000752 0.727571 0.282409
0.149419 0.730127 0.276619
0.302872 0.732699 0.270857
0.461204 0.735283 0.265124
0.624501 0.737872 0.259424
0.792845 0.740462 0.253757
0.966311 0.743049 0.248127
1.000000 0.741904 0.243593
0.000000 0.858974 0.271341
0.000000 0.862709 0.265606
0.143568 0.866463 0.259903
0.304050 0.870232 0.254233
0.469567 0.874010 0.248600
0.635579 0.874082 0.243901
0.797635 0.869865 0.240250
0.959691 0.865647 0.236598
1.000000 0.861429 0.232947
0.000000 0.000000 0.505766
0.069308 0.000000 0.501629
0.188824 0.000000 0.497493
0.308340 0.000000 0.493356
0.427856 0.000000 0.489219
0.547372 0.000000 0.485082
0.666888 0.000000 0.480946
0.786404 0.000000 0.476809
0.910245 0.000000 0.471928
0.000000 0.048596 0.493705
0.059369 0.045026 0.489568
0.178885 0.041455 0.485431
0.298401 0.037885 0.481294
0.417917 0.034314 0.477158
0.539538 0.030805 0.472410
0.667053 0.027386 0.466507
0.798722 0.023947 0.460356
0.934598 0.020472 0.454067
0.000000 0.149784 0.481643
0.049430 0.146213 0.477506
0.169468 0.142867 0.472887
0.292595 0.140087 0.467017
0.419195 0.137399 0.460881
0.549568 0.134742 0.454601
0.683944 0.132091 0.448227
0.822512 0.129431 0.441788
0.965430 0.126750 0.435302
0.000000 0.252669 0.467525
0.040531 0.250718 0.461405
0.165463 0.248871 0.455135
0.294056 0.247082 0.448767
0.426566 0.245326 0.442333
0.563194 0.243585 0.435850
0.704109 0.241847 0.429335
0.849459 0.240101 0.422797
0.999372 0.238340 0.416245
0.000000 0.361924 0.449307
0.031630 0.361066 0.442877
0.162002 0.360260 0.436398
0.296456 0.359488 0.429885
0.435160 0.358737 0.423349
0.578263 0.357996 0.416798
0.725894 0.357255 0.410239
0.878174 0.356509 0.403680
1.000000 0.355750 0.397124
0.000000 0.476964 0.430435
0.021962 0.477203 0.423900
0.158280 0.477477 0.417350
0.298974 0.477776 0.410792
0.444176 0.478090 0.404232
0.594002 0.478410 0.397676
0.748560 0.478732 0.391128
0.907948 0.479048 0.384592
1.000000 0.479353 0.378071
0.000000 0.598120 0.411345
0.011348 0.599490 0.404785
0.153986 0.600888 0.398229
0.301235 0.602304 0.391680
0.453199 0.603733 0.385142
0.609978 0.605167 0.378620
0.771662 0.606601 0.372116
0.938339 0.608029 0.365633
1.000000 0.609449 0.359174
0.000000 0.725690 0.392231
0.000000 0.728229 0.385693
0.148938 0.730789 0.379169
0.303004 0.733365 0.372663
0.461964 0.735951 0.366179
0.625903 0.738541 0.359718
0.794900 0.741130 0.353283
0.969033 0.743715 0.346876
1.000000 0.740816 0.342694
0.000000 0.859936 0.373211
0.000000 0.863676 0.366724
0.143005 0.867434 0.360261
0.304119 0.871206 0.353824
0.470281 0.874986 0.347415
0.634387 0.872994 0.343001
0.796442 0.868776 0.339350
0.958498 0.864559 0.335699
1.000000 0.860341 0.332047
0.000000 0.000000 0.618038
0.068428 0.000000 0.613901
0.187944 0.000000 0.609765
0.307460 0.000000 0.605628
0.426976 0.000000 0.601491
0.546492 0.000000 0.597354
0.666008 0.000000 0.593218
0.785524 0.000000 0.589081
0.911874 0.000000 0.583488
0.000000 0.047675 0.605976
0.058489 0.044105 0.601840
0.178005 0.040534 0.597703
0.297521 0.036964 0.593566
0.417037 0.033393 0.589430
0.540106 0.029923 0.584016
0.668320 0.026502 0.577579
0.800632 0.023054 0.570877
0.937147 0.019568 0.564013
0.000000 0.148863 0.593915
0.048550 0.145292 0.589778
0.169027 0.142134 0.584539
0.292640 0.139388 0.578134
0.419759 0.136712 0.571450
0.550682 0.134058 0.564596
0.685633 0.131406 0.557627
0.824798 0.128741 0.550572
0.968333 0.126054 0.543452
0.000000 0.252152 0.578687
0.039767 0.250234 0.572020
0.165154 0.248405 0.565179
0.294249 0.246627 0.558218
0.427294 0.244876 0.551169
0.564484 0.243137 0.544055
0.705986 0.241398 0.536891
0.851942 0.239649 0.529689
1.000000 0.237883 0.522461
0.000000 0.361696 0.558808
0.030809 0.360854 0.551766
0.161690 0.360058 0.544656
0.296681 0.359293 0.537496
0.435948 0.358545 0.530298
0.579636 0.357805 0.523071
0.727873 0.357064 0.515824
0.880773 0.356315 0.508564
1.000000 0.355552 0.501297
0.000000 0.477022 0.538101
0.021063 0.477271 0.530905
0.157926 0.477552 0.523681
0.299189 0.477856 0.516435
0.444979 0.478172 0.509176
0.595411 0.478494 0.501910
0.750591 0.478814 0.494640
0.910618 0.479128 0.487373
1.000000 0.479429 0.480112
0.000000 0.598470 0.517047
0.010359 0.599848 0.509789
0.153572 0.601252 0.502522
0.301414 0.602672 0.495253
0.453988 0.604102 0.487985
0.611392 0.605537 0.480723
0.773717 0.606970 0.473471
0.941047 0.608397 0.466231
1.000000 0.609813 0.459006
0.000000 0.726343 0.495866
0.000000 0.728887 0.488598
0.148450 0.731452 0.481335
0.303131 0.734031 0.474082
0.462720 0.736619 0.466840
0.627302 0.739209 0.459614
0.796955 0.741798 0.452407
0.970782 0.743945 0.445446
1.000000 0.739727 0.441794
0.000000 0.860899 0.474693
0.000000 0.864644 0.467450
0.142434 0.868406 0.460223
0.304181 0.872181 0.453013
0.470990 0.875962 0.445824
0.633194 0.871906 0.442102
0.795250 0.867688 0.438450
0.957305 0.863470 0.434799
1.000000 0.859253 0.431148
0.000000 0.000000 0.730310
0.067549 0.000000 0.726173
0.187065 0.000000 0.722036
0.306581 0.000000 0.717900
0.426097 0.000000 0.713763
0.545613 0.000000 0.709626
0.665129 0.000000 0.705490
0.784961 0.000000 0.701260
0.913665 0.000000 0.694801
0.000000 0.046754 0.718248
0.057610 0.043183 0.714112
0.177126 0.039613 0.709975
0.296642 0.036042 0.705838
0.416158 0.032472 0.701702
0.540777 0.029041 0.695375
0.669647 0.025615 0.688385
0.802589 0.022159 0.681114
0.939738 0.018661 0.673660
0.000000 0.147941 0.706187
0.047671 0.144371 0.702050
0.168618 0.141414 0.695945
0.292708 0.138693 0.688987
0.420346 0.136026 0.681735
0.551818 0.133375 0.674294
0.687344 0.130720 0.666716
0.827106 0.128050 0.659034
0.971257 0.125355 0.651272
0.000000 0.251645 0.689587
0.038999 0.249755 0.682354
0.164848 0.247942 0.674927
0.294447 0.246173 0.667359
0.428029 0.244427 0.659685
0.565785 0.242689 0.651929
0.707874 0.240948 0.644108
0.854438 0.239195 0.636236
1.000000 0.237423 0.628323
0.000000 0.361473 0.668001
0.029981 0.360645 0.660335
0.161374 0.359858 0.652586
0.296907 0.359099 0.644770
0.436740 0.358354 0.636901
0.581014 0.357614 0.628992
0.729857 0.356871 0.621050
0.883381 0.356119 0.613083
1.000000 0.355352 0.605099
0.000000 0.477082 0.645431
0.020156 0.477341 0.637566
0.157568 0.477629 0.629660
0.299401 0.477936 0.621720
0.445781 0.478255 0.613755
0.596822 0.478577 0.605772
0.752627 0.478896 0.597776
0.913292 0.479207 0.589773
1.000000 0.479504 0.581766
0.000000 0.598823 0.622390
0.009361 0.600208 0.614428
0.153152 0.601617 0.606446
0.301589 0.603040 0.598451
0.454775 0.604472 0.590448
0.612807 0.605907 0.582441
0.775772 0.607339 0.574435
0.943756 0.608763 0.566433
1.000000 0.610176 0.558439
0.000000 0.726997 0.599125
0.000000 0.729548 0.591122
0.147955 0.732117 0.583116
0.303253 0.734698 0.575110
0.463473 0.737287 0.567107
0.628699 0.739877 0.559112
0.799010 0.742465 0.551127
0.969589 0.742857 0.544546
1.000000 0.738639 0.540894
0.000000 0.861863 0.575784
0.000000 0.865613 0.567782
0.141855 0.869379 0.559786
0.304238 0.873156 0.551800
0.469946 0.875035 0.544854
0.632002 0.870817 0.541202
0.794057 0.866600 0.537551
0.956113 0.862382 0.533899
1.000000 0.858165 0.530248
0.000000 0.000000 0.842582
0.066669 0.000000 0.838445
0.186185 0.000000 0.834308
0.305701 0.000000 0.830172
0.425217 0.000000 0.826035
0.544733 0.000000 0.821898
0.664249 0.000000 0.817762
0.785763 0.000000 0.812941
0.915584 0.000000 0.805854
0.000000 0.045833 0.830520
0.056730 0.042262 0.826384
0.176246 0.038692 0.822247
0.295762 0.035121 0.818110
0.416020 0.031579 0.813494
0.541527 0.028159 0.806476
0.671027 0.024727 0.798915
0.804590 0.021261 0.791060
0.942368 0.017751 0.783002
0.000000 0.147020 0.818459
0.046842 0.143528 0.814033
0.168232 0.140703 0.807095
0.292798 0.138002 0.799566
0.420953 0.135341 0.791731
0.552974 0.132691 0.783688
0.689076 0.130033 0.775490
0.829435 0.127358 0.767172
0.974203 0.124655 0.758758
0.000000 0.251147 0.800214
0.038227 0.249282 0.792400
0.164542 0.247483 0.784372
0.294650 0.245721 0.776186
0.428773 0.243978 0.767877
0.567095 0.242240 0.759470
0.709773 0.240497 0.750984
0.856946 0.238740 0.742434
1.000000 0.236963 0.733830
0.000000 0.361255 0.776881
0.029147 0.360439 0.768582
0.161056 0.359660 0.760182
0.297132 0.358905 0.751702
0.437533 0.358163 0.743157
0.582397 0.357423 0.734557
0.731847 0.356678 0.725914
0.885996 0.355923 0.717235
1.000000 0.355151 0.708527
0.000000 0.477146 0.752420
0.019242 0.477413 0.743879
0.157205 0.477707 0.735284
0.299611 0.478018 0.726644
0.446583 0.478338 0.717967
0.598234 0.478660 0.709262
0.754664 0.478977 0.700534
0.915971 0.479285 0.691789
1.000000 0.479578 0.683032
0.000000 0.599178 0.727373
0.008356 0.600570 0.718700
0.152726 0.601983 0.709997
0.301760 0.603409 0.701271
0.455560 0.604842 0.692527
0.614220 0.606277 0.683771
0.777829 0.607707 0.675007
0.946468 0.609129 0.666239
1.000000 0.610538 0.657470
0.000000 0.727653 0.702007
0.000000 0.730209 0.693264
0.147453 0.732782 0.684509
0.303369 0.735366 0.675746
0.464222 0.737955 0.666978
0.630094 0.740546 0.658209
0.801063 0.743132 0.649443
0.968397 0.741769 0.643646
1.000000 0.737551 0.639995
0.000000 0.862829 0.676484
0.000000 0.866584 0.667717
0.141269 0.870353 0.658948
0.304288 0.874132 0.650182
0.468753 0.873947 0.643954
0.630809 0.869729 0.640303
0.792865 0.865512 0.636651
0.954920 0.861294 0.633000
1.000000 0.857076 0.629348
