assets/lighting/cinematic/grade-rain-night-neon/lut.cube
TITLE "Rain Night Neon"
# TKRS lighting-batch-001 original LUT
# Intended usage: wet streets neon bounce at night
# License: CC0-1.0
LUT_3D_SIZE 17
DOMAIN_MIN 0.0 0.0 0.0
DOMAIN_MAX 1.0 1.0 1.0
0.000000 0.000000 0.000000
0.000000 0.000000 0.000000
0.050767 0.000000 0.000000
0.104751 0.000000 0.000000
0.158734 0.000000 0.000000
0.212717 0.000000 0.000000
0.266701 0.000000 0.000000
0.320684 0.000000 0.000000
0.374667 0.000000 0.000000
0.428650 0.000000 0.000000
0.482634 0.000000 0.000000
0.536617 0.000000 0.000000
0.590600 0.000000 0.000000
0.644583 0.000000 0.000000
0.698567 0.000000 0.000000
0.752550 0.000000 0.000000
0.806533 0.000000 0.000000
0.000000 0.000000 0.000000
0.000000 0.000000 0.000000
0.044115 0.000000 0.000000
0.098098 0.000000 0.000000
0.152081 0.000000 0.000000
0.206065 0.000000 0.000000
0.260048 0.000000 0.000000
0.314031 0.000000 0.000000
0.368014 0.000000 0.000000
0.421998 0.000000 0.000000
0.475981 0.000000 0.000000
0.529964 0.000000 0.000000
0.583948 0.000000 0.000000
0.637931 0.000000 0.000000
0.691914 0.000000 0.000000
0.745897 0.000000 0.000000
0.801652 0.000000 0.000000
0.000000 0.040118 0.000000
0.000000 0.038183 0.000000
0.037462 0.036248 0.000000
0.091445 0.034314 0.000000
0.145429 0.032379 0.000000
0.199412 0.030444 0.000000
0.253395 0.028509 0.000000
0.307378 0.026574 0.000000
0.361362 0.024639 0.000000
0.415345 0.022704 0.000000
0.469328 0.020769 0.000000
0.523312 0.018835 0.000000
0.577435 0.016906 0.000000
0.633484 0.015040 0.000000
0.690408 0.013170 0.000000
0.748070 0.011285 0.000000
0.806446 0.009379 0.000000
0.000000 0.088082 0.000000
0.000000 0.086147 0.000000
0.030809 0.084212 0.000000
0.084793 0.082277 0.000000
0.138776 0.080342 0.000000
0.192759 0.078407 0.000000
0.246743 0.076472 0.000000
0.300726 0.074538 0.000000
0.354709 0.072603 0.000000
0.409203 0.070795 0.000000
0.464924 0.069212 0.000000
0.521330 0.067665 0.000000
0.578394 0.066127 0.000000
0.636118 0.064590 0.000000
0.694512 0.063044 0.000000
0.753589 0.061487 0.000000
0.813359 0.059915 0.000000
0.000000 0.136045 0.000000
0.000000 0.134110 0.000000
0.024157 0.132175 0.000000
0.078140 0.130241 0.000000
0.132123 0.128306 0.000000
0.186107 0.126371 0.000000
0.240675 0.124871 0.000000
0.295924 0.123607 0.000000
0.351752 0.122403 0.000000
0.408176 0.121229 0.000000
0.465217 0.120072 0.000000
0.522894 0.118923 0.000000
0.581222 0.117773 0.000000
0.640219 0.116620 0.000000
0.699898 0.115458 0.000000
0.760273 0.114285 0.000000
0.821357 0.113098 0.000000
0.000000 0.184009 0.000000
0.000000 0.182074 0.000000
0.017511 0.180243 0.000000
0.071754 0.179159 0.000000
0.126447 0.178238 0.000000
0.181649 0.177394 0.000000
0.237400 0.176599 0.000000
0.293730 0.175834 0.000000
0.350664 0.175089 0.000000
0.408225 0.174356 0.000000
0.466430 0.173630 0.000000
0.525297 0.172904 0.000000
0.584842 0.172176 0.000000
0.645078 0.171442 0.000000
0.706018 0.170700 0.000000
0.767674 0.169946 0.000000
0.830059 0.169179 0.000000
0.000000 0.233675 0.000000
0.000000 0.233115 0.000000
0.011002 0.232647 0.000000
0.066048 0.232241 0.000000
0.121642 0.231879 0.000000
0.177813 0.231549 0.000000
0.234586 0.231240 0.000000
0.291984 0.230948 0.000000
0.350024 0.230666 0.000000
0.408723 0.230389 0.000000
0.468098 0.230114 0.000000
0.528162 0.229837 0.000000
0.588929 0.229556 0.000000
0.650410 0.229268 0.000000
0.712617 0.228971 0.000000
0.775561 0.228663 0.000000
0.839251 0.228342 0.000000
0.000000 0.288164 0.000000
0.000000 0.288214 0.000000
0.004328 0.288306 0.000000
0.060297 0.288430 0.000000
0.116870 0.288579 0.000000
0.174068 0.288746 0.000000
0.231910 0.288926 0.000000
0.290411 0.289116 0.000000
0.349588 0.289310 0.000000
0.409453 0.289507 0.000000
0.470021 0.289703 0.000000
0.531302 0.289896 0.000000
0.593309 0.290083 0.000000
0.656052 0.290262 0.000000
0.719541 0.290432 0.000000
0.783785 0.290590 0.000000
0.848795 0.290736 0.000000
0.000000 0.345929 0.000000
0.000000 0.346526 0.000000
0.000000 0.347148 0.000000
0.054394 0.347792 0.000000
0.112010 0.348451 0.000000
0.170288 0.349122 0.000000
0.229242 0.349801 0.000000
0.288886 0.350485 0.000000
0.349233 0.351171 0.000000
0.410293 0.351858 0.000000
0.472080 0.352542 0.000000
0.534602 0.353221 0.000000
0.597871 0.353894 0.000000
0.661895 0.354558 0.000000
0.726684 0.355213 0.000000
0.792247 0.355856 0.000000
0.858591 0.356487 0.000000
0.000000 0.406988 0.000000
0.000000 0.408122 0.000000
0.000000 0.409274 0.000000
0.048290 0.410440 0.000000
0.107000 0.411616 0.000000
0.166402 0.412801 0.000000
0.226509 0.413991 0.000000
0.287330 0.415183 0.000000
0.348878 0.416375 0.000000
0.411163 0.417566 0.000000
0.474195 0.418753 0.000000
0.537983 0.419934 0.000000
0.602535 0.421108 0.000000
0.667862 0.422273 0.000000
0.733970 0.423429 0.000000
0.800867 0.424573 0.000000
0.868562 0.425704 0.000000
0.000000 0.471426 0.000000
0.000000 0.473100 0.000000
0.000000 0.474787 0.000000
0.041950 0.476484 0.000000
0.101798 0.478188 0.000000
0.162364 0.479897 0.000000
0.223658 0.481608 0.000000
0.285690 0.483321 0.000000
0.348469 0.485032 0.000000
0.412005 0.486740 0.000000
0.476307 0.488443 0.000000
0.541383 0.490140 0.000000
0.607242 0.491830 0.000000
0.673890 0.493510 0.000000
0.741336 0.495180 0.000000
0.809587 0.496838 0.000000
0.878650 0.498483 0.000000
0.000000 0.539338 0.000000
0.000000 0.541558 0.000000
0.000000 0.543787 0.000000
0.035351 0.546024 0.000000
0.096375 0.548265 0.000000
0.158139 0.550509 0.000000
0.220652 0.552754 0.000000
0.283924 0.554998 0.000000
0.347962 0.557239 0.000000
0.412775 0.559477 0.000000
0.478371 0.561709 0.000000
0.544757 0.563934 0.000000
0.611943 0.566151 0.000000
0.679933 0.568359 0.000000
0.748736 0.570556 0.000000
0.818358 0.572741 0.000000
0.888806 0.574913 0.000000
0.000000 0.610813 0.000000
0.000000 0.613586 0.000000
0.000000 0.616366 0.000000
0.028473 0.619151 0.000000
0.090707 0.621939 0.000000
0.153701 0.624728 0.000000
0.217463 0.627516 0.000000
0.282000 0.630303 0.000000
0.347322 0.633086 0.000000
0.413436 0.635864 0.000000
0.480348 0.638636 0.000000
0.548067 0.641401 0.000000
0.616599 0.644157 0.000000
0.685950 0.646903 0.000000
0.756128 0.649639 0.000000
0.827138 0.652362 0.000000
0.898987 0.655073 0.000000
0.000000 0.685933 0.000000
0.000000 0.689268 0.000000
0.000000 0.692607 0.000000
0.021303 0.695949 0.000000
0.084776 0.699293 0.000000
0.149028 0.702636 0.000000
0.214064 0.705978 0.000000
0.279893 0.709317 0.000000
0.346523 0.712652 0.000000
0.413959 0.715981 0.000000
0.482210 0.719304 0.000000
0.551280 0.722618 0.000000
0.621178 0.725924 0.000000
0.691909 0.729220 0.000000
0.760852 0.729175 0.000000
0.827956 0.726565 0.000000
0.895060 0.723956 0.000000
0.000000 0.764776 0.000000
0.000000 0.768680 0.000000
0.000000 0.772586 0.000000
0.013824 0.776495 0.000000
0.078565 0.780403 0.000000
0.144100 0.784310 0.000000
0.210436 0.788215 0.000000
0.277581 0.792116 0.000000
0.345540 0.796012 0.000000
0.414320 0.799902 0.000000
0.483929 0.803784 0.000000
0.551270 0.801695 0.000000
0.618374 0.799085 0.000000
0.685478 0.796476 0.000000
0.752582 0.793866 0.000000
0.819687 0.791256 0.000000
0.886791 0.788647 0.000000
0.000000 0.847415 0.000000
0.000000 0.851895 0.000000
0.000000 0.856377 0.000000
0.006028 0.860859 0.000000
0.072061 0.865341 0.000000
0.138904 0.869820 0.000000
0.206562 0.874297 0.000000
0.274583 0.876825 0.000000
0.341687 0.874215 0.000000
0.408792 0.871605 0.000000
0.475896 0.868996 0.000000
0.543000 0.866386 0.000000
0.610104 0.863776 0.000000
0.677208 0.861167 0.000000
0.744313 0.858557 0.000000
0.811417 0.855947 0.000000
0.878521 0.853338 0.000000
0.000000 0.933916 0.000000
0.000000 0.938980 0.000000
0.000000 0.944045 0.000000
0.000000 0.949110 0.000000
0.065001 0.949345 0.000000
0.132105 0.946735 0.000000
0.199209 0.944126 0.000000
0.266314 0.941516 0.000000
0.333418 0.938906 0.000000
0.400522 0.936296 0.000000
0.467626 0.933687 0.000000
0.534730 0.931077 0.000000
0.601835 0.928467 0.000000
0.668939 0.925858 0.000000
0.736043 0.923248 0.000000
0.803147 0.920638 0.000000
0.870251 0.918029 0.000000
0.000000 0.000000 0.000000
0.000000 0.000000 0.000000
0.050087 0.000000 0.000000
0.104071 0.000000 0.000000
0.158054 0.000000 0.000000
0.212037 0.000000 0.000000
0.266020 0.000000 0.000000
0.320004 0.000000 0.000000
0.373987 0.000000 0.000000
0.427970 0.000000 0.000000
0.481953 0.000000 0.000000
0.535937 0.000000 0.000000
0.589920 0.000000 0.000000
0.643903 0.000000 0.000000
0.697887 0.000000 0.000000
0.751870 0.000000 0.000000
0.805853 0.000000 0.000000
0.000000 0.000000 0.000000
0.000000 0.000000 0.000000
0.043435 0.000000 0.000000
0.097418 0.000000 0.000000
0.151401 0.000000 0.000000
0.205384 0.000000 0.000000
0.259368 0.000000 0.000000
0.313351 0.000000 0.000000
0.367334 0.000000 0.000000
0.421318 0.000000 0.000000
0.475301 0.000000 0.000000
0.529284 0.000000 0.000000
0.583267 0.000000 0.000000
0.637251 0.000000 0.000000
0.691234 0.000000 0.000000
0.745377 0.000000 0.000000
0.801958 0.000000 0.000000
0.000000 0.039454 0.000000
0.000000 0.037520 0.000000
0.036782 0.035585 0.000000
0.090765 0.033650 0.000000
0.144748 0.031715 0.000000
0.198732 0.029780 0.000000
0.252715 0.027845 0.000000
0.306698 0.025910 0.000000
0.360682 0.023975 0.000000
0.414665 0.022041 0.000000
0.468648 0.020106 0.000000
0.522631 0.018171 0.000000
0.577314 0.016264 0.000000
0.633633 0.014400 0.000000
0.690736 0.012526 0.000000
0.748556 0.010634 0.000000
0.807084 0.008720 0.000000
0.000000 0.087418 0.000000
0.000000 0.085483 0.000000
0.030129 0.083548 0.000000
0.084112 0.081613 0.000000
0.138096 0.079678 0.000000
0.192079 0.077744 0.000000
0.246062 0.075809 0.000000
0.300046 0.073874 0.000000
0.354029 0.071939 0.000000
0.408990 0.070245 0.000000
0.464881 0.068679 0.000000
0.521430 0.067137 0.000000
0.578630 0.065600 0.000000
0.636489 0.064061 0.000000
0.695018 0.062512 0.000000
0.754229 0.060950 0.000000
0.814135 0.059371 0.000000
0.000000 0.135382 0.000000
0.000000 0.133447 0.000000
0.023477 0.131512 0.000000
0.077460 0.129577 0.000000
0.131443 0.127642 0.000000
0.185496 0.125774 0.000000
0.240293 0.124428 0.000000
0.295662 0.123189 0.000000
0.351607 0.121998 0.000000
0.408150 0.120831 0.000000
0.465311 0.119678 0.000000
0.523110 0.118529 0.000000
0.581563 0.117378 0.000000
0.640687 0.116222 0.000000
0.700496 0.115057 0.000000
0.761002 0.113879 0.000000
0.822219 0.112687 0.000000
0.000000 0.183345 0.000000
0.000000 0.181410 0.000000
0.016848 0.179840 0.000000
0.071166 0.178831 0.000000
0.125947 0.177942 0.000000
0.181246 0.177117 0.000000
0.237100 0.176333 0.000000
0.293538 0.175577 0.000000
0.350584 0.174837 0.000000
0.408260 0.174107 0.000000
0.466584 0.173381 0.000000
0.525573 0.172655 0.000000
0.585242 0.171925 0.000000
0.645605 0.171189 0.000000
0.706674 0.170442 0.000000
0.768461 0.169684 0.000000
0.830979 0.168912 0.000000
0.000000 0.233469 0.000000
0.000000 0.232946 0.000000
0.010329 0.232502 0.000000
0.065465 0.232113 0.000000
0.121155 0.231763 0.000000
0.177429 0.231441 0.000000
0.234309 0.231139 0.000000
0.291818 0.230850 0.000000
0.349972 0.230570 0.000000
0.408790 0.230295 0.000000
0.468286 0.230019 0.000000
0.528473 0.229742 0.000000
0.589366 0.229458 0.000000
0.650975 0.229168 0.000000
0.713312 0.228867 0.000000
0.776388 0.228554 0.000000
0.840213 0.228228 0.000000
0.000000 0.288175 0.000000
0.000000 0.288241 0.000000
0.003634 0.288345 0.000000
0.059702 0.288479 0.000000
0.116379 0.288634 0.000000
0.173685 0.288807 0.000000
0.231638 0.288991 0.000000
0.290255 0.289182 0.000000
0.349549 0.289378 0.000000
0.409536 0.289574 0.000000
0.470227 0.289769 0.000000
0.531634 0.289960 0.000000
0.593769 0.290145 0.000000
0.656642 0.290321 0.000000
0.720263 0.290487 0.000000
0.784641 0.290642 0.000000
0.849786 0.290783 0.000000
0.000000 0.346131 0.000000
0.000000 0.346737 0.000000
0.000000 0.347367 0.000000
0.053780 0.348016 0.000000
0.111506 0.348680 0.000000
0.169897 0.349354 0.000000
0.228967 0.350035 0.000000
0.288729 0.350720 0.000000
0.349197 0.351407 0.000000
0.410382 0.352093 0.000000
0.472295 0.352775 0.000000
0.534946 0.353452 0.000000
0.598344 0.354123 0.000000
0.662501 0.354784 0.000000
0.727424 0.355435 0.000000
0.793122 0.356074 0.000000
0.859603 0.356700 0.000000
0.000000 0.407374 0.000000
0.000000 0.408515 0.000000
0.000000 0.409672 0.000000
0.047653 0.410842 0.000000
0.106478 0.412022 0.000000
0.165997 0.413209 0.000000
0.226223 0.414399 0.000000
0.287167 0.415592 0.000000
0.348840 0.416784 0.000000
0.411252 0.417973 0.000000
0.474412 0.419158 0.000000
0.538330 0.420337 0.000000
0.603016 0.421509 0.000000
0.668476 0.422671 0.000000
0.734720 0.423822 0.000000
0.801755 0.424962 0.000000
0.869589 0.426088 0.000000
0.000000 0.471999 0.000000
0.000000 0.473677 0.000000
0.000000 0.475368 0.000000
0.041287 0.477067 0.000000
0.101254 0.478773 0.000000
0.161941 0.480484 0.000000
0.223358 0.482196 0.000000
0.285515 0.483908 0.000000
0.348422 0.485618 0.000000
0.412088 0.487325 0.000000
0.476521 0.489026 0.000000
0.541730 0.490721 0.000000
0.607723 0.492407 0.000000
0.674508 0.494084 0.000000
0.742092 0.495750 0.000000
0.810483 0.497404 0.000000
0.879686 0.499045 0.000000
0.000000 0.540098 0.000000
0.000000 0.542322 0.000000
0.000000 0.544554 0.000000
0.034660 0.546792 0.000000
0.095807 0.549034 0.000000
0.157696 0.551279 0.000000
0.220335 0.553524 0.000000
0.283735 0.555767 0.000000
0.347903 0.558007 0.000000
0.412848 0.560243 0.000000
0.478577 0.562473 0.000000
0.545099 0.564696 0.000000
0.612421 0.566909 0.000000
0.680550 0.569114 0.000000
0.749493 0.571307 0.000000
0.819256 0.573487 0.000000
0.889846 0.575655 0.000000
0.000000 0.611763 0.000000
0.000000 0.614539 0.000000
0.000000 0.617321 0.000000
0.027754 0.620107 0.000000
0.090113 0.622895 0.000000
0.153234 0.625684 0.000000
0.217125 0.628472 0.000000
0.281794 0.631258 0.000000
0.347248 0.634039 0.000000
0.413496 0.636816 0.000000
0.480544 0.639585 0.000000
0.548401 0.642347 0.000000
0.617071 0.645100 0.000000
0.686563 0.647843 0.000000
0.756882 0.650574 0.000000
0.828035 0.653294 0.000000
0.900028 0.656000 0.000000
0.000000 0.687076 0.000000
0.000000 0.690412 0.000000
0.000000 0.693753 0.000000
0.020552 0.697096 0.000000
0.084154 0.700440 0.000000
0.148536 0.703783 0.000000
0.213704 0.707124 0.000000
0.279667 0.710462 0.000000
0.346431 0.713795 0.000000
0.414004 0.717122 0.000000
0.482392 0.720442 0.000000
0.551603 0.723753 0.000000
0.621641 0.727056 0.000000
0.692514 0.730348 0.000000
0.760006 0.728280 0.000000
0.827111 0.725670 0.000000
0.894215 0.723061 0.000000
0.000000 0.766115 0.000000
0.000000 0.770019 0.000000
0.000000 0.773927 0.000000
0.013042 0.777835 0.000000
0.077914 0.781743 0.000000
0.143582 0.785650 0.000000
0.210052 0.789554 0.000000
0.277332 0.793453 0.000000
0.345428 0.797347 0.000000
0.414347 0.801234 0.000000
0.483320 0.803410 0.000000
0.550424 0.800800 0.000000
0.617528 0.798190 0.000000
0.684633 0.795581 0.000000
0.751737 0.792971 0.000000
0.818841 0.790361 0.000000
0.885945 0.787752 0.000000
0.000000 0.848951 0.000000
0.000000 0.853432 0.000000
0.000000 0.857914 0.000000
0.005212 0.862397 0.000000
0.071379 0.866878 0.000000
0.138357 0.871356 0.000000
0.206152 0.875831 0.000000
0.273738 0.875930 0.000000
0.340842 0.873320 0.000000
0.407946 0.870710 0.000000
0.475050 0.868101 0.000000
0.542155 0.865491 0.000000
0.609259 0.862881 0.000000
0.676363 0.860272 0.000000
0.743467 0.857662 0.000000
0.810571 0.855052 0.000000
0.877676 0.852443 0.000000
0.000000 0.935652 0.000000
0.000000 0.940717 0.000000
0.000000 0.945782 0.000000
0.000000 0.950846 0.000000
0.064155 0.948450 0.000000
0.131260 0.945840 0.000000
0.198364 0.943230 0.000000
0.265468 0.940621 0.000000
0.332572 0.938011 0.000000
0.399676 0.935401 0.000000
0.466781 0.932792 0.000000
0.533885 0.930182 0.000000
0.600989 0.927572 0.000000
0.668093 0.924963 0.000000
0.735198 0.922353 0.000000
0.802302 0.919743 0.000000
0.869406 0.917134 0.000000
0.000000 0.000000 0.061112
0.000000 0.000000 0.058888
0.049407 0.000000 0.056664
0.103390 0.000000 0.054440
0.157374 0.000000 0.052216
0.211357 0.000000 0.049991
0.265340 0.000000 0.047767
0.319323 0.000000 0.045543
0.373307 0.000000 0.043319
0.427290 0.000000 0.041095
0.481273 0.000000 0.038871
0.535257 0.000000 0.036647
0.589240 0.000000 0.034423
0.643223 0.000000 0.032199
0.697206 0.000000 0.029975
0.751190 0.000000 0.027751
0.805173 0.000000 0.025527
0.000000 0.000000 0.053651
0.000000 0.000000 0.051427
0.042754 0.000000 0.049203
0.096738 0.000000 0.046978
0.150721 0.000000 0.044754
0.204704 0.000000 0.042530
0.258687 0.000000 0.040306
0.312671 0.000000 0.038082
0.366654 0.000000 0.035858
0.420637 0.000000 0.033634
0.474621 0.000000 0.031410
0.528604 0.000000 0.029186
0.582587 0.000000 0.026962
0.636570 0.000000 0.024738
0.690554 0.000000 0.022514
0.745413 0.000000 0.020313
0.802327 0.000000 0.018150
0.000000 0.038791 0.046190
0.000000 0.036856 0.043965
0.036102 0.034921 0.041741
0.090085 0.032986 0.039517
0.144068 0.031051 0.037293
0.198052 0.029116 0.035069
0.252035 0.027182 0.032845
0.306018 0.025247 0.030621
0.360001 0.023312 0.028397
0.413985 0.021377 0.026173
0.467968 0.019442 0.023949
0.521951 0.017507 0.021725
0.577291 0.015625 0.019546
0.633821 0.013759 0.017382
0.691090 0.011879 0.015208
0.749064 0.009980 0.013019
0.807740 0.008058 0.010813
0.000000 0.086754 0.038728
0.000000 0.084819 0.036504
0.029449 0.082885 0.034280
0.083432 0.080950 0.032056
0.137416 0.079015 0.029832
0.191399 0.077080 0.027608
0.245382 0.075145 0.025384
0.299365 0.073210 0.023160
0.353470 0.071310 0.020943
0.408818 0.069703 0.018779
0.464860 0.068149 0.016612
0.521546 0.066610 0.014433
0.578880 0.065073 0.012239
0.636873 0.063531 0.010026
0.695535 0.061978 0.007792
0.754881 0.060410 0.005538
0.814922 0.058825 0.003260
0.000000 0.134718 0.031267
0.000000 0.132783 0.029043
0.022796 0.130848 0.026819
0.076780 0.128913 0.024595
0.130763 0.126978 0.022371
0.185001 0.125291 0.020174
0.239928 0.123996 0.018011
0.295412 0.122777 0.015841
0.351472 0.121596 0.013657
0.408132 0.120435 0.011456
0.465413 0.119283 0.009236
0.523334 0.118134 0.006995
0.581912 0.116983 0.004732
0.641163 0.115824 0.002446
0.701100 0.114655 0.000136
0.761738 0.113472 0.000000
0.823088 0.112274 0.000000
0.000000 0.182681 0.023806
0.000000 0.180746 0.021582
0.016185 0.179474 0.019407
0.070580 0.178517 0.017242
0.125451 0.177653 0.015068
0.180847 0.176844 0.012878
0.236803 0.176071 0.010671
0.293349 0.175321 0.008443
0.350508 0.174585 0.006195
0.408300 0.173857 0.003924
0.466743 0.173132 0.001630
0.525853 0.172405 0.000000
0.585647 0.171674 0.000000
0.646136 0.170934 0.000000
0.707334 0.170184 0.000000
0.769253 0.169421 0.000000
0.831904 0.168644 0.000000
0.000000 0.233279 0.016472
0.000000 0.232786 0.014293
0.009654 0.232363 0.012097
0.064881 0.231989 0.009883
0.120669 0.231650 0.007648
0.177045 0.231335 0.005392
0.234033 0.231039 0.003113
0.291653 0.230754 0.000810
0.349923 0.230475 0.000000
0.408859 0.230200 0.000000
0.468475 0.229924 0.000000
0.528787 0.229645 0.000000
0.589805 0.229360 0.000000
0.651543 0.229066 0.000000
0.714010 0.228761 0.000000
0.777219 0.228444 0.000000
0.841178 0.228113 0.000000
0.000000 0.288193 0.009093
0.000000 0.288273 0.006851
0.002937 0.288388 0.004586
0.059104 0.288530 0.002299
0.115886 0.288692 0.000000
0.173301 0.288869 0.000000
0.231367 0.289056 0.000000
0.290099 0.289249 0.000000
0.349512 0.289445 0.000000
0.409619 0.289642 0.000000
0.470434 0.289836 0.000000
0.531967 0.290025 0.000000
0.594230 0.290206 0.000000
0.657233 0.290379 0.000000
0.720987 0.290542 0.000000
0.785499 0.290692 0.000000
0.850780 0.290828 0.000000
0.000000 0.346335 0.001481
0.000000 0.346950 0.000000
0.000000 0.347588 0.000000
0.053164 0.348242 0.000000
0.111000 0.348910 0.000000
0.169504 0.349587 0.000000
0.228690 0.350270 0.000000
0.288572 0.350956 0.000000
0.349162 0.351642 0.000000
0.410471 0.352327 0.000000
0.472510 0.353008 0.000000
0.535289 0.353683 0.000000
0.598819 0.354350 0.000000
0.663108 0.355008 0.000000
0.728165 0.355656 0.000000
0.793999 0.356290 0.000000
0.860617 0.356911 0.000000
0.000000 0.407763 0.000000
0.000000 0.408910 0.000000
0.000000 0.410072 0.000000
0.047013 0.411246 0.000000
0.105953 0.412428 0.000000
0.165590 0.413617 0.000000
0.225936 0.414808 0.000000
0.287003 0.416001 0.000000
0.348801 0.417192 0.000000
0.411339 0.418380 0.000000
0.474629 0.419564 0.000000
0.538678 0.420740 0.000000
0.603496 0.421908 0.000000
0.669091 0.423067 0.000000
0.735471 0.424215 0.000000
0.802644 0.425350 0.000000
0.870617 0.426472 0.000000
0.000000 0.472573 0.000000
0.000000 0.474256 0.000000
0.000000 0.475950 0.000000
0.040622 0.477652 0.000000
0.100708 0.479360 0.000000
0.161516 0.481071 0.000000
0.223057 0.482783 0.000000
0.285340 0.484495 0.000000
0.348374 0.486204 0.000000
0.412170 0.487909 0.000000
0.476734 0.489608 0.000000
0.542077 0.491300 0.000000
0.608205 0.492983 0.000000
0.675126 0.494656 0.000000
0.742848 0.496318 0.000000
0.811378 0.497968 0.000000
0.880723 0.499604 0.000000
0.000000 0.540860 0.000000
0.000000 0.543086 0.000000
0.000000 0.545321 0.000000
0.033967 0.547561 0.000000
0.095237 0.549804 0.000000
0.157250 0.552049 0.000000
0.220016 0.554293 0.000000
0.283544 0.556536 0.000000
0.347843 0.558775 0.000000
0.412920 0.561009 0.000000
0.478783 0.563236 0.000000
0.545441 0.565456 0.000000
0.612899 0.567667 0.000000
0.681167 0.569867 0.000000
0.750249 0.572056 0.000000
0.820154 0.574232 0.000000
0.890887 0.576395 0.000000
0.000000 0.612714 0.000000
0.000000 0.615492 0.000000
0.000000 0.618276 0.000000
0.027031 0.621063 0.000000
0.089517 0.623852 0.000000
0.152765 0.626641 0.000000
0.216785 0.629428 0.000000
0.281585 0.632212 0.000000
0.347173 0.634992 0.000000
0.413555 0.637767 0.000000
0.480739 0.640534 0.000000
0.548733 0.643293 0.000000
0.617543 0.646042 0.000000
0.687175 0.648781 0.000000
0.757636 0.651508 0.000000
0.828932 0.654223 0.000000
0.901069 0.656925 0.000000
0.000000 0.688220 0.000000
0.000000 0.691558 0.000000
0.000000 0.694899 0.000000
0.019799 0.698243 0.000000
0.083529 0.701586 0.000000
0.148041 0.704929 0.000000
0.213342 0.708269 0.000000
0.279438 0.711605 0.000000
0.346338 0.714937 0.000000
0.414047 0.718261 0.000000
0.482574 0.721579 0.000000
0.551923 0.724887 0.000000
0.622102 0.728186 0.000000
0.692057 0.729995 0.000000
0.759161 0.727385 0.000000
0.826265 0.724775 0.000000
0.893369 0.722166 0.000000
0.000000 0.767454 0.000000
0.000000 0.771359 0.000000
0.000000 0.775267 0.000000
0.012256 0.779176 0.000000
0.077260 0.783084 0.000000
0.143060 0.786989 0.000000
0.209665 0.790892 0.000000
0.277081 0.794789 0.000000
0.345314 0.798681 0.000000
0.414372 0.802566 0.000000
0.482474 0.802515 0.000000
0.549579 0.799905 0.000000
0.616683 0.797295 0.000000
0.683787 0.794686 0.000000
0.750891 0.792076 0.000000
0.817996 0.789466 0.000000
0.885100 0.786857 0.000000
0.000000 0.850488 0.000000
0.000000 0.854969 0.000000
0.000000 0.859452 0.000000
0.004393 0.863934 0.000000
0.070694 0.868414 0.000000
0.137807 0.872891 0.000000
0.205738 0.877365 0.000000
0.272892 0.875035 0.000000
0.339996 0.872425 0.000000
0.407101 0.869815 0.000000
0.474205 0.867206 0.000000
0.541309 0.864596 0.000000
0.608413 0.861986 0.000000
0.675517 0.859377 0.000000
0.742622 0.856767 0.000000
0.809726 0.854157 0.000000
0.876830 0.851548 0.000000
0.000000 0.937390 0.000000
0.000000 0.942455 0.000000
0.000000 0.947519 0.000000
0.000000 0.950164 0.000000
0.063310 0.947555 0.000000
0.130414 0.944945 0.000000
0.197518 0.942335 0.000000
0.264623 0.939726 0.000000
0.331727 0.937116 0.000000
0.398831 0.934506 0.000000
0.465935 0.931897 0.000000
0.533039 0.929287 0.000000
0.600144 0.926677 0.000000
0.667248 0.924068 0.000000
0.734352 0.921458 0.000000
0.801456 0.918848 0.000000
0.868560 0.916239 0.000000
0.000000 0.000000 0.123743
0.000000 0.000000 0.121519
0.048727 0.000000 0.119295
0.102710 0.000000 0.117071
0.156693 0.000000 0.114847
0.210677 0.000000 0.112623
0.264660 0.000000 0.110399
0.318643 0.000000 0.108174
0.372627 0.000000 0.105950
0.426610 0.000000 0.103726
0.480593 0.000000 0.101502
0.534576 0.000000 0.099278
0.588560 0.000000 0.097054
0.642543 0.000000 0.094830
