assets/lighting/cinematic/grade-rain-night-neon/lut.cube
TITLE "Rain Night Neon"
# TKRS lighting-batch-001 original LUT
# Intended usage: wet streets neon bounce at night
# License: CC0-1.0
LUT_3D_SIZE 5
DOMAIN_MIN 0.0 0.0 0.0
DOMAIN_MAX 1.0 1.0 1.0
0.000000 0.000000 0.000000
0.158734 0.000000 0.000000
0.374667 0.000000 0.000000
0.590600 0.000000 0.000000
0.806533 0.000000 0.000000
0.000000 0.136045 0.000000
0.132123 0.128306 0.000000
0.351752 0.122403 0.000000
0.581222 0.117773 0.000000
0.821357 0.113098 0.000000
0.000000 0.345929 0.000000
0.112010 0.348451 0.000000
0.349233 0.351171 0.000000
0.597871 0.353894 0.000000
0.858591 0.356487 0.000000
0.000000 0.610813 0.000000
0.090707 0.621939 0.000000
0.347322 0.633086 0.000000
0.616599 0.644157 0.000000
0.898987 0.655073 0.000000
0.000000 0.933916 0.000000
0.065001 0.949345 0.000000
0.333418 0.938906 0.000000
0.601835 0.928467 0.000000
0.870251 0.918029 0.000000
0.000000 0.000000 0.186374
0.156013 0.000000 0.177478
0.371946 0.000000 0.168582
0.587879 0.000000 0.159685
0.803813 0.000000 0.150789
0.000000 0.133391 0.156529
0.129461 0.125732 0.147698
0.351227 0.120798 0.141058
0.582631 0.116189 0.134687
0.824845 0.111442 0.128216
0.000000 0.346755 0.132412
0.109982 0.349373 0.125870
0.349091 0.352112 0.119068
0.599770 0.354803 0.111940
0.862651 0.357329 0.104439
0.000000 0.614619 0.109324
0.088315 0.625765 0.101682
0.347016 0.636896 0.093619
0.618483 0.647922 0.085108
0.899948 0.655684 0.075858
0.000000 0.940864 0.081976
0.061619 0.945764 0.071950
0.330036 0.935326 0.060933
0.598453 0.924887 0.049915
0.866869 0.914448 0.038898
0.000000 0.000000 0.436899
0.153293 0.000000 0.428002
0.369226 0.000000 0.419106
0.585159 0.000000 0.410210
0.801354 0.000000 0.401442
0.000000 0.130736 0.407054
0.127347 0.123923 0.400209
0.350818 0.119217 0.398403
0.584142 0.114587 0.397459
0.828433 0.109751 0.396849
0.000000 0.347625 0.397220
0.107926 0.350309 0.396667
0.348946 0.353047 0.396164
0.601681 0.355693 0.395596
0.866737 0.358141 0.394880
0.000000 0.618437 0.395363
0.085877 0.629590 0.394577
0.346681 0.640694 0.393561
0.620351 0.651666 0.392268
0.896566 0.652104 0.386105
0.000000 0.947813 0.391736
0.058237 0.942184 0.382197
0.326654 0.931745 0.371180
0.595071 0.921307 0.360163
0.863487 0.910868 0.349145
0.000000 0.000000 0.687423
0.150572 0.000000 0.678527
0.366505 0.000000 0.669631
0.582438 0.000000 0.660734
0.802415 0.000000 0.655076
0.000000 0.128081 0.657579
0.125342 0.122266 0.655770
0.350492 0.117640 0.659350
0.585736 0.112959 0.664186
0.832107 0.108020 0.669696
0.000000 0.348528 0.666081
0.105838 0.351251 0.671755
0.348792 0.353971 0.677747
0.603601 0.356559 0.683904
0.870843 0.358921 0.690116
0.000000 0.622262 0.686106
0.083392 0.633408 0.692317
0.346317 0.644476 0.698472
0.622204 0.655386 0.704511
0.893184 0.648524 0.696352
0.000000 0.949042 0.703461
0.054855 0.938604 0.692444
0.323272 0.928165 0.681427
0.591689 0.917726 0.670410
0.860105 0.907288 0.659393
0.000000 0.000000 0.937948
0.147851 0.000000 0.929051
0.363784 0.000000 0.920155
0.579717 0.000000 0.911259
0.804345 0.000000 0.912034
0.000000 0.125566 0.908791
0.123377 0.120664 0.914751
0.350224 0.116054 0.924110
0.587399 0.111301 0.935013
0.835857 0.106246 0.946871
0.000000 0.349452 0.939130
0.103717 0.352192 0.951241
0.348627 0.354879 0.963906
0.605526 0.357399 0.976942
0.874967 0.359665 0.990219
0.000000 0.626088 0.981630
0.080860 0.637218 0.994967
0.345920 0.648239 1.000000
0.621385 0.655382 1.000000
0.889802 0.644943 1.000000
0.000000 0.945462 1.000000
0.051473 0.935023 1.000000
0.319890 0.924585 0.991674
0.588307 0.914146 0.980657
0.856723 0.903707 0.969640
