assets/lighting/cinematic/grade-rain-night-neon/lut.cube
TITLE "Rain Night Neon"
# TKRS lighting-batch-001 original LUT
# Intended usage: wet streets neon bounce at night
# License: CC0-1.0
LUT_3D_SIZE 9
DOMAIN_MIN 0.0 0.0 0.0
DOMAIN_MAX 1.0 1.0 1.0
0.000000 0.000000 0.000000
0.050767 0.000000 0.000000
0.158734 0.000000 0.000000
0.266701 0.000000 0.000000
0.374667 0.000000 0.000000
0.482634 0.000000 0.000000
0.590600 0.000000 0.000000
0.698567 0.000000 0.000000
0.806533 0.000000 0.000000
0.000000 0.040118 0.000000
0.037462 0.036248 0.000000
0.145429 0.032379 0.000000
0.253395 0.028509 0.000000
0.361362 0.024639 0.000000
0.469328 0.020769 0.000000
0.577435 0.016906 0.000000
0.690408 0.013170 0.000000
0.806446 0.009379 0.000000
0.000000 0.136045 0.000000
0.024157 0.132175 0.000000
0.132123 0.128306 0.000000
0.240675 0.124871 0.000000
0.351752 0.122403 0.000000
0.465217 0.120072 0.000000
0.581222 0.117773 0.000000
0.699898 0.115458 0.000000
0.821357 0.113098 0.000000
0.000000 0.233675 0.000000
0.011002 0.232647 0.000000
0.121642 0.231879 0.000000
0.234586 0.231240 0.000000
0.350024 0.230666 0.000000
0.468098 0.230114 0.000000
0.588929 0.229556 0.000000
0.712617 0.228971 0.000000
0.839251 0.228342 0.000000
0.000000 0.345929 0.000000
0.000000 0.347148 0.000000
0.112010 0.348451 0.000000
0.229242 0.349801 0.000000
0.349233 0.351171 0.000000
0.472080 0.352542 0.000000
0.597871 0.353894 0.000000
0.726684 0.355213 0.000000
0.858591 0.356487 0.000000
0.000000 0.471426 0.000000
0.000000 0.474787 0.000000
0.101798 0.478188 0.000000
0.223658 0.481608 0.000000
0.348469 0.485032 0.000000
0.476307 0.488443 0.000000
0.607242 0.491830 0.000000
0.741336 0.495180 0.000000
0.878650 0.498483 0.000000
0.000000 0.610813 0.000000
0.000000 0.616366 0.000000
0.090707 0.621939 0.000000
0.217463 0.627516 0.000000
0.347322 0.633086 0.000000
0.480348 0.638636 0.000000
0.616599 0.644157 0.000000
0.756128 0.649639 0.000000
0.898987 0.655073 0.000000
0.000000 0.764776 0.000000
0.000000 0.772586 0.000000
0.078565 0.780403 0.000000
0.210436 0.788215 0.000000
0.345540 0.796012 0.000000
0.483929 0.803784 0.000000
0.618374 0.799085 0.000000
0.752582 0.793866 0.000000
0.886791 0.788647 0.000000
0.000000 0.933916 0.000000
0.000000 0.944045 0.000000
0.065001 0.949345 0.000000
0.199209 0.944126 0.000000
0.333418 0.938906 0.000000
0.467626 0.933687 0.000000
0.601835 0.928467 0.000000
0.736043 0.923248 0.000000
0.870251 0.918029 0.000000
0.000000 0.000000 0.061112
0.049407 0.000000 0.056664
0.157374 0.000000 0.052216
0.265340 0.000000 0.047767
0.373307 0.000000 0.043319
0.481273 0.000000 0.038871
0.589240 0.000000 0.034423
0.697206 0.000000 0.029975
0.805173 0.000000 0.025527
0.000000 0.038791 0.046190
0.036102 0.034921 0.041741
0.144068 0.031051 0.037293
0.252035 0.027182 0.032845
0.360001 0.023312 0.028397
0.467968 0.019442 0.023949
0.577291 0.015625 0.019546
0.691090 0.011879 0.015208
0.807740 0.008058 0.010813
0.000000 0.134718 0.031267
0.022796 0.130848 0.026819
0.130763 0.126978 0.022371
0.239928 0.123996 0.018011
0.351472 0.121596 0.013657
0.465413 0.119283 0.009236
0.581912 0.116983 0.004732
0.701100 0.114655 0.000136
0.823088 0.112274 0.000000
0.000000 0.233279 0.016472
0.009654 0.232363 0.012097
0.120669 0.231650 0.007648
0.234033 0.231039 0.003113
0.349923 0.230475 0.000000
0.468475 0.229924 0.000000
0.589805 0.229360 0.000000
0.714010 0.228761 0.000000
0.841178 0.228113 0.000000
0.000000 0.346335 0.001481
0.000000 0.347588 0.000000
0.111000 0.348910 0.000000
0.228690 0.350270 0.000000
0.349162 0.351642 0.000000
0.472510 0.353008 0.000000
0.598819 0.354350 0.000000
0.728165 0.355656 0.000000
0.860617 0.356911 0.000000
0.000000 0.472573 0.000000
0.000000 0.475950 0.000000
0.100708 0.479360 0.000000
0.223057 0.482783 0.000000
0.348374 0.486204 0.000000
0.476734 0.489608 0.000000
0.608205 0.492983 0.000000
0.742848 0.496318 0.000000
0.880723 0.499604 0.000000
0.000000 0.612714 0.000000
0.000000 0.618276 0.000000
0.089517 0.623852 0.000000
0.216785 0.629428 0.000000
0.347173 0.634992 0.000000
0.480739 0.640534 0.000000
0.617543 0.646042 0.000000
0.757636 0.651508 0.000000
0.901069 0.656925 0.000000
0.000000 0.767454 0.000000
0.000000 0.775267 0.000000
0.077260 0.783084 0.000000
0.209665 0.790892 0.000000
0.345314 0.798681 0.000000
0.482474 0.802515 0.000000
0.616683 0.797295 0.000000
0.750891 0.792076 0.000000
0.885100 0.786857 0.000000
0.000000 0.937390 0.000000
0.000000 0.947519 0.000000
0.063310 0.947555 0.000000
0.197518 0.942335 0.000000
0.331727 0.937116 0.000000
0.465935 0.931897 0.000000
0.600144 0.926677 0.000000
0.734352 0.921458 0.000000
0.868560 0.916239 0.000000
0.000000 0.000000 0.186374
0.048047 0.000000 0.181926
0.156013 0.000000 0.177478
0.263980 0.000000 0.173030
0.371946 0.000000 0.168582
0.479913 0.000000 0.164133
0.587879 0.000000 0.159685
0.695846 0.000000 0.155237
0.803813 0.000000 0.150789
0.000000 0.037464 0.171452
0.034741 0.033594 0.167004
0.142708 0.029724 0.162555
0.250674 0.025854 0.158107
0.358641 0.021985 0.153659
0.466608 0.018115 0.149211
0.577406 0.014346 0.145463
0.691867 0.010579 0.142195
0.809103 0.006725 0.139001
0.000000 0.133391 0.156529
0.021436 0.129521 0.152081
0.129461 0.125732 0.147698
0.239234 0.123154 0.144288
0.351227 0.120798 0.141058
0.465639 0.118495 0.137873
0.582631 0.116189 0.134687
0.702330 0.113845 0.131474
0.824845 0.111442 0.128216
0.000000 0.232932 0.143133
0.008298 0.232102 0.139926
0.119695 0.231432 0.136745
0.233484 0.230842 0.133552
0.349829 0.230287 0.130324
0.468862 0.229733 0.127047
0.590692 0.229159 0.123707
0.715416 0.228545 0.120296
0.843118 0.227877 0.116806
0.000000 0.346755 0.132412
0.000000 0.348035 0.129168
0.109982 0.349373 0.125870
0.228135 0.350740 0.122506
0.349091 0.352112 0.119068
0.472942 0.353472 0.115548
0.599770 0.354803 0.111940
0.729650 0.356092 0.108239
0.862651 0.357329 0.104439
0.000000 0.473726 0.121295
0.000000 0.477117 0.117829
0.099609 0.480533 0.114278
0.222449 0.483958 0.110638
0.348275 0.487374 0.106902
0.477159 0.490770 0.103067
0.609167 0.494132 0.099128
0.744361 0.497451 0.095081
0.882798 0.500718 0.090923
0.000000 0.614619 0.109324
0.000000 0.620188 0.105554
0.088315 0.625765 0.101682
0.216099 0.631339 0.097705
0.347016 0.636896 0.093619
0.481125 0.642427 0.089421
0.618483 0.647922 0.085108
0.759141 0.653372 0.080676
0.899948 0.655684 0.075858
0.000000 0.770133 0.096268
0.000000 0.777949 0.092143
0.075941 0.785763 0.087904
0.208883 0.793566 0.083549
0.345080 0.801347 0.079075
0.480783 0.800724 0.073904
0.614992 0.795505 0.068395
0.749200 0.790286 0.062887
0.883409 0.785066 0.057378
0.000000 0.940864 0.081976
0.000000 0.950984 0.077458
0.061619 0.945764 0.071950
0.195827 0.940545 0.066441
0.330036 0.935326 0.060933
0.464244 0.930106 0.055424
0.598453 0.924887 0.049915
0.732661 0.919668 0.044407
0.866869 0.914448 0.038898
0.000000 0.000000 0.311636
0.046686 0.000000 0.307188
0.154653 0.000000 0.302740
0.262619 0.000000 0.298292
0.370586 0.000000 0.293844
0.478553 0.000000 0.289396
0.586519 0.000000 0.284947
0.694486 0.000000 0.280499
0.802452 0.000000 0.276051
0.000000 0.036136 0.296714
0.033381 0.032266 0.292266
0.141348 0.028397 0.287818
0.249314 0.024527 0.283370
0.357281 0.020657 0.278921
0.465427 0.016797 0.274578
0.577660 0.013062 0.272080
0.692723 0.009268 0.269991
0.810527 0.005380 0.268068
0.000000 0.132063 0.281792
0.020076 0.128194 0.277344
0.128381 0.124795 0.273603
0.238576 0.122334 0.271312
0.351011 0.120006 0.269295
0.465892 0.117707 0.267409
0.583375 0.115390 0.265589
0.703585 0.113029 0.263799
0.826627 0.110602 0.262014
0.000000 0.232622 0.270575
0.006933 0.231859 0.268615
0.118720 0.231223 0.266758
0.232938 0.230650 0.264952
0.349741 0.230098 0.263167
0.469256 0.229540 0.261378
0.591589 0.228954 0.259568
0.716833 0.228323 0.257725
0.845071 0.227633 0.255837
0.000000 0.347185 0.264318
0.000000 0.348489 0.262533
0.108958 0.349840 0.260739
0.227577 0.351211 0.258919
0.349019 0.352581 0.257061
0.473375 0.353932 0.255155
0.600724 0.355251 0.253192
0.731141 0.356523 0.251164
0.864691 0.357739 0.249064
0.000000 0.474885 0.258265
0.000000 0.478287 0.256391
0.098499 0.481708 0.254466
0.221835 0.485131 0.252480
0.348172 0.488542 0.250428
0.477581 0.491927 0.248301
0.610129 0.495276 0.246096
0.745874 0.498578 0.243806
0.884875 0.501825 0.241428
0.000000 0.616527 0.251760
0.000000 0.622100 0.249682
0.087101 0.627678 0.247528
0.215404 0.633247 0.245294
0.346852 0.638797 0.242973
0.481506 0.644316 0.240562
0.619419 0.649797 0.238056
0.760644 0.655230 0.235452
0.898257 0.653894 0.230981
0.000000 0.772813 0.244481
0.000000 0.780630 0.242128
0.074611 0.788441 0.239684
0.208090 0.796238 0.237144
0.344837 0.804009 0.234504
0.479092 0.798934 0.229027
0.613301 0.793715 0.223519
0.747509 0.788496 0.218010
0.881718 0.783276 0.212502
0.000000 0.944339 0.236219
0.000000 0.949194 0.232582
0.059928 0.943974 0.227073
0.194136 0.938755 0.221565
0.328345 0.933536 0.216056
0.462553 0.928316 0.210548
0.596762 0.923097 0.205039
0.730970 0.917878 0.199530
0.865178 0.912658 0.194022
0.000000 0.000000 0.436899
0.045326 0.000000 0.432450
0.153293 0.000000 0.428002
0.261259 0.000000 0.423554
0.369226 0.000000 0.419106
0.477192 0.000000 0.414658
0.585159 0.000000 0.410210
0.693125 0.000000 0.405762
0.801354 0.000000 0.401442
0.000000 0.034809 0.421976
0.032021 0.030939 0.417528
0.139987 0.027069 0.413080
0.247954 0.023200 0.408632
0.355920 0.019330 0.404184
0.465075 0.015517 0.400739
0.578014 0.011770 0.399464
0.693644 0.007946 0.398634
0.812003 0.004021 0.398041
0.000000 0.130736 0.407054
0.018715 0.126866 0.402606
0.127347 0.123923 0.400209
0.237945 0.121528 0.399134
0.350818 0.119217 0.398403
0.466167 0.116916 0.397869
0.584142 0.114587 0.397459
0.704862 0.112204 0.397130
0.828433 0.109751 0.396849
0.000000 0.232340 0.398846
0.005559 0.231631 0.398195
0.117743 0.231022 0.397712
0.232394 0.230459 0.397335
0.349658 0.229908 0.397026
0.469658 0.229343 0.396757
0.592495 0.228743 0.396505
0.718261 0.228093 0.396255
0.847036 0.227380 0.395993
0.000000 0.347625 0.397220
0.000000 0.348949 0.396927
0.107926 0.350309 0.396667
0.227014 0.351682 0.396417
0.348946 0.353047 0.396164
0.473809 0.354389 0.395894
0.601681 0.355693 0.395596
0.732636 0.356947 0.395261
0.866737 0.358141 0.394880
0.000000 0.476048 0.396329
0.000000 0.479459 0.396071
0.097380 0.482882 0.395792
0.221213 0.486303 0.395482
0.348063 0.489706 0.395131
0.478000 0.493080 0.394732
0.611089 0.496414 0.394277
0.747388 0.499698 0.393761
0.886954 0.502924 0.393177
0.000000 0.618437 0.395363
0.000000 0.624014 0.394995
0.085877 0.629590 0.394577
0.214699 0.635153 0.394101
0.346681 0.640694 0.393561
0.481881 0.646201 0.392952
0.620351 0.651666 0.392268
0.762145 0.657081 0.391506
0.896566 0.652104 0.386105
0.000000 0.775494 0.393917
0.000000 0.783310 0.393353
0.073268 0.791118 0.392718
0.207287 0.798906 0.392007
0.343193 0.802363 0.389659
0.477401 0.797144 0.384151
0.611610 0.791925 0.378642
0.745818 0.786705 0.373134
0.880027 0.781486 0.367625
0.000000 0.947813 0.391736
0.000000 0.947403 0.387705
0.058237 0.942184 0.382197
0.192445 0.936965 0.376688
0.326654 0.931745 0.371180
0.460862 0.926526 0.365671
0.595071 0.921307 0.360163
0.729279 0.916087 0.354654
0.863487 0.910868 0.349145
0.000000 0.000000 0.562161
0.043966 0.000000 0.557713
0.151932 0.000000 0.553265
0.259899 0.000000 0.548816
0.367865 0.000000 0.544368
0.475832 0.000000 0.539920
0.583798 0.000000 0.535472
0.691765 0.000000 0.531024
0.801713 0.000000 0.527855
0.000000 0.033482 0.547239
0.030660 0.029612 0.542790
0.138627 0.025742 0.538342
0.246593 0.021872 0.533894
0.354560 0.018003 0.529446
0.464912 0.014238 0.527654
0.578444 0.010468 0.527665
0.694622 0.006612 0.528160
0.813528 0.002648 0.528948
0.000000 0.129409 0.532316
0.017365 0.125648 0.528182
0.126337 0.123084 0.527581
0.237334 0.120731 0.527799
0.350646 0.118429 0.528412
0.466464 0.116121 0.529278
0.584929 0.113776 0.530319
0.706161 0.111372 0.531484
0.830260 0.108891 0.532738
0.000000 0.232081 0.527981
0.004176 0.231414 0.528695
0.116762 0.230826 0.529630
0.231850 0.230271 0.530720
0.349579 0.229717 0.531920
0.470066 0.229142 0.533199
0.593410 0.228527 0.534532
0.719699 0.227857 0.535899
0.849012 0.227119 0.537284
0.000000 0.348073 0.531135
0.000000 0.349413 0.532367
0.106886 0.350780 0.533667
0.226446 0.352152 0.535014
0.348870 0.353511 0.536389
0.474243 0.354841 0.537777
0.602641 0.356129 0.539164
0.734134 0.357364 0.540539
0.868787 0.358535 0.541894
0.000000 0.477215 0.535500
0.000000 0.480632 0.536881
0.096251 0.484057 0.538269
0.220583 0.487473 0.539654
0.347949 0.490868 0.541023
0.478416 0.494229 0.542368
0.612048 0.497547 0.543680
0.748902 0.500812 0.544952
0.889034 0.504015 0.546177
0.000000 0.620349 0.540142
0.000000 0.625927 0.541503
0.084640 0.631500 0.542837
0.213985 0.637057 0.544136
0.346503 0.642587 0.545392
0.482250 0.648081 0.546599
0.621280 0.653529 0.547751
0.760667 0.655533 0.546737
0.894875 0.650314 0.541228
0.000000 0.778175 0.544587
0.000000 0.785989 0.545826
0.071912 0.793792 0.547014
0.206473 0.801572 0.548146
0.341502 0.800573 0.544783
0.475710 0.795354 0.539274
0.609919 0.790134 0.533766
0.744127 0.784915 0.528257
0.878336 0.779696 0.522749
0.000000 0.950833 0.548337
0.000000 0.945613 0.542829
0.056546 0.940394 0.537320
0.190754 0.935175 0.531812
0.324963 0.929955 0.526303
0.459171 0.924736 0.520795
0.593380 0.919516 0.515286
0.727588 0.914297 0.509778
0.861796 0.909078 0.504269
0.000000 0.000000 0.687423
0.042605 0.000000 0.682975
0.150572 0.000000 0.678527
0.258538 0.000000 0.674079
0.366505 0.000000 0.669631
0.474471 0.000000 0.665182
0.582438 0.000000 0.660734
0.690405 0.000000 0.656286
0.802415 0.000000 0.655076
0.000000 0.032154 0.672501
0.029300 0.028285 0.668053
0.137266 0.024415 0.663605
0.245233 0.020545 0.659156
0.353391 0.016688 0.655056
0.464858 0.012953 0.655366
0.578937 0.009157 0.656724
0.695650 0.005265 0.658598
0.815096 0.001262 0.660811
0.000000 0.128081 0.657579
0.016040 0.124720 0.654957
0.125342 0.122266 0.655770
0.236739 0.119939 0.657342
0.350492 0.117640 0.659350
0.466778 0.115323 0.661659
0.585736 0.112959 0.664186
0.707480 0.110530 0.666878
0.832107 0.108020 0.669696
0.000000 0.231839 0.658013
0.002783 0.231206 0.660140
0.115778 0.230633 0.662533
0.231307 0.230082 0.665124
0.349504 0.229523 0.667865
0.470479 0.228936 0.670720
0.594332 0.228304 0.673662
0.721146 0.227612 0.676668
0.850998 0.226849 0.679721
0.000000 0.348528 0.666081
0.000000 0.349880 0.668866
0.105838 0.351251 0.671755
0.225873 0.352621 0.674722
0.348792 0.353971 0.677747
0.474676 0.355288 0.680813
0.603601 0.356559 0.683904
0.735636 0.357773 0.687009
0.870843 0.358921 0.690116
0.000000 0.478386 0.675789
0.000000 0.481807 0.678831
0.095111 0.485230 0.681907
0.219946 0.488640 0.685005
0.347829 0.492025 0.688112
0.478828 0.495372 0.691217
0.613004 0.498673 0.694312
0.750415 0.501918 0.697387
0.891115 0.505099 0.700436
0.000000 0.622262 0.686106
0.000000 0.627839 0.689214
0.083392 0.633408 0.692317
0.213262 0.638957 0.695405
0.346317 0.644476 0.698472
0.482613 0.649955 0.701510
0.622204 0.655386 0.704511
0.758976 0.653743 0.701860
0.893184 0.648524 0.696352
0.000000 0.780856 0.696496
0.000000 0.788667 0.699554
0.070543 0.796463 0.702579
0.205603 0.804002 0.705415
0.339811 0.798783 0.699906
0.474019 0.793564 0.694398
0.608228 0.788344 0.688889
0.742436 0.783125 0.683381
0.876645 0.777906 0.677872
0.000000 0.949042 0.703461
0.000000 0.943823 0.697952
0.054855 0.938604 0.692444
0.189063 0.933384 0.686935
0.323272 0.928165 0.681427
0.457480 0.922946 0.675918
0.591689 0.917726 0.670410
0.725897 0.912507 0.664901
0.860105 0.907288 0.659393
0.000000 0.000000 0.812685
0.041245 0.000000 0.808237
0.149211 0.000000 0.803789
0.257178 0.000000 0.799341
0.365145 0.000000 0.794893
0.473111 0.000000 0.790445
0.581078 0.000000 0.785997
0.689374 0.000000 0.781915
0.803311 0.000000 0.783125
0.000000 0.030827 0.797763
0.027940 0.026957 0.793315
0.135906 0.023088 0.788867
0.243873 0.019218 0.784419
0.352813 0.015409 0.782088
0.464879 0.011660 0.783916
0.579483 0.007834 0.786673
0.696722 0.003905 0.789974
0.816704 0.000000 0.793654
0.000000 0.126754 0.782841
0.014714 0.123852 0.782580
0.124357 0.121460 0.784816
0.236157 0.119150 0.787793
0.350352 0.116849 0.791242
0.467108 0.114518 0.795031
0.586560 0.112134 0.799078
0.708816 0.109679 0.803327
0.833973 0.107139 0.807735
0.000000 0.231612 0.788971
0.001380 0.231005 0.792552
0.114789 0.230443 0.796441
0.230763 0.229892 0.800565
0.349430 0.229326 0.804874
0.470898 0.228725 0.809331
0.595260 0.228074 0.813906
0.722601 0.227359 0.818574
0.852995 0.226569 0.823316
0.000000 0.348988 0.802074
0.000000 0.350349 0.806440
0.104782 0.351722 0.810942
0.225296 0.353087 0.815552
0.348711 0.354427 0.820249
0.475109 0.355730 0.825012
0.604563 0.356982 0.829827
0.737141 0.358175 0.834679
0.872903 0.359298 0.839555
0.000000 0.479558 0.817210
0.000000 0.482982 0.821932
0.093961 0.486402 0.826715
0.219301 0.489805 0.831545
0.347704 0.493178 0.836406
0.479236 0.496510 0.841289
0.613959 0.499793 0.846182
0.751928 0.503016 0.851075
0.893197 0.506173 0.855962
0.000000 0.624175 0.833266
0.000000 0.629751 0.838136
0.082132 0.635314 0.843024
0.212528 0.640854 0.847918
0.346123 0.646360 0.852810
0.482970 0.651824 0.857692
0.623076 0.657172 0.862493
0.757285 0.651953 0.856984
0.891493 0.646733 0.851475
0.000000 0.783536 0.849654
0.000000 0.791344 0.854543
0.069161 0.799132 0.859420
0.203912 0.802212 0.860538
0.338120 0.796993 0.855030
0.472328 0.791773 0.849521
0.606537 0.786554 0.844013
0.740745 0.781335 0.838504
0.874954 0.776115 0.832996
0.000000 0.947252 0.858584
0.000000 0.942033 0.853076
0.053164 0.936813 0.847567
0.187372 0.931594 0.842059
0.321581 0.926375 0.836550
0.455789 0.921155 0.831042
0.589998 0.915936 0.825533
0.724206 0.910717 0.820025
0.858414 0.905497 0.814516
0.000000 0.000000 0.937948
0.039885 0.000000 0.933500
0.147851 0.000000 0.929051
0.255818 0.000000 0.924603
0.363784 0.000000 0.920155
0.471751 0.000000 0.915707
0.579717 0.000000 0.911259
0.689529 0.000000 0.909197
0.804345 0.000000 0.912034
0.000000 0.029500 0.923025
0.026579 0.025630 0.918577
0.134546 0.021760 0.914129
0.242512 0.017891 0.909681
0.352368 0.014129 0.910019
0.464960 0.010358 0.913340
0.580075 0.006499 0.917542
0.697833 0.002532 0.922312
0.818348 0.000000 0.927496
0.000000 0.125566 0.908791
0.013385 0.123014 0.911061
0.123377 0.120664 0.914751
0.235585 0.118362 0.919179
0.350224 0.116054 0.924110
0.467453 0.113708 0.929415
0.587399 0.111301 0.935013
0.710170 0.108818 0.940846
0.835857 0.106246 0.946871
0.000000 0.231396 0.920879
0.000000 0.230809 0.925954
0.113795 0.230255 0.931371
0.230218 0.229701 0.937058
0.349358 0.229125 0.942963
0.471320 0.228508 0.949047
0.596194 0.227836 0.955277
0.724063 0.227097 0.961628
0.855000 0.226280 0.968078
0.000000 0.349452 0.939130
0.000000 0.350820 0.945103
0.103717 0.352192 0.951241
0.224712 0.353550 0.957517
0.348627 0.354879 0.963906
0.475542 0.356166 0.970386
0.605526 0.357399 0.976942
0.738648 0.358568 0.983557
0.874967 0.359665 0.990219
0.000000 0.480732 0.959772
0.000000 0.484156 0.966195
0.092801 0.487572 0.972704
0.218647 0.490965 0.979282
0.347572 0.494326 0.985916
0.479640 0.497642 0.992591
0.614911 0.500906 0.999297
0.753439 0.504107 1.000000
0.895279 0.507240 1.000000
0.000000 0.626088 0.981630
0.000000 0.631661 0.988279
0.080860 0.637218 0.994967
0.211785 0.642747 1.000000
0.345920 0.648239 1.000000
0.483321 0.653687 1.000000
0.621385 0.655382 1.000000
0.755594 0.650163 1.000000
0.889802 0.644943 1.000000
0.000000 0.786216 1.000000
0.000000 0.794017 1.000000
0.067767 0.801797 1.000000
0.202221 0.800422 1.000000
0.336429 0.795203 1.000000
0.470637 0.789983 1.000000
0.604846 0.784764 0.999136
0.739054 0.779545 0.993628
0.873263 0.774325 0.988119
0.000000 0.945462 1.000000
0.000000 0.940243 1.000000
0.051473 0.935023 1.000000
0.185681 0.929804 0.997182
0.319890 0.924585 0.991674
0.454098 0.919365 0.986165
0.588307 0.914146 0.980657
0.722515 0.908927 0.975148
0.856723 0.903707 0.969640
