assets/lighting/cinematic/grade-subway-sodium-mix/lut.cube
TITLE "Subway Mixed Practicals"
# TKRS lighting-batch-001 original LUT
# Intended usage: underground mix of sodium + fluorescent
# License: CC0-1.0
LUT_3D_SIZE 17
DOMAIN_MIN 0.0 0.0 0.0
DOMAIN_MAX 1.0 1.0 1.0
0.000000 0.000000 0.000000
0.001148 0.000000 0.000000
0.042048 0.000000 0.000000
0.082947 0.000000 0.000000
0.123847 0.000000 0.000000
0.164747 0.000000 0.000000
0.205647 0.000000 0.000000
0.246547 0.000000 0.000000
0.287446 0.000000 0.000000
0.328346 0.000000 0.000000
0.369246 0.000000 0.000000
0.410146 0.000000 0.000000
0.451046 0.000000 0.000000
0.491946 0.000000 0.000000
0.532845 0.000000 0.000000
0.573745 0.000000 0.000000
0.614645 0.000000 0.000000
0.000000 0.001579 0.000000
0.005778 0.003072 0.000000
0.046678 0.004565 0.000000
0.087577 0.006059 0.000000
0.128477 0.007552 0.000000
0.169377 0.009046 0.000000
0.210277 0.010539 0.000000
0.251177 0.012032 0.000000
0.292077 0.013526 0.000000
0.332976 0.015019 0.000000
0.373876 0.016512 0.000000
0.414776 0.018006 0.000000
0.455676 0.019499 0.000000
0.496576 0.020992 0.000000
0.537475 0.022486 0.000000
0.579993 0.024023 0.000000
0.624514 0.025614 0.000000
0.000000 0.043296 0.000000
0.010408 0.044789 0.000000
0.051308 0.046283 0.000000
0.092208 0.047776 0.000000
0.133107 0.049269 0.000000
0.174007 0.050763 0.000000
0.214907 0.052256 0.000000
0.255807 0.053750 0.000000
0.296707 0.055243 0.000000
0.337607 0.056736 0.000000
0.378506 0.058230 0.000000
0.419406 0.059723 0.000000
0.461905 0.061356 0.000000
0.505849 0.063091 0.000000
0.550659 0.064868 0.000000
0.596290 0.066679 0.000000
0.642734 0.068520 0.000000
0.000000 0.085013 0.000000
0.015038 0.086507 0.000000
0.055938 0.088000 0.000000
0.096838 0.089493 0.000000
0.137738 0.090987 0.000000
0.178637 0.092480 0.000000
0.219537 0.093974 0.000000
0.260437 0.095467 0.000000
0.301337 0.096960 0.000000
0.343665 0.098723 0.000000
0.386999 0.100608 0.000000
0.431104 0.102550 0.000000
0.475970 0.104536 0.000000
0.521602 0.106563 0.000000
0.568012 0.108625 0.000000
0.615213 0.110721 0.000000
0.663218 0.112850 0.000000
0.000000 0.126731 0.000000
0.019668 0.128224 0.000000
0.060568 0.129717 0.000000
0.101468 0.131211 0.000000
0.142368 0.132704 0.000000
0.183292 0.134209 0.000000
0.225264 0.136126 0.000000
0.267959 0.138166 0.000000
0.311342 0.140276 0.000000
0.355429 0.142441 0.000000
0.400239 0.144654 0.000000
0.445791 0.146910 0.000000
0.492103 0.149206 0.000000
0.539192 0.151540 0.000000
0.587073 0.153911 0.000000
0.635761 0.156317 0.001013
0.685270 0.158757 0.002588
0.000000 0.168448 0.000000
0.024298 0.169941 0.000000
0.065237 0.171502 0.000000
0.106695 0.173567 0.000000
0.148725 0.175766 0.000000
0.191369 0.178047 0.000000
0.234664 0.180393 0.000000
0.278642 0.182794 0.000000
0.323327 0.185246 0.000000
0.368743 0.187744 0.000000
0.414909 0.190285 0.000000
0.461844 0.192867 0.000000
0.509565 0.195489 0.001218
0.558086 0.198149 0.002794
0.607423 0.200847 0.004375
0.657588 0.203581 0.005961
0.708593 0.206350 0.007553
0.000000 0.211046 0.000000
0.029293 0.213408 0.000000
0.071182 0.215863 0.000000
0.113674 0.218392 0.000000
0.156809 0.220985 0.000000
0.200619 0.223633 0.000000
0.245131 0.226334 0.000000
0.290368 0.229083 0.000000
0.336351 0.231878 0.000000
0.383099 0.234717 0.001424
0.430628 0.237598 0.003000
0.478955 0.240521 0.004582
0.528093 0.243483 0.006169
0.578056 0.246485 0.007761
0.628858 0.249524 0.009358
0.680509 0.252602 0.010961
0.733022 0.255716 0.012570
0.000000 0.256440 0.000000
0.034739 0.259225 0.000000
0.077666 0.262072 0.000000
0.121266 0.264977 0.000000
0.165567 0.267936 0.000000
0.210592 0.270945 0.000057
0.256362 0.274002 0.001629
0.302894 0.277105 0.003207
0.350206 0.280254 0.004789
0.398313 0.283445 0.006376
0.447230 0.286679 0.007969
0.496971 0.289955 0.009567
0.547547 0.293270 0.011171
0.598972 0.296626 0.012780
0.651257 0.300021 0.014395
0.704412 0.303454 0.016016
0.758447 0.306926 0.017643
0.000000 0.303674 0.000000
0.040506 0.306843 0.000000
0.084567 0.310067 0.000262
0.129353 0.313344 0.001835
0.174883 0.316670 0.003413
0.221175 0.320045 0.004996
0.268247 0.323467 0.006584
0.316114 0.326935 0.008178
0.364790 0.330446 0.009777
0.414288 0.334001 0.011381
0.464622 0.337599 0.012991
0.515803 0.341239 0.014607
0.567842 0.344919 0.016228
0.620751 0.348640 0.017856
0.674539 0.352401 0.019489
0.729217 0.356202 0.021128
0.784794 0.360042 0.022774
0.002071 0.352743 0.002041
0.046594 0.356293 0.003620
0.091863 0.359896 0.005203
0.137895 0.363549 0.006792
0.184707 0.367251 0.008386
0.232314 0.370999 0.009986
0.280731 0.374795 0.011591
0.329969 0.378635 0.013202
0.380043 0.382520 0.014818
0.430964 0.386448 0.016441
0.482743 0.390420 0.018069
0.535391 0.394434 0.019703
0.588918 0.398489 0.021343
0.643334 0.402586 0.022989
0.698648 0.406724 0.024641
0.754869 0.410902 0.026300
0.812006 0.415120 0.027964
0.007255 0.403691 0.007000
0.053009 0.407627 0.008595
0.099543 0.411614 0.010195
0.146874 0.415650 0.011801
0.195015 0.419734 0.013413
0.243979 0.423865 0.015030
0.293778 0.428042 0.016653
0.344424 0.432264 0.018282
0.395928 0.436531 0.019917
0.448302 0.440842 0.021558
0.501554 0.445197 0.023205
0.555694 0.449594 0.024858
0.610733 0.454034 0.026517
0.666679 0.458515 0.028182
0.723540 0.463039 0.029854
0.781325 0.467603 0.031532
0.840042 0.472209 0.033217
0.012718 0.456568 0.012011
0.059757 0.460896 0.013624
0.107608 0.465274 0.015242
0.156282 0.469700 0.016865
0.205792 0.474174 0.018495
0.256150 0.478695 0.020131
0.307367 0.483262 0.021772
0.359453 0.487874 0.023420
0.412417 0.492532 0.025074
0.466271 0.497233 0.026734
0.521023 0.501979 0.028400
0.576681 0.506768 0.030073
0.633255 0.511601 0.031752
0.690753 0.516476 0.033437
0.749183 0.521393 0.035129
0.808552 0.526352 0.036827
0.868868 0.531353 0.038532
0.018476 0.511423 0.017078
0.066847 0.516149 0.018708
0.116056 0.520924 0.020345
0.166114 0.525748 0.021987
0.217030 0.530619 0.023636
0.268817 0.535537 0.025290
0.321483 0.540501 0.026951
0.375038 0.545512 0.028618
0.429491 0.550567 0.030292
0.484852 0.555668 0.031972
0.541128 0.560813 0.033658
0.598328 0.566002 0.035351
0.656460 0.571235 0.037050
0.715531 0.576510 0.038755
0.775550 0.581829 0.040468
0.836522 0.587191 0.042187
0.898456 0.592595 0.043913
0.024541 0.568300 0.022202
0.074286 0.573430 0.023852
0.124891 0.578610 0.025507
0.176367 0.583837 0.027169
0.228724 0.589113 0.028837
0.281970 0.594435 0.030511
0.336114 0.599805 0.032192
0.391167 0.605220 0.033879
0.447135 0.610681 0.035572
0.504028 0.616188 0.037272
0.561852 0.621739 0.038979
0.620617 0.627335 0.040692
0.680328 0.632975 0.042412
0.740993 0.638659 0.044139
0.802620 0.644387 0.045872
0.865215 0.650158 0.047612
0.928785 0.655972 0.049359
0.030924 0.627242 0.027386
0.082079 0.632783 0.029055
0.134116 0.638373 0.030730
0.187043 0.644011 0.032412
0.240869 0.649697 0.034099
0.295604 0.655431 0.035794
0.351255 0.661212 0.037495
0.407830 0.667039 0.039202
0.465338 0.672913 0.040916
0.523786 0.678832 0.042637
0.583182 0.684796 0.044365
0.643532 0.690806 0.046099
0.704843 0.696861 0.047840
0.767123 0.702960 0.049588
0.830093 0.708927 0.051339
0.886899 0.710801 0.052997
0.943704 0.712676 0.054656
0.037636 0.688287 0.032632
0.090234 0.694245 0.034320
0.143732 0.700252 0.036016
0.198140 0.706307 0.037717
0.253465 0.712411 0.039426
0.309715 0.718562 0.041141
0.366897 0.724761 0.042862
0.425021 0.731006 0.044591
0.484092 0.737298 0.046326
0.544118 0.743637 0.048068
0.605105 0.750021 0.049817
0.666108 0.755666 0.051555
0.722914 0.757540 0.053214
0.779719 0.759414 0.054873
0.836524 0.761289 0.056531
0.893330 0.763163 0.058190
0.950135 0.765038 0.059849
0.044684 0.751474 0.037940
0.098755 0.757854 0.039649
0.153745 0.764284 0.041365
0.209661 0.770762 0.043088
0.266510 0.777289 0.044817
0.324300 0.783864 0.046553
0.383039 0.790486 0.048296
0.442733 0.797156 0.050046
0.502123 0.802404 0.051772
0.558928 0.804279 0.053431
0.615734 0.806153 0.055089
0.672539 0.808027 0.056748
0.729344 0.809902 0.058407
0.786150 0.811776 0.060066
0.842955 0.813651 0.061724
0.899760 0.815525 0.063383
0.956566 0.817399 0.065042
0.000000 0.000000 0.000000
0.001587 0.000000 0.000000
0.042487 0.000000 0.000000
0.083387 0.000000 0.000000
0.124287 0.000000 0.001170
0.165187 0.000000 0.002721
0.206087 0.000000 0.004272
0.246986 0.000000 0.005823
0.287886 0.000000 0.007373
0.328786 0.000000 0.008924
0.369686 0.000000 0.010475
0.410586 0.000000 0.012026
0.451485 0.000000 0.013577
0.492385 0.000000 0.015128
0.533285 0.000000 0.016679
0.574185 0.000000 0.018230
0.615085 0.000000 0.019780
0.000000 0.002023 0.000000
0.006218 0.003516 0.001373
0.047117 0.005009 0.002923
0.088017 0.006503 0.004474
0.128917 0.007996 0.006025
0.169817 0.009490 0.007576
0.210717 0.010983 0.009127
0.251616 0.012476 0.010678
0.292516 0.013970 0.012229
0.333416 0.015463 0.013780
0.374316 0.016956 0.015330
0.415216 0.018450 0.016881
0.456116 0.019943 0.018432
0.497015 0.021436 0.019983
0.537915 0.022930 0.021534
0.581344 0.024493 0.023103
0.626103 0.026092 0.024681
0.000000 0.043740 0.004677
0.010848 0.045233 0.006228
0.051748 0.046727 0.007779
0.092647 0.048220 0.009330
0.133547 0.049713 0.010880
0.174447 0.051207 0.012431
0.215347 0.052700 0.013982
0.256247 0.054194 0.015533
0.297146 0.055687 0.017084
0.338046 0.057180 0.018635
0.378946 0.058674 0.020186
0.419950 0.060177 0.021737
0.463093 0.061866 0.023309
0.507234 0.063615 0.024888
0.552212 0.065403 0.026473
0.598001 0.067223 0.028065
0.644598 0.069073 0.029662
0.000000 0.085457 0.009532
0.015478 0.086951 0.011083
0.056378 0.088444 0.012634
0.097277 0.089937 0.014185
0.138177 0.091431 0.015736
0.179077 0.092924 0.017287
0.219977 0.094418 0.018837
0.260877 0.095911 0.020388
0.302001 0.097452 0.021942
0.344677 0.099276 0.023515
0.388172 0.101180 0.025095
0.432424 0.103136 0.026681
0.477432 0.105135 0.028273
0.523206 0.107172 0.029871
0.569759 0.109245 0.031475
0.617102 0.111351 0.033085
0.665251 0.113489 0.034700
0.000000 0.127175 0.014387
0.020108 0.128668 0.015938
0.061008 0.130161 0.017489
0.101908 0.131655 0.019040
0.142807 0.133148 0.020591
0.183947 0.134757 0.022147
0.226089 0.136724 0.023721
0.268914 0.138787 0.025301
0.312425 0.140914 0.026888
0.356640 0.143094 0.028481
0.401580 0.145320 0.030080
0.447264 0.147589 0.031685
0.493710 0.149896 0.033295
0.540935 0.152241 0.034912
0.588955 0.154623 0.036534
0.637783 0.157039 0.038162
0.687433 0.159489 0.039797
0.000000 0.168892 0.019243
0.024738 0.170385 0.020793
0.065763 0.172094 0.022352
0.107323 0.174210 0.023927
0.149457 0.176437 0.025508
0.192210 0.178738 0.027096
0.235620 0.181101 0.028690
0.279716 0.183518 0.030290
0.324524 0.185984 0.031895
0.370065 0.188495 0.033506
0.416360 0.191048 0.035123
0.463427 0.193642 0.036747
0.511281 0.196276 0.038376
0.559939 0.198947 0.040011
0.609414 0.201656 0.041652
0.659720 0.204400 0.043299
0.710868 0.207181 0.044953
0.000000 0.211737 0.024133
0.029796 0.214129 0.025715
0.071778 0.216608 0.027304
0.114372 0.219157 0.028899
0.157615 0.221766 0.030499
0.201538 0.224431 0.032105
0.246167 0.227146 0.033717
0.291525 0.229909 0.035335
0.337633 0.232717 0.036959
0.384509 0.235569 0.038589
0.432169 0.238463 0.040225
0.480628 0.241397 0.041867
0.529902 0.244372 0.043515
0.580004 0.247384 0.045170
0.630945 0.250435 0.046830
0.682738 0.253524 0.048497
0.735395 0.256649 0.050171
0.000000 0.257261 0.029107
0.035273 0.260065 0.030708
0.078304 0.262930 0.032315
0.122014 0.265851 0.033928
0.166429 0.268825 0.035547
0.211572 0.271849 0.037172
0.257464 0.274920 0.038802
0.304121 0.278037 0.040439
0.351560 0.281198 0.042082
0.399798 0.284403 0.043731
0.448849 0.287649 0.045386
0.498725 0.290936 0.047048
0.549440 0.294264 0.048715
0.601005 0.297631 0.050390
0.653431 0.301038 0.052070
0.706730 0.304482 0.053757
0.760911 0.307965 0.055451
0.000000 0.304610 0.034139
0.041071 0.307796 0.035759
0.085244 0.311036 0.037384
0.130145 0.314328 0.039016
0.175794 0.317669 0.040653
0.222210 0.321058 0.042297
0.269408 0.324493 0.043947
0.317403 0.327974 0.045603
0.366210 0.331499 0.047265
0.415842 0.335067 0.048934
0.466312 0.338677 0.050609
0.517631 0.342329 0.052290
0.569811 0.346021 0.053978
0.622862 0.349754 0.055673
0.676794 0.353527 0.057374
0.731618 0.357340 0.059081
0.787342 0.361191 0.060796
0.002552 0.353793 0.039229
0.047189 0.357359 0.040868
0.092576 0.360977 0.042512
0.138729 0.364645 0.044163
0.185665 0.368360 0.045820
0.233400 0.372123 0.047483
0.281946 0.375932 0.049152
0.331317 0.379785 0.050828
0.381525 0.383683 0.052510
0.432583 0.387625 0.054199
0.484501 0.391609 0.055895
0.537289 0.395635 0.057596
0.590959 0.399703 0.059305
0.645519 0.403812 0.061020
0.700979 0.407962 0.062742
0.757348 0.412152 0.064471
0.814634 0.416382 0.066206
0.007762 0.404856 0.044379
0.053635 0.408808 0.046037
0.100293 0.412809 0.047701
0.147749 0.416859 0.049371
0.196018 0.420957 0.051048
0.245113 0.425102 0.052731
0.295045 0.429293 0.054420
0.345827 0.433528 0.056116
0.397469 0.437808 0.057819
0.449981 0.442132 0.059529
0.503375 0.446500 0.061245
0.557659 0.450910 0.062967
0.612842 0.455362 0.064697
0.668934 0.459856 0.066433
0.725944 0.464392 0.068176
0.783878 0.468968 0.069926
0.842746 0.473586 0.071683
0.013252 0.457850 0.049590
0.060416 0.462193 0.051267
0.108393 0.466585 0.052951
0.157197 0.471025 0.054642
0.206840 0.475513 0.056339
0.257332 0.480048 0.058042
0.308685 0.484628 0.059752
0.360909 0.489254 0.061469
0.414014 0.493925 0.063193
0.468010 0.498640 0.064923
0.522905 0.503399 0.066660
0.578709 0.508201 0.068404
0.635430 0.513046 0.070155
0.693076 0.517933 0.071913
0.751656 0.522863 0.073678
0.811177 0.527835 0.075450
0.871645 0.532848 0.077228
0.019039 0.512823 0.054863
0.067539 0.517564 0.056561
0.116879 0.522353 0.058265
0.167069 0.527191 0.059976
0.218121 0.532076 0.061694
0.270045 0.537008 0.063419
0.322850 0.541986 0.065150
0.376546 0.547010 0.066888
0.431143 0.552079 0.068633
0.486648 0.557193 0.070385
0.543070 0.562351 0.072143
0.600418 0.567553 0.073909
0.658699 0.572799 0.075682
0.717920 0.578087 0.077461
0.778091 0.583419 0.079248
0.839217 0.588793 0.081042
0.901305 0.594210 0.082843
0.025133 0.569820 0.060200
0.075011 0.574965 0.061919
0.125751 0.580159 0.063644
0.177363 0.585401 0.065377
0.229858 0.590690 0.067115
0.283244 0.596027 0.068861
0.337531 0.601410 0.070614
0.392727 0.606839 0.072374
0.448840 0.612314 0.074140
0.505879 0.617834 0.075914
0.563852 0.623398 0.077694
0.622766 0.629007 0.079482
0.682628 0.634661 0.081277
0.743447 0.640358 0.083078
0.805227 0.646098 0.084887
0.867977 0.651882 0.086704
0.931703 0.657709 0.088527
0.031547 0.628884 0.065603
0.082838 0.634440 0.067343
0.135012 0.640044 0.069090
0.188078 0.645697 0.070843
0.242046 0.651397 0.072604
0.296923 0.657145 0.074371
0.352719 0.662940 0.076146
0.409440 0.668781 0.077927
0.467096 0.674668 0.079716
0.525693 0.680600 0.081512
0.585238 0.686579 0.083314
0.645740 0.692602 0.085124
0.707204 0.698669 0.086941
0.769638 0.704782 0.088766
0.830704 0.709484 0.090538
0.887510 0.711359 0.092197
0.944315 0.713233 0.093856
0.038290 0.690053 0.071073
0.091027 0.696026 0.072834
0.144666 0.702047 0.074603
0.199216 0.708117 0.076378
0.254684 0.714235 0.078161
0.311079 0.720400 0.079950
0.368409 0.726613 0.081747
0.426681 0.732872 0.083550
0.485901 0.739178 0.085361
0.546078 0.745530 0.087179
0.607218 0.751928 0.089005
0.666719 0.756223 0.090755
0.723524 0.758097 0.092414
0.780330 0.759972 0.094072
0.837135 0.761846 0.095731
0.893940 0.763720 0.097390
0.950746 0.765595 0.099048
0.045371 0.753366 0.076611
0.099584 0.759761 0.078394
0.154717 0.766205 0.080184
0.210777 0.772698 0.081982
0.267772 0.779239 0.083787
0.325710 0.785828 0.085598
0.384598 0.792464 0.087417
0.444442 0.799148 0.089244
0.502734 0.802962 0.090972
0.559539 0.804836 0.092630
0.616345 0.806710 0.094289
0.673150 0.808585 0.095948
0.729955 0.810459 0.097606
0.786760 0.812334 0.099265
0.843566 0.814208 0.100924
0.900371 0.816082 0.102583
0.957176 0.817957 0.104241
0.000000 0.000000 0.031618
0.002027 0.000000 0.033168
0.042927 0.000000 0.034719
0.083827 0.000000 0.036270
0.124727 0.000000 0.037821
0.165626 0.000000 0.039372
0.206526 0.000000 0.040923
0.247426 0.000000 0.042474
0.288326 0.000000 0.044024
0.329226 0.000000 0.045575
0.370126 0.000000 0.047126
0.411025 0.000000 0.048677
0.451925 0.000000 0.050228
0.492825 0.000000 0.051779
0.533725 0.000000 0.053330
0.574625 0.000000 0.054881
0.615524 0.000000 0.056431
0.000000 0.002467 0.036473
0.006657 0.003960 0.038024
0.047557 0.005453 0.039574
0.088457 0.006947 0.041125
0.129357 0.008440 0.042676
0.170257 0.009934 0.044227
0.211156 0.011427 0.045778
0.252056 0.012920 0.047329
0.292956 0.014414 0.048880
0.333856 0.015907 0.050431
0.374756 0.017400 0.051981
0.415655 0.018894 0.053532
0.456555 0.020387 0.055083
0.497455 0.021880 0.056634
0.538835 0.023387 0.058194
0.582756 0.024966 0.059800
0.627730 0.026572 0.061421
0.000000 0.044184 0.041328
0.011287 0.045677 0.042879
0.052187 0.047171 0.044430
0.093087 0.048664 0.045981
0.133987 0.050157 0.047531
0.174887 0.051651 0.049082
0.215787 0.053144 0.050633
0.256686 0.054638 0.052184
0.297586 0.056131 0.053735
0.338486 0.057624 0.055286
0.379386 0.059118 0.056837
0.420902 0.060669 0.058403
0.464325 0.062382 0.060011
0.508647 0.064143 0.061633
0.553787 0.065941 0.063264
0.599732 0.067770 0.064904
0.646482 0.069629 0.066553
0.000000 0.085901 0.046183
0.015918 0.087395 0.047734
0.056817 0.088888 0.049285
0.097717 0.090381 0.050836
0.138617 0.091875 0.052387
0.179517 0.093368 0.053938
0.220417 0.094862 0.055488
0.261316 0.096355 0.057039
0.302845 0.097982 0.058612
0.345719 0.099836 0.060223
0.389366 0.101757 0.061846
0.433762 0.103726 0.063478
0.478911 0.105737 0.065119
0.524826 0.107785 0.066768
0.571519 0.109867 0.068425
0.619005 0.111983 0.070090
0.667298 0.114131 0.071761
0.000000 0.127619 0.051038
0.020548 0.129112 0.052589
0.061448 0.130605 0.054140
0.102347 0.132099 0.055691
0.143247 0.133592 0.057242
0.184649 0.135327 0.058821
0.226932 0.137330 0.060434
0.269884 0.139413 0.062058
0.313521 0.141557 0.063692
0.357863 0.143751 0.065334
0.402932 0.145990 0.066985
0.448748 0.148271 0.068642
0.495328 0.150590 0.070308
0.542690 0.152946 0.071980
0.590847 0.155337 0.073660
0.639816 0.157764 0.075347
0.689608 0.160224 0.077041
0.000000 0.169336 0.055894
0.025178 0.170829 0.057444
0.066303 0.172707 0.059031
0.107960 0.174863 0.060646
0.150197 0.177114 0.062271
0.193060 0.179435 0.063906
0.236585 0.181815 0.065549
0.280800 0.184246 0.067201
0.325730 0.186726 0.068859
0.371397 0.189249 0.070526
0.417821 0.191815 0.072199
0.465019 0.194421 0.073880
0.513007 0.197066 0.075568
0.561802 0.199749 0.077263
0.611415 0.202468 0.078965
0.661861 0.205223 0.080674
0.713152 0.208014 0.082390
0.000000 0.212438 0.060857
0.030302 0.214858 0.062484
0.072379 0.217359 0.064120
0.115075 0.219927 0.065765
0.158426 0.222553 0.067417
0.202463 0.225233 0.069077
0.247210 0.227963 0.070744
0.292690 0.230739 0.072418
0.338923 0.233561 0.074100
0.385926 0.236425 0.075789
0.433717 0.239331 0.077485
0.482310 0.242278 0.079188
0.531720 0.245263 0.080898
0.581959 0.248288 0.082615
0.633041 0.251350 0.084339
0.684976 0.254449 0.086071
0.737777 0.257585 0.087810
0.000000 0.258088 0.065980
0.035810 0.260911 0.067633
0.078946 0.263793 0.069294
0.122766 0.266730 0.070962
0.167296 0.269719 0.072638
0.212558 0.272757 0.074320
0.258571 0.275842 0.076010
0.305354 0.278972 0.077707
0.352922 0.282146 0.079411
0.401291 0.285363 0.081122
0.450475 0.288622 0.082840
0.500487 0.291922 0.084565
0.551340 0.295261 0.086298
0.603045 0.298640 0.088037
0.655613 0.302058 0.089784
0.709056 0.305514 0.091538
0.763382 0.309008 0.093299
0.000000 0.305551 0.071181
0.041638 0.308754 0.072857
0.085923 0.312009 0.074540
0.130941 0.315316 0.076231
0.176711 0.318672 0.077929
0.223249 0.322075 0.079634
0.270574 0.325524 0.081346
0.318698 0.329018 0.083065
0.367637 0.332555 0.084791
0.417403 0.336136 0.086525
0.468009 0.339758 0.088265
0.519466 0.343422 0.090013
0.571787 0.347127 0.091767
0.624980 0.350872 0.093529
0.679056 0.354657 0.095298
0.734026 0.358481 0.097075
0.789897 0.362344 0.098858
0.003035 0.354848 0.076453
0.047787 0.358430 0.078151
0.093292 0.362062 0.079857
0.139567 0.365744 0.081570
0.186628 0.369474 0.083290
0.234490 0.373251 0.085017
0.283166 0.377073 0.086751
0.332670 0.380940 0.088493
0.383013 0.384851 0.090241
0.434207 0.388805 0.091997
0.486264 0.392801 0.093760
0.539194 0.396840 0.095530
0.593006 0.400920 0.097307
0.647711 0.405041 0.099092
0.703317 0.409203 0.100884
0.759834 0.413405 0.102683
0.817269 0.417647 0.104489
0.008271 0.406026 0.081794
0.054265 0.409992 0.083515
0.101046 0.414008 0.085243
0.148628 0.418073 0.086979
0.197026 0.422185 0.088721
0.246252 0.426343 0.090470
0.296318 0.430547 0.092227
0.347235 0.434796 0.093991
0.399015 0.439089 0.095762
0.451667 0.443426 0.097540
0.505202 0.447806 0.099326
0.559629 0.452229 0.101118
0.614957 0.456694 0.102918
0.671196 0.461200 0.104726
0.728354 0.465748 0.106541
0.786438 0.470337 0.108363
0.845458 0.474967 0.110192
0.013789 0.459136 0.087206
0.061078 0.463494 0.088949
0.109183 0.467900 0.090699
0.158117 0.472355 0.092457
0.207892 0.476857 0.094222
0.258518 0.481405 0.095994
0.310008 0.485999 0.097773
0.362371 0.490638 0.099559
0.415616 0.495322 0.101353
0.469754 0.500050 0.103154
0.524793 0.504822 0.104962
0.580743 0.509637 0.106778
0.637611 0.514495 0.108601
0.695406 0.519395 0.110432
0.754136 0.524337 0.112270
0.813808 0.529321 0.114115
0.874430 0.534347 0.115968
0.019604 0.514227 0.092687
0.068233 0.518983 0.094453
0.117705 0.523787 0.096226
0.168029 0.528638 0.098006
0.219216 0.533538 0.099793
0.271278 0.538483 0.101588
0.324222 0.543475 0.103390
0.378060 0.548513 0.105199
0.432799 0.553595 0.107016
0.488449 0.558722 0.108840
0.545017 0.563893 0.110671
0.602513 0.569108 0.112510
0.660943 0.574367 0.114357
0.720316 0.579668 0.116210
0.780638 0.585013 0.118072
0.841917 0.590399 0.119940
0.904161 0.595828 0.121817
0.025729 0.571345 0.098239
0.075739 0.576504 0.100027
0.126613 0.581712 0.101823
0.178362 0.586969 0.103626
0.230996 0.592272 0.105436
0.284522 0.597623 0.107254
0.338951 0.603019 0.109079
0.394291 0.608462 0.110911
0.450550 0.613950 0.112751
0.507736 0.619483 0.114598
0.565857 0.625061 0.116453
0.624921 0.630684 0.118315
0.684935 0.636350 0.120185
0.745906 0.642060 0.122062
0.807840 0.647814 0.123947
0.870745 0.653610 0.125840
0.934628 0.659450 0.127740
0.032174 0.630531 0.103862
0.083600 0.636101 0.105673
0.135912 0.641720 0.107492
0.189118 0.647387 0.109318
0.243227 0.653101 0.111151
0.298247 0.658863 0.112992
0.354187 0.664671 0.114840
0.411055 0.670526 0.116696
0.468858 0.676427 0.118559
0.527604 0.682373 0.120430
0.587301 0.688365 0.122308
0.647954 0.694401 0.124194
0.709572 0.700482 0.126088
0.772160 0.706607 0.127989
0.831315 0.710042 0.129738
0.888120 0.711916 0.131396
0.944926 0.713790 0.133055
0.038948 0.691824 0.109557
0.091824 0.697811 0.111391
0.145604 0.703847 0.113233
0.200296 0.709931 0.115082
0.255908 0.716063 0.116939
0.312449 0.722242 0.118803
0.369925 0.728469 0.120675
0.428345 0.734742 0.122554
0.487715 0.741062 0.124441
0.548044 0.747427 0.126336
0.609336 0.753839 0.128238
0.667330 0.756780 0.129954
0.724135 0.758655 0.131613
0.780940 0.760529 0.133272
0.837746 0.762403 0.134931
0.894551 0.764278 0.136589
0.951356 0.766152 0.138248
0.046061 0.755262 0.115324
0.100416 0.761671 0.117182
0.155692 0.768130 0.119047
0.211897 0.774637 0.120920
0.269039 0.781193 0.122800
0.327124 0.787796 0.124688
0.386161 0.794447 0.126584
0.446156 0.801145 0.128487
0.503345 0.803519 0.130171
0.560150 0.805393 0.131830
0.616955 0.807268 0.133489
0.673761 0.809142 0.135147
0.730566 0.811016 0.136806
0.787371 0.812891 0.138465
0.844176 0.814765 0.140123
0.900982 0.816640 0.141782
0.957787 0.818514 0.143441
0.000000 0.000000 0.068269
0.002467 0.000000 0.069819
0.043367 0.000000 0.071370
0.084267 0.000000 0.072921
0.125166 0.000000 0.074472
0.166066 0.000000 0.076023
0.206966 0.000000 0.077574
0.247866 0.000000 0.079125
0.288766 0.000000 0.080675
0.329665 0.000000 0.082226
0.370565 0.000000 0.083777
0.411465 0.000000 0.085328
0.452365 0.000000 0.086879
0.493265 0.000000 0.088430
