assets/lighting/cinematic/grade-subway-sodium-mix/lut.cube
TITLE "Subway Mixed Practicals"
# TKRS lighting-batch-001 original LUT
# Intended usage: underground mix of sodium + fluorescent
# License: CC0-1.0
LUT_3D_SIZE 5
DOMAIN_MIN 0.0 0.0 0.0
DOMAIN_MAX 1.0 1.0 1.0
0.000000 0.000000 0.000000
0.123847 0.000000 0.000000
0.287446 0.000000 0.000000
0.451046 0.000000 0.000000
0.614645 0.000000 0.000000
0.000000 0.126731 0.000000
0.142368 0.132704 0.000000
0.311342 0.140276 0.000000
0.492103 0.149206 0.000000
0.685270 0.158757 0.002588
0.000000 0.303674 0.000000
0.174883 0.316670 0.003413
0.364790 0.330446 0.009777
0.567842 0.344919 0.016228
0.784794 0.360042 0.022774
0.018476 0.511423 0.017078
0.217030 0.530619 0.023636
0.429491 0.550567 0.030292
0.656460 0.571235 0.037050
0.898456 0.592595 0.043913
0.044684 0.751474 0.037940
0.266510 0.777289 0.044817
0.502123 0.802404 0.051772
0.729344 0.809902 0.058407
0.956566 0.817399 0.065042
0.000000 0.000000 0.104920
0.125606 0.000000 0.111123
0.289205 0.000000 0.117327
0.452805 0.000000 0.123530
0.616404 0.000000 0.129733
0.000000 0.128507 0.124340
0.144247 0.134554 0.130563
0.315750 0.142856 0.137385
0.498598 0.151986 0.144430
0.693991 0.161703 0.151635
0.000000 0.307449 0.145363
0.178557 0.320690 0.152588
0.370508 0.334679 0.159957
0.575759 0.349349 0.167464
0.795032 0.364659 0.175106
0.020743 0.517049 0.168455
0.221419 0.536473 0.176115
0.436127 0.556638 0.183909
0.665450 0.577514 0.191837
0.909891 0.599077 0.199898
0.047451 0.759067 0.192882
0.271584 0.785114 0.200961
0.504566 0.804633 0.208570
0.731787 0.812131 0.215205
0.959008 0.819629 0.221840
0.000000 0.000000 0.251524
0.127365 0.000000 0.257727
0.290964 0.000000 0.263931
0.454563 0.000000 0.270134
0.620697 0.000000 0.276540
0.000000 0.130283 0.270944
0.146918 0.136889 0.277499
0.320341 0.145503 0.285129
0.505266 0.154818 0.293077
0.702884 0.164695 0.301257
0.000865 0.311301 0.294133
0.182302 0.324775 0.302341
0.376320 0.338972 0.310747
0.583786 0.353836 0.319335
0.805392 0.369331 0.328098
0.023055 0.522744 0.320470
0.225873 0.542393 0.329255
0.442845 0.562772 0.338206
0.674534 0.583854 0.347322
0.921432 0.605617 0.356597
0.050268 0.766730 0.348524
0.276722 0.793006 0.357821
0.507009 0.806863 0.365369
0.734230 0.814360 0.372003
0.961451 0.821858 0.378638
0.000000 0.000000 0.398128
0.129124 0.000000 0.404331
0.292723 0.000000 0.410535
0.456322 0.000000 0.416738
0.626864 0.000000 0.423788
0.000000 0.132059 0.417548
0.149804 0.139357 0.424860
0.325090 0.148209 0.433376
0.512092 0.157698 0.442277
0.711941 0.167732 0.451468
0.002779 0.315227 0.443462
0.186118 0.328923 0.452688
0.382224 0.343323 0.462159
0.591921 0.358378 0.471853
0.815873 0.374056 0.481756
0.025413 0.528508 0.473135
0.230392 0.548377 0.483064
0.449644 0.568968 0.493192
0.683713 0.590254 0.503511
0.933078 0.612217 0.514017
0.053136 0.774462 0.504873
0.281925 0.800964 0.515403
0.509452 0.809092 0.522167
0.736673 0.816589 0.528802
0.963894 0.824087 0.535437
0.000000 0.000000 0.544732
0.130883 0.000000 0.550935
0.294482 0.000000 0.557139
0.458081 0.000000 0.563342
0.633616 0.000000 0.571501
0.000000 0.133835 0.564152
0.152827 0.141911 0.572693
0.329981 0.150970 0.582152
0.519068 0.160627 0.592048
0.721155 0.170815 0.602283
0.004731 0.319221 0.593367
0.190003 0.333134 0.603643
0.388219 0.347733 0.614205
0.600162 0.362975 0.625027
0.826471 0.378834 0.636090
0.027817 0.534338 0.626459
0.234977 0.554425 0.637553
0.456523 0.575225 0.648874
0.692984 0.596714 0.660413
0.940614 0.616869 0.671464
0.056055 0.782262 0.661936
0.284674 0.803823 0.672330
0.511895 0.811321 0.678965
0.739116 0.818819 0.685600
0.966337 0.826316 0.692235
