assets/lighting/cinematic/grade-subway-sodium-mix/lut.cube
TITLE "Subway Mixed Practicals"
# TKRS lighting-batch-001 original LUT
# Intended usage: underground mix of sodium + fluorescent
# License: CC0-1.0
LUT_3D_SIZE 9
DOMAIN_MIN 0.0 0.0 0.0
DOMAIN_MAX 1.0 1.0 1.0
0.000000 0.000000 0.000000
0.042048 0.000000 0.000000
0.123847 0.000000 0.000000
0.205647 0.000000 0.000000
0.287446 0.000000 0.000000
0.369246 0.000000 0.000000
0.451046 0.000000 0.000000
0.532845 0.000000 0.000000
0.614645 0.000000 0.000000
0.000000 0.043296 0.000000
0.051308 0.046283 0.000000
0.133107 0.049269 0.000000
0.214907 0.052256 0.000000
0.296707 0.055243 0.000000
0.378506 0.058230 0.000000
0.461905 0.061356 0.000000
0.550659 0.064868 0.000000
0.642734 0.068520 0.000000
0.000000 0.126731 0.000000
0.060568 0.129717 0.000000
0.142368 0.132704 0.000000
0.225264 0.136126 0.000000
0.311342 0.140276 0.000000
0.400239 0.144654 0.000000
0.492103 0.149206 0.000000
0.587073 0.153911 0.000000
0.685270 0.158757 0.002588
0.000000 0.211046 0.000000
0.071182 0.215863 0.000000
0.156809 0.220985 0.000000
0.245131 0.226334 0.000000
0.336351 0.231878 0.000000
0.430628 0.237598 0.003000
0.528093 0.243483 0.006169
0.628858 0.249524 0.009358
0.733022 0.255716 0.012570
0.000000 0.303674 0.000000
0.084567 0.310067 0.000262
0.174883 0.316670 0.003413
0.268247 0.323467 0.006584
0.364790 0.330446 0.009777
0.464622 0.337599 0.012991
0.567842 0.344919 0.016228
0.674539 0.352401 0.019489
0.784794 0.360042 0.022774
0.007255 0.403691 0.007000
0.099543 0.411614 0.010195
0.195015 0.419734 0.013413
0.293778 0.428042 0.016653
0.395928 0.436531 0.019917
0.501554 0.445197 0.023205
0.610733 0.454034 0.026517
0.723540 0.463039 0.029854
0.840042 0.472209 0.033217
0.018476 0.511423 0.017078
0.116056 0.520924 0.020345
0.217030 0.530619 0.023636
0.321483 0.540501 0.026951
0.429491 0.550567 0.030292
0.541128 0.560813 0.033658
0.656460 0.571235 0.037050
0.775550 0.581829 0.040468
0.898456 0.592595 0.043913
0.030924 0.627242 0.027386
0.134116 0.638373 0.030730
0.240869 0.649697 0.034099
0.351255 0.661212 0.037495
0.465338 0.672913 0.040916
0.583182 0.684796 0.044365
0.704843 0.696861 0.047840
0.830093 0.708927 0.051339
0.943704 0.712676 0.054656
0.044684 0.751474 0.037940
0.153745 0.764284 0.041365
0.266510 0.777289 0.044817
0.383039 0.790486 0.048296
0.502123 0.802404 0.051772
0.615734 0.806153 0.055089
0.729344 0.809902 0.058407
0.842955 0.813651 0.061724
0.956566 0.817399 0.065042
0.000000 0.000000 0.031618
0.042927 0.000000 0.034719
0.124727 0.000000 0.037821
0.206526 0.000000 0.040923
0.288326 0.000000 0.044024
0.370126 0.000000 0.047126
0.451925 0.000000 0.050228
0.533725 0.000000 0.053330
0.615524 0.000000 0.056431
0.000000 0.044184 0.041328
0.052187 0.047171 0.044430
0.133987 0.050157 0.047531
0.215787 0.053144 0.050633
0.297586 0.056131 0.053735
0.379386 0.059118 0.056837
0.464325 0.062382 0.060011
0.553787 0.065941 0.063264
0.646482 0.069629 0.066553
0.000000 0.127619 0.051038
0.061448 0.130605 0.054140
0.143247 0.133592 0.057242
0.226932 0.137330 0.060434
0.313521 0.141557 0.063692
0.402932 0.145990 0.066985
0.495328 0.150590 0.070308
0.590847 0.155337 0.073660
0.689608 0.160224 0.077041
0.000000 0.212438 0.060857
0.072379 0.217359 0.064120
0.158426 0.222553 0.067417
0.247210 0.227963 0.070744
0.338923 0.233561 0.074100
0.433717 0.239331 0.077485
0.531720 0.245263 0.080898
0.633041 0.251350 0.084339
0.737777 0.257585 0.087810
0.000000 0.305551 0.071181
0.085923 0.312009 0.074540
0.176711 0.318672 0.077929
0.270574 0.325524 0.081346
0.367637 0.332555 0.084791
0.468009 0.339758 0.088265
0.571787 0.347127 0.091767
0.679056 0.354657 0.095298
0.789897 0.362344 0.098858
0.008271 0.406026 0.081794
0.101046 0.414008 0.085243
0.197026 0.422185 0.088721
0.296318 0.430547 0.092227
0.399015 0.439089 0.095762
0.505202 0.447806 0.099326
0.614957 0.456694 0.102918
0.728354 0.465748 0.106541
0.845458 0.474967 0.110192
0.019604 0.514227 0.092687
0.117705 0.523787 0.096226
0.219216 0.533538 0.099793
0.324222 0.543475 0.103390
0.432799 0.553595 0.107016
0.545017 0.563893 0.110671
0.660943 0.574367 0.114357
0.780638 0.585013 0.118072
0.904161 0.595828 0.121817
0.032174 0.630531 0.103862
0.135912 0.641720 0.107492
0.243227 0.653101 0.111151
0.354187 0.664671 0.114840
0.468858 0.676427 0.118559
0.587301 0.688365 0.122308
0.709572 0.700482 0.126088
0.831315 0.710042 0.129738
0.944926 0.713790 0.133055
0.046061 0.755262 0.115324
0.155692 0.768130 0.119047
0.269039 0.781193 0.122800
0.386161 0.794447 0.126584
0.503345 0.803519 0.130171
0.616955 0.807268 0.133489
0.730566 0.811016 0.136806
0.844176 0.814765 0.140123
0.957787 0.818514 0.143441
0.000000 0.000000 0.104920
0.043806 0.000000 0.108021
0.125606 0.000000 0.111123
0.207406 0.000000 0.114225
0.289205 0.000000 0.117327
0.371005 0.000000 0.120428
0.452805 0.000000 0.123530
0.534604 0.000000 0.126632
0.616404 0.000000 0.129733
0.000000 0.045072 0.114630
0.053067 0.048059 0.117732
0.134866 0.051045 0.120833
0.216666 0.054032 0.123935
0.298466 0.057019 0.127037
0.380265 0.060006 0.130139
0.466894 0.063424 0.133489
0.557003 0.067025 0.136931
0.650302 0.070748 0.140426
0.000000 0.128507 0.124340
0.062327 0.131493 0.127442
0.144247 0.134554 0.130563
0.228666 0.138561 0.133935
0.315750 0.142856 0.137385
0.405672 0.147341 0.140886
0.498598 0.151986 0.144430
0.594666 0.156776 0.148014
0.693991 0.161703 0.151635
0.000000 0.213866 0.134383
0.073593 0.218878 0.137840
0.160066 0.224140 0.141346
0.249315 0.229608 0.144896
0.341523 0.235259 0.148485
0.436837 0.241078 0.152111
0.535379 0.247057 0.155774
0.637258 0.253188 0.159471
0.742568 0.259467 0.163203
0.000000 0.307449 0.145363
0.087293 0.313970 0.148957
0.178557 0.320690 0.152588
0.272921 0.327596 0.156255
0.370508 0.334679 0.159957
0.471422 0.341932 0.163693
0.575759 0.349349 0.167464
0.683603 0.356926 0.171268
0.795032 0.364659 0.175106
0.009297 0.408378 0.156736
0.102562 0.416420 0.160443
0.199054 0.424652 0.164184
0.298877 0.433069 0.167959
0.402122 0.441663 0.171768
0.508873 0.450431 0.175610
0.619207 0.459368 0.179486
0.733194 0.468472 0.183396
0.850901 0.477739 0.187339
0.020743 0.517049 0.168455
0.119367 0.526666 0.172268
0.221419 0.536473 0.176115
0.326981 0.546465 0.179995
0.436127 0.556638 0.183909
0.548929 0.566989 0.187856
0.665450 0.577514 0.191837
0.785752 0.588211 0.195851
0.909891 0.599077 0.199898
0.033435 0.633837 0.180505
0.137722 0.645084 0.184423
0.245601 0.656522 0.188374
0.357138 0.668147 0.192359
0.472398 0.679957 0.196378
0.591441 0.691949 0.200430
0.714323 0.704119 0.204515
0.832536 0.711156 0.208137
0.946147 0.714905 0.211454
0.047451 0.759067 0.192882
0.157653 0.771994 0.196905
0.271584 0.785114 0.200961
0.389301 0.798424 0.205051
0.504566 0.804633 0.208570
0.618177 0.808382 0.211888
0.731787 0.812131 0.215205
0.845398 0.815880 0.218523
0.959008 0.819629 0.221840
0.000000 0.000000 0.178222
0.044686 0.000000 0.181323
0.126486 0.000000 0.184425
0.208285 0.000000 0.187527
0.290085 0.000000 0.190629
0.371884 0.000000 0.193730
0.453684 0.000000 0.196832
0.535484 0.000000 0.199934
0.617989 0.000000 0.203077
0.000000 0.045960 0.187932
0.053946 0.048947 0.191034
0.135746 0.051933 0.194135
0.217545 0.054920 0.197237
0.299345 0.057907 0.200339
0.382047 0.060988 0.203527
0.469575 0.064481 0.207071
0.560298 0.068120 0.210714
0.654189 0.071876 0.214424
0.000000 0.129395 0.197642
0.063206 0.132381 0.200744
0.145544 0.135698 0.203981
0.230454 0.139815 0.207543
0.318024 0.144172 0.211196
0.408456 0.148707 0.214913
0.501911 0.153396 0.218685
0.598527 0.158227 0.222507
0.698417 0.163193 0.226374
0.000000 0.215326 0.208016
0.074823 0.220419 0.211678
0.161727 0.225746 0.215403
0.251446 0.231270 0.219182
0.344152 0.236972 0.223009
0.439987 0.242840 0.226882
0.539071 0.248864 0.230798
0.641509 0.255040 0.234755
0.747393 0.261362 0.238752
0.000000 0.309366 0.219679
0.088677 0.315947 0.223513
0.180420 0.322724 0.227391
0.275290 0.329684 0.231312
0.373402 0.336818 0.235275
0.474861 0.344120 0.239277
0.579759 0.351585 0.243319
0.688179 0.359209 0.247400
0.800197 0.366988 0.251519
0.010333 0.410749 0.231828
0.104092 0.418848 0.235795
0.201099 0.427135 0.239803
0.301456 0.435605 0.243850
0.405252 0.444252 0.247936
0.512568 0.453071 0.252060
0.623482 0.462058 0.256222
0.738062 0.471210 0.260421
0.856373 0.480525 0.264657
0.021894 0.519888 0.244382
0.121043 0.529562 0.248473
0.223638 0.539425 0.252602
0.329757 0.549471 0.256768
0.439476 0.559697 0.260972
0.552862 0.570100 0.265213
0.669980 0.580676 0.269492
0.790890 0.591424 0.273807
0.915649 0.602340 0.278158
0.034708 0.637161 0.257315
0.139547 0.648465 0.261524
0.247991 0.659959 0.265770
0.360107 0.671640 0.270053
0.475957 0.683504 0.274373
0.595602 0.695549 0.278730
0.719097 0.707772 0.283123
0.833758 0.712271 0.286536
0.947368 0.716020 0.289854
0.048853 0.762890 0.270615
0.159629 0.775874 0.274940
0.274145 0.789051 0.279301
0.392177 0.801999 0.283652
0.505788 0.805748 0.286969
0.619398 0.809497 0.290287
0.733009 0.813246 0.293604
0.846619 0.816994 0.296922
0.960230 0.820743 0.300239
0.000000 0.000000 0.251524
0.045565 0.000000 0.254625
0.127365 0.000000 0.257727
0.209165 0.000000 0.260829
0.290964 0.000000 0.263931
0.372764 0.000000 0.267032
0.454563 0.000000 0.270134
0.536363 0.000000 0.273236
0.620697 0.000000 0.276540
0.000000 0.046848 0.261234
0.054826 0.049835 0.264336
0.136625 0.052821 0.267437
0.218425 0.055808 0.270539
0.300225 0.058795 0.273641
0.384146 0.062007 0.277018
0.472349 0.065549 0.280764
0.563663 0.069225 0.284619
0.658138 0.073014 0.288552
0.000000 0.130283 0.270944
0.064086 0.133269 0.274046
0.146918 0.136889 0.277499
0.232287 0.141090 0.281263
0.320341 0.145503 0.285129
0.411280 0.150085 0.289071
0.505266 0.154818 0.293077
0.602429 0.159690 0.297140
0.702884 0.164695 0.301257
0.000000 0.216813 0.281763
0.076068 0.221981 0.285640
0.163410 0.227369 0.289591
0.253601 0.232948 0.293605
0.346808 0.238700 0.297675
0.443167 0.244615 0.301799
0.542794 0.250685 0.305972
0.645792 0.256904 0.310192
0.752252 0.263269 0.314458
0.000865 0.311301 0.294133
0.090075 0.317942 0.298211
0.182302 0.324775 0.302341
0.277679 0.331787 0.306520
0.376320 0.338972 0.310747
0.478326 0.346323 0.315019
0.583786 0.353836 0.319335
0.692783 0.361506 0.323695
0.805392 0.369331 0.328098
0.011379 0.413136 0.307070
0.105635 0.421292 0.311302
0.203161 0.429635 0.315580
0.304054 0.438158 0.319902
0.408402 0.446856 0.324268
0.516287 0.455725 0.328676
0.627782 0.464762 0.333126
0.742955 0.473963 0.337617
0.861872 0.483325 0.342149
0.023055 0.522744 0.320470
0.122733 0.532475 0.324841
0.225873 0.542393 0.329255
0.332553 0.552493 0.333710
0.442845 0.562772 0.338206
0.556818 0.573227 0.342744
0.674534 0.583854 0.347322
0.796054 0.594652 0.351940
0.921432 0.605617 0.356597
0.035993 0.640501 0.334295
0.141386 0.651862 0.338797
0.250398 0.663412 0.343340
0.363094 0.675148 0.347923
0.479537 0.687066 0.352546
0.599785 0.699164 0.357209
0.721369 0.709637 0.361618
0.834979 0.713385 0.364935
0.948590 0.717134 0.368253
0.050268 0.766730 0.348524
0.161619 0.779772 0.353153
0.276722 0.793006 0.357821
0.393398 0.803114 0.362051
0.507009 0.806863 0.365369
0.620620 0.810611 0.368686
0.734230 0.814360 0.372003
0.847841 0.818109 0.375321
0.961451 0.821858 0.378638
0.000000 0.000000 0.324826
0.046445 0.000000 0.327927
0.128244 0.000000 0.331029
0.210044 0.000000 0.334131
0.291844 0.000000 0.337233
0.373643 0.000000 0.340334
0.455443 0.000000 0.343436
0.537243 0.000000 0.346538
0.623688 0.000000 0.350109
0.000000 0.047736 0.334536
0.055705 0.050723 0.337638
0.137505 0.053709 0.340739
0.219304 0.056696 0.343841
0.301104 0.059683 0.346943
0.386387 0.063044 0.350614
0.475202 0.066630 0.354573
0.567094 0.070340 0.358648
0.662147 0.074161 0.362811
0.000000 0.131171 0.344246
0.064969 0.134162 0.347352
0.148341 0.138110 0.351123
0.234162 0.142382 0.355100
0.322697 0.146849 0.359187
0.414144 0.151477 0.363361
0.508660 0.156252 0.367607
0.606372 0.161164 0.371917
0.707393 0.166208 0.376288
0.000000 0.218324 0.355628
0.077329 0.223561 0.359728
0.165113 0.229009 0.363911
0.255781 0.234640 0.368166
0.349491 0.240442 0.372485
0.446375 0.246404 0.376863
0.546548 0.252519 0.381297
0.650108 0.258782 0.385784
0.757146 0.265189 0.390322
0.001817 0.313255 0.368727
0.091486 0.319954 0.373054
0.184201 0.326841 0.377439
0.280089 0.333906 0.381881
0.379261 0.341140 0.386374
0.481815 0.348540 0.390919
0.587840 0.356100 0.395513
0.697416 0.363816 0.400154
0.810618 0.371686 0.404843
0.012436 0.415541 0.382465
0.107193 0.423754 0.386965
0.205239 0.432150 0.391516
0.306671 0.440726 0.396116
0.411574 0.449475 0.400764
0.520028 0.458395 0.405459
0.632106 0.467480 0.410199
0.747875 0.476730 0.414984
0.867400 0.486140 0.419814
0.024228 0.525618 0.396721
0.124438 0.535404 0.401375
0.228125 0.545377 0.406075
0.335366 0.555531 0.410822
0.446234 0.565862 0.415613
0.560795 0.576368 0.420448
0.679112 0.587047 0.425328
0.801242 0.597895 0.430251
0.927242 0.608910 0.435217
0.037290 0.643859 0.411445
0.143239 0.655277 0.416242
0.252820 0.666882 0.421083
0.366099 0.678672 0.425968
0.483136 0.690644 0.430897
0.603989 0.702795 0.435869
0.722590 0.710751 0.440017
0.836201 0.714500 0.443334
0.949811 0.718249 0.446652
0.051696 0.770588 0.426610
0.163624 0.783687 0.431544
0.279316 0.796977 0.436521
0.394620 0.804228 0.440450
0.508230 0.807977 0.443768
0.621841 0.811726 0.447085
0.735452 0.815475 0.450403
0.849062 0.819224 0.453720
0.962673 0.822972 0.457038
0.000000 0.000000 0.398128
0.047324 0.000000 0.401229
0.129124 0.000000 0.404331
0.210924 0.000000 0.407433
0.292723 0.000000 0.410535
0.374523 0.000000 0.413636
0.456322 0.000000 0.416738
0.538273 0.000000 0.419861
0.626864 0.000000 0.423788
0.000000 0.048624 0.407838
0.056585 0.051611 0.410940
0.138384 0.054597 0.414042
0.220184 0.057584 0.417143
0.302389 0.060624 0.420346
0.388731 0.064095 0.424323
0.478126 0.067721 0.428503
0.570585 0.071465 0.432806
0.666212 0.075318 0.437205
0.000000 0.132059 0.417548
0.066016 0.135275 0.420845
0.149804 0.139357 0.424860
0.236073 0.143692 0.429059
0.325090 0.148209 0.433376
0.417046 0.152882 0.437786
0.512092 0.157698 0.442277
0.610354 0.162650 0.446839
0.711941 0.167732 0.451468
0.000000 0.219857 0.429617
0.078605 0.225161 0.433947
0.166836 0.230664 0.438368
0.257984 0.236348 0.442869
0.352200 0.242198 0.447441
0.449613 0.248206 0.452078
0.550332 0.254365 0.456776
0.654456 0.260672 0.461533
0.762072 0.267122 0.466346
0.002779 0.315227 0.443462
0.092912 0.321983 0.448043
0.186118 0.328923 0.452688
0.282519 0.336039 0.457395
0.382224 0.343323 0.462159
0.485329 0.350771 0.466979
0.591921 0.358378 0.471853
0.702078 0.366140 0.476779
0.815873 0.374056 0.481756
0.013504 0.417963 0.458014
0.108764 0.426231 0.462786
0.207334 0.434682 0.467613
0.309307 0.443309 0.472494
0.414767 0.452110 0.477426
0.523793 0.461079 0.482410
0.636455 0.470213 0.487443
0.752822 0.479511 0.492525
0.872954 0.488969 0.497654
0.025413 0.528508 0.473135
0.126156 0.538350 0.478075
0.230392 0.548377 0.483064
0.338198 0.558584 0.488104
0.449644 0.568968 0.493192
0.564795 0.579525 0.498328
0.683713 0.590254 0.503511
0.806456 0.601152 0.508741
0.933078 0.612217 0.514017
0.038599 0.647234 0.488766
0.145107 0.658708 0.493860
0.255259 0.670369 0.499002
0.369122 0.682213 0.504192
0.486754 0.694239 0.509427
0.608214 0.706442 0.514709
0.723812 0.711866 0.518416
0.837422 0.715614 0.521734
0.951033 0.719363 0.525051
0.053136 0.774462 0.504873
0.165643 0.787618 0.510115
0.281925 0.800964 0.515403
0.395841 0.805343 0.518850
0.509452 0.809092 0.522167
0.623063 0.812841 0.525484
0.736673 0.816589 0.528802
0.850284 0.820338 0.532119
0.963894 0.824087 0.535437
0.000000 0.000000 0.471430
0.048204 0.000000 0.474531
0.130003 0.000000 0.477633
0.211803 0.000000 0.480735
0.293603 0.000000 0.483837
0.375402 0.000000 0.486938
0.457202 0.000000 0.490040
0.540596 0.000000 0.493403
0.630181 0.000000 0.497584
0.000000 0.049512 0.481140
0.057464 0.052499 0.484242
0.139264 0.055485 0.487344
0.221063 0.058472 0.490445
0.304179 0.061634 0.493931
0.391158 0.065160 0.498148
0.481114 0.068822 0.502557
0.574134 0.072599 0.507095
0.670331 0.076484 0.511736
0.000000 0.132947 0.490850
0.067112 0.136452 0.494466
0.151301 0.140624 0.498716
0.238018 0.145018 0.503144
0.327519 0.149583 0.507696
0.419984 0.154299 0.512349
0.515562 0.159157 0.517090
0.614375 0.164148 0.521909
0.716529 0.169268 0.526799
0.000000 0.221411 0.503732
0.079896 0.226777 0.508299
0.168579 0.232336 0.512964
0.260210 0.238070 0.517715
0.354935 0.243968 0.522544
0.452878 0.250022 0.527443
0.554147 0.256225 0.532410
0.658836 0.262575 0.537440
0.767032 0.269066 0.542531
0.003750 0.317215 0.518342
0.094352 0.324027 0.523180
0.188052 0.331021 0.528089
0.284970 0.338187 0.533064
0.385211 0.345521 0.538102
0.488868 0.353016 0.543201
0.596028 0.360670 0.548357
0.706767 0.368478 0.553570
0.821157 0.376438 0.558838
0.014583 0.420402 0.533718
0.110350 0.428725 0.538765
0.209446 0.437229 0.543871
0.311962 0.445908 0.549035
0.417981 0.454759 0.554255
0.527580 0.463777 0.559530
0.640829 0.472961 0.564858
0.757794 0.482306 0.570239
0.878537 0.491811 0.575670
0.026609 0.531414 0.549714
0.127888 0.541312 0.554941
0.232677 0.551393 0.560223
0.341049 0.561653 0.565558
0.453073 0.572089 0.570945
0.568816 0.582698 0.576384
0.688337 0.593477 0.581872
0.811693 0.604425 0.587411
0.938940 0.615539 0.592998
0.039921 0.650626 0.566259
0.146989 0.662155 0.571653
0.257715 0.673871 0.577098
0.372163 0.685770 0.582593
0.490392 0.697848 0.588138
0.611423 0.709231 0.593498
0.725033 0.712980 0.596815
0.838644 0.716729 0.600133
0.952254 0.720478 0.603450
0.054589 0.778354 0.583315
0.167677 0.791567 0.588866
0.283452 0.802709 0.593931
0.397063 0.806458 0.597249
0.510673 0.810206 0.600566
0.624284 0.813955 0.603884
0.737895 0.817704 0.607201
0.851505 0.821453 0.610518
0.965116 0.825202 0.613836
0.000000 0.000000 0.544732
0.049083 0.000000 0.547833
0.130883 0.000000 0.550935
0.212682 0.000000 0.554037
0.294482 0.000000 0.557139
0.376282 0.000000 0.560240
0.458081 0.000000 0.563342
0.543244 0.000000 0.567075
0.633616 0.000000 0.571501
0.000000 0.050400 0.554442
0.058343 0.053387 0.557544
0.140143 0.056374 0.560646
0.221943 0.059360 0.563747
0.306105 0.062665 0.567637
0.393656 0.066236 0.572096
0.484160 0.069934 0.576740
0.577736 0.073743 0.581519
0.674502 0.077659 0.586407
0.000000 0.133835 0.564152
0.068238 0.137663 0.568205
0.152827 0.141911 0.572693
0.239996 0.146358 0.577357
0.329981 0.150970 0.582152
0.422958 0.155729 0.587053
0.519068 0.160627 0.592048
0.618432 0.165657 0.597127
0.721155 0.170815 0.602283
0.000000 0.222985 0.577977
0.081201 0.228411 0.582786
0.170341 0.234023 0.587700
0.262459 0.239807 0.592706
0.357696 0.245752 0.597796
0.456171 0.251851 0.602962
0.557990 0.258098 0.608200
0.663246 0.264490 0.613507
0.772024 0.271024 0.618878
0.004731 0.319221 0.593367
0.095805 0.326088 0.598467
0.190003 0.333134 0.603643
0.287440 0.340351 0.608890
0.388219 0.347733 0.614205
0.492432 0.355275 0.619585
0.600162 0.362975 0.625027
0.711485 0.370829 0.630529
0.826471 0.378834 0.636090
0.015672 0.422857 0.609580
0.111949 0.431235 0.614904
0.211574 0.439791 0.620292
0.314635 0.448522 0.625742
0.421216 0.457423 0.631252
0.531390 0.466491 0.636821
0.645227 0.475722 0.642446
0.762792 0.485116 0.648127
0.884146 0.494668 0.653863
0.027817 0.534338 0.626459
0.129635 0.544290 0.631977
0.234977 0.554425 0.637553
0.343917 0.564737 0.643185
0.456523 0.575225 0.648874
0.572859 0.585885 0.654616
0.692984 0.596714 0.660413
0.816956 0.607712 0.666261
0.940614 0.616869 0.671464
0.041255 0.654034 0.643925
0.148885 0.665619 0.649621
0.260186 0.677390 0.655371
0.375221 0.689342 0.661174
0.494050 0.701474 0.667029
0.612644 0.710346 0.671897
0.726255 0.714095 0.675215
0.839865 0.717844 0.678532
0.953476 0.721592 0.681849
0.056055 0.782262 0.661936
0.169725 0.795532 0.667798
0.284674 0.803823 0.672330
0.398284 0.807572 0.675648
0.511895 0.811321 0.678965
0.625505 0.815070 0.682283
0.739116 0.818819 0.685600
0.852727 0.822567 0.688918
0.966337 0.826316 0.692235
