assets/lighting/day-night-palettes/grade-candle-1800k/lut.cube
TITLE "Candlelight 1800K"
# TKRS lighting-batch-001 original LUT
# Intended usage: interior candle / firelight warmth
# License: CC0-1.0
LUT_3D_SIZE 5
DOMAIN_MIN 0.0 0.0 0.0
DOMAIN_MAX 1.0 1.0 1.0
0.000000 0.000000 0.000000
0.213813 0.000000 0.000000
0.467471 0.000000 0.000000
0.721129 0.000000 0.000000
0.974787 0.000000 0.000000
0.000000 0.096252 0.000000
0.193495 0.088120 0.000000
0.447153 0.079988 0.000000
0.708871 0.072802 0.000000
0.981295 0.065775 0.000000
0.000000 0.227453 0.000000
0.175655 0.222738 0.000000
0.440209 0.218588 0.000000
0.714612 0.214536 0.000000
0.999752 0.210419 0.000000
0.000000 0.372513 0.000000
0.161065 0.371708 0.000000
0.436585 0.371027 0.000000
0.723046 0.370343 0.000000
1.000000 0.369572 0.000000
0.000000 0.532914 0.000000
0.145685 0.535872 0.000000
0.433084 0.538868 0.000000
0.732212 0.541824 0.000000
1.000000 0.544681 0.000000
0.000000 0.000000 0.030825
0.212864 0.000000 0.023286
0.466522 0.000000 0.015747
0.720180 0.000000 0.008208
0.973838 0.000000 0.000668
0.000000 0.095423 0.014386
0.192546 0.087291 0.006847
0.446217 0.079162 0.000000
0.709011 0.072091 0.000000
0.982049 0.065051 0.000000
0.000000 0.226898 0.000000
0.174972 0.222303 0.000000
0.440016 0.218175 0.000000
0.714969 0.214122 0.000000
1.000000 0.209992 0.000000
0.000000 0.372421 0.000000
0.160371 0.371636 0.000000
0.436428 0.370959 0.000000
0.723467 0.370269 0.000000
1.000000 0.369486 0.000000
0.000000 0.533211 0.000000
0.144935 0.536177 0.000000
0.432907 0.539172 0.000000
0.732641 0.542121 0.000000
1.000000 0.544964 0.000000
0.000000 0.000000 0.093889
0.211914 0.000000 0.086349
0.465573 0.000000 0.078810
0.719231 0.000000 0.071271
0.972889 0.000000 0.063732
0.000000 0.094595 0.077450
0.191597 0.086463 0.069910
0.445655 0.078411 0.062399
0.709170 0.071379 0.055230
0.982816 0.064324 0.048035
0.000000 0.226376 0.061099
0.174291 0.221871 0.053937
0.439827 0.217762 0.046728
0.715332 0.213706 0.039421
1.000000 0.209564 0.031990
0.000000 0.372331 0.045418
0.159675 0.371564 0.038089
0.436270 0.370891 0.030634
0.723889 0.370195 0.023036
1.000000 0.369398 0.015284
0.000000 0.533509 0.029274
0.144182 0.536482 0.021649
0.432730 0.539476 0.013868
0.733071 0.542416 0.005922
1.000000 0.545246 0.000000
0.000000 0.000000 0.156952
0.210965 0.000000 0.149413
0.464623 0.000000 0.141874
0.718281 0.000000 0.134334
0.972124 0.000000 0.126807
0.000000 0.093766 0.140513
0.190647 0.085634 0.132974
0.445192 0.077679 0.125558
0.709347 0.070666 0.118846
0.983597 0.063595 0.112189
0.000000 0.225873 0.124332
0.173612 0.221444 0.117645
0.439641 0.217349 0.110985
0.715699 0.213290 0.104273
1.000000 0.209133 0.097473
0.000000 0.372244 0.109779
0.158977 0.371494 0.103053
0.436112 0.370822 0.096234
0.724313 0.370120 0.089301
1.000000 0.369309 0.082237
0.000000 0.533808 0.094992
0.143426 0.536788 0.088036
0.432550 0.539779 0.080947
0.733500 0.542710 0.073714
1.000000 0.545526 0.066327
0.000000 0.000000 0.220015
0.210016 0.000000 0.212476
0.463674 0.000000 0.204937
0.717332 0.000000 0.197398
0.972094 0.000000 0.189965
0.000000 0.092938 0.203576
0.189698 0.084806 0.196037
0.444777 0.076955 0.188797
0.709540 0.069953 0.182567
0.984391 0.062864 0.176461
0.000000 0.225386 0.187650
0.172933 0.221019 0.181461
0.439459 0.216937 0.175361
0.716071 0.212872 0.169253
1.000000 0.208701 0.163090
0.000000 0.372160 0.174261
0.158276 0.371424 0.168145
0.435954 0.370754 0.161969
0.724737 0.370043 0.155705
1.000000 0.369218 0.149334
0.000000 0.534109 0.160846
0.142666 0.537093 0.154564
0.432369 0.540081 0.148172
0.733928 0.543003 0.141656
1.000000 0.545805 0.135003
