assets/lighting/day-night-palettes/grade-candle-1800k/lut.cube
TITLE "Candlelight 1800K"
# TKRS lighting-batch-001 original LUT
# Intended usage: interior candle / firelight warmth
# License: CC0-1.0
LUT_3D_SIZE 9
DOMAIN_MIN 0.0 0.0 0.0
DOMAIN_MAX 1.0 1.0 1.0
0.000000 0.000000 0.000000
0.086984 0.000000 0.000000
0.213813 0.000000 0.000000
0.340642 0.000000 0.000000
0.467471 0.000000 0.000000
0.594300 0.000000 0.000000
0.721129 0.000000 0.000000
0.847958 0.000000 0.000000
0.974787 0.000000 0.000000
0.000000 0.030739 0.000000
0.076825 0.026673 0.000000
0.203654 0.022607 0.000000
0.330483 0.018541 0.000000
0.457312 0.014475 0.000000
0.584141 0.010409 0.000000
0.710970 0.006343 0.000000
0.840508 0.002285 0.000000
0.974407 0.000000 0.000000
0.000000 0.096252 0.000000
0.066666 0.092186 0.000000
0.193495 0.088120 0.000000
0.320324 0.084054 0.000000
0.447153 0.079988 0.000000
0.576495 0.076302 0.000000
0.708871 0.072802 0.000000
0.843781 0.069304 0.000000
0.981295 0.065775 0.000000
0.000000 0.161765 0.000000
0.056507 0.157699 0.000000
0.183336 0.153633 0.000000
0.311895 0.150522 0.000000
0.442628 0.147649 0.000000
0.575672 0.144840 0.000000
0.711172 0.142045 0.000000
0.849248 0.139237 0.000000
0.989999 0.136401 0.000000
0.000000 0.227453 0.000000
0.046664 0.224955 0.000000
0.175655 0.222738 0.000000
0.306770 0.220636 0.000000
0.440209 0.218588 0.000000
0.576116 0.216563 0.000000
0.714612 0.214536 0.000000
0.855795 0.212493 0.000000
0.999752 0.210419 0.000000
0.000000 0.298073 0.000000
0.037062 0.296696 0.000000
0.168393 0.295410 0.000000
0.302095 0.294178 0.000000
0.438303 0.292971 0.000000
0.577126 0.291772 0.000000
0.718659 0.290564 0.000000
0.862986 0.289336 0.000000
1.000000 0.288079 0.000000
0.000000 0.372513 0.000000
0.027175 0.372085 0.000000
0.161065 0.371708 0.000000
0.297501 0.371361 0.000000
0.436585 0.371027 0.000000
0.578408 0.370691 0.000000
0.723046 0.370343 0.000000
0.870573 0.369973 0.000000
1.000000 0.369572 0.000000
0.000000 0.450749 0.000000
0.016912 0.451263 0.000000
0.153524 0.451809 0.000000
0.292820 0.452373 0.000000
0.434883 0.452940 0.000000
0.579788 0.453501 0.000000
0.727603 0.454047 0.000000
0.878392 0.454569 0.000000
1.000000 0.455060 0.000000
0.000000 0.532914 0.000000
0.006218 0.534383 0.000000
0.145685 0.535872 0.000000
0.287950 0.537371 0.000000
0.433084 0.538868 0.000000
0.581151 0.540355 0.000000
0.732212 0.541824 0.000000
0.886322 0.543268 0.000000
1.000000 0.544681 0.000000
0.000000 0.000000 0.000000
0.086509 0.000000 0.000000
0.213338 0.000000 0.000000
0.340168 0.000000 0.000000
0.466997 0.000000 0.000000
0.593826 0.000000 0.000000
0.720655 0.000000 0.000000
0.847484 0.000000 0.000000
0.974313 0.000000 0.000000
0.000000 0.030325 0.000000
0.076351 0.026259 0.000000
0.203180 0.022193 0.000000
0.330009 0.018127 0.000000
0.456838 0.014060 0.000000
0.583667 0.009994 0.000000
0.710496 0.005928 0.000000
0.840567 0.001870 0.000000
0.974666 0.000000 0.000000
0.000000 0.095838 0.000000
0.066192 0.091772 0.000000
0.193021 0.087705 0.000000
0.319850 0.083639 0.000000
0.446679 0.079573 0.000000
0.576403 0.075944 0.000000
0.708938 0.072446 0.000000
0.844001 0.068946 0.000000
0.981670 0.065413 0.000000
0.000000 0.161350 0.000000
0.056033 0.157284 0.000000
0.182920 0.153274 0.000000
0.311633 0.150224 0.000000
0.442494 0.147361 0.000000
0.575673 0.144555 0.000000
0.711314 0.141760 0.000000
0.849534 0.138950 0.000000
0.990435 0.136109 0.000000
0.000000 0.227170 0.000000
0.046220 0.224721 0.000000
0.175313 0.222520 0.000000
0.306546 0.220425 0.000000
0.440112 0.218382 0.000000
0.576154 0.216357 0.000000
0.714790 0.214329 0.000000
0.856119 0.212283 0.000000
1.000000 0.210206 0.000000
0.000000 0.297927 0.000000
0.036607 0.296561 0.000000
0.168053 0.295283 0.000000
0.301881 0.294054 0.000000
0.438220 0.292849 0.000000
0.577182 0.291649 0.000000
0.718858 0.290440 0.000000
0.863333 0.289210 0.000000
1.000000 0.287948 0.000000
0.000000 0.372467 0.000000
0.026705 0.372045 0.000000
0.160718 0.371672 0.000000
0.297285 0.371327 0.000000
0.436507 0.370993 0.000000
0.578471 0.370656 0.000000
0.723257 0.370306 0.000000
0.870935 0.369933 0.000000
1.000000 0.369529 0.000000
0.000000 0.450800 0.000000
0.016422 0.451318 0.000000
0.153165 0.451866 0.000000
0.292597 0.452430 0.000000
0.434802 0.452998 0.000000
0.579853 0.453558 0.000000
0.727818 0.454101 0.000000
0.878761 0.454620 0.000000
1.000000 0.455108 0.000000
0.000000 0.533062 0.000000
0.005707 0.534534 0.000000
0.145311 0.536025 0.000000
0.287717 0.537523 0.000000
0.432996 0.539020 0.000000
0.581212 0.540506 0.000000
0.732427 0.541973 0.000000
0.886694 0.543414 0.000000
1.000000 0.544823 0.000000
0.000000 0.000000 0.030825
0.086035 0.000000 0.027056
0.212864 0.000000 0.023286
0.339693 0.000000 0.019516
0.466522 0.000000 0.015747
0.593351 0.000000 0.011977
0.720180 0.000000 0.008208
0.847009 0.000000 0.004438
0.973838 0.000000 0.000668
0.000000 0.029911 0.022606
0.075876 0.025844 0.018836
0.202705 0.021778 0.015067
0.329534 0.017712 0.011297
0.456363 0.013646 0.007527
0.583192 0.009580 0.003758
0.710021 0.005514 0.000000
0.840641 0.001455 0.000000
0.974933 0.000000 0.000000
0.000000 0.095423 0.014386
0.065717 0.091357 0.010617
0.192546 0.087291 0.006847
0.319375 0.083225 0.003078
0.446217 0.079162 0.000000
0.576318 0.075586 0.000000
0.709011 0.072091 0.000000
0.844226 0.068588 0.000000
0.982049 0.065051 0.000000
0.000000 0.160936 0.006167
0.055558 0.156870 0.002397
0.182530 0.152941 0.000000
0.311374 0.149927 0.000000
0.442364 0.147074 0.000000
0.575677 0.144270 0.000000
0.711457 0.141474 0.000000
0.849823 0.138662 0.000000
0.990873 0.135818 0.000000
0.000000 0.226898 0.000000
0.045774 0.224489 0.000000
0.174972 0.222303 0.000000
0.306323 0.220215 0.000000
0.440016 0.218175 0.000000
0.576193 0.216151 0.000000
0.714969 0.214122 0.000000
0.856444 0.212073 0.000000
1.000000 0.209992 0.000000
0.000000 0.297782 0.000000
0.036152 0.296428 0.000000
0.167714 0.295156 0.000000
0.301666 0.293930 0.000000
0.438138 0.292727 0.000000
0.577238 0.291527 0.000000
0.719058 0.290316 0.000000
0.863681 0.289083 0.000000
1.000000 0.287818 0.000000
0.000000 0.372421 0.000000
0.026233 0.372005 0.000000
0.160371 0.371636 0.000000
0.297069 0.371292 0.000000
0.436428 0.370959 0.000000
0.578534 0.370621 0.000000
0.723467 0.370269 0.000000
0.871296 0.369894 0.000000
1.000000 0.369486 0.000000
0.000000 0.450851 0.000000
0.015931 0.451372 0.000000
0.152805 0.451923 0.000000
0.292374 0.452488 0.000000
0.434720 0.453055 0.000000
0.579918 0.453614 0.000000
0.728033 0.454155 0.000000
0.879130 0.454672 0.000000
1.000000 0.455155 0.000000
0.000000 0.533211 0.000000
0.005195 0.534685 0.000000
0.144935 0.536177 0.000000
0.287483 0.537676 0.000000
0.432907 0.539172 0.000000
0.581274 0.540656 0.000000
0.732641 0.542121 0.000000
0.887066 0.543559 0.000000
1.000000 0.544964 0.000000
0.000000 0.000000 0.062357
0.085560 0.000000 0.058587
0.212389 0.000000 0.054818
0.339218 0.000000 0.051048
0.466047 0.000000 0.047279
0.592876 0.000000 0.043509
0.719705 0.000000 0.039739
0.846534 0.000000 0.035970
0.973363 0.000000 0.032200
0.000000 0.029496 0.054137
0.075401 0.025430 0.050368
0.202230 0.021364 0.046598
0.329059 0.017298 0.042829
0.455888 0.013232 0.039059
0.582717 0.009166 0.035289
0.709546 0.005100 0.031520
0.840727 0.001040 0.027822
0.975208 0.000000 0.024128
0.000000 0.095009 0.045918
0.065242 0.090943 0.042148
0.192071 0.086877 0.038379
0.318900 0.082811 0.034609
0.445916 0.078783 0.030846
0.576241 0.075229 0.027156
0.709088 0.071735 0.023460
0.844455 0.068230 0.019744
0.982431 0.064688 0.016001
0.000000 0.160522 0.037699
0.055083 0.156456 0.033929
0.182150 0.152618 0.030179
0.311119 0.149632 0.026490
0.442236 0.146787 0.022791
0.575683 0.143985 0.019071
0.711603 0.141189 0.015323
0.850113 0.138374 0.011545
0.991314 0.135526 0.007733
0.000000 0.226634 0.029513
0.045329 0.224259 0.025824
0.174632 0.222087 0.022122
0.306101 0.220006 0.018396
0.439921 0.217968 0.014643
0.576233 0.215944 0.010859
0.715150 0.213914 0.007042
0.856771 0.211863 0.003188
1.000000 0.209778 0.000000
0.000000 0.297639 0.021451
0.035696 0.296295 0.017721
0.167374 0.295029 0.013963
0.301451 0.293807 0.010173
0.438056 0.292605 0.006349
0.577294 0.291404 0.002489
0.719258 0.290191 0.000000
0.864030 0.288955 0.000000
1.000000 0.287687 0.000000
0.000000 0.372375 0.013281
0.025761 0.371965 0.009485
0.160023 0.371600 0.005655
0.296853 0.371258 0.001788
0.436349 0.370925 0.000000
0.578598 0.370586 0.000000
0.723678 0.370232 0.000000
0.871659 0.369854 0.000000
1.000000 0.369442 0.000000
0.000000 0.450902 0.004960
0.015440 0.451427 0.001087
0.152445 0.451980 0.000000
0.292151 0.452546 0.000000
0.434639 0.453113 0.000000
0.579982 0.453670 0.000000
0.728249 0.454209 0.000000
0.879499 0.454722 0.000000
1.000000 0.455202 0.000000
0.000000 0.533360 0.000000
0.004682 0.534836 0.000000
0.144559 0.536330 0.000000
0.287248 0.537829 0.000000
0.432819 0.539324 0.000000
0.581335 0.540806 0.000000
0.732856 0.542268 0.000000
0.887438 0.543703 0.000000
1.000000 0.545105 0.000000
0.000000 0.000000 0.093889
0.085085 0.000000 0.090119
0.211914 0.000000 0.086349
0.338744 0.000000 0.082580
0.465573 0.000000 0.078810
0.592402 0.000000 0.075041
0.719231 0.000000 0.071271
0.846060 0.000000 0.067501
0.972889 0.000000 0.063732
0.000000 0.029082 0.085669
0.074927 0.025016 0.081900
0.201756 0.020950 0.078130
0.328585 0.016884 0.074360
0.455414 0.012818 0.070591
0.582243 0.008752 0.066821
0.709145 0.004686 0.063055
0.840825 0.000624 0.059455
0.975490 0.000000 0.055876
0.000000 0.094595 0.077450
0.064768 0.090529 0.073680
0.191597 0.086463 0.069910
0.318426 0.082397 0.066141
0.445655 0.078411 0.062399
0.576170 0.074872 0.058809
0.709170 0.071379 0.055230
0.844688 0.067871 0.051642
0.982816 0.064324 0.048035
0.000000 0.160108 0.069230
0.054609 0.156042 0.065461
0.181776 0.152300 0.061748
0.310867 0.149339 0.058163
0.442110 0.146500 0.054583
0.575691 0.143701 0.050992
0.711751 0.140903 0.047382
0.850406 0.138086 0.043747
0.991756 0.135233 0.040085
0.000000 0.226376 0.061099
0.044884 0.224031 0.057517
0.174291 0.221871 0.053937
0.305879 0.219797 0.050342
0.439827 0.217762 0.046728
0.576274 0.215738 0.043089
0.715332 0.213706 0.039421
0.857099 0.211652 0.035722
1.000000 0.209564 0.031990
0.000000 0.297497 0.053289
0.035239 0.296163 0.049692
0.167034 0.294903 0.046073
0.301237 0.293684 0.042429
0.437974 0.292483 0.038756
0.577351 0.291281 0.035051
0.719460 0.290067 0.031312
0.864380 0.288828 0.027539
1.000000 0.287556 0.023728
0.000000 0.372331 0.045418
0.025288 0.371927 0.041768
0.159675 0.371564 0.038089
0.296636 0.371224 0.034379
0.436270 0.370891 0.030634
0.578662 0.370551 0.026854
0.723889 0.370195 0.023036
0.872021 0.369813 0.019180
1.000000 0.369398 0.015284
0.000000 0.450954 0.037422
0.014947 0.451483 0.033705
0.152084 0.452037 0.029954
0.291927 0.452604 0.026167
0.434557 0.453170 0.022343
0.580047 0.453726 0.018480
0.728464 0.454263 0.014576
0.879869 0.454773 0.010632
1.000000 0.455249 0.006646
0.000000 0.533509 0.029274
0.004168 0.534988 0.025480
0.144182 0.536482 0.021649
0.287013 0.537982 0.017778
0.432730 0.539476 0.013868
0.581396 0.540956 0.009916
0.733071 0.542416 0.005922
0.887809 0.543848 0.001884
1.000000 0.545246 0.000000
0.000000 0.000000 0.125420
0.084611 0.000000 0.121651
0.211440 0.000000 0.117881
0.338269 0.000000 0.114112
0.465098 0.000000 0.110342
0.591927 0.000000 0.106572
0.718756 0.000000 0.102803
0.845585 0.000000 0.099033
0.972414 0.000000 0.095263
0.000000 0.028668 0.117201
0.074452 0.024602 0.113431
0.201281 0.020536 0.109662
0.328110 0.016470 0.105892
0.454939 0.012403 0.102122
0.581768 0.008337 0.098353
0.708968 0.004274 0.094608
0.840934 0.000207 0.091110
0.975778 0.000000 0.087649
0.000000 0.094181 0.108981
0.064293 0.090115 0.105212
0.191122 0.086048 0.101442
0.317951 0.081982 0.097673
0.445416 0.078044 0.093969
0.576106 0.074516 0.090484
0.709256 0.071023 0.087025
0.844924 0.067512 0.083567
0.983205 0.063960 0.080098
0.000000 0.159693 0.100762
0.054134 0.155627 0.096992
0.181407 0.151987 0.093336
0.310617 0.149046 0.089859
0.441987 0.146214 0.086401
0.575701 0.143416 0.082942
0.711901 0.140617 0.079470
0.850701 0.137797 0.075980
0.992201 0.134940 0.072468
0.000000 0.226122 0.092705
0.044438 0.223805 0.089234
0.173951 0.221657 0.085778
0.305658 0.219588 0.082316
0.439734 0.217555 0.078842
0.576315 0.215532 0.075348
0.715515 0.213498 0.071831
0.857428 0.211441 0.068287
1.000000 0.209349 0.064715
0.000000 0.297356 0.085154
0.034782 0.296032 0.081691
0.166694 0.294778 0.078213
0.301023 0.293561 0.074715
0.437893 0.292360 0.071194
0.577409 0.291158 0.067645
0.719661 0.289942 0.064066
0.864730 0.288700 0.060456
1.000000 0.287424 0.056812
0.000000 0.372287 0.077583
0.024814 0.371888 0.074082
0.159326 0.371529 0.070555
0.296420 0.371190 0.067001
0.436191 0.370857 0.063417
0.578726 0.370516 0.059801
0.724101 0.370158 0.056151
0.872384 0.369773 0.052465
1.000000 0.369354 0.048742
0.000000 0.451006 0.069916
0.014454 0.451538 0.066357
0.151722 0.452095 0.062767
0.291702 0.452662 0.059145
0.434475 0.453227 0.055488
0.580111 0.453782 0.051796
0.728679 0.454316 0.048067
0.880239 0.454823 0.044298
1.000000 0.455296 0.040491
0.000000 0.533659 0.062116
0.003653 0.535140 0.058488
0.143804 0.536635 0.054825
0.286777 0.538134 0.051126
0.432640 0.539627 0.047389
0.581457 0.541106 0.043614
0.733285 0.542563 0.039799
0.888181 0.543992 0.035944
1.000000 0.545386 0.032046
0.000000 0.000000 0.156952
0.084136 0.000000 0.153182
0.210965 0.000000 0.149413
0.337794 0.000000 0.145643
0.464623 0.000000 0.141874
0.591452 0.000000 0.138104
0.718281 0.000000 0.134334
0.845110 0.000000 0.130565
0.972124 0.000000 0.126807
0.000000 0.028254 0.148733
0.073977 0.024187 0.144963
0.200806 0.020121 0.141193
0.327635 0.016055 0.137424
0.454464 0.011989 0.133654
0.581293 0.007923 0.129885
0.708842 0.003861 0.126178
0.841053 0.000000 0.122787
0.976074 0.000000 0.119447
0.000000 0.093766 0.140513
0.063818 0.089700 0.136743
0.190647 0.085634 0.132974
0.317476 0.081568 0.129204
0.445192 0.077679 0.125558
0.576048 0.074160 0.122182
0.709347 0.070666 0.118846
0.845164 0.067152 0.115519
0.983597 0.063595 0.112189
0.000000 0.159279 0.132294
0.053659 0.155213 0.128524
0.181041 0.151677 0.124943
0.310369 0.148754 0.121579
0.441865 0.145928 0.118245
0.575713 0.143131 0.114919
0.712053 0.140331 0.111588
0.850998 0.137508 0.108244
0.992647 0.134646 0.104882
0.000000 0.225873 0.124332
0.043992 0.223581 0.120976
0.173612 0.221444 0.117645
0.305437 0.219380 0.114318
0.439641 0.217349 0.110985
0.576358 0.215325 0.107638
0.715699 0.213290 0.104273
0.857759 0.211230 0.100886
1.000000 0.209133 0.097473
0.000000 0.297217 0.117045
0.034324 0.295902 0.113718
0.166353 0.294652 0.110382
0.300808 0.293438 0.107033
0.437812 0.292238 0.103664
0.577467 0.291035 0.100272
0.719864 0.289817 0.096854
0.865081 0.288572 0.093408
1.000000 0.287291 0.089931
0.000000 0.372244 0.109779
0.024339 0.371850 0.106426
0.158977 0.371494 0.103053
0.296203 0.371156 0.099657
0.436112 0.370822 0.096234
0.578790 0.370480 0.092783
0.724313 0.370120 0.089301
0.872748 0.369732 0.085786
1.000000 0.369309 0.082237
0.000000 0.451059 0.102442
0.013959 0.451594 0.099041
0.151359 0.452152 0.095614
0.291477 0.452720 0.092157
0.434392 0.453285 0.088669
0.580176 0.453837 0.085148
0.728894 0.454369 0.081593
0.880608 0.454873 0.078001
1.000000 0.455342 0.074373
0.000000 0.533808 0.094992
0.003137 0.535291 0.091530
0.143426 0.536788 0.088036
0.286541 0.538287 0.084509
0.432550 0.539779 0.080947
0.581517 0.541256 0.077349
0.733500 0.542710 0.073714
0.888553 0.544136 0.070040
1.000000 0.545526 0.066327
0.000000 0.000000 0.188484
0.083661 0.000000 0.184714
0.210490 0.000000 0.180945
0.337319 0.000000 0.177175
0.464149 0.000000 0.173405
0.590978 0.000000 0.169636
0.717807 0.000000 0.165866
0.844636 0.000000 0.162096
0.972078 0.000000 0.158376
0.000000 0.027839 0.180264
0.073503 0.023773 0.176495
0.200332 0.019707 0.172725
0.327161 0.015641 0.168955
0.453990 0.011575 0.165186
0.580819 0.007509 0.161416
0.708749 0.003449 0.157768
0.841181 0.000000 0.154488
0.976375 0.000000 0.151271
0.000000 0.093352 0.172045
0.063344 0.089286 0.168275
0.190173 0.085220 0.164506
0.317002 0.081154 0.160736
0.444979 0.077316 0.157167
0.575994 0.073804 0.153905
0.709441 0.070310 0.150693
0.845408 0.066792 0.147500
0.983993 0.063230 0.144310
0.000000 0.158865 0.163825
0.053185 0.154799 0.160056
0.180679 0.151371 0.156572
0.310124 0.148464 0.153323
0.441746 0.145643 0.150116
0.575727 0.142847 0.146924
0.712207 0.140045 0.143734
0.851297 0.137218 0.140538
0.993096 0.134352 0.137328
0.000000 0.225628 0.155980
0.043545 0.223358 0.152742
0.173272 0.221231 0.149539
0.305217 0.219172 0.146349
0.439550 0.217143 0.143158
0.576402 0.215119 0.139959
0.715885 0.213081 0.136747
0.858090 0.211018 0.133516
1.000000 0.208917 0.130264
0.000000 0.297079 0.148963
0.033865 0.295772 0.145773
0.166012 0.294528 0.142582
0.300594 0.293316 0.139381
0.437731 0.292116 0.136165
0.577525 0.290912 0.132931
0.720067 0.289691 0.129675
0.865433 0.288443 0.126394
1.000000 0.287159 0.123086
0.000000 0.372201 0.142005
0.023863 0.371812 0.138802
0.158627 0.371459 0.135583
0.295985 0.371122 0.132345
0.436033 0.370788 0.129085
0.578855 0.370445 0.125799
0.724525 0.370082 0.122485
0.873112 0.369690 0.119142
1.000000 0.369263 0.115768
0.000000 0.451112 0.135000
0.013463 0.451650 0.131759
0.150996 0.452210 0.128494
0.291252 0.452778 0.125203
0.434309 0.453342 0.121884
0.580240 0.453893 0.118536
0.729110 0.454422 0.115155
0.880979 0.454922 0.111741
1.000000 0.455387 0.108292
0.000000 0.533959 0.127902
0.002620 0.535444 0.124606
0.143046 0.536941 0.121282
0.286304 0.538439 0.117928
0.432460 0.539930 0.114542
0.581577 0.541405 0.111121
0.733714 0.542857 0.107666
0.888925 0.544279 0.104175
1.000000 0.545666 0.100646
0.000000 0.000000 0.220015
0.083187 0.000000 0.216246
0.210016 0.000000 0.212476
0.336845 0.000000 0.208707
0.463674 0.000000 0.204937
0.590503 0.000000 0.201167
0.717332 0.000000 0.197398
0.844161 0.000000 0.193628
0.972094 0.000000 0.189965
0.000000 0.027425 0.211796
0.073028 0.023359 0.208026
0.199857 0.019293 0.204257
0.326686 0.015227 0.200487
0.453515 0.011161 0.196718
0.580344 0.007095 0.192948
0.708678 0.003036 0.189377
0.841318 0.000000 0.186213
0.976683 0.000000 0.183121
0.000000 0.092938 0.203576
0.062869 0.088872 0.199807
0.189698 0.084806 0.196037
0.316527 0.080740 0.192268
0.444777 0.076955 0.188797
0.575946 0.073448 0.185651
0.709540 0.069953 0.182567
0.845655 0.066431 0.179508
0.984391 0.062864 0.176461
0.000000 0.158451 0.195357
0.052710 0.154385 0.191587
0.180320 0.151067 0.188222
0.309881 0.148174 0.185091
0.441629 0.145357 0.182013
0.575744 0.142562 0.178958
0.712362 0.139758 0.175911
0.851598 0.136928 0.172862
0.993546 0.134058 0.169805
0.000000 0.225386 0.187650
0.043098 0.223137 0.184533
0.172933 0.221019 0.181461
0.304998 0.218965 0.178408
0.439459 0.216937 0.175361
0.576447 0.214912 0.172311
0.716071 0.212872 0.169253
0.858423 0.210806 0.166180
1.000000 0.208701 0.163090
0.000000 0.296942 0.180909
0.033406 0.295643 0.177858
0.165671 0.294403 0.174811
0.300380 0.293193 0.171760
0.437650 0.291994 0.168699
0.577584 0.290789 0.165624
0.720270 0.289565 0.162530
0.865786 0.288314 0.159414
1.000000 0.287026 0.156275
0.000000 0.372160 0.174261
0.023386 0.371775 0.171209
0.158276 0.371424 0.168145
0.295768 0.371088 0.165067
0.435954 0.370754 0.161969
0.578919 0.370409 0.158849
0.724737 0.370043 0.155705
0.873476 0.369649 0.152534
1.000000 0.369218 0.149334
0.000000 0.451165 0.167591
0.012967 0.451707 0.164509
0.150632 0.452268 0.161408
0.291026 0.452835 0.158284
0.434226 0.453399 0.155135
0.580305 0.453948 0.151959
0.729325 0.454474 0.148754
0.881349 0.454971 0.145518
1.000000 0.455432 0.142249
0.000000 0.534109 0.160846
0.002102 0.535596 0.157718
0.142666 0.537093 0.154564
0.286066 0.538592 0.151383
0.432369 0.540081 0.148172
0.581637 0.541554 0.144930
0.733928 0.543003 0.141656
0.889296 0.544422 0.138347
1.000000 0.545805 0.135003
