assets/lighting/day-night-palettes/grade-candle-1800k/lut.cube
TITLE "Candlelight 1800K"
# TKRS lighting-batch-001 original LUT
# Intended usage: interior candle / firelight warmth
# License: CC0-1.0
LUT_3D_SIZE 17
DOMAIN_MIN 0.0 0.0 0.0
DOMAIN_MAX 1.0 1.0 1.0
0.000000 0.000000 0.000000
0.023570 0.000000 0.000000
0.086984 0.000000 0.000000
0.150399 0.000000 0.000000
0.213813 0.000000 0.000000
0.277228 0.000000 0.000000
0.340642 0.000000 0.000000
0.404057 0.000000 0.000000
0.467471 0.000000 0.000000
0.530886 0.000000 0.000000
0.594300 0.000000 0.000000
0.657715 0.000000 0.000000
0.721129 0.000000 0.000000
0.784544 0.000000 0.000000
0.847958 0.000000 0.000000
0.911373 0.000000 0.000000
0.974787 0.000000 0.000000
0.000000 0.000000 0.000000
0.018490 0.000000 0.000000
0.081905 0.000000 0.000000
0.145319 0.000000 0.000000
0.208734 0.000000 0.000000
0.272148 0.000000 0.000000
0.335563 0.000000 0.000000
0.398977 0.000000 0.000000
0.462392 0.000000 0.000000
0.525806 0.000000 0.000000
0.589221 0.000000 0.000000
0.652635 0.000000 0.000000
0.716050 0.000000 0.000000
0.779464 0.000000 0.000000
0.842879 0.000000 0.000000
0.906395 0.000000 0.000000
0.972311 0.000000 0.000000
0.000000 0.030739 0.000000
0.013411 0.028706 0.000000
0.076825 0.026673 0.000000
0.140240 0.024640 0.000000
0.203654 0.022607 0.000000
0.267069 0.020574 0.000000
0.330483 0.018541 0.000000
0.393898 0.016508 0.000000
0.457312 0.014475 0.000000
0.520727 0.012442 0.000000
0.584141 0.010409 0.000000
0.647556 0.008376 0.000000
0.710970 0.006343 0.000000
0.774757 0.004312 0.000000
0.840508 0.002285 0.000000
0.907097 0.000245 0.000000
0.974407 0.000000 0.000000
0.000000 0.063496 0.000000
0.008331 0.061462 0.000000
0.071746 0.059429 0.000000
0.135160 0.057396 0.000000
0.198575 0.055363 0.000000
0.261989 0.053330 0.000000
0.325404 0.051297 0.000000
0.388818 0.049264 0.000000
0.452233 0.047231 0.000000
0.515647 0.045198 0.000000
0.579062 0.043165 0.000000
0.643061 0.041175 0.000000
0.708572 0.039269 0.000000
0.774813 0.037370 0.000000
0.841726 0.035467 0.000000
0.909302 0.033555 0.000000
0.977542 0.031632 0.000000
0.000000 0.096252 0.000000
0.003252 0.094219 0.000000
0.066666 0.092186 0.000000
0.130081 0.090153 0.000000
0.193495 0.088120 0.000000
0.256910 0.086087 0.000000
0.320324 0.084054 0.000000
0.383739 0.082021 0.000000
0.447153 0.079988 0.000000
0.511272 0.078078 0.000000
0.576495 0.076302 0.000000
0.642369 0.074549 0.000000
0.708871 0.072802 0.000000
0.776005 0.071055 0.000000
0.843781 0.069304 0.000000
0.912207 0.067545 0.000000
0.981295 0.065775 0.000000
0.000000 0.129008 0.000000
0.000000 0.126975 0.000000
0.061587 0.124942 0.000000
0.125001 0.122909 0.000000
0.188416 0.120876 0.000000
0.251830 0.118843 0.000000
0.315245 0.116810 0.000000
0.379370 0.115024 0.000000
0.444271 0.113386 0.000000
0.509760 0.111783 0.000000
0.575839 0.110196 0.000000
0.642523 0.108617 0.000000
0.709824 0.107040 0.000000
0.777759 0.105460 0.000000
0.846338 0.103876 0.000000
0.915576 0.102284 0.000000
0.985483 0.100682 0.000000
0.000000 0.161765 0.000000
0.000000 0.159732 0.000000
0.056507 0.157699 0.000000
0.119922 0.155666 0.000000
0.183336 0.153633 0.000000
0.247342 0.152015 0.000000
0.311895 0.150522 0.000000
0.376982 0.149073 0.000000
0.442628 0.147649 0.000000
0.508851 0.146241 0.000000
0.575672 0.144840 0.000000
0.643107 0.143442 0.000000
0.711172 0.142045 0.000000
0.779881 0.140644 0.000000
0.849248 0.139237 0.000000
0.919283 0.137824 0.000000
0.989999 0.136401 0.000000
0.000000 0.194521 0.000000
0.000000 0.192488 0.000000
0.051442 0.190514 0.000000
0.115179 0.189055 0.000000
0.179360 0.187711 0.000000
0.244034 0.186421 0.000000
0.309234 0.185163 0.000000
0.374989 0.183927 0.000000
0.441321 0.182705 0.000000
0.508251 0.181491 0.000000
0.575796 0.180282 0.000000
0.643972 0.179074 0.000000
0.712793 0.177864 0.000000
0.782271 0.176651 0.000000
0.852420 0.175431 0.000000
0.923250 0.174204 0.000000
0.994772 0.172969 0.000000
0.000000 0.227453 0.000000
0.000000 0.226145 0.000000
0.046664 0.224955 0.000000
0.110910 0.223826 0.000000
0.175655 0.222738 0.000000
0.240933 0.221677 0.000000
0.306770 0.220636 0.000000
0.373189 0.219608 0.000000
0.440209 0.218588 0.000000
0.507846 0.217575 0.000000
0.576116 0.216563 0.000000
0.645034 0.215551 0.000000
0.714612 0.214536 0.000000
0.784862 0.213517 0.000000
0.855795 0.212493 0.000000
0.927422 0.211460 0.000000
0.999752 0.210419 0.000000
0.000000 0.262254 0.000000
0.000000 0.261291 0.000000
0.041889 0.260374 0.000000
0.106683 0.259491 0.000000
0.172018 0.258632 0.000000
0.237919 0.257792 0.000000
0.304408 0.256964 0.000000
0.371502 0.256146 0.000000
0.439218 0.255334 0.000000
0.507570 0.254525 0.000000
0.576573 0.253716 0.000000
0.646239 0.252906 0.000000
0.716580 0.252094 0.000000
0.787606 0.251276 0.000000
0.859328 0.250452 0.000000
0.931756 0.249621 0.000000
1.000000 0.248781 0.000000
0.000000 0.298073 0.000000
0.000000 0.297369 0.000000
0.037062 0.296696 0.000000
0.102440 0.296044 0.000000
0.168393 0.295410 0.000000
0.234939 0.294789 0.000000
0.302095 0.294178 0.000000
0.369879 0.293573 0.000000
0.438303 0.292971 0.000000
0.507381 0.292372 0.000000
0.577126 0.291772 0.000000
0.647549 0.291170 0.000000
0.718659 0.290564 0.000000
0.790469 0.289953 0.000000
0.862986 0.289336 0.000000
0.936221 0.288712 0.000000
1.000000 0.288079 0.000000
0.000000 0.334826 0.000000
0.000000 0.334366 0.000000
0.032161 0.333927 0.000000
0.098155 0.333504 0.000000
0.164748 0.333095 0.000000
0.231959 0.332695 0.000000
0.299801 0.332302 0.000000
0.368288 0.331913 0.000000
0.437434 0.331527 0.000000
0.507249 0.331142 0.000000
0.577745 0.330755 0.000000
0.648933 0.330366 0.000000
0.720823 0.329973 0.000000
0.793422 0.329574 0.000000
0.866742 0.329169 0.000000
0.940789 0.328757 0.000000
1.000000 0.328335 0.000000
0.000000 0.372513 0.000000
0.000000 0.372291 0.000000
0.027175 0.372085 0.000000
0.093809 0.371892 0.000000
0.161065 0.371708 0.000000
0.228958 0.371532 0.000000
0.297501 0.371361 0.000000
0.366706 0.371193 0.000000
0.436585 0.371027 0.000000
0.507149 0.370860 0.000000
0.578408 0.370691 0.000000
0.650370 0.370519 0.000000
0.723046 0.370343 0.000000
0.796445 0.370161 0.000000
0.870573 0.369973 0.000000
0.945441 0.369776 0.000000
1.000000 0.369572 0.000000
0.000000 0.411149 0.000000
0.000000 0.411163 0.000000
0.022095 0.411191 0.000000
0.089390 0.411228 0.000000
0.157327 0.411273 0.000000
0.225920 0.411324 0.000000
0.295179 0.411378 0.000000
0.365115 0.411434 0.000000
0.435740 0.411491 0.000000
0.507063 0.411546 0.000000
0.579094 0.411600 0.000000
0.651840 0.411649 0.000000
0.725312 0.411695 0.000000
0.799517 0.411734 0.000000
0.874462 0.411766 0.000000
0.950156 0.411791 0.000000
1.000000 0.411807 0.000000
0.000000 0.450749 0.000000
0.000000 0.451001 0.000000
0.016912 0.451263 0.000000
0.084888 0.451533 0.000000
0.153524 0.451809 0.000000
0.222831 0.452090 0.000000
0.292820 0.452373 0.000000
0.363501 0.452656 0.000000
0.434883 0.452940 0.000000
0.506976 0.453222 0.000000
0.579788 0.453501 0.000000
0.653328 0.453777 0.000000
0.727603 0.454047 0.000000
0.802622 0.454311 0.000000
0.878392 0.454569 0.000000
0.954920 0.454818 0.000000
1.000000 0.455060 0.000000
0.000000 0.491332 0.000000
0.000000 0.491822 0.000000
0.011621 0.492321 0.000000
0.080296 0.492826 0.000000
0.149646 0.493336 0.000000
0.219682 0.493849 0.000000
0.290414 0.494364 0.000000
0.361850 0.494879 0.000000
0.434001 0.495393 0.000000
0.506874 0.495905 0.000000
0.580477 0.496414 0.000000
0.654819 0.496919 0.000000
0.729907 0.497418 0.000000
0.805748 0.497911 0.000000
0.882350 0.498397 0.000000
0.959718 0.498876 0.000000
1.000000 0.499346 0.000000
0.000000 0.532914 0.000000
0.000000 0.533645 0.000000
0.006218 0.534383 0.000000
0.075606 0.535126 0.000000
0.145685 0.535872 0.000000
0.216463 0.536621 0.000000
0.287950 0.537371 0.000000
0.360154 0.538120 0.000000
0.433084 0.538868 0.000000
0.506747 0.539613 0.000000
0.581151 0.540355 0.000000
0.656303 0.541092 0.000000
0.732212 0.541824 0.000000
0.808882 0.542550 0.000000
0.886322 0.543268 0.000000
0.964538 0.543979 0.000000
1.000000 0.544681 0.000000
0.000000 0.000000 0.000000
0.023332 0.000000 0.000000
0.086747 0.000000 0.000000
0.150161 0.000000 0.000000
0.213576 0.000000 0.000000
0.276990 0.000000 0.000000
0.340405 0.000000 0.000000
0.403819 0.000000 0.000000
0.467234 0.000000 0.000000
0.530648 0.000000 0.000000
0.594063 0.000000 0.000000
0.657477 0.000000 0.000000
0.720892 0.000000 0.000000
0.784306 0.000000 0.000000
0.847721 0.000000 0.000000
0.911135 0.000000 0.000000
0.974550 0.000000 0.000000
0.000000 0.000000 0.000000
0.018253 0.000000 0.000000
0.081667 0.000000 0.000000
0.145082 0.000000 0.000000
0.208496 0.000000 0.000000
0.271911 0.000000 0.000000
0.335325 0.000000 0.000000
0.398740 0.000000 0.000000
0.462154 0.000000 0.000000
0.525569 0.000000 0.000000
0.588983 0.000000 0.000000
0.652398 0.000000 0.000000
0.715812 0.000000 0.000000
0.779227 0.000000 0.000000
0.842641 0.000000 0.000000
0.906337 0.000000 0.000000
0.972372 0.000000 0.000000
0.000000 0.030532 0.000000
0.013173 0.028499 0.000000
0.076588 0.026466 0.000000
0.140002 0.024433 0.000000
0.203417 0.022400 0.000000
0.266831 0.020367 0.000000
0.330246 0.018334 0.000000
0.393660 0.016301 0.000000
0.457075 0.014268 0.000000
0.520489 0.012235 0.000000
0.583904 0.010202 0.000000
0.647319 0.008168 0.000000
0.710733 0.006135 0.000000
0.774703 0.004106 0.000000
0.840536 0.002078 0.000000
0.907178 0.000037 0.000000
0.974536 0.000000 0.000000
0.000000 0.063288 0.000000
0.008094 0.061255 0.000000
0.071508 0.059222 0.000000
0.134923 0.057189 0.000000
0.198337 0.055156 0.000000
0.261752 0.053123 0.000000
0.325167 0.051090 0.000000
0.388581 0.049057 0.000000
0.451996 0.047024 0.000000
0.515410 0.044991 0.000000
0.578825 0.042958 0.000000
0.642991 0.040980 0.000000
0.708564 0.039076 0.000000
0.774851 0.037176 0.000000
0.841807 0.035273 0.000000
0.909425 0.033360 0.000000
0.977706 0.031435 0.000000
0.000000 0.096045 0.000000
0.003015 0.094012 0.000000
0.066429 0.091979 0.000000
0.129844 0.089946 0.000000
0.193258 0.087913 0.000000
0.256673 0.085880 0.000000
0.320087 0.083847 0.000000
0.383502 0.081813 0.000000
0.446916 0.079780 0.000000
0.511176 0.077895 0.000000
0.576448 0.076123 0.000000
0.642362 0.074371 0.000000
0.708904 0.072624 0.000000
0.776077 0.070877 0.000000
0.843890 0.069125 0.000000
0.912355 0.067365 0.000000
0.981482 0.065594 0.000000
0.000000 0.128801 0.000000
0.000000 0.126768 0.000000
0.061350 0.124735 0.000000
0.124764 0.122702 0.000000
0.188179 0.120669 0.000000
0.251593 0.118636 0.000000
0.315008 0.116603 0.000000
0.379242 0.114854 0.000000
0.444183 0.113222 0.000000
0.509707 0.111621 0.000000
0.575823 0.110035 0.000000
0.642542 0.108456 0.000000
0.709880 0.106879 0.000000
0.777850 0.105299 0.000000
0.846467 0.103714 0.000000
0.915742 0.102121 0.000000
0.985687 0.100519 0.000000
0.000000 0.161558 0.000000
0.000000 0.159525 0.000000
0.056270 0.157491 0.000000
0.119685 0.155458 0.000000
0.183121 0.153446 0.000000
0.247179 0.151860 0.000000
0.311763 0.150373 0.000000
0.376883 0.148927 0.000000
0.442561 0.147505 0.000000
0.508817 0.146098 0.000000
0.575672 0.144697 0.000000
0.643142 0.143300 0.000000
0.711243 0.141902 0.000000
0.779988 0.140501 0.000000
0.849391 0.139094 0.000000
0.919463 0.137679 0.000000
0.990217 0.136255 0.000000
0.000000 0.194314 0.000000
0.000000 0.192281 0.000000
0.051216 0.190355 0.000000
0.114977 0.188915 0.000000
0.179184 0.187578 0.000000
0.243886 0.186291 0.000000
0.309115 0.185036 0.000000
0.374901 0.183802 0.000000
0.441266 0.182581 0.000000
0.508229 0.181368 0.000000
0.575807 0.180159 0.000000
0.644018 0.178951 0.000000
0.712874 0.177741 0.000000
0.782388 0.176527 0.000000
0.852573 0.175307 0.000000
0.923441 0.174079 0.000000
0.995001 0.172842 0.000000
0.000000 0.227310 0.000000
0.000000 0.226020 0.000000
0.046442 0.224837 0.000000
0.110712 0.223714 0.000000
0.175484 0.222629 0.000000
0.240791 0.221570 0.000000
0.306658 0.220530 0.000000
0.373108 0.219503 0.000000
0.440160 0.218485 0.000000
0.507831 0.217471 0.000000
0.576135 0.216460 0.000000
0.645087 0.215448 0.000000
0.714701 0.214433 0.000000
0.784987 0.213413 0.000000
0.855957 0.212388 0.000000
0.927621 0.211355 0.000000
0.999989 0.210313 0.000000
0.000000 0.262153 0.000000
0.000000 0.261196 0.000000
0.041665 0.260283 0.000000
0.106485 0.259402 0.000000
0.171849 0.258546 0.000000
0.237780 0.257707 0.000000
0.304299 0.256881 0.000000
0.371425 0.256063 0.000000
0.439173 0.255251 0.000000
0.507560 0.254442 0.000000
0.576597 0.253634 0.000000
0.646298 0.252824 0.000000
0.716675 0.252010 0.000000
0.787737 0.251192 0.000000
0.859496 0.250368 0.000000
0.931962 0.249536 0.000000
1.000000 0.248695 0.000000
0.000000 0.298000 0.000000
0.000000 0.297300 0.000000
0.036834 0.296628 0.000000
0.102241 0.295979 0.000000
0.168223 0.295346 0.000000
0.234799 0.294727 0.000000
0.301988 0.294116 0.000000
0.369804 0.293511 0.000000
0.438262 0.292910 0.000000
0.507374 0.292311 0.000000
0.577154 0.291710 0.000000
0.647612 0.291108 0.000000
0.718759 0.290502 0.000000
0.790605 0.289891 0.000000
0.863160 0.289273 0.000000
0.936432 0.288648 0.000000
1.000000 0.288014 0.000000
0.000000 0.334778 0.000000
0.000000 0.334320 0.000000
0.031930 0.333883 0.000000
0.097953 0.333462 0.000000
0.164577 0.333053 0.000000
0.231819 0.332654 0.000000
0.299693 0.332262 0.000000
0.368214 0.331874 0.000000
0.437394 0.331488 0.000000
0.507244 0.331103 0.000000
0.577776 0.330716 0.000000
0.648999 0.330326 0.000000
0.720925 0.329933 0.000000
0.793562 0.329533 0.000000
0.866919 0.329128 0.000000
0.941005 0.328714 0.000000
1.000000 0.328292 0.000000
0.000000 0.372490 0.000000
0.000000 0.372269 0.000000
0.026940 0.372065 0.000000
0.093604 0.371873 0.000000
0.160892 0.371690 0.000000
0.228817 0.371514 0.000000
0.297393 0.371344 0.000000
0.366632 0.371176 0.000000
0.436546 0.371010 0.000000
0.507145 0.370843 0.000000
0.578439 0.370674 0.000000
0.650438 0.370501 0.000000
0.723151 0.370325 0.000000
0.796587 0.370142 0.000000
0.870754 0.369953 0.000000
0.945660 0.369756 0.000000
1.000000 0.369550 0.000000
0.000000 0.411150 0.000000
0.000000 0.411166 0.000000
0.021855 0.411194 0.000000
0.089181 0.411232 0.000000
0.157151 0.411278 0.000000
0.225776 0.411329 0.000000
0.295069 0.411383 0.000000
0.365041 0.411440 0.000000
0.435701 0.411497 0.000000
0.507059 0.411552 0.000000
0.579126 0.411605 0.000000
0.651910 0.411654 0.000000
0.725419 0.411699 0.000000
0.799661 0.411737 0.000000
0.874645 0.411769 0.000000
0.950378 0.411793 0.000000
1.000000 0.411808 0.000000
0.000000 0.450775 0.000000
0.000000 0.451027 0.000000
0.016667 0.451290 0.000000
0.084676 0.451561 0.000000
0.153345 0.451838 0.000000
0.222685 0.452118 0.000000
0.292709 0.452401 0.000000
0.363424 0.452685 0.000000
0.434842 0.452969 0.000000
0.506971 0.453251 0.000000
0.579820 0.453530 0.000000
0.653398 0.453804 0.000000
0.727711 0.454074 0.000000
0.802768 0.454338 0.000000
0.878577 0.454595 0.000000
0.955143 0.454843 0.000000
1.000000 0.455084 0.000000
0.000000 0.491381 0.000000
0.000000 0.491873 0.000000
0.011371 0.492372 0.000000
0.080079 0.492878 0.000000
0.149463 0.493389 0.000000
0.219533 0.493902 0.000000
0.290300 0.494417 0.000000
0.361772 0.494932 0.000000
0.433959 0.495446 0.000000
0.506869 0.495957 0.000000
0.580509 0.496466 0.000000
0.654889 0.496970 0.000000
0.730015 0.497469 0.000000
0.805895 0.497961 0.000000
0.882535 0.498446 0.000000
0.959943 0.498924 0.000000
1.000000 0.499393 0.000000
0.000000 0.532988 0.000000
0.000000 0.533720 0.000000
0.005962 0.534458 0.000000
0.075385 0.535201 0.000000
0.145498 0.535948 0.000000
0.216311 0.536697 0.000000
0.287834 0.537447 0.000000
0.360074 0.538196 0.000000
0.433040 0.538944 0.000000
0.506740 0.539689 0.000000
0.581182 0.540430 0.000000
0.656372 0.541167 0.000000
0.732319 0.541898 0.000000
0.809029 0.542623 0.000000
0.886508 0.543341 0.000000
0.964764 0.544051 0.000000
1.000000 0.544752 0.000000
0.000000 0.000000 0.000000
0.023095 0.000000 0.000000
0.086509 0.000000 0.000000
0.149924 0.000000 0.000000
0.213338 0.000000 0.000000
0.276753 0.000000 0.000000
0.340168 0.000000 0.000000
0.403582 0.000000 0.000000
0.466997 0.000000 0.000000
0.530411 0.000000 0.000000
0.593826 0.000000 0.000000
0.657240 0.000000 0.000000
0.720655 0.000000 0.000000
0.784069 0.000000 0.000000
0.847484 0.000000 0.000000
0.910898 0.000000 0.000000
0.974313 0.000000 0.000000
0.000000 0.000000 0.000000
0.018016 0.000000 0.000000
0.081430 0.000000 0.000000
0.144845 0.000000 0.000000
0.208259 0.000000 0.000000
0.271674 0.000000 0.000000
0.335088 0.000000 0.000000
0.398503 0.000000 0.000000
0.461917 0.000000 0.000000
0.525332 0.000000 0.000000
0.588746 0.000000 0.000000
0.652161 0.000000 0.000000
0.715575 0.000000 0.000000
0.778990 0.000000 0.000000
0.842404 0.000000 0.000000
0.906302 0.000000 0.000000
0.972437 0.000000 0.000000
0.000000 0.030325 0.000000
0.012936 0.028292 0.000000
0.076351 0.026259 0.000000
0.139765 0.024226 0.000000
0.203180 0.022193 0.000000
0.266594 0.020160 0.000000
0.330009 0.018127 0.000000
0.393423 0.016094 0.000000
0.456838 0.014060 0.000000
0.520252 0.012027 0.000000
0.583667 0.009994 0.000000
0.647081 0.007961 0.000000
0.710496 0.005928 0.000000
0.774660 0.003900 0.000000
0.840567 0.001870 0.000000
0.907262 0.000000 0.000000
0.974666 0.000000 0.000000
0.000000 0.063081 0.000000
0.007857 0.061048 0.000000
0.071271 0.059015 0.000000
0.134686 0.056982 0.000000
0.198100 0.054949 0.000000
0.261515 0.052916 0.000000
0.324929 0.050883 0.000000
0.388344 0.048850 0.000000
0.451758 0.046817 0.000000
0.515173 0.044784 0.000000
0.578587 0.042751 0.000000
0.642927 0.040785 0.000000
0.708558 0.038882 0.000000
0.774892 0.036983 0.000000
0.841890 0.035078 0.000000
0.909549 0.033165 0.000000
0.977871 0.031239 0.000000
0.000000 0.095838 0.000000
0.002777 0.093805 0.000000
0.066192 0.091772 0.000000
0.129606 0.089739 0.000000
0.193021 0.087705 0.000000
0.256435 0.085672 0.000000
0.319850 0.083639 0.000000
0.383264 0.081606 0.000000
0.446679 0.079573 0.000000
0.511083 0.077713 0.000000
0.576403 0.075944 0.000000
0.642358 0.074193 0.000000
0.708938 0.072446 0.000000
0.776150 0.070699 0.000000
0.844001 0.068946 0.000000
0.912505 0.067185 0.000000
0.981670 0.065413 0.000000
0.000000 0.128594 0.000000
0.000000 0.126561 0.000000
0.061112 0.124528 0.000000
0.124527 0.122495 0.000000
0.187941 0.120462 0.000000
0.251356 0.118429 0.000000
0.314771 0.116396 0.000000
0.379116 0.114686 0.000000
0.444096 0.113057 0.000000
0.509656 0.111458 0.000000
0.575807 0.109874 0.000000
0.642562 0.108296 0.000000
0.709936 0.106718 0.000000
0.777943 0.105138 0.000000
0.846597 0.103552 0.000000
0.915909 0.101958 0.000000
0.985892 0.100355 0.000000
0.000000 0.161350 0.000000
0.000000 0.159317 0.000000
0.056033 0.157284 0.000000
0.119447 0.155251 0.000000
0.182920 0.153274 0.000000
0.247016 0.151706 0.000000
0.311633 0.150224 0.000000
0.376784 0.148781 0.000000
0.442494 0.147361 0.000000
0.508784 0.145955 0.000000
0.575673 0.144555 0.000000
0.643178 0.143158 0.000000
0.711314 0.141760 0.000000
0.780095 0.140358 0.000000
0.849534 0.138950 0.000000
0.919644 0.137534 0.000000
0.990435 0.136109 0.000000
0.000000 0.194107 0.000000
0.000000 0.192074 0.000000
0.050990 0.190199 0.000000
0.114775 0.188775 0.000000
0.179009 0.187445 0.000000
0.243738 0.186162 0.000000
0.308997 0.184910 0.000000
0.374814 0.183677 0.000000
0.441211 0.182457 0.000000
0.508206 0.181245 0.000000
0.575819 0.180036 0.000000
0.644064 0.178828 0.000000
0.712955 0.177617 0.000000
0.782506 0.176403 0.000000
0.852727 0.175182 0.000000
0.923632 0.173953 0.000000
0.995230 0.172716 0.000000
0.000000 0.227170 0.000000
0.000000 0.225896 0.000000
0.046220 0.224721 0.000000
0.110514 0.223602 0.000000
0.175313 0.222520 0.000000
0.240649 0.221463 0.000000
0.306546 0.220425 0.000000
0.373028 0.219399 0.000000
0.440112 0.218382 0.000000
0.507815 0.217368 0.000000
0.576154 0.216357 0.000000
0.645141 0.215344 0.000000
0.714790 0.214329 0.000000
0.785112 0.213309 0.000000
0.856119 0.212283 0.000000
0.927820 0.211249 0.000000
1.000000 0.210206 0.000000
0.000000 0.262053 0.000000
0.000000 0.261101 0.000000
0.041441 0.260192 0.000000
0.106287 0.259314 0.000000
0.171679 0.258460 0.000000
0.237640 0.257622 0.000000
0.304190 0.256797 0.000000
0.371348 0.255980 0.000000
0.439130 0.255169 0.000000
0.507549 0.254360 0.000000
0.576621 0.253551 0.000000
0.646357 0.252741 0.000000
0.716770 0.251927 0.000000
0.787869 0.251109 0.000000
0.859665 0.250283 0.000000
0.932168 0.249450 0.000000
1.000000 0.248609 0.000000
0.000000 0.297927 0.000000
0.000000 0.297230 0.000000
0.036607 0.296561 0.000000
0.102042 0.295914 0.000000
0.168053 0.295283 0.000000
0.234660 0.294664 0.000000
0.301881 0.294054 0.000000
0.369729 0.293450 0.000000
0.438220 0.292849 0.000000
0.507367 0.292249 0.000000
0.577182 0.291649 0.000000
0.647675 0.291047 0.000000
0.718858 0.290440 0.000000
0.790741 0.289828 0.000000
0.863333 0.289210 0.000000
0.936644 0.288583 0.000000
1.000000 0.287948 0.000000
0.000000 0.334730 0.000000
0.000000 0.334275 0.000000
0.031699 0.333839 0.000000
0.097751 0.333420 0.000000
0.164406 0.333012 0.000000
0.231679 0.332614 0.000000
0.299586 0.332222 0.000000
0.368140 0.331835 0.000000
0.437354 0.331449 0.000000
0.507239 0.331063 0.000000
0.577806 0.330676 0.000000
0.649066 0.330286 0.000000
0.721028 0.329892 0.000000
0.793702 0.329492 0.000000
0.867097 0.329086 0.000000
0.941221 0.328671 0.000000
1.000000 0.328248 0.000000
0.000000 0.372467 0.000000
0.000000 0.372248 0.000000
0.026705 0.372045 0.000000
0.093399 0.371854 0.000000
0.160718 0.371672 0.000000
0.228676 0.371497 0.000000
0.297285 0.371327 0.000000
0.366558 0.371159 0.000000
0.436507 0.370993 0.000000
0.507141 0.370826 0.000000
0.578471 0.370656 0.000000
0.650506 0.370484 0.000000
0.723257 0.370306 0.000000
0.796730 0.370123 0.000000
0.870935 0.369933 0.000000
0.945879 0.369735 0.000000
1.000000 0.369529 0.000000
0.000000 0.411151 0.000000
0.000000 0.411168 0.000000
0.021615 0.411197 0.000000
0.088973 0.411237 0.000000
0.156975 0.411283 0.000000
0.225633 0.411334 0.000000
0.294960 0.411389 0.000000
0.364966 0.411446 0.000000
0.435661 0.411502 0.000000
0.507055 0.411558 0.000000
0.579158 0.411610 0.000000
0.651979 0.411659 0.000000
0.725525 0.411703 0.000000
0.799806 0.411741 0.000000
0.874828 0.411772 0.000000
0.950599 0.411795 0.000000
1.000000 0.411809 0.000000
0.000000 0.450800 0.000000
0.000000 0.451054 0.000000
0.016422 0.451318 0.000000
0.084463 0.451589 0.000000
0.153165 0.451866 0.000000
0.222540 0.452147 0.000000
0.292597 0.452430 0.000000
0.363348 0.452714 0.000000
0.434802 0.452998 0.000000
0.506967 0.453279 0.000000
0.579853 0.453558 0.000000
0.653467 0.453832 0.000000
0.727818 0.454101 0.000000
0.802914 0.454364 0.000000
0.878761 0.454620 0.000000
0.955367 0.454868 0.000000
1.000000 0.455108 0.000000
0.000000 0.491431 0.000000
0.000000 0.491923 0.000000
0.011121 0.492424 0.000000
0.079862 0.492930 0.000000
0.149279 0.493441 0.000000
0.219384 0.493954 0.000000
0.290186 0.494469 0.000000
0.361694 0.494984 0.000000
0.433917 0.495498 0.000000
0.506863 0.496009 0.000000
0.580541 0.496517 0.000000
0.654959 0.497021 0.000000
0.730123 0.497519 0.000000
0.806041 0.498011 0.000000
0.882720 0.498495 0.000000
0.960167 0.498972 0.000000
1.000000 0.499440 0.000000
0.000000 0.533062 0.000000
0.000000 0.533795 0.000000
0.005707 0.534534 0.000000
0.075163 0.535277 0.000000
0.145311 0.536025 0.000000
0.216159 0.536774 0.000000
0.287717 0.537523 0.000000
0.359993 0.538273 0.000000
0.432996 0.539020 0.000000
0.506733 0.539765 0.000000
0.581212 0.540506 0.000000
0.656441 0.541242 0.000000
0.732427 0.541973 0.000000
0.809175 0.542697 0.000000
0.886694 0.543414 0.000000
0.964989 0.544122 0.000000
1.000000 0.544823 0.000000
0.000000 0.000000 0.015059
0.022858 0.000000 0.013175
0.086272 0.000000 0.011290
0.149687 0.000000 0.009405
0.213101 0.000000 0.007520
0.276516 0.000000 0.005635
0.339930 0.000000 0.003751
0.403345 0.000000 0.001866
0.466759 0.000000 0.000000
0.530174 0.000000 0.000000
0.593588 0.000000 0.000000
0.657003 0.000000 0.000000
0.720417 0.000000 0.000000
0.783832 0.000000 0.000000
