assets/lighting/technical/grade-broadcast-safe-proxy/lut.cube
TITLE "Broadcast-Safe Contrast Proxy"
# TKRS lighting-batch-001 original LUT
# Intended usage: pull extremes toward legal-ish range
# License: CC0-1.0
LUT_3D_SIZE 9
DOMAIN_MIN 0.0 0.0 0.0
DOMAIN_MAX 1.0 1.0 1.0
0.095800 0.095800 0.095800
0.192872 0.096874 0.096874
0.289943 0.097948 0.097948
0.387015 0.099022 0.099022
0.484087 0.100097 0.100097
0.581158 0.101171 0.101171
0.678230 0.102245 0.102245
0.775302 0.103319 0.103319
0.872373 0.104393 0.104393
0.099414 0.195411 0.099414
0.196485 0.196485 0.100488
0.293557 0.197559 0.101562
0.390629 0.198634 0.102636
0.487700 0.199708 0.103710
0.584772 0.200782 0.104784
0.681844 0.201856 0.105859
0.778915 0.202930 0.106933
0.875987 0.204004 0.108007
0.103027 0.295022 0.103027
0.200099 0.296096 0.104101
0.297170 0.297170 0.105175
0.394242 0.298245 0.106250
0.491314 0.299319 0.107324
0.588385 0.300393 0.108398
0.685457 0.301467 0.109472
0.782529 0.302541 0.110546
0.879600 0.303615 0.111620
0.106641 0.394633 0.106641
0.203712 0.395707 0.107715
0.300784 0.396781 0.108789
0.397856 0.397856 0.109863
0.494927 0.398930 0.110937
0.591999 0.400004 0.112011
0.689071 0.401078 0.113086
0.786142 0.402152 0.114160
0.883214 0.403226 0.115234
0.110254 0.494244 0.110254
0.207326 0.495318 0.111328
0.304398 0.496393 0.112403
0.401469 0.497467 0.113477
0.498541 0.498541 0.114551
0.595612 0.499615 0.115625
0.692684 0.500689 0.116699
0.789756 0.501763 0.117773
0.886827 0.502837 0.118847
0.113868 0.593855 0.113868
0.210939 0.594929 0.114942
0.308011 0.596004 0.116016
0.405083 0.597078 0.117090
0.502154 0.598152 0.118164
0.599226 0.599226 0.119239
0.696298 0.600300 0.120313
0.793369 0.601374 0.121387
0.890441 0.602449 0.122461
0.117481 0.693466 0.117481
0.214553 0.694540 0.118555
0.311625 0.695615 0.119630
0.408696 0.696689 0.120704
0.505768 0.697763 0.121778
0.602840 0.698837 0.122852
0.699911 0.699911 0.123926
0.796983 0.700985 0.125000
0.894055 0.702060 0.126075
0.121095 0.793077 0.121095
0.218166 0.794151 0.122169
0.315238 0.795226 0.123243
0.412310 0.796300 0.124317
0.509381 0.797374 0.125391
0.606453 0.798448 0.126466
0.703525 0.799522 0.127540
0.800596 0.800596 0.128614
0.897668 0.801671 0.129688
0.124708 0.892688 0.124708
0.221780 0.893763 0.125783
0.318852 0.894837 0.126857
0.415923 0.895911 0.127931
0.512995 0.896985 0.129005
0.610067 0.898059 0.130079
0.707138 0.899133 0.131153
0.804210 0.900208 0.132228
0.901282 0.901282 0.133302
0.096165 0.096165 0.192162
0.193236 0.097239 0.193236
0.290308 0.098313 0.194311
0.387380 0.099387 0.195385
0.484451 0.100461 0.196459
0.581523 0.101536 0.197533
0.678595 0.102610 0.198607
0.775666 0.103684 0.199681
0.872738 0.104758 0.200756
0.099778 0.195776 0.195776
0.196850 0.196850 0.196850
0.293922 0.197924 0.197924
0.390993 0.198998 0.198998
0.488065 0.200072 0.200072
0.585137 0.201147 0.201147
0.682208 0.202221 0.202221
0.779280 0.203295 0.203295
0.876352 0.204369 0.204369
0.103392 0.295387 0.199389
0.200464 0.296461 0.200464
0.297535 0.297535 0.201538
0.394607 0.298609 0.202612
0.491679 0.299684 0.203686
0.588750 0.300758 0.204760
0.685822 0.301832 0.205834
0.782894 0.302906 0.206909
0.879965 0.303980 0.207983
0.107005 0.394998 0.203003
0.204077 0.396072 0.204077
0.301149 0.397146 0.205151
0.398220 0.398220 0.206225
0.495292 0.399295 0.207300
0.592364 0.400369 0.208374
0.689435 0.401443 0.209448
0.786507 0.402517 0.210522
0.883579 0.403591 0.211596
0.110619 0.494609 0.206616
0.207691 0.495683 0.207691
0.304762 0.496757 0.208765
0.401834 0.497831 0.209839
0.498906 0.498906 0.210913
0.595977 0.499980 0.211987
0.693049 0.501054 0.213061
0.790121 0.502128 0.214136
0.887192 0.503202 0.215210
0.114233 0.594220 0.210230
0.211304 0.595294 0.211304
0.308376 0.596368 0.212378
0.405448 0.597443 0.213453
0.502519 0.598517 0.214527
0.599591 0.599591 0.215601
0.696662 0.600665 0.216675
0.793734 0.601739 0.217749
0.890806 0.602813 0.218823
0.117846 0.693831 0.213844
0.214918 0.694905 0.214918
0.311989 0.695979 0.215992
0.409061 0.697054 0.217066
0.506133 0.698128 0.218140
0.603204 0.699202 0.219214
0.700276 0.700276 0.220289
0.797348 0.701350 0.221363
0.894419 0.702424 0.222437
0.121460 0.793442 0.217457
0.218531 0.794516 0.218531
0.315603 0.795590 0.219605
0.412675 0.796665 0.220680
0.509746 0.797739 0.221754
0.606818 0.798813 0.222828
0.703890 0.799887 0.223902
0.800961 0.800961 0.224976
0.898033 0.802035 0.226050
0.125073 0.893053 0.221071
0.222145 0.894127 0.222145
0.319216 0.895201 0.223219
0.416288 0.896276 0.224293
0.513360 0.897350 0.225367
0.610431 0.898424 0.226441
0.707503 0.899498 0.227516
0.804575 0.900572 0.228590
0.901646 0.901646 0.229664
0.096530 0.096530 0.288525
0.193601 0.097604 0.289599
0.290673 0.098678 0.290673
0.387745 0.099752 0.291747
0.484816 0.100826 0.292821
0.581888 0.101900 0.293895
0.678960 0.102975 0.294970
0.776031 0.104049 0.296044
0.873103 0.105123 0.297118
0.100143 0.196141 0.292138
0.197215 0.197215 0.293212
0.294286 0.198289 0.294286
0.391358 0.199363 0.295361
0.488430 0.200437 0.296435
0.585501 0.201511 0.297509
0.682573 0.202586 0.298583
0.779645 0.203660 0.299657
0.876716 0.204734 0.300731
0.103757 0.295752 0.295752
0.200828 0.296826 0.296826
0.297900 0.297900 0.297900
0.394972 0.298974 0.298974
0.492043 0.300048 0.300048
0.589115 0.301122 0.301122
0.686187 0.302197 0.302197
0.783258 0.303271 0.303271
0.880330 0.304345 0.304345
0.107370 0.395363 0.299365
0.204442 0.396437 0.300439
0.301514 0.397511 0.301514
0.398585 0.398585 0.302588
0.495657 0.399659 0.303662
0.592729 0.400734 0.304736
0.689800 0.401808 0.305810
0.786872 0.402882 0.306884
0.883944 0.403956 0.307959
0.110984 0.494974 0.302979
0.208055 0.496048 0.304053
0.305127 0.497122 0.305127
0.402199 0.498196 0.306201
0.499270 0.499270 0.307275
0.596342 0.500345 0.308350
0.693414 0.501419 0.309424
0.790485 0.502493 0.310498
0.887557 0.503567 0.311572
0.114597 0.594585 0.306592
0.211669 0.595659 0.307666
0.308741 0.596733 0.308741
0.405812 0.597807 0.309815
0.502884 0.598881 0.310889
0.599956 0.599956 0.311963
0.697027 0.601030 0.313037
0.794099 0.602104 0.314111
0.891171 0.603178 0.315186
0.118211 0.694196 0.310206
0.215283 0.695270 0.311280
0.312354 0.696344 0.312354
0.409426 0.697418 0.313428
0.506498 0.698493 0.314503
0.603569 0.699567 0.315577
0.700641 0.700641 0.316651
0.797712 0.701715 0.317725
0.894784 0.702789 0.318799
0.121824 0.793807 0.313819
0.218896 0.794881 0.314894
0.315968 0.795955 0.315968
0.413039 0.797029 0.317042
0.510111 0.798104 0.318116
0.607183 0.799178 0.319190
0.704254 0.800252 0.320264
0.801326 0.801326 0.321339
0.898398 0.802400 0.322413
0.125438 0.893418 0.317433
0.222510 0.894492 0.318507
0.319581 0.895566 0.319581
0.416653 0.896640 0.320655
0.513725 0.897715 0.321730
0.610796 0.898789 0.322804
0.707868 0.899863 0.323878
0.804940 0.900937 0.324952
0.902011 0.902011 0.326026
0.096894 0.096894 0.384887
0.193966 0.097969 0.385961
0.291038 0.099043 0.387035
0.388109 0.100117 0.388109
0.485181 0.101191 0.389184
0.582253 0.102265 0.390258
0.679324 0.103339 0.391332
0.776396 0.104414 0.392406
0.873468 0.105488 0.393480
0.100508 0.196505 0.388500
0.197580 0.197580 0.389575
0.294651 0.198654 0.390649
0.391723 0.199728 0.391723
0.488795 0.200802 0.392797
0.585866 0.201876 0.393871
0.682938 0.202950 0.394945
0.780010 0.204025 0.396020
0.877081 0.205099 0.397094
0.104121 0.296116 0.392114
0.201193 0.297191 0.393188
0.298265 0.298265 0.394262
0.395336 0.299339 0.395336
0.492408 0.300413 0.396411
0.589480 0.301487 0.397485
0.686551 0.302561 0.398559
0.783623 0.303636 0.399633
0.880695 0.304710 0.400707
0.107735 0.395728 0.395728
0.204807 0.396802 0.396802
0.301878 0.397876 0.397876
0.398950 0.398950 0.398950
0.496022 0.400024 0.400024
0.593093 0.401098 0.401098
0.690165 0.402172 0.402172
0.787237 0.403247 0.403247
0.884308 0.404321 0.404321
0.111349 0.495339 0.399341
0.208420 0.496413 0.400415
0.305492 0.497487 0.401489
0.402564 0.498561 0.402564
0.499635 0.499635 0.403638
0.596707 0.500709 0.404712
0.693779 0.501784 0.405786
0.790850 0.502858 0.406860
0.887922 0.503932 0.407934
0.114962 0.594950 0.402955
0.212034 0.596024 0.404029
0.309105 0.597098 0.405103
0.406177 0.598172 0.406177
0.503249 0.599246 0.407251
0.600320 0.600320 0.408325
0.697392 0.601395 0.409400
0.794464 0.602469 0.410474
0.891535 0.603543 0.411548
0.118576 0.694561 0.406568
0.215647 0.695635 0.407642
0.312719 0.696709 0.408716
0.409791 0.697783 0.409791
0.506862 0.698857 0.410865
0.603934 0.699931 0.411939
0.701006 0.701006 0.413013
0.798077 0.702080 0.414087
0.895149 0.703154 0.415161
0.122189 0.794172 0.410182
0.219261 0.795246 0.411256
0.316333 0.796320 0.412330
0.413404 0.797394 0.413404
0.510476 0.798468 0.414478
0.607548 0.799543 0.415553
0.704619 0.800617 0.416627
0.801691 0.801691 0.417701
0.898762 0.802765 0.418775
0.125803 0.893783 0.413795
0.222874 0.894857 0.414869
0.319946 0.895931 0.415944
0.417018 0.897005 0.417018
0.514089 0.898079 0.418092
0.611161 0.899154 0.419166
0.708233 0.900228 0.420240
0.805304 0.901302 0.421314
0.902376 0.902376 0.422389
0.097259 0.097259 0.481249
0.194331 0.098333 0.482323
0.291402 0.099407 0.483397
0.388474 0.100482 0.484472
0.485546 0.101556 0.485546
0.582617 0.102630 0.486620
0.679689 0.103704 0.487694
0.776761 0.104778 0.488768
0.873832 0.105852 0.489842
0.100873 0.196870 0.484863
0.197944 0.197944 0.485937
0.295016 0.199019 0.487011
0.392088 0.200093 0.488085
0.489159 0.201167 0.489159
0.586231 0.202241 0.490234
0.683303 0.203315 0.491308
0.780374 0.204389 0.492382
0.877446 0.205464 0.493456
0.104486 0.296481 0.488476
0.201558 0.297555 0.489550
0.298630 0.298630 0.490625
0.395701 0.299704 0.491699
0.492773 0.300778 0.492773
0.589845 0.301852 0.493847
0.686916 0.302926 0.494921
0.783988 0.304000 0.495995
0.881060 0.305075 0.497070
0.108100 0.396092 0.492090
0.205171 0.397166 0.493164
0.302243 0.398241 0.494238
0.399315 0.399315 0.495312
0.496386 0.400389 0.496386
0.593458 0.401463 0.497461
0.690530 0.402537 0.498535
0.787601 0.403611 0.499609
0.884673 0.404686 0.500683
0.111713 0.495703 0.495703
0.208785 0.496778 0.496778
0.305857 0.497852 0.497852
0.402928 0.498926 0.498926
0.500000 0.500000 0.500000
0.597072 0.501074 0.501074
0.694143 0.502148 0.502148
0.791215 0.503222 0.503222
0.888287 0.504297 0.504297
0.115327 0.595314 0.499317
0.212399 0.596389 0.500391
0.309470 0.597463 0.501465
0.406542 0.598537 0.502539
0.503614 0.599611 0.503614
0.600685 0.600685 0.504688
0.697757 0.601759 0.505762
0.794829 0.602834 0.506836
0.891900 0.603908 0.507910
0.118940 0.694925 0.502930
0.216012 0.696000 0.504005
0.313084 0.697074 0.505079
0.410155 0.698148 0.506153
0.507227 0.699222 0.507227
0.604299 0.700296 0.508301
0.701370 0.701370 0.509375
0.798442 0.702445 0.510450
0.895514 0.703519 0.511524
0.122554 0.794536 0.506544
0.219626 0.795611 0.507618
0.316697 0.796685 0.508692
0.413769 0.797759 0.509766
0.510841 0.798833 0.510841
0.607912 0.799907 0.511915
0.704984 0.800981 0.512989
0.802056 0.802056 0.514063
0.899127 0.803130 0.515137
0.126168 0.894148 0.510158
0.223239 0.895222 0.511232
0.320311 0.896296 0.512306
0.417383 0.897370 0.513380
0.514454 0.898444 0.514454
0.611526 0.899518 0.515528
0.708598 0.900593 0.516603
0.805669 0.901667 0.517677
0.902741 0.902741 0.518751
0.097624 0.097624 0.577611
0.194696 0.098698 0.578686
0.291767 0.099772 0.579760
0.388839 0.100846 0.580834
0.485911 0.101921 0.581908
0.582982 0.102995 0.582982
0.680054 0.104069 0.584056
0.777126 0.105143 0.585131
0.874197 0.106217 0.586205
0.101238 0.197235 0.581225
0.198309 0.198309 0.582299
0.295381 0.199383 0.583373
0.392452 0.200457 0.584447
0.489524 0.201532 0.585522
0.586596 0.202606 0.586596
0.683667 0.203680 0.587670
0.780739 0.204754 0.588744
0.877811 0.205828 0.589818
0.104851 0.296846 0.584839
0.201923 0.297920 0.585913
0.298994 0.298994 0.586987
0.396066 0.300069 0.588061
0.493138 0.301143 0.589135
0.590209 0.302217 0.590209
0.687281 0.303291 0.591284
0.784353 0.304365 0.592358
0.881424 0.305439 0.593432
0.108465 0.396457 0.588452
0.205536 0.397531 0.589526
0.302608 0.398605 0.590600
0.399680 0.399680 0.591675
0.496751 0.400754 0.592749
0.593823 0.401828 0.593823
0.690895 0.402902 0.594897
0.787966 0.403976 0.595971
0.885038 0.405050 0.597045
0.112078 0.496068 0.592066
0.209150 0.497142 0.593140
0.306221 0.498216 0.594214
0.403293 0.499291 0.595288
0.500365 0.500365 0.596362
0.597436 0.501439 0.597436
0.694508 0.502513 0.598511
0.791580 0.503587 0.599585
0.888651 0.504661 0.600659
0.115692 0.595679 0.595679
0.212763 0.596753 0.596753
0.309835 0.597828 0.597828
0.406907 0.598902 0.598902
0.503978 0.599976 0.599976
0.601050 0.601050 0.601050
0.698122 0.602124 0.602124
0.795193 0.603198 0.603198
0.892265 0.604272 0.604272
0.119305 0.695290 0.599293
0.216377 0.696364 0.600367
0.313449 0.697439 0.601441
0.410520 0.698513 0.602515
0.507592 0.699587 0.603589
0.604664 0.700661 0.604664
0.701735 0.701735 0.605738
0.798807 0.702809 0.606812
0.895879 0.703884 0.607886
0.122919 0.794901 0.602906
0.219990 0.795975 0.603980
0.317062 0.797050 0.605055
0.414134 0.798124 0.606129
0.511205 0.799198 0.607203
0.608277 0.800272 0.608277
0.705349 0.801346 0.609351
0.802420 0.802420 0.610425
0.899492 0.803495 0.611500
0.126532 0.894512 0.606520
0.223604 0.895586 0.607594
0.320676 0.896661 0.608668
0.417747 0.897735 0.609742
0.514819 0.898809 0.610816
0.611891 0.899883 0.611891
0.708962 0.900957 0.612965
0.806034 0.902031 0.614039
0.903106 0.903106 0.615113
0.097989 0.097989 0.673974
0.195060 0.099063 0.675048
0.292132 0.100137 0.676122
0.389204 0.101211 0.677196
0.486275 0.102285 0.678270
0.583347 0.103360 0.679345
0.680419 0.104434 0.680419
0.777490 0.105508 0.681493
0.874562 0.106582 0.682567
0.101602 0.197600 0.677587
0.198674 0.198674 0.678661
0.295746 0.199748 0.679736
0.392817 0.200822 0.680810
0.489889 0.201896 0.681884
0.586961 0.202971 0.682958
0.684032 0.204045 0.684032
0.781104 0.205119 0.685106
0.878176 0.206193 0.686181
0.105216 0.297211 0.681201
0.202288 0.298285 0.682275
0.299359 0.299359 0.683349
0.396431 0.300433 0.684423
0.493502 0.301507 0.685497
0.590574 0.302582 0.686572
0.687646 0.303656 0.687646
0.784717 0.304730 0.688720
0.881789 0.305804 0.689794
0.108829 0.396822 0.684814
0.205901 0.397896 0.685889
0.302973 0.398970 0.686963
0.400044 0.400044 0.688037
0.497116 0.401119 0.689111
0.594188 0.402193 0.690185
0.691259 0.403267 0.691259
0.788331 0.404341 0.692334
0.885403 0.405415 0.693408
0.112443 0.496433 0.688428
0.209515 0.497507 0.689502
0.306586 0.498581 0.690576
0.403658 0.499655 0.691650
0.500730 0.500730 0.692725
0.597801 0.501804 0.693799
0.694873 0.502878 0.694873
0.791945 0.503952 0.695947
0.889016 0.505026 0.697021
0.116056 0.596044 0.692041
0.213128 0.597118 0.693116
0.310200 0.598192 0.694190
0.407271 0.599266 0.695264
0.504343 0.600341 0.696338
0.601415 0.601415 0.697412
0.698486 0.602489 0.698486
0.795558 0.603563 0.699561
0.892630 0.604637 0.700635
0.119670 0.695655 0.695655
0.216742 0.696729 0.696729
0.313813 0.697803 0.697803
0.410885 0.698878 0.698878
0.507957 0.699952 0.699952
0.605028 0.701026 0.701026
0.702100 0.702100 0.702100
0.799172 0.703174 0.703174
0.896243 0.704248 0.704248
0.123284 0.795266 0.699269
0.220355 0.796340 0.700343
0.317427 0.797414 0.701417
0.414499 0.798489 0.702491
0.511570 0.799563 0.703565
0.608642 0.800637 0.704639
0.705714 0.801711 0.705714
0.802785 0.802785 0.706788
0.899857 0.803859 0.707862
0.126897 0.894877 0.702882
0.223969 0.895951 0.703956
0.321040 0.897025 0.705030
0.418112 0.898100 0.706105
0.515184 0.899174 0.707179
0.612255 0.900248 0.708253
0.709327 0.901322 0.709327
0.806399 0.902396 0.710401
0.903470 0.903470 0.711475
0.098354 0.098354 0.770336
0.195425 0.099428 0.771410
0.292497 0.100502 0.772484
0.389569 0.101576 0.773559
0.486640 0.102650 0.774633
0.583712 0.103724 0.775707
0.680784 0.104799 0.776781
0.777855 0.105873 0.777855
0.874927 0.106947 0.778929
0.101967 0.197965 0.773950
0.199039 0.199039 0.775024
0.296110 0.200113 0.776098
0.393182 0.201187 0.777172
0.490254 0.202261 0.778246
0.587325 0.203335 0.779320
0.684397 0.204410 0.780395
0.781469 0.205484 0.781469
0.878540 0.206558 0.782543
0.105581 0.297576 0.777563
0.202652 0.298650 0.778637
0.299724 0.299724 0.779711
0.396796 0.300798 0.780786
0.493867 0.301872 0.781860
0.590939 0.302946 0.782934
0.688011 0.304021 0.784008
0.785082 0.305095 0.785082
0.882154 0.306169 0.786156
0.109194 0.397187 0.781177
0.206266 0.398261 0.782251
0.303338 0.399335 0.783325
0.400409 0.400409 0.784399
0.497481 0.401483 0.785473
0.594552 0.402557 0.786547
0.691624 0.403632 0.787622
0.788696 0.404706 0.788696
0.885767 0.405780 0.789770
0.112808 0.496798 0.784790
0.209879 0.497872 0.785864
0.306951 0.498946 0.786939
0.404023 0.500020 0.788013
0.501094 0.501094 0.789087
0.598166 0.502169 0.790161
0.695238 0.503243 0.791235
0.792309 0.504317 0.792309
0.889381 0.505391 0.793384
0.116421 0.596409 0.788404
0.213493 0.597483 0.789478
0.310565 0.598557 0.790552
0.407636 0.599631 0.791626
0.504708 0.600705 0.792700
0.601780 0.601780 0.793775
0.698851 0.602854 0.794849
0.795923 0.603928 0.795923
0.892995 0.605002 0.796997
0.120035 0.696020 0.792017
0.217106 0.697094 0.793091
0.314178 0.698168 0.794166
0.411250 0.699242 0.795240
0.508321 0.700316 0.796314
0.605393 0.701391 0.797388
0.702465 0.702465 0.798462
0.799536 0.703539 0.799536
0.896608 0.704613 0.800611
0.123648 0.795631 0.795631
0.220720 0.796705 0.796705
0.317792 0.797779 0.797779
0.414863 0.798853 0.798853
0.511935 0.799928 0.799928
0.609007 0.801002 0.801002
0.706078 0.802076 0.802076
0.803150 0.803150 0.803150
0.900222 0.804224 0.804224
0.127262 0.895242 0.799244
0.224334 0.896316 0.800319
0.321405 0.897390 0.801393
0.418477 0.898464 0.802467
0.515549 0.899539 0.803541
0.612620 0.900613 0.804615
0.709692 0.901687 0.805689
0.806764 0.902761 0.806764
0.903835 0.903835 0.807838
0.098718 0.098718 0.866698
0.195790 0.099792 0.867772
0.292862 0.100867 0.868847
0.389933 0.101941 0.869921
0.487005 0.103015 0.870995
0.584077 0.104089 0.872069
0.681148 0.105163 0.873143
0.778220 0.106237 0.874217
0.875292 0.107312 0.875292
0.102332 0.198329 0.870312
0.199404 0.199404 0.871386
0.296475 0.200478 0.872460
0.393547 0.201552 0.873534
0.490619 0.202626 0.874609
0.587690 0.203700 0.875683
0.684762 0.204774 0.876757
0.781834 0.205849 0.877831
0.878905 0.206923 0.878905
0.105945 0.297940 0.873925
0.203017 0.299015 0.875000
0.300089 0.300089 0.876074
0.397160 0.301163 0.877148
0.494232 0.302237 0.878222
0.591304 0.303311 0.879296
0.688375 0.304385 0.880370
0.785447 0.305460 0.881445
0.882519 0.306534 0.882519
0.109559 0.397551 0.877539
0.206631 0.398626 0.878613
0.303702 0.399700 0.879687
0.400774 0.400774 0.880761
0.497846 0.401848 0.881836
0.594917 0.402922 0.882910
0.691989 0.403996 0.883984
0.789061 0.405071 0.885058
0.886132 0.406145 0.886132
0.113173 0.497163 0.881153
0.210244 0.498237 0.882227
0.307316 0.499311 0.883301
0.404388 0.500385 0.884375
0.501459 0.501459 0.885449
0.598531 0.502533 0.886523
0.695602 0.503607 0.887597
0.792674 0.504682 0.888672
0.889746 0.505756 0.889746
0.116786 0.596774 0.884766
0.213858 0.597848 0.885840
0.310929 0.598922 0.886914
0.408001 0.599996 0.887989
0.505073 0.601070 0.889063
0.602144 0.602144 0.890137
0.699216 0.603219 0.891211
0.796288 0.604293 0.892285
0.893359 0.605367 0.893359
0.120400 0.696385 0.888380
0.217471 0.697459 0.889454
0.314543 0.698533 0.890528
0.411615 0.699607 0.891602
0.508686 0.700681 0.892676
0.605758 0.701755 0.893750
0.702830 0.702830 0.894825
0.799901 0.703904 0.895899
0.896973 0.704978 0.896973
0.124013 0.795996 0.891993
0.221085 0.797070 0.893067
0.318156 0.798144 0.894141
0.415228 0.799218 0.895216
0.512300 0.800292 0.896290
0.609371 0.801366 0.897364
0.706443 0.802441 0.898438
0.803515 0.803515 0.899512
0.900586 0.804589 0.900586
0.127627 0.895607 0.895607
0.224698 0.896681 0.896681
0.321770 0.897755 0.897755
0.418842 0.898829 0.898829
0.515913 0.899903 0.899903
0.612985 0.900978 0.900978
0.710057 0.902052 0.902052
0.807128 0.903126 0.903126
0.904200 0.904200 0.904200
