assets/lighting/technical/grade-broadcast-safe-proxy/lut.cube
TITLE "Broadcast-Safe Contrast Proxy"
# TKRS lighting-batch-001 original LUT
# Intended usage: pull extremes toward legal-ish range
# License: CC0-1.0
LUT_3D_SIZE 17
DOMAIN_MIN 0.0 0.0 0.0
DOMAIN_MAX 1.0 1.0 1.0
0.095800 0.095800 0.095800
0.144336 0.096337 0.096337
0.192872 0.096874 0.096874
0.241407 0.097411 0.097411
0.289943 0.097948 0.097948
0.338479 0.098485 0.098485
0.387015 0.099022 0.099022
0.435551 0.099560 0.099560
0.484087 0.100097 0.100097
0.532622 0.100634 0.100634
0.581158 0.101171 0.101171
0.629694 0.101708 0.101708
0.678230 0.102245 0.102245
0.726766 0.102782 0.102782
0.775302 0.103319 0.103319
0.823837 0.103856 0.103856
0.872373 0.104393 0.104393
0.097607 0.145606 0.097607
0.146143 0.146143 0.098144
0.194678 0.146680 0.098681
0.243214 0.147217 0.099218
0.291750 0.147754 0.099755
0.340286 0.148291 0.100292
0.388822 0.148828 0.100829
0.437358 0.149365 0.101366
0.485893 0.149902 0.101903
0.534429 0.150439 0.102441
0.582965 0.150976 0.102978
0.631501 0.151513 0.103515
0.680037 0.152050 0.104052
0.728573 0.152588 0.104589
0.777108 0.153125 0.105126
0.825644 0.153662 0.105663
0.874180 0.154199 0.106200
0.099414 0.195411 0.099414
0.147949 0.195948 0.099951
0.196485 0.196485 0.100488
0.245021 0.197022 0.101025
0.293557 0.197559 0.101562
0.342093 0.198096 0.102099
0.390629 0.198634 0.102636
0.439164 0.199171 0.103173
0.487700 0.199708 0.103710
0.536236 0.200245 0.104247
0.584772 0.200782 0.104784
0.633308 0.201319 0.105321
0.681844 0.201856 0.105859
0.730379 0.202393 0.106396
0.778915 0.202930 0.106933
0.827451 0.203467 0.107470
0.875987 0.204004 0.108007
0.101220 0.245217 0.101220
0.149756 0.245754 0.101757
0.198292 0.246291 0.102294
0.246828 0.246828 0.102832
0.295364 0.247365 0.103369
0.343899 0.247902 0.103906
0.392435 0.248439 0.104443
0.440971 0.248976 0.104980
0.489507 0.249513 0.105517
0.538043 0.250050 0.106054
0.586579 0.250587 0.106591
0.635114 0.251124 0.107128
0.683650 0.251662 0.107665
0.732186 0.252199 0.108202
0.780722 0.252736 0.108739
0.829258 0.253273 0.109277
0.877794 0.253810 0.109814
0.103027 0.295022 0.103027
0.151563 0.295559 0.103564
0.200099 0.296096 0.104101
0.248635 0.296633 0.104638
0.297170 0.297170 0.105175
0.345706 0.297707 0.105712
0.394242 0.298245 0.106250
0.442778 0.298782 0.106787
0.491314 0.299319 0.107324
0.539850 0.299856 0.107861
0.588385 0.300393 0.108398
0.636921 0.300930 0.108935
0.685457 0.301467 0.109472
0.733993 0.302004 0.110009
0.782529 0.302541 0.110546
0.831065 0.303078 0.111083
0.879600 0.303615 0.111620
0.104834 0.344828 0.104834
0.153370 0.345365 0.105371
0.201906 0.345902 0.105908
0.250441 0.346439 0.106445
0.298977 0.346976 0.106982
0.347513 0.347513 0.107519
0.396049 0.348050 0.108056
0.444585 0.348587 0.108593
0.493121 0.349124 0.109131
0.541656 0.349661 0.109668
0.590192 0.350198 0.110205
0.638728 0.350736 0.110742
0.687264 0.351273 0.111279
0.735800 0.351810 0.111816
0.784336 0.352347 0.112353
0.832871 0.352884 0.112890
0.881407 0.353421 0.113427
0.106641 0.394633 0.106641
0.155176 0.395170 0.107178
0.203712 0.395707 0.107715
0.252248 0.396244 0.108252
0.300784 0.396781 0.108789
0.349320 0.397319 0.109326
0.397856 0.397856 0.109863
0.446391 0.398393 0.110400
0.494927 0.398930 0.110937
0.543463 0.399467 0.111474
0.591999 0.400004 0.112011
0.640535 0.400541 0.112549
0.689071 0.401078 0.113086
0.737606 0.401615 0.113623
0.786142 0.402152 0.114160
0.834678 0.402689 0.114697
0.883214 0.403226 0.115234
0.108447 0.444439 0.108447
0.156983 0.444976 0.108984
0.205519 0.445513 0.109522
0.254055 0.446050 0.110059
0.302591 0.446587 0.110596
0.351127 0.447124 0.111133
0.399662 0.447661 0.111670
0.448198 0.448198 0.112207
0.496734 0.448735 0.112744
0.545270 0.449272 0.113281
0.593806 0.449809 0.113818
0.642342 0.450347 0.114355
0.690877 0.450884 0.114892
0.739413 0.451421 0.115429
0.787949 0.451958 0.115967
0.836485 0.452495 0.116504
0.885021 0.453032 0.117041
0.110254 0.494244 0.110254
0.158790 0.494781 0.110791
0.207326 0.495318 0.111328
0.255862 0.495855 0.111865
0.304398 0.496393 0.112403
0.352933 0.496930 0.112940
0.401469 0.497467 0.113477
0.450005 0.498004 0.114014
0.498541 0.498541 0.114551
0.547077 0.499078 0.115088
0.595612 0.499615 0.115625
0.644148 0.500152 0.116162
0.692684 0.500689 0.116699
0.741220 0.501226 0.117236
0.789756 0.501763 0.117773
0.838292 0.502300 0.118310
0.886827 0.502837 0.118847
0.112061 0.544050 0.112061
0.160597 0.544587 0.112598
0.209133 0.545124 0.113135
0.257668 0.545661 0.113672
0.306204 0.546198 0.114209
0.354740 0.546735 0.114746
0.403276 0.547272 0.115283
0.451812 0.547809 0.115821
0.500348 0.548346 0.116358
0.548883 0.548883 0.116895
0.597419 0.549421 0.117432
0.645955 0.549958 0.117969
0.694491 0.550495 0.118506
0.743027 0.551032 0.119043
0.791563 0.551569 0.119580
0.840098 0.552106 0.120117
0.888634 0.552643 0.120654
0.113868 0.593855 0.113868
0.162404 0.594392 0.114405
0.210939 0.594929 0.114942
0.259475 0.595466 0.115479
0.308011 0.596004 0.116016
0.356547 0.596541 0.116553
0.405083 0.597078 0.117090
0.453619 0.597615 0.117627
0.502154 0.598152 0.118164
0.550690 0.598689 0.118701
0.599226 0.599226 0.119239
0.647762 0.599763 0.119776
0.696298 0.600300 0.120313
0.744834 0.600837 0.120850
0.793369 0.601374 0.121387
0.841905 0.601911 0.121924
0.890441 0.602449 0.122461
0.115675 0.643661 0.115675
0.164210 0.644198 0.116212
0.212746 0.644735 0.116749
0.261282 0.645272 0.117286
0.309818 0.645809 0.117823
0.358354 0.646346 0.118360
0.406889 0.646883 0.118897
0.455425 0.647420 0.119434
0.503961 0.647957 0.119971
0.552497 0.648494 0.120508
0.601033 0.649032 0.121045
0.649569 0.649569 0.121582
0.698104 0.650106 0.122119
0.746640 0.650643 0.122657
0.795176 0.651180 0.123194
0.843712 0.651717 0.123731
0.892248 0.652254 0.124268
0.117481 0.693466 0.117481
0.166017 0.694003 0.118018
0.214553 0.694540 0.118555
0.263089 0.695078 0.119093
0.311625 0.695615 0.119630
0.360160 0.696152 0.120167
0.408696 0.696689 0.120704
0.457232 0.697226 0.121241
0.505768 0.697763 0.121778
0.554304 0.698300 0.122315
0.602840 0.698837 0.122852
0.651375 0.699374 0.123389
0.699911 0.699911 0.123926
0.748447 0.700448 0.124463
0.796983 0.700985 0.125000
0.845519 0.701522 0.125537
0.894055 0.702060 0.126075
0.119288 0.743272 0.119288
0.167824 0.743809 0.119825
0.216360 0.744346 0.120362
0.264896 0.744883 0.120899
0.313431 0.745420 0.121436
0.361967 0.745957 0.121973
0.410503 0.746494 0.122511
0.459039 0.747031 0.123048
0.507575 0.747568 0.123585
0.556111 0.748106 0.124122
0.604646 0.748643 0.124659
0.653182 0.749180 0.125196
0.701718 0.749717 0.125733
0.750254 0.750254 0.126270
0.798790 0.750791 0.126807
0.847326 0.751328 0.127344
0.895861 0.751865 0.127881
0.121095 0.793077 0.121095
0.169631 0.793614 0.121632
0.218166 0.794151 0.122169
0.266702 0.794689 0.122706
0.315238 0.795226 0.123243
0.363774 0.795763 0.123780
0.412310 0.796300 0.124317
0.460846 0.796837 0.124854
0.509381 0.797374 0.125391
0.557917 0.797911 0.125929
0.606453 0.798448 0.126466
0.654989 0.798985 0.127003
0.703525 0.799522 0.127540
0.752061 0.800059 0.128077
0.800596 0.800596 0.128614
0.849132 0.801134 0.129151
0.897668 0.801671 0.129688
0.122902 0.842883 0.122902
0.171437 0.843420 0.123439
0.219973 0.843957 0.123976
0.268509 0.844494 0.124513
0.317045 0.845031 0.125050
0.365581 0.845568 0.125587
0.414117 0.846105 0.126124
0.462652 0.846642 0.126661
0.511188 0.847180 0.127198
0.559724 0.847717 0.127735
0.608260 0.848254 0.128272
0.656796 0.848791 0.128809
0.705332 0.849328 0.129347
0.753867 0.849865 0.129884
0.802403 0.850402 0.130421
0.850939 0.850939 0.130958
0.899475 0.851476 0.131495
0.124708 0.892688 0.124708
0.173244 0.893225 0.125245
0.221780 0.893763 0.125783
0.270316 0.894300 0.126320
0.318852 0.894837 0.126857
0.367388 0.895374 0.127394
0.415923 0.895911 0.127931
0.464459 0.896448 0.128468
0.512995 0.896985 0.129005
0.561531 0.897522 0.129542
0.610067 0.898059 0.130079
0.658603 0.898596 0.130616
0.707138 0.899133 0.131153
0.755674 0.899670 0.131690
0.804210 0.900208 0.132228
0.852746 0.900745 0.132765
0.901282 0.901282 0.133302
0.095982 0.095982 0.143981
0.144518 0.096519 0.144518
0.193054 0.097057 0.145055
0.241590 0.097594 0.145592
0.290126 0.098131 0.146129
0.338662 0.098668 0.146667
0.387197 0.099205 0.147204
0.435733 0.099742 0.147741
0.484269 0.100279 0.148278
0.532805 0.100816 0.148815
0.581341 0.101353 0.149352
0.629877 0.101890 0.149889
0.678412 0.102427 0.150426
0.726948 0.102964 0.150963
0.775484 0.103502 0.151500
0.824020 0.104039 0.152037
0.872556 0.104576 0.152574
0.097789 0.145788 0.145788
0.146325 0.146325 0.146325
0.194861 0.146862 0.146862
0.243397 0.147399 0.147399
0.291932 0.147936 0.147936
0.340468 0.148473 0.148473
0.389004 0.149010 0.149010
0.437540 0.149547 0.149547
0.486076 0.150085 0.150085
0.534612 0.150622 0.150622
0.583147 0.151159 0.151159
0.631683 0.151696 0.151696
0.680219 0.152233 0.152233
0.728755 0.152770 0.152770
0.777291 0.153307 0.153307
0.825827 0.153844 0.153844
0.874362 0.154381 0.154381
0.099596 0.195593 0.147595
0.148132 0.196131 0.148132
0.196668 0.196668 0.148669
0.245203 0.197205 0.149206
0.293739 0.197742 0.149743
0.342275 0.198279 0.150280
0.390811 0.198816 0.150817
0.439347 0.199353 0.151354
0.487883 0.199890 0.151891
0.536418 0.200427 0.152428
0.584954 0.200964 0.152966
0.633490 0.201501 0.153503
0.682026 0.202038 0.154040
0.730562 0.202575 0.154577
0.779098 0.203113 0.155114
0.827633 0.203650 0.155651
0.876169 0.204187 0.156188
0.101403 0.245399 0.149401
0.149939 0.245936 0.149939
0.198474 0.246473 0.150476
0.247010 0.247010 0.151013
0.295546 0.247547 0.151550
0.344082 0.248084 0.152087
0.392618 0.248621 0.152624
0.441154 0.249159 0.153161
0.489689 0.249696 0.153698
0.538225 0.250233 0.154235
0.586761 0.250770 0.154772
0.635297 0.251307 0.155309
0.683833 0.251844 0.155846
0.732369 0.252381 0.156384
0.780904 0.252918 0.156921
0.829440 0.253455 0.157458
0.877976 0.253992 0.157995
0.103209 0.295204 0.151208
0.151745 0.295742 0.151745
0.200281 0.296279 0.152282
0.248817 0.296816 0.152819
0.297353 0.297353 0.153357
0.345889 0.297890 0.153894
0.394424 0.298427 0.154431
0.442960 0.298964 0.154968
0.491496 0.299501 0.155505
0.540032 0.300038 0.156042
0.588568 0.300575 0.156579
0.637104 0.301112 0.157116
0.685639 0.301649 0.157653
0.734175 0.302187 0.158190
0.782711 0.302724 0.158727
0.831247 0.303261 0.159264
0.879783 0.303798 0.159802
0.105016 0.345010 0.153015
0.153552 0.345547 0.153552
0.202088 0.346084 0.154089
0.250624 0.346621 0.154626
0.299160 0.347158 0.155163
0.347695 0.347695 0.155700
0.396231 0.348232 0.156237
0.444767 0.348770 0.156775
0.493303 0.349307 0.157312
0.541839 0.349844 0.157849
0.590375 0.350381 0.158386
0.638910 0.350918 0.158923
0.687446 0.351455 0.159460
0.735982 0.351992 0.159997
0.784518 0.352529 0.160534
0.833054 0.353066 0.161071
0.881590 0.353603 0.161608
0.106823 0.394816 0.154822
0.155359 0.395353 0.155359
0.203895 0.395890 0.155896
0.252431 0.396427 0.156433
0.300966 0.396964 0.156970
0.349502 0.397501 0.157507
0.398038 0.398038 0.158044
0.446574 0.398575 0.158581
0.495110 0.399112 0.159118
0.543646 0.399649 0.159656
0.592181 0.400186 0.160193
0.640717 0.400723 0.160730
0.689253 0.401261 0.161267
0.737789 0.401798 0.161804
0.786325 0.402335 0.162341
0.834861 0.402872 0.162878
0.883396 0.403409 0.163415
0.108630 0.444621 0.156629
0.157166 0.445158 0.157166
0.205701 0.445695 0.157703
0.254237 0.446232 0.158240
0.302773 0.446769 0.158777
0.351309 0.447306 0.159314
0.399845 0.447844 0.159851
0.448381 0.448381 0.160388
0.496916 0.448918 0.160925
0.545452 0.449455 0.161462
0.593988 0.449992 0.161999
0.642524 0.450529 0.162536
0.691060 0.451066 0.163074
0.739596 0.451603 0.163611
0.788131 0.452140 0.164148
0.836667 0.452677 0.164685
0.885203 0.453214 0.165222
0.110437 0.494427 0.158435
0.158972 0.494964 0.158972
0.207508 0.495501 0.159509
0.256044 0.496038 0.160047
0.304580 0.496575 0.160584
0.353116 0.497112 0.161121
0.401652 0.497649 0.161658
0.450187 0.498186 0.162195
0.498723 0.498723 0.162732
0.547259 0.499260 0.163269
0.595795 0.499797 0.163806
0.644331 0.500334 0.164343
0.692867 0.500872 0.164880
0.741402 0.501409 0.165417
0.789938 0.501946 0.165954
0.838474 0.502483 0.166492
0.887010 0.503020 0.167029
0.112243 0.544232 0.160242
0.160779 0.544769 0.160779
0.209315 0.545306 0.161316
0.257851 0.545843 0.161853
0.306387 0.546380 0.162390
0.354923 0.546918 0.162928
0.403458 0.547455 0.163465
0.451994 0.547992 0.164002
0.500530 0.548529 0.164539
0.549066 0.549066 0.165076
0.597602 0.549603 0.165613
0.646137 0.550140 0.166150
0.694673 0.550677 0.166687
0.743209 0.551214 0.167224
0.791745 0.551751 0.167761
0.840281 0.552288 0.168298
0.888817 0.552825 0.168835
0.114050 0.594038 0.162049
0.162586 0.594575 0.162586
0.211122 0.595112 0.163123
0.259658 0.595649 0.163660
0.308193 0.596186 0.164197
0.356729 0.596723 0.164734
0.405265 0.597260 0.165271
0.453801 0.597797 0.165808
0.502337 0.598334 0.166346
0.550873 0.598871 0.166883
0.599408 0.599408 0.167420
0.647944 0.599946 0.167957
0.696480 0.600483 0.168494
0.745016 0.601020 0.169031
0.793552 0.601557 0.169568
0.842088 0.602094 0.170105
0.890623 0.602631 0.170642
0.115857 0.643843 0.163856
0.164393 0.644380 0.164393
0.212929 0.644917 0.164930
0.261464 0.645454 0.165467
0.310000 0.645991 0.166004
0.358536 0.646529 0.166541
0.407072 0.647066 0.167078
0.455608 0.647603 0.167615
0.504144 0.648140 0.168152
0.552679 0.648677 0.168689
0.601215 0.649214 0.169226
0.649751 0.649751 0.169764
0.698287 0.650288 0.170301
0.746823 0.650825 0.170838
0.795359 0.651362 0.171375
0.843894 0.651899 0.171912
0.892430 0.652436 0.172449
0.117664 0.693649 0.165662
0.166200 0.694186 0.166200
0.214735 0.694723 0.166737
0.263271 0.695260 0.167274
0.311807 0.695797 0.167811
0.360343 0.696334 0.168348
0.408879 0.696871 0.168885
0.457414 0.697408 0.169422
0.505950 0.697945 0.169959
0.554486 0.698482 0.170496
0.603022 0.699019 0.171033
0.651558 0.699557 0.171570
0.700094 0.700094 0.172107
0.748629 0.700631 0.172644
0.797165 0.701168 0.173182
0.845701 0.701705 0.173719
0.894237 0.702242 0.174256
0.119470 0.743454 0.167469
0.168006 0.743991 0.168006
0.216542 0.744528 0.168543
0.265078 0.745065 0.169080
0.313614 0.745603 0.169618
0.362150 0.746140 0.170155
0.410685 0.746677 0.170692
0.459221 0.747214 0.171229
0.507757 0.747751 0.171766
0.556293 0.748288 0.172303
0.604829 0.748825 0.172840
0.653365 0.749362 0.173377
0.701900 0.749899 0.173914
0.750436 0.750436 0.174451
0.798972 0.750973 0.174988
0.847508 0.751510 0.175525
0.896044 0.752047 0.176062
0.121277 0.793260 0.169276
0.169813 0.793797 0.169813
0.218349 0.794334 0.170350
0.266885 0.794871 0.170887
0.315421 0.795408 0.171424
0.363956 0.795945 0.171961
0.412492 0.796482 0.172498
0.461028 0.797019 0.173036
0.509564 0.797556 0.173573
0.558100 0.798093 0.174110
0.606636 0.798631 0.174647
0.655171 0.799168 0.175184
0.703707 0.799705 0.175721
0.752243 0.800242 0.176258
0.800779 0.800779 0.176795
0.849315 0.801316 0.177332
0.897851 0.801853 0.177869
0.123084 0.843065 0.171083
0.171620 0.843602 0.171620
0.220156 0.844139 0.172157
0.268691 0.844676 0.172694
0.317227 0.845214 0.173231
0.365763 0.845751 0.173768
0.414299 0.846288 0.174305
0.462835 0.846825 0.174842
0.511371 0.847362 0.175379
0.559906 0.847899 0.175916
0.608442 0.848436 0.176454
0.656978 0.848973 0.176991
0.705514 0.849510 0.177528
0.754050 0.850047 0.178065
0.802586 0.850584 0.178602
0.851121 0.851121 0.179139
0.899657 0.851659 0.179676
0.124891 0.892871 0.172890
0.173427 0.893408 0.173427
0.221962 0.893945 0.173964
0.270498 0.894482 0.174501
0.319034 0.895019 0.175038
0.367570 0.895556 0.175575
0.416106 0.896093 0.176112
0.464642 0.896630 0.176649
0.513177 0.897167 0.177186
0.561713 0.897705 0.177723
0.610249 0.898242 0.178260
0.658785 0.898779 0.178797
0.707321 0.899316 0.179334
0.755857 0.899853 0.179872
0.804392 0.900390 0.180409
0.852928 0.900927 0.180946
0.901464 0.901464 0.181483
0.096165 0.096165 0.192162
0.144701 0.096702 0.192699
0.193236 0.097239 0.193236
0.241772 0.097776 0.193774
0.290308 0.098313 0.194311
0.338844 0.098850 0.194848
0.387380 0.099387 0.195385
0.435916 0.099924 0.195922
0.484451 0.100461 0.196459
0.532987 0.100999 0.196996
0.581523 0.101536 0.197533
0.630059 0.102073 0.198070
0.678595 0.102610 0.198607
0.727131 0.103147 0.199144
0.775666 0.103684 0.199681
0.824202 0.104221 0.200219
0.872738 0.104758 0.200756
0.097972 0.145970 0.193969
0.146507 0.146507 0.194506
0.195043 0.147044 0.195043
0.243579 0.147582 0.195580
0.292115 0.148119 0.196117
0.340651 0.148656 0.196654
0.389187 0.149193 0.197192
0.437722 0.149730 0.197729
0.486258 0.150267 0.198266
0.534794 0.150804 0.198803
0.583330 0.151341 0.199340
0.631866 0.151878 0.199877
0.680402 0.152415 0.200414
0.728937 0.152952 0.200951
0.777473 0.153489 0.201488
0.826009 0.154027 0.202025
0.874545 0.154564 0.202562
0.099778 0.195776 0.195776
0.148314 0.196313 0.196313
0.196850 0.196850 0.196850
0.245386 0.197387 0.197387
0.293922 0.197924 0.197924
0.342457 0.198461 0.198461
0.390993 0.198998 0.198998
0.439529 0.199535 0.199535
0.488065 0.200072 0.200072
0.536601 0.200610 0.200610
0.585137 0.201147 0.201147
0.633672 0.201684 0.201684
0.682208 0.202221 0.202221
0.730744 0.202758 0.202758
0.779280 0.203295 0.203295
0.827816 0.203832 0.203832
0.876352 0.204369 0.204369
0.101585 0.245581 0.197583
0.150121 0.246118 0.198120
0.198657 0.246656 0.198657
0.247193 0.247193 0.199194
0.295728 0.247730 0.199731
0.344264 0.248267 0.200268
0.392800 0.248804 0.200805
0.441336 0.249341 0.201342
0.489872 0.249878 0.201879
0.538408 0.250415 0.202416
0.586943 0.250952 0.202953
0.635479 0.251489 0.203491
0.684015 0.252026 0.204028
0.732551 0.252563 0.204565
0.781087 0.253100 0.205102
0.829623 0.253638 0.205639
0.878158 0.254175 0.206176
0.103392 0.295387 0.199389
0.151928 0.295924 0.199926
0.200464 0.296461 0.200464
0.248999 0.296998 0.201001
0.297535 0.297535 0.201538
0.346071 0.298072 0.202075
0.394607 0.298609 0.202612
0.443143 0.299146 0.203149
0.491679 0.299684 0.203686
0.540214 0.300221 0.204223
0.588750 0.300758 0.204760
0.637286 0.301295 0.205297
0.685822 0.301832 0.205834
0.734358 0.302369 0.206371
0.782894 0.302906 0.206909
0.831429 0.303443 0.207446
0.879965 0.303980 0.207983
0.105199 0.345192 0.201196
0.153734 0.345729 0.201733
0.202270 0.346267 0.202270
0.250806 0.346804 0.202807
0.299342 0.347341 0.203344
0.347878 0.347878 0.203882
0.396414 0.348415 0.204419
0.444949 0.348952 0.204956
0.493485 0.349489 0.205493
0.542021 0.350026 0.206030
0.590557 0.350563 0.206567
0.639093 0.351100 0.207104
0.687629 0.351637 0.207641
0.736164 0.352174 0.208178
0.784700 0.352712 0.208715
0.833236 0.353249 0.209252
0.881772 0.353786 0.209789
0.107005 0.394998 0.203003
0.155541 0.395535 0.203540
0.204077 0.396072 0.204077
0.252613 0.396609 0.204614
0.301149 0.397146 0.205151
0.349685 0.397683 0.205688
0.398220 0.398220 0.206225
0.446756 0.398757 0.206762
0.495292 0.399295 0.207300
0.543828 0.399832 0.207837
0.592364 0.400369 0.208374
0.640900 0.400906 0.208911
0.689435 0.401443 0.209448
0.737971 0.401980 0.209985
0.786507 0.402517 0.210522
0.835043 0.403054 0.211059
0.883579 0.403591 0.211596
0.108812 0.444803 0.204810
0.157348 0.445341 0.205347
0.205884 0.445878 0.205884
0.254420 0.446415 0.206421
0.302956 0.446952 0.206958
0.351491 0.447489 0.207495
0.400027 0.448026 0.208032
0.448563 0.448563 0.208569
0.497099 0.449100 0.209106
0.545635 0.449637 0.209643
0.594171 0.450174 0.210181
0.642706 0.450711 0.210718
0.691242 0.451248 0.211255
0.739778 0.451786 0.211792
0.788314 0.452323 0.212329
0.836850 0.452860 0.212866
0.885386 0.453397 0.213403
0.110619 0.494609 0.206616
0.159155 0.495146 0.207154
0.207691 0.495683 0.207691
0.256226 0.496220 0.208228
0.304762 0.496757 0.208765
0.353298 0.497294 0.209302
0.401834 0.497831 0.209839
0.450370 0.498369 0.210376
0.498906 0.498906 0.210913
0.547441 0.499443 0.211450
0.595977 0.499980 0.211987
0.644513 0.500517 0.212524
0.693049 0.501054 0.213061
0.741585 0.501591 0.213599
0.790121 0.502128 0.214136
0.838656 0.502665 0.214673
0.887192 0.503202 0.215210
0.112426 0.544415 0.208423
0.160962 0.544952 0.208960
0.209497 0.545489 0.209497
0.258033 0.546026 0.210034
0.306569 0.546563 0.210572
0.355105 0.547100 0.211109
0.403641 0.547637 0.211646
0.452177 0.548174 0.212183
0.500712 0.548711 0.212720
0.549248 0.549248 0.213257
0.597784 0.549785 0.213794
0.646320 0.550322 0.214331
0.694856 0.550859 0.214868
0.743392 0.551397 0.215405
0.791927 0.551934 0.215942
0.840463 0.552471 0.216479
0.888999 0.553008 0.217017
0.114233 0.594220 0.210230
0.162768 0.594757 0.210767
0.211304 0.595294 0.211304
0.259840 0.595831 0.211841
0.308376 0.596368 0.212378
0.356912 0.596905 0.212915
0.405448 0.597443 0.213453
0.453983 0.597980 0.213990
0.502519 0.598517 0.214527
0.551055 0.599054 0.215064
0.599591 0.599591 0.215601
0.648127 0.600128 0.216138
0.696662 0.600665 0.216675
0.745198 0.601202 0.217212
0.793734 0.601739 0.217749
0.842270 0.602276 0.218286
0.890806 0.602813 0.218823
0.116039 0.644026 0.212037
0.164575 0.644563 0.212574
0.213111 0.645100 0.213111
0.261647 0.645637 0.213648
0.310183 0.646174 0.214185
0.358718 0.646711 0.214722
0.407254 0.647248 0.215259
0.455790 0.647785 0.215796
0.504326 0.648322 0.216333
0.552862 0.648859 0.216871
0.601398 0.649396 0.217408
0.649933 0.649933 0.217945
0.698469 0.650471 0.218482
0.747005 0.651008 0.219019
0.795541 0.651545 0.219556
0.844077 0.652082 0.220093
0.892613 0.652619 0.220630
0.117846 0.693831 0.213844
0.166382 0.694368 0.214381
0.214918 0.694905 0.214918
0.263454 0.695442 0.215455
0.311989 0.695979 0.215992
0.360525 0.696516 0.216529
0.409061 0.697054 0.217066
0.457597 0.697591 0.217603
0.506133 0.698128 0.218140
0.554669 0.698665 0.218677
0.603204 0.699202 0.219214
0.651740 0.699739 0.219751
0.700276 0.700276 0.220289
0.748812 0.700813 0.220826
0.797348 0.701350 0.221363
0.845884 0.701887 0.221900
0.894419 0.702424 0.222437
0.119653 0.743637 0.215650
0.168189 0.744174 0.216187
0.216725 0.744711 0.216725
0.265260 0.745248 0.217262
0.313796 0.745785 0.217799
0.362332 0.746322 0.218336
0.410868 0.746859 0.218873
0.459404 0.747396 0.219410
0.507939 0.747933 0.219947
0.556475 0.748470 0.220484
0.605011 0.749007 0.221021
0.653547 0.749544 0.221558
0.702083 0.750082 0.222095
0.750619 0.750619 0.222632
0.799154 0.751156 0.223169
0.847690 0.751693 0.223707
0.896226 0.752230 0.224244
0.121460 0.793442 0.217457
0.169995 0.793979 0.217994
0.218531 0.794516 0.218531
0.267067 0.795053 0.219068
0.315603 0.795590 0.219605
0.364139 0.796128 0.220143
0.412675 0.796665 0.220680
0.461210 0.797202 0.221217
0.509746 0.797739 0.221754
0.558282 0.798276 0.222291
0.606818 0.798813 0.222828
0.655354 0.799350 0.223365
0.703890 0.799887 0.223902
0.752425 0.800424 0.224439
0.800961 0.800961 0.224976
0.849497 0.801498 0.225513
0.898033 0.802035 0.226050
0.123266 0.843248 0.219264
0.171802 0.843785 0.219801
0.220338 0.844322 0.220338
0.268874 0.844859 0.220875
0.317410 0.845396 0.221412
0.365946 0.845933 0.221949
0.414481 0.846470 0.222486
0.463017 0.847007 0.223023
0.511553 0.847544 0.223561
0.560089 0.848081 0.224098
0.608625 0.848618 0.224635
0.657161 0.849156 0.225172
0.705696 0.849693 0.225709
0.754232 0.850230 0.226246
0.802768 0.850767 0.226783
0.851304 0.851304 0.227320
0.899840 0.851841 0.227857
0.125073 0.893053 0.221071
0.173609 0.893590 0.221608
0.222145 0.894127 0.222145
0.270681 0.894664 0.222682
0.319216 0.895201 0.223219
0.367752 0.895739 0.223756
0.416288 0.896276 0.224293
0.464824 0.896813 0.224830
0.513360 0.897350 0.225367
0.561896 0.897887 0.225904
0.610431 0.898424 0.226441
0.658967 0.898961 0.226979
0.707503 0.899498 0.227516
0.756039 0.900035 0.228053
0.804575 0.900572 0.228590
0.853111 0.901109 0.229127
0.901646 0.901646 0.229664
0.096347 0.096347 0.240343
0.144883 0.096884 0.240881
0.193419 0.097421 0.241418
0.241955 0.097958 0.241955
0.290491 0.098496 0.242492
0.339026 0.099033 0.243029
0.387562 0.099570 0.243566
0.436098 0.100107 0.244103
0.484634 0.100644 0.244640
0.533170 0.101181 0.245177
0.581705 0.101718 0.245714
0.630241 0.102255 0.246251
0.678777 0.102792 0.246788
0.727313 0.103329 0.247325
