assets/lighting/technical/grade-broadcast-safe-proxy/lut.cube
TITLE "Broadcast-Safe Contrast Proxy"
# TKRS lighting-batch-001 original LUT
# Intended usage: pull extremes toward legal-ish range
# License: CC0-1.0
LUT_3D_SIZE 5
DOMAIN_MIN 0.0 0.0 0.0
DOMAIN_MAX 1.0 1.0 1.0
0.095800 0.095800 0.095800
0.289943 0.097948 0.097948
0.484087 0.100097 0.100097
0.678230 0.102245 0.102245
0.872373 0.104393 0.104393
0.103027 0.295022 0.103027
0.297170 0.297170 0.105175
0.491314 0.299319 0.107324
0.685457 0.301467 0.109472
0.879600 0.303615 0.111620
0.110254 0.494244 0.110254
0.304398 0.496393 0.112403
0.498541 0.498541 0.114551
0.692684 0.500689 0.116699
0.886827 0.502837 0.118847
0.117481 0.693466 0.117481
0.311625 0.695615 0.119630
0.505768 0.697763 0.121778
0.699911 0.699911 0.123926
0.894055 0.702060 0.126075
0.124708 0.892688 0.124708
0.318852 0.894837 0.126857
0.512995 0.896985 0.129005
0.707138 0.899133 0.131153
0.901282 0.901282 0.133302
0.096530 0.096530 0.288525
0.290673 0.098678 0.290673
0.484816 0.100826 0.292821
0.678960 0.102975 0.294970
0.873103 0.105123 0.297118
0.103757 0.295752 0.295752
0.297900 0.297900 0.297900
0.492043 0.300048 0.300048
0.686187 0.302197 0.302197
0.880330 0.304345 0.304345
0.110984 0.494974 0.302979
0.305127 0.497122 0.305127
0.499270 0.499270 0.307275
0.693414 0.501419 0.309424
0.887557 0.503567 0.311572
0.118211 0.694196 0.310206
0.312354 0.696344 0.312354
0.506498 0.698493 0.314503
0.700641 0.700641 0.316651
0.894784 0.702789 0.318799
0.125438 0.893418 0.317433
0.319581 0.895566 0.319581
0.513725 0.897715 0.321730
0.707868 0.899863 0.323878
0.902011 0.902011 0.326026
0.097259 0.097259 0.481249
0.291402 0.099407 0.483397
0.485546 0.101556 0.485546
0.679689 0.103704 0.487694
0.873832 0.105852 0.489842
0.104486 0.296481 0.488476
0.298630 0.298630 0.490625
0.492773 0.300778 0.492773
0.686916 0.302926 0.494921
0.881060 0.305075 0.497070
0.111713 0.495703 0.495703
0.305857 0.497852 0.497852
0.500000 0.500000 0.500000
0.694143 0.502148 0.502148
0.888287 0.504297 0.504297
0.118940 0.694925 0.502930
0.313084 0.697074 0.505079
0.507227 0.699222 0.507227
0.701370 0.701370 0.509375
0.895514 0.703519 0.511524
0.126168 0.894148 0.510158
0.320311 0.896296 0.512306
0.514454 0.898444 0.514454
0.708598 0.900593 0.516603
0.902741 0.902741 0.518751
0.097989 0.097989 0.673974
0.292132 0.100137 0.676122
0.486275 0.102285 0.678270
0.680419 0.104434 0.680419
0.874562 0.106582 0.682567
0.105216 0.297211 0.681201
0.299359 0.299359 0.683349
0.493502 0.301507 0.685497
0.687646 0.303656 0.687646
0.881789 0.305804 0.689794
0.112443 0.496433 0.688428
0.306586 0.498581 0.690576
0.500730 0.500730 0.692725
0.694873 0.502878 0.694873
0.889016 0.505026 0.697021
0.119670 0.695655 0.695655
0.313813 0.697803 0.697803
0.507957 0.699952 0.699952
0.702100 0.702100 0.702100
0.896243 0.704248 0.704248
0.126897 0.894877 0.702882
0.321040 0.897025 0.705030
0.515184 0.899174 0.707179
0.709327 0.901322 0.709327
0.903470 0.903470 0.711475
0.098718 0.098718 0.866698
0.292862 0.100867 0.868847
0.487005 0.103015 0.870995
0.681148 0.105163 0.873143
0.875292 0.107312 0.875292
0.105945 0.297940 0.873925
0.300089 0.300089 0.876074
0.494232 0.302237 0.878222
0.688375 0.304385 0.880370
0.882519 0.306534 0.882519
0.113173 0.497163 0.881153
0.307316 0.499311 0.883301
0.501459 0.501459 0.885449
0.695602 0.503607 0.887597
0.889746 0.505756 0.889746
0.120400 0.696385 0.888380
0.314543 0.698533 0.890528
0.508686 0.700681 0.892676
0.702830 0.702830 0.894825
0.896973 0.704978 0.896973
0.127627 0.895607 0.895607
0.321770 0.897755 0.897755
0.515913 0.899903 0.899903
0.710057 0.902052 0.902052
0.904200 0.904200 0.904200
