assets/lighting/cinematic/grade-night-vision-green/lut.cube
TITLE "Night Vision Green"
# TKRS lighting-batch-001 original LUT
# Intended usage: NVG phosphor green reference
# License: CC0-1.0
LUT_3D_SIZE 17
DOMAIN_MIN 0.0 0.0 0.0
DOMAIN_MAX 1.0 1.0 1.0
0.000000 0.000000 0.000000
0.000000 0.000000 0.000000
0.000000 0.000000 0.000000
0.000000 0.000000 0.000000
0.000000 0.000000 0.000000
0.012754 0.000000 0.000000
0.031605 0.000000 0.000000
0.050455 0.000000 0.000000
0.069306 0.000000 0.000000
0.088156 0.000000 0.000000
0.107007 0.007604 0.005134
0.125857 0.020435 0.013798
0.144708 0.033265 0.022461
0.163558 0.046095 0.031124
0.182409 0.058926 0.039787
0.201259 0.071756 0.048450
0.220109 0.084587 0.057114
0.000000 0.000000 0.000000
0.000000 0.000000 0.000000
0.000000 0.000000 0.000000
0.004197 0.000000 0.000000
0.023048 0.000000 0.000000
0.041898 0.001702 0.000000
0.060749 0.014532 0.000000
0.079599 0.027363 0.008288
0.098449 0.040193 0.016952
0.117300 0.053024 0.025615
0.136150 0.065854 0.034278
0.155001 0.078685 0.042941
0.173851 0.091515 0.051604
0.192702 0.104345 0.060268
0.211552 0.117176 0.068931
0.230403 0.130006 0.077594
0.249253 0.142837 0.086257
0.000000 0.000000 0.000000
0.000000 0.008630 0.000000
0.014490 0.021461 0.000000
0.033341 0.034291 0.002779
0.052191 0.047121 0.011442
0.071042 0.059952 0.020106
0.089892 0.072782 0.028769
0.108743 0.085613 0.037432
0.127593 0.098443 0.046095
0.146444 0.111274 0.054758
0.165294 0.124104 0.063422
0.184144 0.136935 0.072085
0.202995 0.149765 0.080748
0.221881 0.162683 0.089422
0.241115 0.176435 0.098203
0.260498 0.190538 0.107031
0.280008 0.204934 0.115902
0.005933 0.054050 0.005933
0.024784 0.066880 0.014596
0.043634 0.079711 0.023259
0.062484 0.092541 0.031923
0.081335 0.105371 0.040586
0.100185 0.118202 0.049249
0.119036 0.131032 0.057912
0.137886 0.143863 0.066576
0.156737 0.156693 0.075239
0.175587 0.169524 0.083902
0.194568 0.182759 0.092612
0.213803 0.196742 0.101412
0.233165 0.211054 0.110256
0.252645 0.225661 0.119142
0.272242 0.240552 0.128068
0.291956 0.255724 0.137034
0.311789 0.271177 0.146042
0.035077 0.112300 0.035077
0.053927 0.125130 0.043740
0.072778 0.137961 0.052403
0.091628 0.150791 0.061066
0.110479 0.163621 0.069730
0.129329 0.176452 0.078393
0.148179 0.189282 0.087056
0.167241 0.202957 0.095810
0.186461 0.217160 0.104627
0.205795 0.231686 0.113486
0.225241 0.246508 0.122387
0.244800 0.261618 0.131327
0.264474 0.277014 0.140309
0.284263 0.292696 0.149332
0.304170 0.308664 0.158396
0.324196 0.324921 0.167503
0.344344 0.341468 0.176652
0.064220 0.170550 0.064220
0.083071 0.183380 0.072884
0.101921 0.196210 0.081547
0.120805 0.209234 0.090229
0.139888 0.223270 0.099015
0.159084 0.237693 0.107847
0.178386 0.252434 0.116722
0.197795 0.267475 0.125637
0.217314 0.282809 0.134593
0.236944 0.298432 0.143589
0.256689 0.314346 0.152627
0.276549 0.330550 0.161707
0.296527 0.347046 0.170829
0.316625 0.363837 0.179994
0.336844 0.380924 0.189202
0.357187 0.398310 0.198454
0.377655 0.415996 0.207750
0.093440 0.229416 0.093421
0.112505 0.243699 0.102225
0.131670 0.258342 0.111074
0.150936 0.273303 0.119963
0.170305 0.288566 0.128893
0.189782 0.304126 0.137863
0.209367 0.319980 0.146875
0.229065 0.336128 0.155928
0.248877 0.352571 0.165023
0.268805 0.369310 0.174160
0.288852 0.386346 0.183341
0.309020 0.403683 0.192565
0.329309 0.421321 0.201833
0.349723 0.439263 0.211146
0.370262 0.457512 0.220503
0.390928 0.476069 0.229906
0.411723 0.494936 0.239355
0.123443 0.294294 0.123209
0.142770 0.309783 0.132154
0.162202 0.325572 0.141139
0.181741 0.341660 0.150166
0.201391 0.358045 0.159234
0.221153 0.374729 0.168345
0.241031 0.391712 0.177498
0.261026 0.408997 0.186694
0.281140 0.426585 0.195934
0.301375 0.444478 0.205218
0.321734 0.462678 0.214547
0.342217 0.481187 0.223921
0.362826 0.500007 0.233341
0.383564 0.519140 0.242806
0.404430 0.538589 0.252318
0.425427 0.558355 0.261876
0.446557 0.578440 0.271482
0.154066 0.363472 0.153462
0.173666 0.380097 0.162546
0.193378 0.397025 0.171672
0.213203 0.414255 0.180841
0.233145 0.431791 0.190053
0.253205 0.449632 0.199309
0.273385 0.467782 0.208609
0.293687 0.486241 0.217955
0.314114 0.505012 0.227345
0.334666 0.524097 0.236781
0.355345 0.543498 0.246263
0.376152 0.563217 0.255792
0.397090 0.583255 0.265368
0.418158 0.603615 0.274991
0.439360 0.624299 0.284661
0.460696 0.645308 0.294380
0.482166 0.666644 0.304147
0.185321 0.436940 0.184189
0.205209 0.454728 0.193418
0.225213 0.472825 0.202690
0.245338 0.491233 0.212006
0.265583 0.509953 0.221368
0.285952 0.528989 0.230775
0.306446 0.548341 0.240228
0.327065 0.568011 0.249727
0.347813 0.588001 0.259273
0.368690 0.608314 0.268866
0.389698 0.628950 0.278506
0.410838 0.649912 0.288194
0.432112 0.671202 0.297930
0.453519 0.692821 0.307715
0.475063 0.714772 0.317548
0.496744 0.737055 0.327431
0.518563 0.759673 0.337363
0.217233 0.514832 0.215409
0.237421 0.533816 0.224788
0.257731 0.553117 0.234211
0.278166 0.572737 0.243681
0.298726 0.592678 0.253197
0.319413 0.612942 0.262760
0.340229 0.633530 0.272370
0.361176 0.654444 0.282027
0.382254 0.675686 0.291733
0.403464 0.697258 0.301487
0.424809 0.719161 0.311289
0.446289 0.741398 0.321141
0.467905 0.763969 0.331041
0.489659 0.786877 0.340992
0.511552 0.810124 0.350992
0.533584 0.833710 0.361042
0.555757 0.857637 0.371143
0.249826 0.597288 0.247140
0.270326 0.617501 0.256673
0.290952 0.638040 0.266253
0.311706 0.658905 0.275880
0.332590 0.680098 0.285555
0.353605 0.701621 0.295278
0.374753 0.723477 0.305050
0.396034 0.745665 0.314870
0.417449 0.768189 0.324739
0.439001 0.791050 0.334658
0.460689 0.814249 0.344626
0.482516 0.837789 0.354645
0.504483 0.861670 0.364714
0.526589 0.885894 0.374833
0.548837 0.910463 0.385003
0.571227 0.935378 0.395225
0.593760 0.960641 0.405498
0.283121 0.684439 0.279397
0.303942 0.705913 0.289090
0.324894 0.727719 0.298830
0.345977 0.749859 0.308619
0.367194 0.772334 0.318457
0.388545 0.795147 0.328345
0.410031 0.818298 0.338281
0.431654 0.841789 0.348268
0.453415 0.865623 0.358305
0.475314 0.889799 0.368392
0.497354 0.914321 0.378530
0.519534 0.939189 0.388719
0.541856 0.964405 0.398959
0.564321 0.989971 0.409251
0.586930 1.000000 0.419594
0.609684 1.000000 0.429990
0.631200 1.000000 0.439697
0.317137 0.776405 0.312195
0.338289 0.799168 0.322051
0.359575 0.822270 0.331956
0.380995 0.845713 0.341911
0.402552 0.869498 0.351916
0.424246 0.893626 0.361971
0.446078 0.918100 0.372077
0.468050 0.942920 0.382233
0.490163 0.968089 0.392441
0.512417 0.993606 0.402700
0.534813 1.000000 0.413010
0.557353 1.000000 0.423373
0.579960 1.000000 0.433743
0.600840 1.000000 0.443106
0.621721 1.000000 0.452469
0.642601 1.000000 0.461832
0.663482 1.000000 0.471195
0.351893 0.873296 0.345548
0.373383 0.897375 0.355571
0.395010 0.921800 0.365644
0.416775 0.946572 0.375769
0.438679 0.971692 0.385944
0.460723 0.997161 0.396170
0.482909 1.000000 0.406447
0.505236 1.000000 0.416777
0.527707 1.000000 0.427159
0.549601 1.000000 0.437152
0.570481 1.000000 0.446515
0.591362 1.000000 0.455878
0.612242 1.000000 0.465241
0.633123 1.000000 0.474604
0.654003 1.000000 0.483967
0.674884 1.000000 0.493330
0.695764 1.000000 0.502692
0.387404 0.975215 0.379467
0.409239 1.000000 0.389661
0.431215 1.000000 0.399906
0.453331 1.000000 0.410202
0.475589 1.000000 0.420550
0.497990 1.000000 0.430951
0.519241 1.000000 0.440561
0.540122 1.000000 0.449923
0.561002 1.000000 0.459286
0.581883 1.000000 0.468649
0.602763 1.000000 0.478012
0.623644 1.000000 0.487375
0.644524 1.000000 0.496738
0.665405 1.000000 0.506101
0.686285 1.000000 0.515464
0.707166 1.000000 0.524827
0.728046 1.000000 0.534190
0.423685 1.000000 0.413964
0.445873 1.000000 0.424331
0.468001 1.000000 0.434606
0.488882 1.000000 0.443969
0.509762 1.000000 0.453332
0.530643 1.000000 0.462695
0.551523 1.000000 0.472058
0.572404 1.000000 0.481421
0.593284 1.000000 0.490784
0.614165 1.000000 0.500147
0.635046 1.000000 0.509510
0.655926 1.000000 0.518873
0.676807 1.000000 0.528236
0.697687 1.000000 0.537599
0.718568 1.000000 0.546962
0.739448 1.000000 0.556325
0.760329 1.000000 0.565688
0.000000 0.000000 0.000000
0.000000 0.000000 0.000000
0.000000 0.000000 0.000000
0.000000 0.000000 0.000000
0.000000 0.000000 0.000000
0.015696 0.000000 0.000000
0.034547 0.000000 0.000000
0.053397 0.000000 0.000000
0.072248 0.000000 0.000937
0.091098 0.000000 0.009600
0.109949 0.011961 0.018264
0.128799 0.024792 0.026927
0.147650 0.037622 0.035590
0.166500 0.050453 0.044253
0.185351 0.063283 0.052917
0.204201 0.076114 0.061580
0.223052 0.088944 0.070243
0.000000 0.000000 0.000000
0.000000 0.000000 0.000000
0.000000 0.000000 0.000000
0.007139 0.000000 0.000000
0.025990 0.000000 0.000000
0.044840 0.006059 0.004091
0.063691 0.018890 0.012754
0.082541 0.031720 0.021418
0.101392 0.044551 0.030081
0.120242 0.057381 0.038744
0.139092 0.070211 0.047407
0.157943 0.083042 0.056071
0.176793 0.095872 0.064734
0.195644 0.108703 0.073397
0.214494 0.121533 0.082060
0.233345 0.134364 0.090723
0.252229 0.147259 0.099397
0.000000 0.000157 0.000000
0.000000 0.012987 0.000000
0.017432 0.025818 0.007245
0.036283 0.038648 0.015908
0.055133 0.051479 0.024572
0.073984 0.064309 0.033235
0.092834 0.077140 0.041898
0.111685 0.089970 0.050561
0.130535 0.102800 0.059225
0.149386 0.115631 0.067888
0.168236 0.128461 0.076551
0.187087 0.141292 0.085214
0.205937 0.154122 0.093877
0.224930 0.167303 0.102589
0.244215 0.181190 0.111401
0.263635 0.195395 0.120260
0.283180 0.209887 0.129161
0.008875 0.058407 0.019062
0.027726 0.071237 0.027726
0.046576 0.084068 0.036389
0.065426 0.096898 0.045052
0.084277 0.109729 0.053715
0.103127 0.122559 0.062378
0.121978 0.135390 0.071042
0.140828 0.148220 0.079705
0.159679 0.161050 0.088368
0.178529 0.173881 0.097031
0.197621 0.187465 0.105791
0.216895 0.201568 0.114621
0.236290 0.215983 0.123496
0.255802 0.230687 0.132412
0.275431 0.245673 0.141370
0.295176 0.260941 0.150369
0.315041 0.276489 0.159410
0.038019 0.116657 0.048206
0.056869 0.129487 0.056869
0.075720 0.142318 0.065532
0.094570 0.155148 0.074196
0.113421 0.167979 0.082859
0.132271 0.180809 0.091522
0.151159 0.193798 0.100204
0.170289 0.207741 0.109001
0.189541 0.222059 0.117847
0.208906 0.236687 0.126737
0.228383 0.251607 0.135668
0.247972 0.266815 0.144641
0.267676 0.282308 0.153656
0.287496 0.298086 0.162712
0.307435 0.314152 0.171811
0.327493 0.330508 0.180952
0.347673 0.347154 0.190137
0.067162 0.174907 0.077350
0.086013 0.187737 0.086013
0.104863 0.200568 0.094676
0.123810 0.213946 0.103399
0.142927 0.228130 0.112216
0.162151 0.242665 0.121079
0.181482 0.257509 0.129984
0.200920 0.272650 0.138930
0.220468 0.288082 0.147918
0.240129 0.303804 0.156948
0.259903 0.319816 0.166020
0.279794 0.336119 0.175134
0.299803 0.352715 0.184291
0.319933 0.369607 0.193492
0.340184 0.386795 0.202736
0.360559 0.404282 0.212025
0.381060 0.422072 0.221359
0.096439 0.234220 0.106603
0.115531 0.248634 0.115438
0.134723 0.263388 0.124316
0.154016 0.278453 0.133236
0.173413 0.293818 0.142198
0.192918 0.309477 0.151201
0.212533 0.325431 0.160246
0.232260 0.341679 0.169333
0.252102 0.358222 0.178463
0.272061 0.375062 0.187636
0.292139 0.392200 0.196852
0.312338 0.409639 0.206113
0.332659 0.427380 0.215418
0.353105 0.445426 0.224768
0.373677 0.463779 0.234164
0.394376 0.482441 0.243605
0.415205 0.501414 0.253093
0.126506 0.299520 0.136494
0.145861 0.315111 0.145471
0.165320 0.331002 0.154489
0.184888 0.347191 0.163549
0.204566 0.363677 0.172652
0.224358 0.380463 0.181797
0.244265 0.397549 0.190986
0.264291 0.414936 0.200219
0.284436 0.432627 0.209496
0.304703 0.450624 0.218817
0.325093 0.468929 0.228184
0.345609 0.487543 0.237596
0.366251 0.506470 0.247054
0.387022 0.525710 0.256559
0.407922 0.545266 0.266110
0.428953 0.565140 0.275709
0.450116 0.585334 0.285355
0.157192 0.369084 0.166858
0.176821 0.385812 0.175976
0.196561 0.402842 0.185138
0.216416 0.420176 0.194342
0.236388 0.437815 0.203591
0.256479 0.455761 0.212884
0.276690 0.474016 0.222222
0.297024 0.492581 0.231605
0.317483 0.511458 0.241034
0.338067 0.530651 0.250509
0.358779 0.550159 0.260031
0.379619 0.569986 0.269599
0.400590 0.590134 0.279215
0.421693 0.610603 0.288878
0.442929 0.631397 0.298590
0.464299 0.652517 0.308349
0.485805 0.673965 0.318158
0.188512 0.442946 0.197704
0.208430 0.460839 0.206969
0.228465 0.479041 0.216278
0.248620 0.497555 0.225633
0.268897 0.516382 0.235033
0.289297 0.535525 0.244478
0.309823 0.554985 0.253970
0.330475 0.574764 0.263509
0.351256 0.594863 0.273094
0.372167 0.615285 0.282727
0.393208 0.636032 0.292408
0.414382 0.657105 0.302137
0.435690 0.678507 0.311915
0.457132 0.700238 0.321741
0.478711 0.722302 0.331617
0.500427 0.744699 0.341541
0.522281 0.767431 0.351516
0.220492 0.521243 0.229050
0.240711 0.540335 0.238466
0.261053 0.559744 0.247928
0.281519 0.579473 0.257437
0.302112 0.599523 0.266993
0.322832 0.619897 0.276596
0.343681 0.640596 0.286246
0.364660 0.661621 0.295945
0.385772 0.682975 0.305691
0.407017 0.704659 0.315486
0.428396 0.726676 0.325331
0.449910 0.749026 0.335224
0.471562 0.771711 0.345167
0.493351 0.794734 0.355160
0.515279 0.818096 0.365203
0.537347 0.841797 0.375297
0.559556 0.865841 0.385441
0.253155 0.604116 0.260911
0.273687 0.624440 0.270484
0.294345 0.645089 0.280104
0.315133 0.666065 0.289772
0.336050 0.687370 0.299487
0.357098 0.709006 0.309252
0.378280 0.730975 0.319065
0.399595 0.753277 0.328927
0.421045 0.775915 0.338838
0.442631 0.798891 0.348799
0.464355 0.822205 0.358811
0.486217 0.845860 0.368872
0.508219 0.869858 0.378984
0.530361 0.894199 0.389147
0.552645 0.918885 0.399362
0.575072 0.943918 0.409627
0.597642 0.969299 0.419945
0.286522 0.691694 0.293303
0.307376 0.713281 0.303037
0.328361 0.735200 0.312819
0.349478 0.757454 0.322649
0.370729 0.780043 0.332529
0.392114 0.802971 0.342459
0.413635 0.826237 0.352438
0.435293 0.849845 0.362468
0.457089 0.873795 0.372548
0.479024 0.898088 0.382678
0.501099 0.922727 0.392860
0.523315 0.947714 0.403093
0.545674 0.973048 0.413377
0.568175 0.998732 0.423714
0.590821 1.000000 0.434102
0.613578 1.000000 0.444524
0.634459 1.000000 0.453887
0.320612 0.784097 0.326241
0.341798 0.806975 0.336139
0.363117 0.830193 0.346086
0.384572 0.853752 0.356084
0.406164 0.877653 0.366132
0.427893 0.901899 0.376230
0.449761 0.926490 0.386379
0.471768 0.951428 0.396580
0.493917 0.976715 0.406831
0.516207 1.000000 0.417134
0.538640 1.000000 0.427490
0.561216 1.000000 0.437897
0.583219 1.000000 0.447933
0.604099 1.000000 0.457296
0.624980 1.000000 0.466659
0.645860 1.000000 0.476022
0.666741 1.000000 0.485385
0.355443 0.881435 0.359736
0.376968 0.905631 0.369802
0.398630 0.930174 0.379919
0.420430 0.955063 0.390087
0.442369 0.980302 0.400306
0.464449 1.000000 0.410576
0.486671 1.000000 0.420898
0.509034 1.000000 0.431273
0.531541 1.000000 0.441699
0.552860 1.000000 0.451342
0.573740 1.000000 0.460705
0.594621 1.000000 0.470067
0.615501 1.000000 0.479430
0.636382 1.000000 0.488793
0.657262 1.000000 0.498156
0.678143 1.000000 0.507519
0.699023 1.000000 0.516882
0.391031 0.983809 0.393801
0.412902 1.000000 0.404039
0.434913 1.000000 0.414328
0.457065 1.000000 0.424669
0.479359 1.000000 0.435062
0.501620 1.000000 0.445387
0.522500 1.000000 0.454750
0.543381 1.000000 0.464113
0.564261 1.000000 0.473476
0.585142 1.000000 0.482839
0.606022 1.000000 0.492202
0.626903 1.000000 0.501565
0.647783 1.000000 0.510928
0.668664 1.000000 0.520291
0.689544 1.000000 0.529654
0.710425 1.000000 0.539017
0.731305 1.000000 0.548380
0.427391 1.000000 0.428447
0.449615 1.000000 0.438859
0.471260 1.000000 0.448796
0.492141 1.000000 0.458159
0.513021 1.000000 0.467522
0.533902 1.000000 0.476885
0.554782 1.000000 0.486248
0.575663 1.000000 0.495611
0.596543 1.000000 0.504974
0.617424 1.000000 0.514337
0.638304 1.000000 0.523700
0.659185 1.000000 0.533063
0.680065 1.000000 0.542426
0.700946 1.000000 0.551788
0.721826 1.000000 0.561151
0.742707 1.000000 0.570514
0.763587 1.000000 0.579877
0.000000 0.000000 0.000000
0.000000 0.000000 0.000000
0.000000 0.000000 0.000000
0.000000 0.000000 0.000000
0.000000 0.000000 0.000000
0.018639 0.000000 0.000000
0.037489 0.000000 0.000000
0.056339 0.000000 0.005403
0.075190 0.000000 0.014067
0.094040 0.003488 0.022730
0.112891 0.016319 0.031393
0.131741 0.029149 0.040056
0.150592 0.041980 0.048719
0.169442 0.054810 0.057383
0.188293 0.067640 0.066046
0.207143 0.080471 0.074709
0.225994 0.093301 0.083372
0.000000 0.000000 0.000000
0.000000 0.000000 0.000000
0.000000 0.000000 0.000000
0.010081 0.000000 0.000000
0.028932 0.000000 0.008557
0.047782 0.010416 0.017221
0.066633 0.023247 0.025884
0.085483 0.036077 0.034547
0.104334 0.048908 0.043210
0.123184 0.061738 0.051873
0.142035 0.074569 0.060537
0.160885 0.087399 0.069200
0.179735 0.100230 0.077863
0.198586 0.113060 0.086526
0.217436 0.125890 0.095190
0.236287 0.138721 0.103853
0.255290 0.151850 0.112566
0.000000 0.004514 0.003048
0.001524 0.017345 0.011711
0.020374 0.030175 0.020374
0.039225 0.043006 0.029038
0.058075 0.055836 0.037701
0.076926 0.068666 0.046364
0.095776 0.081497 0.055027
0.114627 0.094327 0.063691
0.133477 0.107158 0.072354
0.152328 0.119988 0.081017
0.171178 0.132819 0.089680
0.190029 0.145649 0.098343
0.208879 0.158480 0.107007
0.227998 0.171978 0.115772
0.247326 0.185981 0.124615
0.266782 0.200285 0.133504
0.286360 0.214872 0.142436
0.011817 0.062764 0.032192
0.030668 0.075595 0.040855
0.049518 0.088425 0.049518
0.068369 0.101256 0.058181
0.087219 0.114086 0.066845
0.106069 0.126916 0.075508
0.124920 0.139747 0.084171
0.143770 0.152577 0.092834
0.162621 0.165408 0.101497
0.181511 0.178366 0.110179
0.200686 0.192217 0.118986
0.219995 0.206430 0.127846
0.239423 0.220944 0.136751
0.258967 0.235745 0.145699
0.278627 0.250827 0.154689
0.298404 0.266189 0.163721
0.318300 0.281834 0.172796
0.040961 0.121014 0.061335
0.059811 0.133845 0.069999
0.078662 0.146675 0.078662
0.097512 0.159506 0.087325
0.116363 0.172336 0.095988
0.135213 0.185166 0.104651
0.154177 0.198480 0.113377
0.173346 0.212567 0.122206
0.192630 0.226993 0.131083
0.212025 0.241721 0.140004
0.231532 0.256740 0.148967
0.251152 0.272044 0.157972
0.270886 0.287634 0.167020
0.290738 0.303510 0.176111
0.310707 0.319674 0.185244
0.330797 0.336128 0.194421
0.351009 0.352874 0.203642
0.070104 0.179264 0.090479
0.088955 0.192095 0.099142
0.107805 0.204925 0.107805
0.126825 0.218718 0.116585
0.145973 0.233030 0.125433
0.165226 0.247672 0.134326
0.184586 0.262618 0.143262
0.204053 0.277858 0.152241
0.223630 0.293389 0.161261
0.243320 0.309209 0.170325
0.263125 0.325320 0.179431
0.283047 0.341722 0.188580
0.303087 0.358419 0.197773
0.323248 0.375410 0.207010
0.343531 0.392700 0.216291
0.363939 0.410290 0.225617
0.384472 0.428182 0.234989
0.099445 0.239074 0.119801
0.118564 0.253609 0.128665
0.137783 0.268470 0.137574
0.157103 0.283638 0.146526
0.176528 0.299103 0.155520
0.196061 0.314862 0.164556
0.215705 0.330916 0.173635
0.235462 0.347264 0.182757
0.255334 0.363908 0.191922
0.275324 0.380849 0.201131
0.295433 0.398089 0.210384
0.315663 0.415630 0.219681
0.336017 0.433474 0.229024
0.356495 0.451624 0.238412
0.377100 0.470082 0.247846
0.397832 0.488849 0.257326
0.418694 0.507929 0.266853
0.129576 0.304781 0.149795
0.148957 0.320475 0.158805
0.168444 0.336466 0.167856
0.188040 0.352756 0.176951
0.207748 0.369344 0.186088
0.227569 0.386231 0.195269
0.247507 0.403420 0.204494
0.267563 0.420910 0.213763
0.287740 0.438705 0.223077
0.308038 0.456806 0.232436
0.328461 0.475216 0.241841
0.349009 0.493936 0.251292
0.369684 0.512968 0.260789
0.390487 0.532315 0.270333
0.411421 0.551979 0.279924
0.432486 0.571962 0.289563
0.453683 0.592265 0.299249
0.160325 0.374731 0.180272
0.179982 0.391562 0.189426
0.199751 0.408695 0.198623
0.219636 0.426132 0.207864
0.239638 0.443875 0.217149
0.259760 0.461926 0.226479
0.280003 0.480285 0.235855
0.300368 0.498957 0.245276
0.320859 0.517941 0.254744
0.341476 0.537240 0.264258
0.362220 0.556857 0.273819
0.383094 0.576792 0.283428
0.404099 0.597049 0.293084
0.425236 0.617629 0.302788
0.446506 0.638533 0.312540
0.467910 0.659764 0.322341
0.489451 0.681324 0.332192
0.191710 0.448988 0.211239
0.211658 0.466985 0.220541
0.231723 0.485293 0.229887
0.251909 0.503914 0.239280
0.272218 0.522848 0.248718
0.292650 0.542098 0.258202
0.313208 0.561666 0.267734
0.333893 0.581553 0.277312
0.354707 0.601762 0.286938
0.375650 0.622295 0.296611
0.396726 0.643152 0.306333
0.417934 0.664337 0.316103
0.439276 0.685850 0.325922
0.460753 0.707694 0.335790
0.482367 0.729870 0.345708
0.504118 0.752381 0.355675
0.526007 0.775227 0.365693
0.223758 0.527691 0.242711
0.244008 0.546891 0.252166
0.264381 0.566408 0.261667
0.284880 0.586246 0.271215
0.305505 0.606406 0.280811
0.326257 0.626890 0.290454
0.347140 0.647699 0.300145
0.368153 0.668836 0.309884
0.389298 0.690302 0.319672
0.410577 0.712099 0.329509
0.431991 0.734228 0.339395
0.453540 0.756692 0.349331
0.475227 0.779492 0.359316
0.497051 0.802630 0.369352
0.519015 0.826107 0.379438
0.541119 0.849924 0.389575
0.563364 0.874085 0.399764
0.256491 0.610982 0.274703
0.277055 0.631416 0.284316
0.297746 0.652176 0.293976
0.318566 0.673263 0.303685
0.339517 0.694681 0.313442
0.360599 0.716429 0.323248
0.381814 0.738511 0.333102
0.403164 0.760927 0.343006
0.424648 0.783680 0.352960
0.446270 0.806770 0.362964
0.468028 0.830200 0.373018
0.489926 0.853971 0.383123
0.511964 0.878085 0.393279
0.534142 0.902543 0.403486
0.556462 0.927347 0.413744
0.578925 0.952498 0.424054
0.601532 0.977998 0.434416
0.289930 0.698988 0.307231
0.310817 0.720687 0.317006
0.331836 0.742720 0.326830
0.352987 0.765088 0.336702
0.374271 0.787792 0.346624
0.395691 0.810834 0.356597
0.417247 0.834216 0.366619
0.438939 0.857940 0.376691
0.460771 0.882006 0.386814
0.482741 0.906417 0.396989
0.504852 0.931174 0.407214
0.527105 0.956278 0.417491
0.549500 0.981731 0.427820
0.572038 1.000000 0.438201
0.594720 1.000000 0.448634
0.616837 1.000000 0.458714
0.637718 1.000000 0.468077
0.324094 0.791829 0.340309
0.345314 0.814822 0.350249
0.366668 0.838155 0.360239
0.388157 0.861830 0.370280
0.409783 0.885849 0.380371
0.431548 0.910211 0.390513
0.453451 0.934920 0.400706
0.475494 0.959977 0.410950
0.497678 0.985382 0.421246
0.520005 1.000000 0.431593
0.542474 1.000000 0.441993
0.565087 1.000000 0.452446
0.586478 1.000000 0.462123
0.607358 1.000000 0.471486
0.628239 1.000000 0.480849
0.649119 1.000000 0.490211
0.670000 1.000000 0.499574
0.359001 0.889613 0.373948
0.380561 0.913927 0.384057
0.402257 0.938587 0.394218
0.424093 0.963595 0.404429
0.446068 0.988953 0.414692
0.468183 1.000000 0.425007
0.490441 1.000000 0.435374
0.512841 1.000000 0.445793
0.535238 1.000000 0.456168
0.556118 1.000000 0.465531
0.576999 1.000000 0.474894
0.597879 1.000000 0.484257
0.618760 1.000000 0.493620
0.639640 1.000000 0.502983
0.660521 1.000000 0.512346
0.681401 1.000000 0.521709
0.702282 1.000000 0.531072
0.394666 0.992443 0.408160
0.416573 1.000000 0.418441
0.438619 1.000000 0.428775
0.460807 1.000000 0.439161
0.483138 1.000000 0.449599
0.504879 1.000000 0.459577
0.525759 1.000000 0.468940
0.546640 1.000000 0.478303
0.567520 1.000000 0.487666
0.588401 1.000000 0.497029
0.609281 1.000000 0.506392
0.630162 1.000000 0.515755
0.651042 1.000000 0.525118
0.671923 1.000000 0.534481
0.692803 1.000000 0.543844
0.713684 1.000000 0.553207
0.734564 1.000000 0.562570
0.431104 1.000000 0.442955
0.453365 1.000000 0.453412
0.474519 1.000000 0.462986
0.495400 1.000000 0.472349
0.516280 1.000000 0.481712
0.537161 1.000000 0.491075
0.558041 1.000000 0.500438
0.578922 1.000000 0.509801
0.599802 1.000000 0.519163
0.620683 1.000000 0.528526
0.641563 1.000000 0.537889
0.662444 1.000000 0.547252
0.683324 1.000000 0.556615
0.704205 1.000000 0.565978
0.725085 1.000000 0.575341
0.745966 1.000000 0.584704
0.766846 1.000000 0.594067
0.000000 0.000000 0.000000
0.000000 0.000000 0.000000
0.000000 0.000000 0.000000
0.000000 0.000000 0.000000
0.002730 0.000000 0.000000
0.021581 0.000000 0.001206
0.040431 0.000000 0.009869
0.059282 0.000000 0.018533
0.078132 0.000000 0.027196
0.096982 0.007846 0.035859
0.115833 0.020676 0.044522
0.134683 0.033506 0.053186
0.153534 0.046337 0.061849
0.172384 0.059167 0.070512
