assets/lighting/cinematic/grade-night-vision-green/lut.cube
TITLE "Night Vision Green"
# TKRS lighting-batch-001 original LUT
# Intended usage: NVG phosphor green reference
# License: CC0-1.0
LUT_3D_SIZE 5
DOMAIN_MIN 0.0 0.0 0.0
DOMAIN_MAX 1.0 1.0 1.0
0.000000 0.000000 0.000000
0.000000 0.000000 0.000000
0.069306 0.000000 0.000000
0.144708 0.033265 0.022461
0.220109 0.084587 0.057114
0.035077 0.112300 0.035077
0.110479 0.163621 0.069730
0.186461 0.217160 0.104627
0.264474 0.277014 0.140309
0.344344 0.341468 0.176652
0.154066 0.363472 0.153462
0.233145 0.431791 0.190053
0.314114 0.505012 0.227345
0.397090 0.583255 0.265368
0.482166 0.666644 0.304147
0.283121 0.684439 0.279397
0.367194 0.772334 0.318457
0.453415 0.865623 0.358305
0.541856 0.964405 0.398959
0.631200 1.000000 0.439697
0.423685 1.000000 0.413964
0.509762 1.000000 0.453332
0.593284 1.000000 0.490784
0.676807 1.000000 0.528236
0.760329 1.000000 0.565688
0.000000 0.000000 0.000000
0.005672 0.000000 0.005672
0.081074 0.000000 0.040325
0.156476 0.050694 0.074978
0.231878 0.102016 0.109631
0.046845 0.129729 0.087594
0.122247 0.181051 0.122247
0.198831 0.236965 0.157603
0.277329 0.298386 0.193804
0.357704 0.364415 0.230710
0.166609 0.386130 0.207157
0.246160 0.456102 0.244325
0.327634 0.531015 0.282228
0.411140 0.610992 0.320888
0.496768 0.696156 0.360328
0.296769 0.713690 0.335155
0.381380 0.803405 0.374884
0.468159 0.898549 0.415419
0.557176 0.999219 0.456779
0.644235 1.000000 0.496456
0.438556 1.000000 0.472044
0.522798 1.000000 0.510091
0.606320 1.000000 0.547543
0.689842 1.000000 0.584995
0.773364 1.000000 0.622447
0.000000 0.000000 0.023537
0.017441 0.000000 0.058189
0.092842 0.016801 0.092842
0.168244 0.068123 0.127495
0.243646 0.119445 0.162148
0.058613 0.147158 0.140111
0.134122 0.199003 0.174869
0.211322 0.257310 0.210845
0.290303 0.320288 0.247595
0.371187 0.387909 0.285087
0.179257 0.409346 0.261158
0.259288 0.480982 0.298923
0.341273 0.557601 0.337452
0.425314 0.639326 0.376764
0.511498 0.726279 0.416876
0.310536 0.743556 0.391273
0.395690 0.835103 0.431682
0.483031 0.932112 0.472915
0.572628 1.000000 0.514989
0.657271 1.000000 0.553215
0.452312 1.000000 0.529398
0.535834 1.000000 0.566850
0.619356 1.000000 0.604302
0.702878 1.000000 0.641754
0.786400 1.000000 0.679206
0.000000 0.000000 0.076054
0.029209 0.000000 0.110707
0.104611 0.034231 0.145360
0.180013 0.085552 0.180013
0.255579 0.137166 0.214769
0.070382 0.164587 0.192628
0.146260 0.218243 0.227839
0.223928 0.278184 0.264371
0.303397 0.342725 0.301694
0.384794 0.411955 0.339792
0.192012 0.433123 0.315474
0.272531 0.506438 0.353855
0.355032 0.584776 0.393026
0.439614 0.668263 0.433001
0.526359 0.757018 0.473797
0.324423 0.774039 0.447757
0.410125 0.867430 0.488856
0.498033 0.966317 0.530797
0.586785 1.000000 0.572523
0.670307 1.000000 0.609974
0.465347 1.000000 0.586157
0.548869 1.000000 0.623609
0.632391 1.000000 0.661061
0.715913 1.000000 0.698513
0.799436 1.000000 0.735965
0.000000 0.000000 0.128571
0.040977 0.000338 0.163224
0.116379 0.051660 0.197877
0.191781 0.102982 0.232530
0.268005 0.155872 0.267799
0.082150 0.182016 0.245146
0.158520 0.238078 0.281088
0.236649 0.299586 0.318193
0.316608 0.365703 0.356112
0.398524 0.436560 0.394832
0.204874 0.457465 0.370116
0.285889 0.532472 0.409129
0.368913 0.612546 0.448954
0.454040 0.697808 0.489605
0.541350 0.788378 0.531095
0.338431 0.805145 0.504612
0.424686 0.900391 0.546412
0.513165 1.000000 0.589069
0.599820 1.000000 0.629282
0.683342 1.000000 0.666733
0.478383 1.000000 0.642916
0.561905 1.000000 0.680368
0.645427 1.000000 0.717820
0.728949 1.000000 0.755272
0.812471 1.000000 0.792724
