assets/lighting/cinematic/grade-night-vision-green/lut.cube
TITLE "Night Vision Green"
# TKRS lighting-batch-001 original LUT
# Intended usage: NVG phosphor green reference
# License: CC0-1.0
LUT_3D_SIZE 9
DOMAIN_MIN 0.0 0.0 0.0
DOMAIN_MAX 1.0 1.0 1.0
0.000000 0.000000 0.000000
0.000000 0.000000 0.000000
0.000000 0.000000 0.000000
0.031605 0.000000 0.000000
0.069306 0.000000 0.000000
0.107007 0.007604 0.005134
0.144708 0.033265 0.022461
0.182409 0.058926 0.039787
0.220109 0.084587 0.057114
0.000000 0.000000 0.000000
0.014490 0.021461 0.000000
0.052191 0.047121 0.011442
0.089892 0.072782 0.028769
0.127593 0.098443 0.046095
0.165294 0.124104 0.063422
0.202995 0.149765 0.080748
0.241115 0.176435 0.098203
0.280008 0.204934 0.115902
0.035077 0.112300 0.035077
0.072778 0.137961 0.052403
0.110479 0.163621 0.069730
0.148179 0.189282 0.087056
0.186461 0.217160 0.104627
0.225241 0.246508 0.122387
0.264474 0.277014 0.140309
0.304170 0.308664 0.158396
0.344344 0.341468 0.176652
0.093440 0.229416 0.093421
0.131670 0.258342 0.111074
0.170305 0.288566 0.128893
0.209367 0.319980 0.146875
0.248877 0.352571 0.165023
0.288852 0.386346 0.183341
0.329309 0.421321 0.201833
0.370262 0.457512 0.220503
0.411723 0.494936 0.239355
0.154066 0.363472 0.153462
0.193378 0.397025 0.171672
0.233145 0.431791 0.190053
0.273385 0.467782 0.208609
0.314114 0.505012 0.227345
0.355345 0.543498 0.246263
0.397090 0.583255 0.265368
0.439360 0.624299 0.284661
0.482166 0.666644 0.304147
0.217233 0.514832 0.215409
0.257731 0.553117 0.234211
0.298726 0.592678 0.253197
0.340229 0.633530 0.272370
0.382254 0.675686 0.291733
0.424809 0.719161 0.311289
0.467905 0.763969 0.331041
0.511552 0.810124 0.350992
0.555757 0.857637 0.371143
0.283121 0.684439 0.279397
0.324894 0.727719 0.298830
0.367194 0.772334 0.318457
0.410031 0.818298 0.338281
0.453415 0.865623 0.358305
0.497354 0.914321 0.378530
0.541856 0.964405 0.398959
0.586930 1.000000 0.419594
0.631200 1.000000 0.439697
0.351893 0.873296 0.345548
0.395010 0.921800 0.365644
0.438679 0.971692 0.385944
0.482909 1.000000 0.406447
0.527707 1.000000 0.427159
0.570481 1.000000 0.446515
0.612242 1.000000 0.465241
0.654003 1.000000 0.483967
0.695764 1.000000 0.502692
0.423685 1.000000 0.413964
0.468001 1.000000 0.434606
0.509762 1.000000 0.453332
0.551523 1.000000 0.472058
0.593284 1.000000 0.490784
0.635046 1.000000 0.509510
0.676807 1.000000 0.528236
0.718568 1.000000 0.546962
0.760329 1.000000 0.565688
0.000000 0.000000 0.000000
0.000000 0.000000 0.000000
0.000000 0.000000 0.000000
0.037489 0.000000 0.000000
0.075190 0.000000 0.014067
0.112891 0.016319 0.031393
0.150592 0.041980 0.048719
0.188293 0.067640 0.066046
0.225994 0.093301 0.083372
0.000000 0.004514 0.003048
0.020374 0.030175 0.020374
0.058075 0.055836 0.037701
0.095776 0.081497 0.055027
0.133477 0.107158 0.072354
0.171178 0.132819 0.089680
0.208879 0.158480 0.107007
0.247326 0.185981 0.124615
0.286360 0.214872 0.142436
0.040961 0.121014 0.061335
0.078662 0.146675 0.078662
0.116363 0.172336 0.095988
0.154177 0.198480 0.113377
0.192630 0.226993 0.131083
0.231532 0.256740 0.148967
0.270886 0.287634 0.167020
0.310707 0.319674 0.185244
0.351009 0.352874 0.203642
0.099445 0.239074 0.119801
0.137783 0.268470 0.137574
0.176528 0.299103 0.155520
0.215705 0.330916 0.173635
0.255334 0.363908 0.191922
0.295433 0.398089 0.210384
0.336017 0.433474 0.229024
0.377100 0.470082 0.247846
0.418694 0.507929 0.266853
0.160325 0.374731 0.180272
0.199751 0.408695 0.198623
0.239638 0.443875 0.217149
0.280003 0.480285 0.235855
0.320859 0.517941 0.254744
0.362220 0.556857 0.273819
0.404099 0.597049 0.293084
0.446506 0.638533 0.312540
0.489451 0.681324 0.332192
0.223758 0.527691 0.242711
0.264381 0.566408 0.261667
0.305505 0.606406 0.280811
0.347140 0.647699 0.300145
0.389298 0.690302 0.319672
0.431991 0.734228 0.339395
0.475227 0.779492 0.359316
0.519015 0.826107 0.379438
0.563364 0.874085 0.399764
0.289930 0.698988 0.307231
0.331836 0.742720 0.326830
0.374271 0.787792 0.346624
0.417247 0.834216 0.366619
0.460771 0.882006 0.386814
0.504852 0.931174 0.407214
0.549500 0.981731 0.427820
0.594720 1.000000 0.448634
0.637718 1.000000 0.468077
0.359001 0.889613 0.373948
0.402257 0.938587 0.394218
0.446068 0.988953 0.414692
0.490441 1.000000 0.435374
0.535238 1.000000 0.456168
0.576999 1.000000 0.474894
0.618760 1.000000 0.493620
0.660521 1.000000 0.512346
0.702282 1.000000 0.531072
0.431104 1.000000 0.442955
0.474519 1.000000 0.462986
0.516280 1.000000 0.481712
0.558041 1.000000 0.500438
0.599802 1.000000 0.519163
0.641563 1.000000 0.537889
0.683324 1.000000 0.556615
0.725085 1.000000 0.575341
0.766846 1.000000 0.594067
0.000000 0.000000 0.000000
0.000000 0.000000 0.000000
0.005672 0.000000 0.005672
0.043373 0.000000 0.022999
0.081074 0.000000 0.040325
0.118775 0.025033 0.057652
0.156476 0.050694 0.074978
0.194177 0.076355 0.092304
0.231878 0.102016 0.109631
0.000000 0.013229 0.029307
0.026259 0.038890 0.046633
0.063960 0.064551 0.063960
0.101660 0.090211 0.081286
0.139361 0.115872 0.098612
0.177062 0.141533 0.115939
0.214906 0.167560 0.133332
0.253577 0.195665 0.151090
0.292745 0.224937 0.169038
0.046845 0.129729 0.087594
0.084546 0.155390 0.104920
0.122247 0.181051 0.122247
0.160251 0.208007 0.139772
0.198831 0.236965 0.157603
0.237853 0.267103 0.175616
0.277329 0.298386 0.193804
0.317275 0.330818 0.212168
0.357704 0.364415 0.230710
0.105479 0.248909 0.146242
0.143922 0.278739 0.164141
0.182778 0.309775 0.182217
0.222071 0.341988 0.200469
0.261820 0.375382 0.218897
0.302043 0.409970 0.237506
0.342754 0.445769 0.256296
0.383968 0.482795 0.275273
0.425696 0.521067 0.294437
0.166609 0.386130 0.207157
0.206152 0.420505 0.225651
0.246160 0.456102 0.244325
0.286649 0.492933 0.263183
0.327634 0.531015 0.282228
0.369127 0.570362 0.301462
0.411140 0.610992 0.320888
0.453683 0.652918 0.340509
0.496768 0.696156 0.360328
0.230311 0.540697 0.270095
0.271060 0.579847 0.289208
0.312313 0.620283 0.308512
0.354080 0.662020 0.328009
0.396374 0.705070 0.347701
0.439204 0.749449 0.367592
0.482580 0.795170 0.387684
0.526511 0.842247 0.407979
0.571005 0.890691 0.428480
0.296769 0.713690 0.335155
0.338808 0.757876 0.354920
0.381380 0.803405 0.374884
0.424494 0.850292 0.395049
0.468159 0.898549 0.415419
0.512383 0.948187 0.435995
0.557176 0.999219 0.456779
0.602474 1.000000 0.477730
0.644235 1.000000 0.496456
0.366140 0.906090 0.402442
0.409536 0.955535 0.422886
0.453489 1.000000 0.443537
0.498006 1.000000 0.464397
0.541756 1.000000 0.484548
0.583517 1.000000 0.503274
0.625278 1.000000 0.522000
0.667039 1.000000 0.540726
0.708800 1.000000 0.559451
0.438556 1.000000 0.472044
0.481037 1.000000 0.491365
0.522798 1.000000 0.510091
0.564559 1.000000 0.528817
0.606320 1.000000 0.547543
0.648081 1.000000 0.566269
0.689842 1.000000 0.584995
0.731603 1.000000 0.603721
0.773364 1.000000 0.622447
0.000000 0.000000 0.000000
0.000000 0.000000 0.014604
0.011556 0.000000 0.031931
0.049257 0.000000 0.049257
0.086958 0.008087 0.066584
0.124659 0.033748 0.083910
0.162360 0.059409 0.101237
0.200061 0.085070 0.118563
0.237762 0.110731 0.135890
0.000000 0.021943 0.055565
0.032143 0.047604 0.072892
0.069844 0.073265 0.090218
0.107545 0.098926 0.107545
0.145246 0.124587 0.124871
0.182946 0.150248 0.142197
0.221046 0.176960 0.159740
0.259865 0.205481 0.177629
0.299163 0.235129 0.195708
0.052729 0.138443 0.113853
0.090430 0.164104 0.131179
0.128131 0.189765 0.148505
0.166362 0.217701 0.166229
0.205061 0.247071 0.184190
0.244203 0.277599 0.202335
0.283801 0.309271 0.220661
0.323872 0.342096 0.239168
0.364430 0.376093 0.257858
0.111538 0.258900 0.172746
0.150087 0.289147 0.190775
0.189055 0.320583 0.208986
0.228464 0.353195 0.227378
0.268335 0.386993 0.245951
0.308682 0.421991 0.264708
0.349522 0.458204 0.283652
0.390867 0.495652 0.302784
0.432730 0.534350 0.322108
0.172920 0.397668 0.234119
0.212580 0.432456 0.252759
0.252710 0.468471 0.271583
0.293325 0.505725 0.290595
0.334438 0.544235 0.309797
0.376063 0.584016 0.329191
0.418211 0.625084 0.348781
0.460892 0.667454 0.368568
0.504117 0.711140 0.388556
0.236892 0.553849 0.297564
0.277768 0.593435 0.316835
0.319151 0.634311 0.336300
0.361051 0.676492 0.355962
0.403481 0.719992 0.375822
0.446449 0.764825 0.395882
0.489966 0.811005 0.416146
0.534039 0.858545 0.436615
0.578678 0.907456 0.457292
0.303637 0.728546 0.363169
0.345811 0.773186 0.383102
0.388519 0.819176 0.403236
0.431772 0.866526 0.423574
0.475579 0.915251 0.444119
0.519947 0.965361 0.464872
0.564886 1.000000 0.485835
0.608992 1.000000 0.506110
0.650753 1.000000 0.524836
0.373311 0.922726 0.431030
0.416847 0.972644 0.451650
0.460941 1.000000 0.472479
0.505603 1.000000 0.493519
0.548274 1.000000 0.512927
0.590035 1.000000 0.531653
0.631796 1.000000 0.550379
0.673557 1.000000 0.569105
0.715318 1.000000 0.587831
0.445794 1.000000 0.501019
0.487555 1.000000 0.519745
0.529316 1.000000 0.538471
0.571077 1.000000 0.557197
0.612838 1.000000 0.575922
0.654599 1.000000 0.594648
0.696360 1.000000 0.613374
0.738121 1.000000 0.632100
0.779882 1.000000 0.650826
0.000000 0.000000 0.023537
0.000000 0.000000 0.040863
0.017441 0.000000 0.058189
0.055141 0.000000 0.075516
0.092842 0.016801 0.092842
0.130543 0.042462 0.110169
0.168244 0.068123 0.127495
0.205945 0.093784 0.144822
0.243646 0.119445 0.162148
0.000326 0.030658 0.081824
0.038027 0.056319 0.099150
0.075728 0.081980 0.116477
0.113429 0.107641 0.133803
0.151130 0.133301 0.151130
0.188831 0.158962 0.168456
0.227233 0.186514 0.186214
0.266187 0.215426 0.204236
0.305613 0.245448 0.222450
0.058613 0.147158 0.140111
0.096314 0.172819 0.157438
0.134122 0.199003 0.174869
0.172504 0.227542 0.192752
0.211322 0.257310 0.210845
0.250582 0.288226 0.229128
0.290303 0.320288 0.247595
0.330500 0.353510 0.266247
0.371187 0.387909 0.285087
0.117622 0.269036 0.199317
0.156278 0.299690 0.217480
0.195359 0.331526 0.235829
0.234886 0.364540 0.254364
0.274878 0.398743 0.273084
0.315351 0.434152 0.291993
0.356320 0.470783 0.311091
0.397798 0.508653 0.330381
0.439795 0.547780 0.349866
0.179257 0.409346 0.261158
0.219036 0.444549 0.279946
0.259288 0.480982 0.298923
0.300029 0.518661 0.318091
0.341273 0.557601 0.337452
0.383030 0.597818 0.357009
0.425314 0.639326 0.376764
0.468133 0.682142 0.396719
0.511498 0.726279 0.416876
0.243501 0.567149 0.325117
0.284505 0.607171 0.344549
0.326018 0.648489 0.364178
0.368053 0.691116 0.384005
0.410618 0.735068 0.404034
0.453726 0.780357 0.424265
0.497384 0.826997 0.444702
0.541601 0.875001 0.465347
0.586385 0.924381 0.486201
0.310536 0.743556 0.391273
0.352844 0.788653 0.411376
0.395690 0.835103 0.431682
0.439083 0.882919 0.452194
0.483031 0.932112 0.472915
0.527544 0.982696 0.493846
0.572628 1.000000 0.514989
0.615510 1.000000 0.534489
0.657271 1.000000 0.553215
0.380512 0.939522 0.459714
0.424189 0.989914 0.480511
0.468427 1.000000 0.501519
0.513030 1.000000 0.522581
0.554791 1.000000 0.541307
0.596552 1.000000 0.560033
0.638313 1.000000 0.578759
0.680074 1.000000 0.597485
0.721835 1.000000 0.616210
0.452312 1.000000 0.529398
0.494073 1.000000 0.548124
0.535834 1.000000 0.566850
0.577595 1.000000 0.585576
0.619356 1.000000 0.604302
0.661117 1.000000 0.623028
0.702878 1.000000 0.641754
0.744639 1.000000 0.660480
0.786400 1.000000 0.679206
0.000000 0.000000 0.049795
0.000000 0.000000 0.067122
0.023325 0.000000 0.084448
0.061026 0.000000 0.101775
0.098727 0.025516 0.119101
0.136427 0.051177 0.136427
0.174128 0.076838 0.153754
0.211829 0.102499 0.171080
0.249530 0.128160 0.188407
0.006210 0.039372 0.108082
0.043911 0.065033 0.125409
0.081612 0.090694 0.142735
0.119313 0.116355 0.160062
0.157014 0.142016 0.177388
0.194855 0.168076 0.194820
0.233459 0.196206 0.212755
0.272542 0.225498 0.230912
0.312095 0.255896 0.249265
0.064497 0.155872 0.166370
0.102198 0.181533 0.183696
0.140174 0.208540 0.201319
0.178677 0.237521 0.219342
0.217611 0.267682 0.237572
0.256991 0.298986 0.255994
0.296835 0.331439 0.274605
0.337159 0.365059 0.293406
0.377975 0.399863 0.312398
0.123731 0.279312 0.225956
0.162496 0.310370 0.244256
0.201690 0.342605 0.262748
0.241335 0.376021 0.281428
0.281450 0.410632 0.300298
0.322050 0.446454 0.319360
0.363149 0.483504 0.338615
0.404759 0.521799 0.358065
0.446892 0.561356 0.377713
0.185621 0.421164 0.288276
0.225519 0.456783 0.307216
0.265895 0.493638 0.326347
0.306763 0.531743 0.345673
0.348137 0.571115 0.365195
0.390029 0.611768 0.384916
0.432448 0.653719 0.404837
0.475406 0.696982 0.424961
0.518912 0.741571 0.445289
0.250139 0.580596 0.352757
0.291271 0.621057 0.372351
0.332916 0.662818 0.392145
0.375085 0.705893 0.412139
0.417788 0.750297 0.432338
0.461034 0.796044 0.452742
0.504834 0.843145 0.473353
0.549195 0.891616 0.494175
0.594125 0.941467 0.515208
0.317464 0.758720 0.419469
0.359908 0.804275 0.439742
0.402892 0.851188 0.460222
0.446425 0.899470 0.480909
0.490516 0.949134 0.501807
0.535173 1.000000 0.522918
0.580267 1.000000 0.544143
0.622028 1.000000 0.562869
0.663789 1.000000 0.581595
0.387745 0.956479 0.488493
0.431563 1.000000 0.509468
0.475944 1.000000 0.530656
0.519548 1.000000 0.550961
0.561309 1.000000 0.569686
0.603070 1.000000 0.588412
0.644831 1.000000 0.607138
0.686592 1.000000 0.625864
0.728353 1.000000 0.644590
0.458830 1.000000 0.557778
0.500591 1.000000 0.576504
0.542352 1.000000 0.595230
0.584113 1.000000 0.613956
0.625874 1.000000 0.632682
0.667635 1.000000 0.651407
0.709396 1.000000 0.670133
0.751157 1.000000 0.688859
0.792918 1.000000 0.707585
0.000000 0.000000 0.076054
0.000000 0.000000 0.093380
0.029209 0.000000 0.110707
0.066910 0.008570 0.128033
0.104611 0.034231 0.145360
0.142312 0.059892 0.162686
0.180013 0.085552 0.180013
0.217713 0.111213 0.197339
0.255579 0.137166 0.214769
0.012094 0.048087 0.134341
0.049795 0.073748 0.151668
0.087496 0.099409 0.168994
0.125197 0.125070 0.186320
0.162898 0.150731 0.203647
0.200975 0.177485 0.221284
0.239719 0.206029 0.239364
0.278929 0.235697 0.257660
0.318608 0.266471 0.276154
0.070382 0.164587 0.192628
0.108082 0.190248 0.209955
0.146260 0.218243 0.227839
0.184878 0.247635 0.246001
0.223928 0.278184 0.264371
0.263429 0.309877 0.282936
0.303397 0.342725 0.301694
0.343847 0.376744 0.320646
0.384794 0.411955 0.339792
0.129866 0.289727 0.252666
0.168739 0.321185 0.271107
0.208048 0.353820 0.289743
0.247813 0.387641 0.308571
0.288051 0.422661 0.327594
0.328778 0.458898 0.346811
0.370007 0.496368 0.366224
0.411751 0.535090 0.385836
0.454020 0.575080 0.405649
0.192012 0.433123 0.315474
0.232030 0.469160 0.334567
0.272531 0.506438 0.353855
0.313527 0.544971 0.373341
0.355032 0.584776 0.393026
0.397057 0.625869 0.412912
0.439614 0.668263 0.433001
0.482711 0.711975 0.453295
0.526359 0.757018 0.473797
0.256806 0.594192 0.380484
0.298067 0.635092 0.400242
0.339844 0.677298 0.420202
0.382147 0.720823 0.440365
0.424988 0.765682 0.460735
0.468375 0.811887 0.481313
0.512317 0.859452 0.502100
0.556822 0.908390 0.523099
0.601899 0.958713 0.544312
0.324423 0.774039 0.447757
0.367002 0.820054 0.468202
0.410125 0.867430 0.488856
0.453799 0.916181 0.509720
0.498033 0.966317 0.530797
0.542836 1.000000 0.552088
0.586785 1.000000 0.572523
0.628546 1.000000 0.591248
0.670307 1.000000 0.609974
0.395009 0.973596 0.517369
0.438969 1.000000 0.538523
0.483494 1.000000 0.559892
0.526066 1.000000 0.579340
0.567827 1.000000 0.598066
0.609588 1.000000 0.616792
0.651349 1.000000 0.635518
0.693110 1.000000 0.654244
0.734871 1.000000 0.672969
0.465347 1.000000 0.586157
0.507108 1.000000 0.604883
0.548869 1.000000 0.623609
0.590630 1.000000 0.642335
0.632391 1.000000 0.661061
0.674152 1.000000 0.679787
0.715913 1.000000 0.698513
0.757674 1.000000 0.717239
0.799436 1.000000 0.735965
0.000000 0.000000 0.102312
0.000000 0.000000 0.119639
0.035093 0.000000 0.136965
0.072794 0.017284 0.154292
0.110495 0.042945 0.171618
0.148196 0.068606 0.188945
0.185897 0.094267 0.206271
0.223598 0.119928 0.223598
0.261766 0.146449 0.241247
0.017978 0.056802 0.160600
0.055679 0.082462 0.177926
0.093380 0.108123 0.195253
0.131081 0.133784 0.212579
0.168782 0.159445 0.229906
0.207138 0.187048 0.247820
0.246011 0.215981 0.266043
0.285346 0.246024 0.284481
0.325152 0.277176 0.303120
0.076266 0.173302 0.218887
0.114064 0.199526 0.236365
0.152376 0.228091 0.254428
0.191108 0.257881 0.272732
0.230275 0.288819 0.291244
0.269896 0.320902 0.309955
0.309988 0.354146 0.328863
0.350566 0.388568 0.347967
0.391643 0.424187 0.367270
0.136025 0.300278 0.279448
0.175009 0.332136 0.298033
0.214433 0.365172 0.316816
0.254319 0.399398 0.335795
0.294681 0.434830 0.354972
0.335536 0.471484 0.374346
0.376897 0.509377 0.393920
0.418774 0.548528 0.413695
0.461180 0.588952 0.433674
0.198430 0.445223 0.342754
0.238570 0.481680 0.362002
0.279195 0.519382 0.381449
0.320320 0.558346 0.401096
0.361957 0.598587 0.420945
0.404117 0.640119 0.440998
0.446811 0.682960 0.461257
0.490048 0.727122 0.481723
0.533838 0.772620 0.502399
0.263501 0.607936 0.408299
0.304892 0.649278 0.428222
0.346802 0.691931 0.448350
0.389241 0.735907 0.468684
0.432220 0.781222 0.489226
0.475747 0.827887 0.509978
0.519832 0.875917 0.530942
0.564483 0.925324 0.552120
0.609706 0.976120 0.573514
0.331412 0.789514 0.476138
0.374128 0.835990 0.496757
0.417389 0.883831 0.517586
0.461205 0.933051 0.538628
0.505583 0.983661 0.559884
0.550531 1.000000 0.581356
0.593303 1.000000 0.600902
0.635064 1.000000 0.619628
0.676825 1.000000 0.638354
0.402305 0.990875 0.546341
0.446407 1.000000 0.567676
0.490823 1.000000 0.588994
0.532584 1.000000 0.607720
0.574345 1.000000 0.626445
0.616106 1.000000 0.645171
0.657867 1.000000 0.663897
0.699628 1.000000 0.682623
0.741389 1.000000 0.701349
0.471865 1.000000 0.614537
0.513626 1.000000 0.633263
0.555387 1.000000 0.651989
0.597148 1.000000 0.670715
0.638909 1.000000 0.689441
0.680670 1.000000 0.708166
0.722431 1.000000 0.726892
0.764192 1.000000 0.745618
0.805953 1.000000 0.764344
0.000000 0.000000 0.128571
0.003276 0.000000 0.145898
0.040977 0.000338 0.163224
0.078678 0.025999 0.180550
0.116379 0.051660 0.197877
0.154080 0.077321 0.215203
0.191781 0.102982 0.232530
0.229482 0.128642 0.249856
0.268005 0.155872 0.267799
0.023863 0.065516 0.186858
0.061563 0.091177 0.204185
0.099264 0.116838 0.221511
0.136965 0.142499 0.238838
0.174802 0.168593 0.256314
0.213337 0.196747 0.274428
0.252336 0.226060 0.292795
0.291795 0.256478 0.311377
0.331727 0.288011 0.330163
0.082150 0.182016 0.245146
0.120095 0.209074 0.262873
0.158520 0.238078 0.281088
0.197365 0.268260 0.299536
0.236649 0.299586 0.318193
0.276392 0.332061 0.337052
0.316608 0.365703 0.356112
0.357315 0.400529 0.375372
0.398524 0.436560 0.394832
0.142209 0.310966 0.306305
0.181305 0.343223 0.325036
0.220846 0.376662 0.343968
0.260853 0.411295 0.363101
0.301341 0.447140 0.382433
0.342324 0.484213 0.401967
0.383816 0.522531 0.421703
0.425829 0.562113 0.441644
0.468372 0.602973 0.461790
0.204874 0.457465 0.370116
0.245137 0.494343 0.389522
0.285889 0.532472 0.409129
0.327143 0.571868 0.428939
0.368913 0.612546 0.448954
0.411208 0.654521 0.469176
0.454040 0.697808 0.489605
0.497418 0.742423 0.510244
0.541350 0.788378 0.531095
0.270225 0.621830 0.436202
0.311747 0.663616 0.456292
0.353790 0.706716 0.476589
0.396366 0.751145 0.497095
0.439484 0.796917 0.517811
0.483152 0.844045 0.538739
0.527380 0.892541 0.559882
0.572176 0.942418 0.581240
0.617547 0.993688 0.602815
0.338431 0.805145 0.504612
0.381285 0.852083 0.525405
0.424686 0.900391 0.546412
0.468643 0.950082 0.567632
0.513165 1.000000 0.589069
0.558059 1.000000 0.610556
0.599820 1.000000 0.629282
0.641581 1.000000 0.648007
0.683342 1.000000 0.666733
0.409632 1.000000 0.575412
0.453877 1.000000 0.596928
0.497341 1.000000 0.617373
0.539102 1.000000 0.636099
0.580863 1.000000 0.654825
0.622624 1.000000 0.673551
0.664385 1.000000 0.692277
0.706146 1.000000 0.711003
0.747907 1.000000 0.729728
0.478383 1.000000 0.642916
0.520144 1.000000 0.661642
0.561905 1.000000 0.680368
0.603666 1.000000 0.699094
0.645427 1.000000 0.717820
0.687188 1.000000 0.736546
0.728949 1.000000 0.755272
0.770710 1.000000 0.773998
0.812471 1.000000 0.792724
