assets/lighting/cinematic/grade-pastel-low-contrast/lut.cube
TITLE "Pastel Low Contrast"
# TKRS lighting-batch-001 original LUT
# Intended usage: soft pastel slice-of-life / kids map
# License: CC0-1.0
LUT_3D_SIZE 9
DOMAIN_MIN 0.0 0.0 0.0
DOMAIN_MAX 1.0 1.0 1.0
0.158817 0.158817 0.168805
0.251033 0.162152 0.172139
0.338006 0.165297 0.175284
0.422261 0.168343 0.178331
0.504677 0.171324 0.181311
0.585708 0.174254 0.184241
0.665629 0.177144 0.187131
0.744628 0.180000 0.189988
0.822839 0.182829 0.192816
0.169925 0.257932 0.179912
0.262141 0.261266 0.183247
0.349114 0.264411 0.186392
0.433369 0.267458 0.189438
0.515785 0.270438 0.192419
0.596815 0.273368 0.195349
0.676737 0.276258 0.198239
0.755736 0.279115 0.201096
0.833946 0.281943 0.203924
0.180403 0.351432 0.190390
0.272619 0.354766 0.193725
0.359592 0.357911 0.196870
0.443847 0.360958 0.199917
0.526263 0.363938 0.202897
0.607293 0.366869 0.205827
0.687215 0.369759 0.208717
0.766214 0.372615 0.211574
0.844425 0.375443 0.214402
0.190554 0.442015 0.200542
0.282770 0.445350 0.203877
0.369743 0.448495 0.207022
0.453999 0.451542 0.210068
0.536415 0.454522 0.213049
0.617445 0.457452 0.215979
0.697366 0.460342 0.218869
0.776366 0.463199 0.221725
0.854576 0.466027 0.224554
0.200484 0.530624 0.210472
0.292701 0.533959 0.213807
0.379674 0.537104 0.216952
0.463929 0.540151 0.219998
0.546345 0.543131 0.222979
0.627375 0.546061 0.225909
0.707297 0.548951 0.228799
0.786296 0.551808 0.231656
0.864506 0.554636 0.234484
0.210248 0.617745 0.220235
0.302464 0.621079 0.223570
0.389437 0.624224 0.226715
0.473692 0.627271 0.229762
0.556108 0.630251 0.232742
0.637139 0.633181 0.235672
0.717060 0.636072 0.238562
0.796059 0.638928 0.241419
0.874270 0.641756 0.244247
0.219878 0.703674 0.229865
0.312094 0.707009 0.233200
0.399067 0.710154 0.236345
0.483322 0.713200 0.239392
0.565738 0.716181 0.242372
0.646768 0.719111 0.245302
0.726690 0.722001 0.248192
0.805689 0.724857 0.251049
0.883900 0.727686 0.253877
0.229397 0.788612 0.239384
0.321613 0.791947 0.242719
0.408586 0.795092 0.245864
0.492841 0.798138 0.248911
0.575257 0.801119 0.251891
0.656287 0.804049 0.254821
0.736209 0.806939 0.257711
0.815208 0.809796 0.260568
0.893418 0.812624 0.263396
0.238820 0.872703 0.248808
0.331036 0.876038 0.252143
0.418010 0.879183 0.255288
0.502265 0.882229 0.258334
0.584681 0.885210 0.261315
0.665711 0.888140 0.264245
0.745633 0.891030 0.267135
0.824632 0.893886 0.269991
0.902842 0.896715 0.272820
0.159984 0.159984 0.261588
0.252200 0.163319 0.264923
0.339173 0.166464 0.268068
0.423429 0.169511 0.271115
0.505845 0.172491 0.274095
0.586875 0.175421 0.277025
0.666796 0.178311 0.279915
0.745795 0.181168 0.282772
0.824006 0.183996 0.285600
0.171092 0.259099 0.272696
0.263308 0.262434 0.276030
0.350281 0.265579 0.279175
0.434536 0.268625 0.282222
0.516952 0.271606 0.285202
0.597982 0.274536 0.288132
0.677904 0.277426 0.291022
0.756903 0.280282 0.293879
0.835114 0.283111 0.296707
0.181570 0.352599 0.283174
0.273786 0.355934 0.286509
0.360759 0.359079 0.289654
0.445014 0.362125 0.292700
0.527430 0.365106 0.295681
0.608461 0.368036 0.298611
0.688382 0.370926 0.301501
0.767381 0.373783 0.304357
0.845592 0.376611 0.307186
0.191722 0.443183 0.293325
0.283938 0.446517 0.296660
0.370911 0.449662 0.299805
0.455166 0.452709 0.302852
0.537582 0.455689 0.305832
0.618612 0.458619 0.308762
0.698534 0.461510 0.311652
0.777533 0.464366 0.314509
0.855743 0.467194 0.317337
0.201652 0.531792 0.303256
0.293868 0.535126 0.306590
0.380841 0.538271 0.309735
0.465096 0.541318 0.312782
0.547512 0.544298 0.315762
0.628542 0.547228 0.318692
0.708464 0.550118 0.321582
0.787463 0.552975 0.324439
0.865674 0.555803 0.327267
0.211415 0.618912 0.313019
0.303631 0.622247 0.316354
0.390604 0.625392 0.319499
0.474859 0.628438 0.322545
0.557275 0.631419 0.325526
0.638306 0.634349 0.328456
0.718227 0.637239 0.331346
0.797226 0.640096 0.334203
0.875437 0.642924 0.337031
0.221045 0.704841 0.322649
0.313261 0.708176 0.325984
0.400234 0.711321 0.329129
0.484489 0.714368 0.332175
0.566905 0.717348 0.335156
0.647936 0.720278 0.338086
0.727857 0.723168 0.340976
0.806856 0.726025 0.343832
0.885067 0.728853 0.346661
0.230564 0.789779 0.332168
0.322780 0.793114 0.335502
0.409753 0.796259 0.338647
0.494008 0.799306 0.341694
0.576424 0.802286 0.344674
0.657454 0.805216 0.347604
0.737376 0.808106 0.350495
0.816375 0.810963 0.353351
0.894586 0.813791 0.356179
0.239988 0.873870 0.341592
0.332204 0.877205 0.344926
0.419177 0.880350 0.348071
0.503432 0.883397 0.351118
0.585848 0.886377 0.354098
0.666878 0.889307 0.357028
0.746800 0.892197 0.359918
0.825799 0.895054 0.362775
0.904010 0.897882 0.365603
0.161075 0.161075 0.348309
0.253291 0.164410 0.351644
0.340264 0.167555 0.354789
0.424520 0.170602 0.357836
0.506936 0.173582 0.360816
0.587966 0.176512 0.363746
0.667887 0.179402 0.366636
0.746887 0.182259 0.369493
0.825097 0.185087 0.372321
0.172183 0.260190 0.359417
0.264399 0.263525 0.362752
0.351372 0.266670 0.365897
0.435627 0.269716 0.368943
0.518043 0.272697 0.371924
0.599073 0.275627 0.374854
0.678995 0.278517 0.377744
0.757994 0.281374 0.380601
0.836205 0.284202 0.383429
0.182661 0.353690 0.369895
0.274877 0.357025 0.373230
0.361850 0.360170 0.376375
0.446105 0.363217 0.379422
0.528521 0.366197 0.382402
0.609552 0.369127 0.385332
0.689473 0.372017 0.388222
0.768472 0.374874 0.391079
0.846683 0.377702 0.393907
0.192813 0.444274 0.380047
0.285029 0.447608 0.383381
0.372002 0.450753 0.386526
0.456257 0.453800 0.389573
0.538673 0.456780 0.392553
0.619703 0.459711 0.395484
0.699625 0.462601 0.398374
0.778624 0.465457 0.401230
0.856834 0.468285 0.404059
0.202743 0.532883 0.389977
0.294959 0.536217 0.393312
0.381932 0.539362 0.396457
0.466187 0.542409 0.399503
0.548603 0.545389 0.402484
0.629633 0.548319 0.405414
0.709555 0.551209 0.408304
0.788554 0.554066 0.411161
0.866765 0.556894 0.413989
0.212506 0.620003 0.399740
0.304722 0.623338 0.403075
0.391695 0.626483 0.406220
0.475950 0.629529 0.409267
0.558367 0.632510 0.412247
0.639397 0.635440 0.415177
0.719318 0.638330 0.418067
0.798317 0.641187 0.420924
0.876528 0.644015 0.423752
0.222136 0.705932 0.409370
0.314352 0.709267 0.412705
0.401325 0.712412 0.415850
0.485580 0.715459 0.418897
0.567996 0.718439 0.421877
0.649027 0.721369 0.424807
0.728948 0.724259 0.427697
0.807947 0.727116 0.430554
0.886158 0.729944 0.433382
0.231655 0.790870 0.418889
0.323871 0.794205 0.422224
0.410844 0.797350 0.425369
0.495099 0.800397 0.428415
0.577515 0.803377 0.431396
0.658546 0.806307 0.434326
0.738467 0.809197 0.437216
0.817466 0.812054 0.440073
0.895677 0.814882 0.442901
0.241079 0.874961 0.428313
0.333295 0.878296 0.431648
0.420268 0.881441 0.434793
0.504523 0.884488 0.437839
0.586939 0.887468 0.440820
0.667969 0.890398 0.443750
0.747891 0.893288 0.446640
0.826890 0.896145 0.449496
0.905101 0.898973 0.452325
0.162126 0.162126 0.431816
0.254342 0.165461 0.435151
0.341315 0.168606 0.438296
0.425570 0.171652 0.441343
0.507986 0.174633 0.444323
0.589017 0.177563 0.447253
0.668938 0.180453 0.450143
0.747937 0.183309 0.453000
0.826148 0.186138 0.455828
0.173233 0.261241 0.442924
0.265449 0.264575 0.446258
0.352423 0.267720 0.449403
0.436678 0.270767 0.452450
0.519094 0.273747 0.455430
0.600124 0.276677 0.458361
0.680046 0.279567 0.461251
0.759045 0.282424 0.464107
0.837255 0.285252 0.466935
0.183712 0.354741 0.453402
0.275928 0.358075 0.456737
0.362901 0.361220 0.459882
0.447156 0.364267 0.462929
0.529572 0.367247 0.465909
0.610602 0.370177 0.468839
0.690524 0.373068 0.471729
0.769523 0.375924 0.474586
0.847734 0.378752 0.477414
0.193863 0.445324 0.463554
0.286079 0.448659 0.466888
0.373052 0.451804 0.470033
0.457308 0.454851 0.473080
0.539724 0.457831 0.476060
0.620754 0.460761 0.478990
0.700675 0.463651 0.481880
0.779674 0.466508 0.484737
0.857885 0.469336 0.487565
0.203793 0.533933 0.473484
0.296009 0.537268 0.476818
0.382983 0.540413 0.479963
0.467238 0.543460 0.483010
0.549654 0.546440 0.485990
0.630684 0.549370 0.488921
0.710606 0.552260 0.491811
0.789605 0.555117 0.494667
0.867815 0.557945 0.497495
0.213557 0.621054 0.483247
0.305773 0.624388 0.486582
0.392746 0.627533 0.489727
0.477001 0.630580 0.492774
0.559417 0.633560 0.495754
0.640447 0.636490 0.498684
0.720369 0.639380 0.501574
0.799368 0.642237 0.504431
0.877579 0.645065 0.507259
0.223187 0.706983 0.492877
0.315403 0.710317 0.496212
0.402376 0.713462 0.499357
0.486631 0.716509 0.502403
0.569047 0.719489 0.505384
0.650077 0.722420 0.508314
0.729999 0.725310 0.511204
0.808998 0.728166 0.514061
0.887208 0.730995 0.516889
0.232705 0.791921 0.502396
0.324922 0.795256 0.505730
0.411895 0.798401 0.508875
0.496150 0.801447 0.511922
0.578566 0.804428 0.514902
0.659596 0.807358 0.517833
0.739518 0.810248 0.520723
0.818517 0.813104 0.523579
0.896727 0.815933 0.526408
0.242129 0.876012 0.511820
0.334345 0.879346 0.515154
0.421318 0.882491 0.518299
0.505574 0.885538 0.521346
0.587990 0.888518 0.524326
0.669020 0.891449 0.527256
0.748941 0.894339 0.530147
0.827941 0.897195 0.533003
0.906151 0.900023 0.535831
0.163149 0.163149 0.513138
0.255365 0.166484 0.516473
0.342338 0.169629 0.519618
0.426593 0.172675 0.522665
0.509009 0.175656 0.525645
0.590040 0.178586 0.528575
0.669961 0.181476 0.531465
0.748960 0.184332 0.534322
0.827171 0.187161 0.537150
0.174257 0.262264 0.524246
0.266473 0.265598 0.527580
0.353446 0.268743 0.530725
0.437701 0.271790 0.533772
0.520117 0.274770 0.536752
0.601147 0.277700 0.539682
0.681069 0.280591 0.542573
0.760068 0.283447 0.545429
0.838278 0.286275 0.548257
0.184735 0.355764 0.534724
0.276951 0.359098 0.538059
0.363924 0.362243 0.541204
0.448179 0.365290 0.544250
0.530595 0.368270 0.547231
0.611626 0.371201 0.550161
0.691547 0.374091 0.553051
0.770546 0.376947 0.555908
0.848757 0.379775 0.558736
0.194886 0.446347 0.544876
0.287102 0.449682 0.548210
0.374075 0.452827 0.551355
0.458331 0.455874 0.554402
0.540747 0.458854 0.557382
0.621777 0.461784 0.560312
0.701698 0.464674 0.563202
0.780698 0.467531 0.566059
0.858908 0.470359 0.568887
0.204817 0.534956 0.554806
0.297033 0.538291 0.558140
0.384006 0.541436 0.561285
0.468261 0.544483 0.564332
0.550677 0.547463 0.567312
0.631707 0.550393 0.570242
0.711629 0.553283 0.573133
0.790628 0.556140 0.575989
0.868838 0.558968 0.578817
0.214580 0.622077 0.564569
0.306796 0.625411 0.567904
0.393769 0.628556 0.571049
0.478024 0.631603 0.574095
0.560440 0.634583 0.577076
0.641471 0.637514 0.580006
0.721392 0.640404 0.582896
0.800391 0.643260 0.585753
0.878602 0.646088 0.588581
0.224210 0.708006 0.574199
0.316426 0.711341 0.577534
0.403399 0.714486 0.580679
0.487654 0.717532 0.583725
0.570070 0.720513 0.586706
0.651100 0.723443 0.589636
0.731022 0.726333 0.592526
0.810021 0.729189 0.595382
0.888232 0.732018 0.598211
0.233729 0.792944 0.583718
0.325945 0.796279 0.587052
0.412918 0.799424 0.590197
0.497173 0.802470 0.593244
0.579589 0.805451 0.596224
0.660619 0.808381 0.599155
0.740541 0.811271 0.602045
0.819540 0.814128 0.604901
0.897750 0.816956 0.607729
0.243152 0.877035 0.593142
0.335368 0.880370 0.596476
0.422342 0.883515 0.599621
0.506597 0.886561 0.602668
0.589013 0.889542 0.605648
0.670043 0.892472 0.608578
0.749965 0.895362 0.611468
0.828964 0.898218 0.614325
0.907174 0.901047 0.617153
0.164151 0.164151 0.592812
0.256367 0.167486 0.596147
0.343340 0.170631 0.599292
0.427596 0.173678 0.602339
0.510012 0.176658 0.605319
0.591042 0.179588 0.608249
0.670963 0.182478 0.611139
0.749963 0.185335 0.613996
0.828173 0.188163 0.616824
0.175259 0.263266 0.603920
0.267475 0.266601 0.607254
0.354448 0.269746 0.610399
0.438703 0.272792 0.613446
0.521119 0.275773 0.616426
0.602150 0.278703 0.619356
0.682071 0.281593 0.622246
0.761070 0.284450 0.625103
0.839281 0.287278 0.627931
0.185737 0.356766 0.614398
0.277953 0.360101 0.617733
0.364926 0.363246 0.620878
0.449182 0.366293 0.623924
0.531598 0.369273 0.626905
0.612628 0.372203 0.629835
0.692549 0.375093 0.632725
0.771548 0.377950 0.635582
0.849759 0.380778 0.638410
0.195889 0.447350 0.624549
0.288105 0.450684 0.627884
0.375078 0.453829 0.631029
0.459333 0.456876 0.634076
0.541749 0.459856 0.637056
0.622779 0.462787 0.639986
0.702701 0.465677 0.642876
0.781700 0.468533 0.645733
0.859911 0.471361 0.648561
0.205819 0.535959 0.634480
0.298035 0.539293 0.637814
0.385008 0.542438 0.640959
0.469263 0.545485 0.644006
0.551679 0.548465 0.646986
0.632710 0.551395 0.649916
0.712631 0.554285 0.652806
0.791630 0.557142 0.655663
0.869841 0.559970 0.658491
0.215582 0.623079 0.644243
0.307798 0.626414 0.647578
0.394771 0.629559 0.650723
0.479027 0.632606 0.653769
0.561443 0.635586 0.656750
0.642473 0.638516 0.659680
0.722394 0.641406 0.662570
0.801393 0.644263 0.665427
0.879604 0.647091 0.668255
0.225212 0.709008 0.653873
0.317428 0.712343 0.657208
0.404401 0.715488 0.660353
0.488656 0.718535 0.663399
0.571072 0.721515 0.666380
0.652103 0.724445 0.669310
0.732024 0.727335 0.672200
0.811023 0.730192 0.675056
0.889234 0.733020 0.677885
0.234731 0.793946 0.663392
0.326947 0.797281 0.666726
0.413920 0.800426 0.669871
0.498175 0.803473 0.672918
0.580591 0.806453 0.675898
0.661622 0.809383 0.678828
0.741543 0.812273 0.681719
0.820542 0.815130 0.684575
0.898753 0.817958 0.687403
0.244155 0.878037 0.672816
0.336371 0.881372 0.676150
0.423344 0.884517 0.679295
0.507599 0.887564 0.682342
0.590015 0.890544 0.685322
0.671045 0.893474 0.688252
0.750967 0.896364 0.691142
0.829966 0.899221 0.693999
0.908177 0.902049 0.696827
0.165137 0.165137 0.671168
0.257353 0.168472 0.674502
0.344326 0.171617 0.677647
0.428581 0.174664 0.680694
0.510997 0.177644 0.683674
0.592028 0.180574 0.686604
0.671949 0.183464 0.689494
0.750948 0.186321 0.692351
0.829159 0.189149 0.695179
0.176245 0.264252 0.682275
0.268461 0.267586 0.685610
0.355434 0.270732 0.688755
0.439689 0.273778 0.691802
0.522105 0.276758 0.694782
0.603135 0.279689 0.697712
0.683057 0.282579 0.700602
0.762056 0.285435 0.703459
0.840267 0.288264 0.706287
0.186723 0.357752 0.692754
0.278939 0.361087 0.696088
0.365912 0.364232 0.699233
0.450167 0.367278 0.702280
0.532583 0.370259 0.705260
0.613614 0.373189 0.708190
0.693535 0.376079 0.711080
0.772534 0.378935 0.713937
0.850745 0.381764 0.716765
0.196874 0.448336 0.702905
0.289091 0.451670 0.706240
0.376064 0.454815 0.709385
0.460319 0.457862 0.712431
0.542735 0.460842 0.715412
0.623765 0.463772 0.718342
0.703687 0.466662 0.721232
0.782686 0.469519 0.724088
0.860896 0.472347 0.726917
0.206805 0.536944 0.712835
0.299021 0.540279 0.716170
0.385994 0.543424 0.719315
0.470249 0.546471 0.722362
0.552665 0.549451 0.725342
0.633695 0.552381 0.728272
0.713617 0.555271 0.731162
0.792616 0.558128 0.734019
0.870827 0.560956 0.736847
0.216568 0.624065 0.722599
0.308784 0.627400 0.725933
0.395757 0.630545 0.729078
0.480012 0.633591 0.732125
0.562428 0.636572 0.735105
0.643459 0.639502 0.738035
0.723380 0.642392 0.740925
0.802379 0.645248 0.743782
0.880590 0.648077 0.746610
0.226198 0.709994 0.732228
0.318414 0.713329 0.735563
0.405387 0.716474 0.738708
0.489642 0.719520 0.741755
0.572058 0.722501 0.744735
0.653089 0.725431 0.747665
0.733010 0.728321 0.750555
0.812009 0.731178 0.753412
0.890220 0.734006 0.756240
0.235717 0.794932 0.741747
0.327933 0.798267 0.745082
0.414906 0.801412 0.748227
0.499161 0.804459 0.751274
0.581577 0.807439 0.754254
0.662607 0.810369 0.757184
0.742529 0.813259 0.760074
0.821528 0.816116 0.762931
0.899739 0.818944 0.765759
0.245141 0.879023 0.751171
0.337357 0.882358 0.754506
0.424330 0.885503 0.757651
0.508585 0.888549 0.760697
0.591001 0.891530 0.763678
0.672031 0.894460 0.766608
0.751953 0.897350 0.769498
0.830952 0.900207 0.772355
0.909162 0.903035 0.775183
0.166109 0.166109 0.748427
0.258325 0.169444 0.751762
0.345298 0.172589 0.754907
0.429553 0.175636 0.757953
0.511969 0.178616 0.760934
0.593000 0.181546 0.763864
0.672921 0.184436 0.766754
0.751920 0.187293 0.769611
0.830131 0.190121 0.772439
0.177217 0.265224 0.759535
0.269433 0.268558 0.762869
0.356406 0.271703 0.766014
0.440661 0.274750 0.769061
0.523077 0.277730 0.772041
0.604107 0.280661 0.774971
0.684029 0.283551 0.777861
0.763028 0.286407 0.780718
0.841239 0.289236 0.783546
0.187695 0.358724 0.770013
0.279911 0.362059 0.773348
0.366884 0.365204 0.776493
0.451139 0.368250 0.779539
0.533555 0.371231 0.782520
0.614586 0.374161 0.785450
0.694507 0.377051 0.788340
0.773506 0.379907 0.791196
0.851717 0.382736 0.794025
0.197846 0.449308 0.780164
0.290063 0.452642 0.783499
0.377036 0.455787 0.786644
0.461291 0.458834 0.789691
0.543707 0.461814 0.792671
0.624737 0.464744 0.795601
0.704659 0.467634 0.798491
0.783658 0.470491 0.801348
0.861868 0.473319 0.804176
0.207777 0.537916 0.790095
0.299993 0.541251 0.793429
0.386966 0.544396 0.796574
0.471221 0.547443 0.799621
0.553637 0.550423 0.802601
0.634667 0.553353 0.805531
0.714589 0.556243 0.808421
0.793588 0.559100 0.811278
0.871798 0.561928 0.814106
0.217540 0.625037 0.799858
0.309756 0.628372 0.803193
0.396729 0.631517 0.806338
0.480984 0.634563 0.809384
0.563400 0.637544 0.812365
0.644431 0.640474 0.815295
0.724352 0.643364 0.818185
0.803351 0.646220 0.821041
0.881562 0.649049 0.823870
0.227170 0.710966 0.809488
0.319386 0.714301 0.812822
0.406359 0.717446 0.815967
0.490614 0.720492 0.819014
0.573030 0.723473 0.821994
0.654061 0.726403 0.824925
0.733982 0.729293 0.827815
0.812981 0.732150 0.830671
0.891192 0.734978 0.833499
0.236689 0.795904 0.819007
0.328905 0.799239 0.822341
0.415878 0.802384 0.825486
0.500133 0.805431 0.828533
0.582549 0.808411 0.831513
0.663579 0.811341 0.834443
0.743501 0.814231 0.837333
0.822500 0.817088 0.840190
0.900711 0.819916 0.843018
0.246113 0.879995 0.828430
0.338329 0.883330 0.831765
0.425302 0.886475 0.834910
0.509557 0.889521 0.837957
0.591973 0.892502 0.840937
0.673003 0.895432 0.843867
0.752925 0.898322 0.846757
0.831924 0.901179 0.849614
0.910134 0.904007 0.852442
0.167069 0.167069 0.824750
0.259285 0.170404 0.828085
0.346258 0.173549 0.831230
0.430514 0.176596 0.834277
0.512930 0.179576 0.837257
0.593960 0.182506 0.840187
0.673881 0.185396 0.843077
0.752881 0.188253 0.845934
0.831091 0.191081 0.848762
0.178177 0.266184 0.835858
0.270393 0.269519 0.839192
0.357366 0.272664 0.842337
0.441621 0.275710 0.845384
0.524037 0.278691 0.848364
0.605068 0.281621 0.851295
0.684989 0.284511 0.854185
0.763988 0.287368 0.857041
0.842199 0.290196 0.859869
0.188655 0.359684 0.846336
0.280871 0.363019 0.849671
0.367844 0.366164 0.852816
0.452099 0.369211 0.855862
0.534516 0.372191 0.858843
0.615546 0.375121 0.861773
0.695467 0.378011 0.864663
0.774466 0.380868 0.867520
0.852677 0.383696 0.870348
0.198807 0.450268 0.856488
0.291023 0.453602 0.859822
0.377996 0.456747 0.862967
0.462251 0.459794 0.866014
0.544667 0.462774 0.868994
0.625697 0.465705 0.871924
0.705619 0.468595 0.874814
0.784618 0.471451 0.877671
0.862829 0.474279 0.880499
0.208737 0.538877 0.866418
0.300953 0.542211 0.869752
0.387926 0.545356 0.872897
0.472181 0.548403 0.875944
0.554597 0.551383 0.878924
0.635628 0.554313 0.881854
0.715549 0.557203 0.884745
0.794548 0.560060 0.887601
0.872759 0.562888 0.890429
0.218500 0.625997 0.876181
0.310716 0.629332 0.879516
0.397689 0.632477 0.882661
0.481945 0.635523 0.885707
0.564361 0.638504 0.888688
0.645391 0.641434 0.891618
0.725312 0.644324 0.894508
0.804311 0.647181 0.897365
0.882522 0.650009 0.900193
0.228130 0.711926 0.885811
0.320346 0.715261 0.889146
0.407319 0.718406 0.892291
0.491574 0.721453 0.895337
0.573990 0.724433 0.898318
0.655021 0.727363 0.901248
0.734942 0.730253 0.904138
0.813941 0.733110 0.906994
0.892152 0.735938 0.909823
0.237649 0.796864 0.895330
0.329865 0.800199 0.898664
0.416838 0.803344 0.901809
0.501093 0.806391 0.904856
0.583509 0.809371 0.907836
0.664540 0.812301 0.910767
0.744461 0.815191 0.913657
0.823460 0.818048 0.916513
0.901671 0.820876 0.919341
0.247073 0.880955 0.904754
0.339289 0.884290 0.908088
0.426262 0.887435 0.911233
0.510517 0.890482 0.914280
0.592933 0.893462 0.917260
0.673963 0.896392 0.920190
0.753885 0.899282 0.923080
0.832884 0.902139 0.925937
0.911095 0.904967 0.928765
