assets/lighting/cinematic/grade-pastel-low-contrast/lut.cube
TITLE "Pastel Low Contrast"
# TKRS lighting-batch-001 original LUT
# Intended usage: soft pastel slice-of-life / kids map
# License: CC0-1.0
LUT_3D_SIZE 5
DOMAIN_MIN 0.0 0.0 0.0
DOMAIN_MAX 1.0 1.0 1.0
0.158817 0.158817 0.168805
0.338006 0.165297 0.175284
0.504677 0.171324 0.181311
0.665629 0.177144 0.187131
0.822839 0.182829 0.192816
0.180403 0.351432 0.190390
0.359592 0.357911 0.196870
0.526263 0.363938 0.202897
0.687215 0.369759 0.208717
0.844425 0.375443 0.214402
0.200484 0.530624 0.210472
0.379674 0.537104 0.216952
0.546345 0.543131 0.222979
0.707297 0.548951 0.228799
0.864506 0.554636 0.234484
0.219878 0.703674 0.229865
0.399067 0.710154 0.236345
0.565738 0.716181 0.242372
0.726690 0.722001 0.248192
0.883900 0.727686 0.253877
0.238820 0.872703 0.248808
0.418010 0.879183 0.255288
0.584681 0.885210 0.261315
0.745633 0.891030 0.267135
0.902842 0.896715 0.272820
0.161075 0.161075 0.348309
0.340264 0.167555 0.354789
0.506936 0.173582 0.360816
0.667887 0.179402 0.366636
0.825097 0.185087 0.372321
0.182661 0.353690 0.369895
0.361850 0.360170 0.376375
0.528521 0.366197 0.382402
0.689473 0.372017 0.388222
0.846683 0.377702 0.393907
0.202743 0.532883 0.389977
0.381932 0.539362 0.396457
0.548603 0.545389 0.402484
0.709555 0.551209 0.408304
0.866765 0.556894 0.413989
0.222136 0.705932 0.409370
0.401325 0.712412 0.415850
0.567996 0.718439 0.421877
0.728948 0.724259 0.427697
0.886158 0.729944 0.433382
0.241079 0.874961 0.428313
0.420268 0.881441 0.434793
0.586939 0.887468 0.440820
0.747891 0.893288 0.446640
0.905101 0.898973 0.452325
0.163149 0.163149 0.513138
0.342338 0.169629 0.519618
0.509009 0.175656 0.525645
0.669961 0.181476 0.531465
0.827171 0.187161 0.537150
0.184735 0.355764 0.534724
0.363924 0.362243 0.541204
0.530595 0.368270 0.547231
0.691547 0.374091 0.553051
0.848757 0.379775 0.558736
0.204817 0.534956 0.554806
0.384006 0.541436 0.561285
0.550677 0.547463 0.567312
0.711629 0.553283 0.573133
0.868838 0.558968 0.578817
0.224210 0.708006 0.574199
0.403399 0.714486 0.580679
0.570070 0.720513 0.586706
0.731022 0.726333 0.592526
0.888232 0.732018 0.598211
0.243152 0.877035 0.593142
0.422342 0.883515 0.599621
0.589013 0.889542 0.605648
0.749965 0.895362 0.611468
0.907174 0.901047 0.617153
0.165137 0.165137 0.671168
0.344326 0.171617 0.677647
0.510997 0.177644 0.683674
0.671949 0.183464 0.689494
0.829159 0.189149 0.695179
0.186723 0.357752 0.692754
0.365912 0.364232 0.699233
0.532583 0.370259 0.705260
0.693535 0.376079 0.711080
0.850745 0.381764 0.716765
0.206805 0.536944 0.712835
0.385994 0.543424 0.719315
0.552665 0.549451 0.725342
0.713617 0.555271 0.731162
0.870827 0.560956 0.736847
0.226198 0.709994 0.732228
0.405387 0.716474 0.738708
0.572058 0.722501 0.744735
0.733010 0.728321 0.750555
0.890220 0.734006 0.756240
0.245141 0.879023 0.751171
0.424330 0.885503 0.757651
0.591001 0.891530 0.763678
0.751953 0.897350 0.769498
0.909162 0.903035 0.775183
0.167069 0.167069 0.824750
0.346258 0.173549 0.831230
0.512930 0.179576 0.837257
0.673881 0.185396 0.843077
0.831091 0.191081 0.848762
0.188655 0.359684 0.846336
0.367844 0.366164 0.852816
0.534516 0.372191 0.858843
0.695467 0.378011 0.864663
0.852677 0.383696 0.870348
0.208737 0.538877 0.866418
0.387926 0.545356 0.872897
0.554597 0.551383 0.878924
0.715549 0.557203 0.884745
0.872759 0.562888 0.890429
0.228130 0.711926 0.885811
0.407319 0.718406 0.892291
0.573990 0.724433 0.898318
0.734942 0.730253 0.904138
0.892152 0.735938 0.909823
0.247073 0.880955 0.904754
0.426262 0.887435 0.911233
0.592933 0.893462 0.917260
0.753885 0.899282 0.923080
0.911095 0.904967 0.928765
