assets/lighting/cinematic/grade-pastel-low-contrast/lut.cube
TITLE "Pastel Low Contrast"
# TKRS lighting-batch-001 original LUT
# Intended usage: soft pastel slice-of-life / kids map
# License: CC0-1.0
LUT_3D_SIZE 17
DOMAIN_MIN 0.0 0.0 0.0
DOMAIN_MAX 1.0 1.0 1.0
0.158817 0.158817 0.168805
0.205922 0.160520 0.170508
0.251033 0.162152 0.172139
0.294947 0.163740 0.173727
0.338006 0.165297 0.175284
0.380403 0.166830 0.176817
0.422261 0.168343 0.178331
0.463665 0.169841 0.179828
0.504677 0.171324 0.181311
0.545346 0.172794 0.182782
0.585708 0.174254 0.184241
0.625794 0.175703 0.185691
0.665629 0.177144 0.187131
0.705235 0.178576 0.188564
0.744628 0.180000 0.189988
0.783825 0.181418 0.191405
0.822839 0.182829 0.192816
0.164490 0.209440 0.174478
0.211595 0.211143 0.176181
0.256706 0.212775 0.177812
0.300620 0.214363 0.179400
0.343679 0.215920 0.180957
0.386077 0.217453 0.182491
0.427934 0.218966 0.184004
0.469338 0.220464 0.185501
0.510350 0.221947 0.186984
0.551019 0.223417 0.188455
0.591381 0.224877 0.189915
0.631467 0.226326 0.191364
0.671302 0.227767 0.192805
0.710908 0.229199 0.194237
0.750301 0.230624 0.195661
0.789498 0.232041 0.197079
0.828512 0.233452 0.198489
0.169925 0.257932 0.179912
0.217029 0.259635 0.181615
0.262141 0.261266 0.183247
0.306054 0.262854 0.184835
0.349114 0.264411 0.186392
0.391511 0.265944 0.187925
0.433369 0.267458 0.189438
0.474773 0.268955 0.190936
0.515785 0.270438 0.192419
0.556453 0.271909 0.193889
0.596815 0.273368 0.195349
0.636901 0.274818 0.196798
0.676737 0.276258 0.198239
0.716342 0.277691 0.199671
0.755736 0.279115 0.201096
0.794933 0.280533 0.202513
0.833946 0.281943 0.203924
0.175215 0.305140 0.185203
0.222320 0.306843 0.186906
0.267431 0.308475 0.188537
0.311345 0.310063 0.190125
0.354404 0.311620 0.191682
0.396801 0.313153 0.193215
0.438659 0.314666 0.194729
0.480063 0.316164 0.196226
0.521075 0.317647 0.197709
0.561744 0.319117 0.199180
0.602106 0.320577 0.200639
0.642192 0.322026 0.202089
0.682027 0.323467 0.203529
0.721633 0.324899 0.204962
0.761026 0.326323 0.206386
0.800223 0.327741 0.207803
0.839237 0.329152 0.209214
0.180403 0.351432 0.190390
0.227508 0.353135 0.192094
0.272619 0.354766 0.193725
0.316533 0.356354 0.195313
0.359592 0.357911 0.196870
0.401989 0.359445 0.198403
0.443847 0.360958 0.199917
0.485251 0.362455 0.201414
0.526263 0.363938 0.202897
0.566931 0.365409 0.204368
0.607293 0.366869 0.205827
0.647380 0.368318 0.207277
0.687215 0.369759 0.208717
0.726820 0.371191 0.210149
0.766214 0.372615 0.211574
0.805411 0.374033 0.212991
0.844425 0.375443 0.214402
0.185511 0.397013 0.195499
0.232616 0.398716 0.197202
0.277727 0.400348 0.198833
0.321641 0.401936 0.200421
0.364700 0.403493 0.201978
0.407097 0.405026 0.203511
0.448955 0.406539 0.205025
0.490359 0.408037 0.206522
0.531371 0.409520 0.208005
0.572040 0.410990 0.209476
0.612402 0.412450 0.210935
0.652488 0.413899 0.212385
0.692323 0.415340 0.213825
0.731929 0.416772 0.215258
0.771322 0.418197 0.216682
0.810519 0.419614 0.218099
0.849533 0.421025 0.219510
0.190554 0.442015 0.200542
0.237659 0.443719 0.202245
0.282770 0.445350 0.203877
0.326684 0.446938 0.205464
0.369743 0.448495 0.207022
0.412141 0.450028 0.208555
0.453999 0.451542 0.210068
0.495402 0.453039 0.211565
0.536415 0.454522 0.213049
0.577083 0.455993 0.214519
0.617445 0.457452 0.215979
0.657531 0.458902 0.217428
0.697366 0.460342 0.218869
0.736972 0.461774 0.220301
0.776366 0.463199 0.221725
0.815562 0.464616 0.223143
0.854576 0.466027 0.224554
0.195543 0.486530 0.205531
0.242648 0.488233 0.207234
0.287759 0.489865 0.208865
0.331673 0.491453 0.210453
0.374732 0.493010 0.212010
0.417129 0.494543 0.213543
0.458987 0.496057 0.215057
0.500391 0.497554 0.216554
0.541403 0.499037 0.218037
0.582072 0.500507 0.219508
0.622434 0.501967 0.220967
0.662520 0.503416 0.222417
0.702355 0.504857 0.223857
0.741961 0.506289 0.225290
0.781354 0.507714 0.226714
0.820551 0.509131 0.228131
0.859565 0.510542 0.229542
0.200484 0.530624 0.210472
0.247589 0.532328 0.212175
0.292701 0.533959 0.213807
0.336614 0.535547 0.215395
0.379674 0.537104 0.216952
0.422071 0.538637 0.218485
0.463929 0.540151 0.219998
0.505333 0.541648 0.221496
0.546345 0.543131 0.222979
0.587013 0.544602 0.224449
0.627375 0.546061 0.225909
0.667461 0.547511 0.227358
0.707297 0.548951 0.228799
0.746902 0.550383 0.230231
0.786296 0.551808 0.231656
0.825493 0.553225 0.233073
0.864506 0.554636 0.234484
0.205385 0.574349 0.215372
0.252489 0.576052 0.217076
0.297601 0.577684 0.218707
0.341514 0.579272 0.220295
0.384574 0.580829 0.221852
0.426971 0.582362 0.223385
0.468829 0.583875 0.224899
0.510233 0.585373 0.226396
0.551245 0.586856 0.227879
0.591913 0.588326 0.229349
0.632275 0.589786 0.230809
0.672361 0.591235 0.232259
0.712197 0.592676 0.233699
0.751802 0.594108 0.235131
0.791196 0.595533 0.236556
0.830393 0.596950 0.237973
0.869406 0.598361 0.239384
0.210248 0.617745 0.220235
0.257353 0.619448 0.221939
0.302464 0.621079 0.223570
0.346378 0.622667 0.225158
0.389437 0.624224 0.226715
0.431834 0.625757 0.228248
0.473692 0.627271 0.229762
0.515096 0.628768 0.231259
0.556108 0.630251 0.232742
0.596776 0.631722 0.234213
0.637139 0.633181 0.235672
0.677225 0.634631 0.237122
0.717060 0.636072 0.238562
0.756666 0.637504 0.239994
0.796059 0.638928 0.241419
0.835256 0.640346 0.242836
0.874270 0.641756 0.244247
0.215078 0.660844 0.225065
0.262183 0.662547 0.226769
0.307294 0.664179 0.228400
0.351208 0.665767 0.229988
0.394267 0.667324 0.231545
0.436664 0.668857 0.233078
0.478522 0.670370 0.234592
0.519926 0.671868 0.236089
0.560938 0.673351 0.237572
0.601607 0.674821 0.239043
0.641969 0.676281 0.240502
0.682055 0.677730 0.241952
0.721890 0.679171 0.243392
0.761496 0.680603 0.244824
0.800889 0.682028 0.246249
0.840086 0.683445 0.247666
0.879100 0.684856 0.249077
0.219878 0.703674 0.229865
0.266982 0.705377 0.231569
0.312094 0.707009 0.233200
0.356008 0.708597 0.234788
0.399067 0.710154 0.236345
0.441464 0.711687 0.237878
0.483322 0.713200 0.239392
0.524726 0.714698 0.240889
0.565738 0.716181 0.242372
0.606406 0.717651 0.243843
0.646768 0.719111 0.245302
0.686855 0.720560 0.246752
0.726690 0.722001 0.248192
0.766295 0.723433 0.249624
0.805689 0.724857 0.251049
0.844886 0.726275 0.252466
0.883900 0.727686 0.253877
0.224650 0.746257 0.234637
0.271755 0.747960 0.236341
0.316866 0.749591 0.237972
0.360780 0.751179 0.239560
0.403839 0.752737 0.241117
0.446236 0.754270 0.242650
0.488094 0.755783 0.244164
0.529498 0.757280 0.245661
0.570510 0.758763 0.247144
0.611179 0.760234 0.248615
0.651541 0.761694 0.250074
0.691627 0.763143 0.251524
0.731462 0.764584 0.252964
0.771068 0.766016 0.254396
0.810461 0.767440 0.255821
0.849658 0.768858 0.257238
0.888672 0.770269 0.258649
0.229397 0.788612 0.239384
0.276501 0.790315 0.241087
0.321613 0.791947 0.242719
0.365526 0.793535 0.244307
0.408586 0.795092 0.245864
0.450983 0.796625 0.247397
0.492841 0.798138 0.248911
0.534245 0.799636 0.250408
0.575257 0.801119 0.251891
0.615925 0.802589 0.253361
0.656287 0.804049 0.254821
0.696373 0.805498 0.256270
0.736209 0.806939 0.257711
0.775814 0.808371 0.259143
0.815208 0.809796 0.260568
0.854405 0.811213 0.261985
0.893418 0.812624 0.263396
0.234120 0.830756 0.244107
0.281224 0.832459 0.245810
0.326336 0.834091 0.247442
0.370249 0.835679 0.249030
0.413309 0.837236 0.250587
0.455706 0.838769 0.252120
0.497564 0.840282 0.253633
0.538968 0.841780 0.255131
0.579980 0.843263 0.256614
0.620648 0.844733 0.258084
0.661010 0.846193 0.259544
0.701096 0.847642 0.260993
0.740932 0.849083 0.262434
0.780537 0.850515 0.263866
0.819931 0.851939 0.265291
0.859128 0.853357 0.266708
0.898141 0.854768 0.268119
0.238820 0.872703 0.248808
0.285925 0.874406 0.250511
0.331036 0.876038 0.252143
0.374950 0.877625 0.253731
0.418010 0.879183 0.255288
0.460407 0.880716 0.256821
0.502265 0.882229 0.258334
0.543669 0.883726 0.259832
0.584681 0.885210 0.261315
0.625349 0.886680 0.262785
0.665711 0.888140 0.264245
0.705797 0.889589 0.265694
0.745633 0.891030 0.267135
0.785238 0.892462 0.268567
0.824632 0.893886 0.269991
0.863829 0.895304 0.271409
0.902842 0.896715 0.272820
0.159415 0.159415 0.216327
0.206520 0.161118 0.218030
0.251631 0.162749 0.219662
0.295545 0.164337 0.221250
0.338604 0.165894 0.222807
0.381001 0.167428 0.224340
0.422859 0.168941 0.225853
0.464263 0.170438 0.227351
0.505275 0.171921 0.228834
0.545943 0.173392 0.230304
0.586305 0.174852 0.231764
0.626392 0.176301 0.233213
0.666227 0.177742 0.234654
0.705832 0.179174 0.236086
0.745226 0.180598 0.237510
0.784423 0.182016 0.238928
0.823437 0.183427 0.240339
0.165088 0.210038 0.222000
0.212193 0.211741 0.223704
0.257304 0.213373 0.225335
0.301218 0.214960 0.226923
0.344277 0.216518 0.228480
0.386674 0.218051 0.230013
0.428532 0.219564 0.231527
0.469936 0.221062 0.233024
0.510948 0.222545 0.234507
0.551617 0.224015 0.235977
0.591979 0.225475 0.237437
0.632065 0.226924 0.238886
0.671900 0.228365 0.240327
0.711506 0.229797 0.241759
0.750899 0.231221 0.243184
0.790096 0.232639 0.244601
0.829110 0.234050 0.246012
0.170522 0.258530 0.227434
0.217627 0.260233 0.229138
0.262738 0.261864 0.230769
0.306652 0.263452 0.232357
0.349711 0.265009 0.233914
0.392109 0.266542 0.235447
0.433967 0.268056 0.236961
0.475370 0.269553 0.238458
0.516383 0.271036 0.239941
0.557051 0.272507 0.241412
0.597413 0.273966 0.242871
0.637499 0.275416 0.244321
0.677335 0.276856 0.245761
0.716940 0.278289 0.247193
0.756334 0.279713 0.248618
0.795531 0.281130 0.250035
0.834544 0.282541 0.251446
0.175813 0.305738 0.232725
0.222918 0.307441 0.234428
0.268029 0.309072 0.236060
0.311943 0.310660 0.237648
0.355002 0.312217 0.239205
0.397399 0.313751 0.240738
0.439257 0.315264 0.242251
0.480661 0.316761 0.243749
0.521673 0.318244 0.245232
0.562342 0.319715 0.246702
0.602704 0.321175 0.248162
0.642790 0.322624 0.249611
0.682625 0.324065 0.251052
0.722231 0.325497 0.252484
0.761624 0.326921 0.253909
0.800821 0.328339 0.255326
0.839835 0.329749 0.256737
0.181001 0.352030 0.237913
0.228105 0.353733 0.239616
0.273217 0.355364 0.241247
0.317130 0.356952 0.242835
0.360190 0.358509 0.244392
0.402587 0.360042 0.245926
0.444445 0.361556 0.247439
0.485849 0.363053 0.248936
0.526861 0.364536 0.250419
0.567529 0.366007 0.251890
0.607891 0.367466 0.253350
0.647978 0.368916 0.254799
0.687813 0.370356 0.256240
0.727418 0.371789 0.257672
0.766812 0.373213 0.259096
0.806009 0.374631 0.260514
0.845023 0.376041 0.261925
0.186109 0.397611 0.243021
0.233214 0.399314 0.244724
0.278325 0.400946 0.246356
0.322239 0.402534 0.247944
0.365298 0.404091 0.249501
0.407695 0.405624 0.251034
0.449553 0.407137 0.252547
0.490957 0.408635 0.254045
0.531969 0.410118 0.255528
0.572638 0.411588 0.256998
0.613000 0.413048 0.258458
0.653086 0.414497 0.259907
0.692921 0.415938 0.261348
0.732527 0.417370 0.262780
0.771920 0.418794 0.264205
0.811117 0.420212 0.265622
0.850131 0.421623 0.267033
0.191152 0.442613 0.248064
0.238257 0.444317 0.249768
0.283368 0.445948 0.251399
0.327282 0.447536 0.252987
0.370341 0.449093 0.254544
0.412739 0.450626 0.256077
0.454596 0.452140 0.257591
0.496000 0.453637 0.259088
0.537013 0.455120 0.260571
0.577681 0.456591 0.262042
0.618043 0.458050 0.263501
0.658129 0.459500 0.264951
0.697964 0.460940 0.266391
0.737570 0.462372 0.267823
0.776963 0.463797 0.269248
0.816160 0.465214 0.270665
0.855174 0.466625 0.272076
0.196141 0.487128 0.253053
0.243246 0.488831 0.254756
0.288357 0.490463 0.256388
0.332271 0.492051 0.257976
0.375330 0.493608 0.259533
0.417727 0.495141 0.261066
0.459585 0.496654 0.262579
0.500989 0.498152 0.264077
0.542001 0.499635 0.265560
0.582669 0.501105 0.267030
0.623031 0.502565 0.268490
0.663118 0.504014 0.269939
0.702953 0.505455 0.271380
0.742559 0.506887 0.272812
0.781952 0.508312 0.274236
0.821149 0.509729 0.275654
0.860163 0.511140 0.277065
0.201082 0.531222 0.257994
0.248187 0.532925 0.259698
0.293298 0.534557 0.261329
0.337212 0.536145 0.262917
0.380271 0.537702 0.264474
0.422669 0.539235 0.266007
0.464527 0.540749 0.267521
0.505930 0.542246 0.269018
0.546943 0.543729 0.270501
0.587611 0.545199 0.271972
0.627973 0.546659 0.273431
0.668059 0.548108 0.274881
0.707894 0.549549 0.276321
0.747500 0.550981 0.277753
0.786894 0.552406 0.279178
0.826091 0.553823 0.280595
0.865104 0.555234 0.282006
0.205982 0.574947 0.262895
0.253087 0.576650 0.264598
0.298199 0.578281 0.266229
0.342112 0.579869 0.267817
0.385172 0.581427 0.269374
0.427569 0.582960 0.270907
0.469427 0.584473 0.272421
0.510831 0.585970 0.273918
0.551843 0.587454 0.275401
0.592511 0.588924 0.276872
0.632873 0.590384 0.278331
0.672959 0.591833 0.279781
0.712795 0.593274 0.281221
0.752400 0.594706 0.282654
0.791794 0.596130 0.284078
0.830991 0.597548 0.285496
0.870004 0.598959 0.286906
0.210846 0.618343 0.267758
0.257950 0.620046 0.269461
0.303062 0.621677 0.271092
0.346976 0.623265 0.272680
0.390035 0.624822 0.274238
0.432432 0.626355 0.275771
0.474290 0.627869 0.277284
0.515694 0.629366 0.278781
0.556706 0.630849 0.280265
0.597374 0.632320 0.281735
0.637736 0.633779 0.283195
0.677823 0.635229 0.284644
0.717658 0.636669 0.286085
0.757263 0.638102 0.287517
0.796657 0.639526 0.288941
0.835854 0.640943 0.290359
0.874868 0.642354 0.291770
0.215676 0.661442 0.272588
0.262781 0.663145 0.274291
0.307892 0.664777 0.275923
0.351806 0.666365 0.277510
0.394865 0.667922 0.279068
0.437262 0.669455 0.280601
0.479120 0.670968 0.282114
0.520524 0.672466 0.283611
0.561536 0.673949 0.285095
0.602204 0.675419 0.286565
0.642566 0.676879 0.288025
0.682653 0.678328 0.289474
0.722488 0.679769 0.290915
0.762093 0.681201 0.292347
0.801487 0.682625 0.293771
0.840684 0.684043 0.295189
0.879698 0.685454 0.296600
0.220476 0.704272 0.277388
0.267580 0.705975 0.279091
0.312692 0.707606 0.280722
0.356605 0.709194 0.282310
0.399665 0.710751 0.283867
0.442062 0.712285 0.285401
0.483920 0.713798 0.286914
0.525324 0.715295 0.288411
0.566336 0.716778 0.289894
0.607004 0.718249 0.291365
0.647366 0.719709 0.292825
0.687452 0.721158 0.294274
0.727288 0.722599 0.295715
0.766893 0.724031 0.297147
0.806287 0.725455 0.298571
0.845484 0.726873 0.299989
0.884497 0.728283 0.301399
0.225248 0.746855 0.282160
0.272353 0.748558 0.283863
0.317464 0.750189 0.285495
0.361378 0.751777 0.287082
0.404437 0.753334 0.288640
0.446834 0.754868 0.290173
0.488692 0.756381 0.291686
0.530096 0.757878 0.293183
0.571108 0.759361 0.294667
0.611776 0.760832 0.296137
0.652138 0.762292 0.297597
0.692225 0.763741 0.299046
0.732060 0.765182 0.300487
0.771665 0.766614 0.301919
0.811059 0.768038 0.303343
0.850256 0.769456 0.304761
0.889270 0.770866 0.306172
0.229994 0.789210 0.286907
0.277099 0.790913 0.288610
0.322210 0.792545 0.290241
0.366124 0.794132 0.291829
0.409184 0.795690 0.293386
0.451581 0.797223 0.294919
0.493439 0.798736 0.296433
0.534843 0.800234 0.297930
0.575855 0.801717 0.299413
0.616523 0.803187 0.300884
0.656885 0.804647 0.302343
0.696971 0.806096 0.303793
0.736807 0.807537 0.305233
0.776412 0.808969 0.306666
0.815806 0.810393 0.308090
0.855003 0.811811 0.309507
0.894016 0.813222 0.310918
0.234717 0.831354 0.291629
0.281822 0.833057 0.293333
0.326933 0.834688 0.294964
0.370847 0.836276 0.296552
0.413906 0.837833 0.298109
0.456304 0.839367 0.299642
0.498162 0.840880 0.301156
0.539565 0.842377 0.302653
0.580578 0.843860 0.304136
0.621246 0.845331 0.305607
0.661608 0.846791 0.307066
0.701694 0.848240 0.308516
0.741530 0.849681 0.309956
0.781135 0.851113 0.311388
0.820529 0.852537 0.312813
0.859726 0.853955 0.314230
0.898739 0.855365 0.315641
0.239418 0.873301 0.296330
0.286523 0.875004 0.298034
0.331634 0.876635 0.299665
0.375548 0.878223 0.301253
0.418607 0.879780 0.302810
0.461005 0.881314 0.304343
0.502863 0.882827 0.305857
0.544266 0.884324 0.307354
0.585279 0.885807 0.308837
0.625947 0.887278 0.310308
0.666309 0.888738 0.311767
0.706395 0.890187 0.313217
0.746230 0.891628 0.314657
0.785836 0.893060 0.316089
0.825229 0.894484 0.317514
0.864426 0.895902 0.318931
0.903440 0.897312 0.320342
0.159984 0.159984 0.261588
0.207089 0.161688 0.263291
0.252200 0.163319 0.264923
0.296114 0.164907 0.266511
0.339173 0.166464 0.268068
0.381571 0.167997 0.269601
0.423429 0.169511 0.271115
0.464832 0.171008 0.272612
0.505845 0.172491 0.274095
0.546513 0.173962 0.275565
0.586875 0.175421 0.277025
0.626961 0.176871 0.278474
0.666796 0.178311 0.279915
0.706402 0.179743 0.281347
0.745795 0.181168 0.282772
0.784992 0.182585 0.284189
0.824006 0.183996 0.285600
0.165657 0.210607 0.267261
0.212762 0.212311 0.268965
0.257874 0.213942 0.270596
0.301787 0.215530 0.272184
0.344847 0.217087 0.273741
0.387244 0.218620 0.275274
0.429102 0.220134 0.276788
0.470506 0.221631 0.278285
0.511518 0.223114 0.279768
0.552186 0.224585 0.281239
0.592548 0.226044 0.282698
0.632634 0.227494 0.284148
0.672470 0.228934 0.285588
0.712075 0.230366 0.287020
0.751469 0.231791 0.288445
0.790666 0.233208 0.289862
0.829679 0.234619 0.291273
0.171092 0.259099 0.272696
0.218197 0.260802 0.274399
0.263308 0.262434 0.276030
0.307222 0.264022 0.277618
0.350281 0.265579 0.279175
0.392678 0.267112 0.280708
0.434536 0.268625 0.282222
0.475940 0.270123 0.283719
0.516952 0.271606 0.285202
0.557620 0.273076 0.286673
0.597982 0.274536 0.288132
0.638069 0.275985 0.289582
0.677904 0.277426 0.291022
0.717509 0.278858 0.292455
0.756903 0.280282 0.293879
0.796100 0.281700 0.295297
0.835114 0.283111 0.296707
0.176382 0.306307 0.277986
0.223487 0.308011 0.279690
0.268598 0.309642 0.281321
0.312512 0.311230 0.282909
0.355571 0.312787 0.284466
0.397969 0.314320 0.285999
0.439827 0.315834 0.287513
0.481230 0.317331 0.289010
0.522243 0.318814 0.290493
0.562911 0.320284 0.291963
0.603273 0.321744 0.293423
0.643359 0.323194 0.294873
0.683194 0.324634 0.296313
0.722800 0.326066 0.297745
0.762194 0.327491 0.299170
0.801390 0.328908 0.300587
0.840404 0.330319 0.301998
0.181570 0.352599 0.283174
0.228675 0.354302 0.284877
0.273786 0.355934 0.286509
0.317700 0.357522 0.288097
0.360759 0.359079 0.289654
0.403156 0.360612 0.291187
0.445014 0.362125 0.292700
0.486418 0.363623 0.294198
0.527430 0.365106 0.295681
0.568099 0.366576 0.297151
0.608461 0.368036 0.298611
0.648547 0.369485 0.300060
0.688382 0.370926 0.301501
0.727988 0.372358 0.302933
0.767381 0.373783 0.304357
0.806578 0.375200 0.305775
0.845592 0.376611 0.307186
0.186678 0.398180 0.288282
0.233783 0.399884 0.289986
0.278894 0.401515 0.291617
0.322808 0.403103 0.293205
0.365867 0.404660 0.294762
0.408265 0.406193 0.296295
0.450123 0.407707 0.297809
0.491526 0.409204 0.299306
0.532539 0.410687 0.300789
0.573207 0.412158 0.302259
0.613569 0.413617 0.303719
0.653655 0.415067 0.305169
0.693490 0.416507 0.306609
0.733096 0.417939 0.308041
0.772490 0.419364 0.309466
0.811686 0.420781 0.310883
0.850700 0.422192 0.312294
0.191722 0.443183 0.293325
0.238826 0.444886 0.295029
0.283938 0.446517 0.296660
0.327851 0.448105 0.298248
0.370911 0.449662 0.299805
0.413308 0.451195 0.301338
0.455166 0.452709 0.302852
0.496570 0.454206 0.304349
0.537582 0.455689 0.305832
0.578250 0.457160 0.307303
0.618612 0.458619 0.308762
0.658698 0.460069 0.310212
0.698534 0.461510 0.311652
0.738139 0.462942 0.313084
0.777533 0.464366 0.314509
0.816730 0.465784 0.315926
0.855743 0.467194 0.317337
0.196710 0.487697 0.298314
0.243815 0.489401 0.300017
0.288926 0.491032 0.301649
0.332840 0.492620 0.303237
0.375899 0.494177 0.304794
0.418297 0.495710 0.306327
0.460155 0.497224 0.307841
0.501558 0.498721 0.309338
0.542571 0.500204 0.310821
0.583239 0.501675 0.312291
0.623601 0.503134 0.313751
0.663687 0.504584 0.315200
0.703522 0.506024 0.316641
0.743128 0.507456 0.318073
0.782521 0.508881 0.319498
0.821718 0.510298 0.320915
0.860732 0.511709 0.322326
0.201652 0.531792 0.303256
0.248757 0.533495 0.304959
0.293868 0.535126 0.306590
0.337782 0.536714 0.308178
0.380841 0.538271 0.309735
0.423238 0.539804 0.311268
0.465096 0.541318 0.312782
0.506500 0.542815 0.314279
0.547512 0.544298 0.315762
0.588180 0.545769 0.317233
0.628542 0.547228 0.318692
0.668629 0.548678 0.320142
0.708464 0.550118 0.321582
0.748069 0.551551 0.323015
0.787463 0.552975 0.324439
0.826660 0.554392 0.325857
0.865674 0.555803 0.327267
0.206552 0.575516 0.308156
0.253657 0.577220 0.309859
0.298768 0.578851 0.311490
0.342682 0.580439 0.313078
0.385741 0.581996 0.314635
0.428138 0.583529 0.316169
0.469996 0.585043 0.317682
0.511400 0.586540 0.319179
0.552412 0.588023 0.320662
0.593081 0.589494 0.322133
0.633443 0.590953 0.323593
0.673529 0.592403 0.325042
0.713364 0.593843 0.326483
0.752970 0.595275 0.327915
0.792363 0.596700 0.329339
0.831560 0.598117 0.330757
0.870574 0.599528 0.332167
0.211415 0.618912 0.313019
0.258520 0.620615 0.314722
0.303631 0.622247 0.316354
0.347545 0.623835 0.317942
0.390604 0.625392 0.319499
0.433002 0.626925 0.321032
0.474859 0.628438 0.322545
0.516263 0.629936 0.324043
0.557275 0.631419 0.325526
0.597944 0.632889 0.326996
0.638306 0.634349 0.328456
0.678392 0.635798 0.329905
0.718227 0.637239 0.331346
0.757833 0.638671 0.332778
0.797226 0.640096 0.334203
0.836423 0.641513 0.335620
0.875437 0.642924 0.337031
0.216245 0.662011 0.317849
0.263350 0.663715 0.319552
0.308461 0.665346 0.321184
0.352375 0.666934 0.322772
0.395434 0.668491 0.324329
0.437832 0.670024 0.325862
0.479689 0.671538 0.327375
0.521093 0.673035 0.328873
0.562106 0.674518 0.330356
0.602774 0.675989 0.331826
0.643136 0.677448 0.333286
0.683222 0.678898 0.334735
0.723057 0.680338 0.336176
0.762663 0.681770 0.337608
0.802056 0.683195 0.339033
0.841253 0.684612 0.340450
0.880267 0.686023 0.341861
0.221045 0.704841 0.322649
0.268150 0.706545 0.324352
0.313261 0.708176 0.325984
0.357175 0.709764 0.327571
0.400234 0.711321 0.329129
0.442631 0.712854 0.330662
0.484489 0.714368 0.332175
0.525893 0.715865 0.333672
0.566905 0.717348 0.335156
0.607574 0.718818 0.336626
0.647936 0.720278 0.338086
0.688022 0.721728 0.339535
0.727857 0.723168 0.340976
0.767463 0.724600 0.342408
0.806856 0.726025 0.343832
0.846053 0.727442 0.345250
0.885067 0.728853 0.346661
0.225817 0.747424 0.327421
0.272922 0.749128 0.329124
0.318033 0.750759 0.330756
0.361947 0.752347 0.332344
0.405006 0.753904 0.333901
0.447404 0.755437 0.335434
0.489261 0.756951 0.336947
0.530665 0.758448 0.338445
0.571678 0.759931 0.339928
0.612346 0.761401 0.341398
0.652708 0.762861 0.342858
0.692794 0.764310 0.344307
0.732629 0.765751 0.345748
0.772235 0.767183 0.347180
0.811628 0.768608 0.348605
0.850825 0.770025 0.350022
0.889839 0.771436 0.351433
0.230564 0.789779 0.332168
0.277669 0.791483 0.333871
0.322780 0.793114 0.335502
0.366694 0.794702 0.337090
0.409753 0.796259 0.338647
0.452150 0.797792 0.340180
0.494008 0.799306 0.341694
0.535412 0.800803 0.343191
0.576424 0.802286 0.344674
0.617092 0.803757 0.346145
0.657454 0.805216 0.347604
0.697541 0.806666 0.349054
0.737376 0.808106 0.350495
0.776981 0.809538 0.351927
0.816375 0.810963 0.353351
0.855572 0.812380 0.354769
0.894586 0.813791 0.356179
0.235287 0.831923 0.336891
0.282392 0.833627 0.338594
0.327503 0.835258 0.340225
0.371417 0.836846 0.341813
0.414476 0.838403 0.343370
0.456873 0.839936 0.344903
0.498731 0.841450 0.346417
0.540135 0.842947 0.347914
0.581147 0.844430 0.349397
0.621815 0.845900 0.350868
0.662177 0.847360 0.352327
0.702264 0.848810 0.353777
0.742099 0.850250 0.355217
0.781704 0.851682 0.356650
0.821098 0.853107 0.358074
0.860295 0.854524 0.359492
0.899309 0.855935 0.360902
0.239988 0.873870 0.341592
0.287092 0.875574 0.343295
0.332204 0.877205 0.344926
0.376117 0.878793 0.346514
0.419177 0.880350 0.348071
0.461574 0.881883 0.349604
0.503432 0.883397 0.351118
0.544836 0.884894 0.352615
0.585848 0.886377 0.354098
0.626516 0.887847 0.355569
0.666878 0.889307 0.357028
0.706964 0.890757 0.358478
0.746800 0.892197 0.359918
0.786405 0.893629 0.361351
0.825799 0.895054 0.362775
0.864996 0.896471 0.364192
0.904010 0.897882 0.365603
0.160536 0.160536 0.305452
0.207641 0.162239 0.307156
0.252752 0.163871 0.308787
0.296666 0.165459 0.310375
0.339725 0.167016 0.311932
0.382122 0.168549 0.313465
0.423980 0.170063 0.314979
0.465384 0.171560 0.316476
0.506396 0.173043 0.317959
0.547065 0.174513 0.319429
0.587427 0.175973 0.320889
0.627513 0.177422 0.322339
0.667348 0.178863 0.323779
0.706954 0.180295 0.325211
