assets/lighting/cinematic/grade-liminal-fluorescent/lut.cube
TITLE "Liminal Fluorescent"
# TKRS lighting-batch-001 original LUT
# Intended usage: backrooms / liminal yellow-green fluorescent
# License: CC0-1.0
LUT_3D_SIZE 5
DOMAIN_MIN 0.0 0.0 0.0
DOMAIN_MAX 1.0 1.0 1.0
0.020208 0.022129 0.018865
0.166836 0.035537 0.030296
0.313464 0.048945 0.041726
0.460092 0.062353 0.053157
0.610293 0.076182 0.064884
0.059050 0.203428 0.055126
0.207372 0.218524 0.066984
0.360668 0.235411 0.079429
0.519531 0.253162 0.092293
0.684428 0.271692 0.105578
0.102244 0.400897 0.094552
0.260066 0.422067 0.107910
0.423897 0.444120 0.121700
0.594092 0.467024 0.135931
0.770943 0.490764 0.150615
0.151558 0.624043 0.138428
0.320271 0.650791 0.153191
0.495660 0.678445 0.168416
0.677966 0.706994 0.184113
0.867400 0.736429 0.200290
0.207142 0.874354 0.186865
0.387747 0.907042 0.203125
0.575504 0.940672 0.219875
0.765430 0.968985 0.235824
0.947787 0.985482 0.249425
0.023947 0.026223 0.135171
0.170575 0.039631 0.146602
0.317203 0.053039 0.158033
0.463831 0.066447 0.169463
0.616645 0.080620 0.182322
0.062793 0.207534 0.171440
0.212072 0.223578 0.184669
0.366342 0.240746 0.198671
0.526266 0.258740 0.213246
0.692289 0.277502 0.228355
0.106731 0.407266 0.215811
0.265546 0.428710 0.231010
0.430448 0.451026 0.246729
0.601776 0.474186 0.262963
0.779811 0.498178 0.279714
0.156630 0.632115 0.265812
0.326449 0.659141 0.282652
0.502997 0.687069 0.300011
0.686506 0.715890 0.317892
0.877184 0.745594 0.336301
0.212839 0.884236 0.321026
0.394631 0.917213 0.339525
0.583615 0.951129 0.358556
0.770080 0.974023 0.374209
0.952437 0.990520 0.387809
0.027687 0.030318 0.251478
0.174315 0.043726 0.262908
0.320943 0.057134 0.274339
0.468146 0.070624 0.286044
0.623230 0.085117 0.300604
0.066738 0.212248 0.288445
0.216865 0.228726 0.303224
0.372113 0.246158 0.318891
0.533101 0.264390 0.335252
0.700255 0.283381 0.352243
0.111272 0.413720 0.338135
0.271094 0.435434 0.355231
0.437077 0.458010 0.372925
0.609545 0.481426 0.391202
0.788770 0.505670 0.410056
0.161760 0.640272 0.394409
0.332695 0.667575 0.413361
0.510409 0.695777 0.432885
0.695128 0.724868 0.452980
0.887054 0.754841 0.473646
0.218598 0.894207 0.456500
0.401584 0.927472 0.477264
0.591800 0.961673 0.498600
0.774731 0.979061 0.512594
0.957088 0.995558 0.526194
0.031426 0.034413 0.367784
0.178054 0.047821 0.379215
0.324682 0.061229 0.390645
0.473572 0.074975 0.403579
0.630005 0.089670 0.419797
0.070765 0.217156 0.406273
0.221742 0.233960 0.422707
0.377975 0.251643 0.440127
0.540034 0.270110 0.458339
0.708324 0.289329 0.477265
0.115868 0.420258 0.461550
0.276709 0.442239 0.480595
0.443782 0.465072 0.500307
0.617397 0.488742 0.520665
0.797819 0.513238 0.541655
0.166949 0.648514 0.524236
0.339008 0.676093 0.545334
0.517895 0.704567 0.567053
0.703829 0.733928 0.589389
0.897010 0.764170 0.612337
0.224419 0.904266 0.593298
0.408605 0.937817 0.616352
0.597024 0.967602 0.637378
0.779381 0.984099 0.650979
0.961738 1.000000 0.664579
0.035165 0.038508 0.484090
0.181793 0.051916 0.495521
0.328421 0.065324 0.506952
0.479292 0.079396 0.521989
0.636946 0.094279 0.539950
0.074853 0.222182 0.524984
0.226698 0.239274 0.543166
0.383926 0.257202 0.562413
0.547063 0.275900 0.582534
0.716493 0.295346 0.603444
0.120519 0.426879 0.586082
0.282391 0.449122 0.607122
0.450563 0.472213 0.628893
0.625333 0.496136 0.651368
0.806957 0.520882 0.674527
0.172197 0.656841 0.655309
0.345389 0.684694 0.678584
0.525455 0.713440 0.702527
0.712612 0.743070 0.727130
0.907051 0.773581 0.752386
0.230302 0.914413 0.731434
0.415696 0.948250 0.756802
0.601675 0.972640 0.775763
0.784032 0.989137 0.789363
0.966389 1.000000 0.802964
