assets/lighting/cinematic/grade-liminal-fluorescent/lut.cube
TITLE "Liminal Fluorescent"
# TKRS lighting-batch-001 original LUT
# Intended usage: backrooms / liminal yellow-green fluorescent
# License: CC0-1.0
LUT_3D_SIZE 9
DOMAIN_MIN 0.0 0.0 0.0
DOMAIN_MAX 1.0 1.0 1.0
0.020208 0.022129 0.018865
0.093522 0.028833 0.024580
0.166836 0.035537 0.030296
0.240150 0.042241 0.036011
0.313464 0.048945 0.041726
0.386778 0.055649 0.047442
0.460092 0.062353 0.053157
0.533522 0.069071 0.058882
0.610293 0.076182 0.064884
0.039629 0.112778 0.036996
0.112943 0.119482 0.042711
0.186257 0.126186 0.048426
0.259571 0.132890 0.054141
0.333213 0.139724 0.059903
0.409061 0.147273 0.065932
0.486382 0.155074 0.072083
0.565158 0.163074 0.078341
0.645427 0.171256 0.084703
0.059050 0.203428 0.055126
0.132613 0.210506 0.060930
0.207372 0.218524 0.066984
0.283360 0.226849 0.073153
0.360668 0.235411 0.079429
0.439371 0.244186 0.085809
0.519531 0.253162 0.092293
0.601201 0.262332 0.098883
0.684428 0.271692 0.105578
0.079806 0.298806 0.074227
0.155607 0.307942 0.080521
0.232714 0.317320 0.086919
0.311204 0.326922 0.093421
0.391143 0.336740 0.100028
0.472584 0.346766 0.106742
0.555575 0.356996 0.113564
0.640159 0.367428 0.120495
0.726373 0.378059 0.127536
0.102244 0.400897 0.094552
0.180430 0.411369 0.101177
0.260066 0.422067 0.107910
0.341206 0.432986 0.114750
0.423897 0.444120 0.121700
0.508179 0.455467 0.128760
0.594092 0.467024 0.135931
0.681669 0.478790 0.143216
0.770943 0.490764 0.150615
0.126144 0.509209 0.115939
0.206926 0.521051 0.122908
0.289263 0.533119 0.129987
0.373194 0.545410 0.137178
0.458758 0.557920 0.144482
0.545988 0.570649 0.151901
0.634915 0.583594 0.159435
0.725571 0.596755 0.167086
0.817981 0.610130 0.174855
0.151558 0.624043 0.138428
0.235096 0.637303 0.145752
0.320271 0.650791 0.153191
0.407115 0.664506 0.160745
0.495660 0.678445 0.168416
0.585934 0.692608 0.176205
0.677966 0.706994 0.184113
0.771779 0.721601 0.192141
0.867400 0.736429 0.200290
0.178540 0.745677 0.162058
0.264965 0.760399 0.169749
0.353094 0.775353 0.177559
0.442956 0.790539 0.185487
0.534578 0.805954 0.193536
0.627985 0.821598 0.201706
0.723200 0.837469 0.209998
0.820248 0.853568 0.218413
0.919149 0.869893 0.226952
0.207142 0.874354 0.186865
0.296563 0.890580 0.194935
0.387747 0.907042 0.203125
0.480720 0.923740 0.211439
0.575504 0.940672 0.219875
0.672123 0.957838 0.228435
0.765430 0.968985 0.235824
0.856608 0.977233 0.242624
0.947787 0.985482 0.249425
0.022078 0.024176 0.077018
0.095392 0.030880 0.082734
0.168706 0.037584 0.088449
0.242020 0.044288 0.094164
0.315334 0.050992 0.099879
0.388648 0.057696 0.105595
0.461962 0.064400 0.111310
0.536169 0.071216 0.117178
0.613436 0.078394 0.123502
0.041499 0.114826 0.095149
0.114813 0.121530 0.100864
0.188127 0.128234 0.106579
0.261441 0.134938 0.112295
0.335636 0.141994 0.118252
0.411813 0.149633 0.124610
0.489421 0.157497 0.131124
0.568481 0.165554 0.137772
0.649037 0.173790 0.144545
0.060920 0.205475 0.113279
0.134725 0.212913 0.119333
0.209710 0.221039 0.125722
0.285935 0.229440 0.132260
0.363493 0.238069 0.138930
0.442456 0.246906 0.145724
0.522885 0.255942 0.152640
0.604833 0.265170 0.159675
0.688345 0.274588 0.166829
0.081903 0.301569 0.133400
0.157923 0.310781 0.140092
0.235264 0.320229 0.146907
0.314003 0.329898 0.153843
0.394201 0.339780 0.160899
0.475911 0.349869 0.168074
0.559179 0.360161 0.175367
0.644047 0.370653 0.182780
0.730553 0.381345 0.190313
0.104481 0.404071 0.155050
0.182908 0.414613 0.162126
0.262798 0.425379 0.169321
0.344201 0.436363 0.176636
0.427163 0.447563 0.184070
0.511724 0.458974 0.191623
0.597923 0.470596 0.199297
0.685793 0.482425 0.207093
0.775366 0.494461 0.215010
0.128524 0.512801 0.177908
0.209565 0.524713 0.185362
0.292169 0.536849 0.192937
0.376376 0.549207 0.200632
0.462222 0.561784 0.208448
0.549741 0.574580 0.216386
0.638964 0.587591 0.224447
0.729920 0.600817 0.232632
0.822636 0.614258 0.240941
0.154086 0.628068 0.201969
0.237897 0.641398 0.209807
0.323352 0.654955 0.217766
0.410482 0.668739 0.225848
0.499319 0.682747 0.234054
0.589892 0.696978 0.242385
0.682226 0.711431 0.250840
0.776348 0.726106 0.259421
0.872281 0.741001 0.268129
0.181223 0.750148 0.227253
0.267931 0.764941 0.235480
0.356350 0.779966 0.243832
0.446508 0.795222 0.252309
0.538431 0.810707 0.260912
0.632143 0.826421 0.269642
0.727669 0.842362 0.278499
0.825032 0.858530 0.287485
0.924252 0.874924 0.296599
0.209983 0.879284 0.253782
0.299697 0.895582 0.262407
0.391181 0.912117 0.271159
0.484457 0.928886 0.280038
0.579550 0.945890 0.289046
0.676482 0.963127 0.298182
0.767755 0.971504 0.305017
0.858933 0.979752 0.311817
0.950112 0.988001 0.318617
0.023947 0.026223 0.135171
0.097261 0.032927 0.140887
0.170575 0.039631 0.146602
0.243889 0.046335 0.152317
0.317203 0.053039 0.158033
0.390517 0.059743 0.163748
0.463831 0.066447 0.169463
0.538982 0.073388 0.175645
0.616645 0.080620 0.182322
0.043368 0.116873 0.153302
0.116682 0.123577 0.159017
0.189996 0.130281 0.164732
0.263310 0.136985 0.170448
0.338134 0.144298 0.176779
0.414609 0.152013 0.183493
0.492497 0.159938 0.190389
0.571839 0.168051 0.197441
0.652681 0.176340 0.204637
0.062793 0.207534 0.171440
0.136865 0.215360 0.177920
0.212072 0.223578 0.184669
0.288534 0.232052 0.191593
0.366342 0.240746 0.198671
0.445566 0.249645 0.205890
0.526266 0.258740 0.213246
0.608492 0.268027 0.220735
0.692289 0.277502 0.228355
0.084014 0.304356 0.192802
0.160254 0.313642 0.199904
0.237833 0.323159 0.207148
0.316822 0.332894 0.214527
0.397280 0.342839 0.222038
0.479260 0.352991 0.229681
0.562806 0.363344 0.237453
0.647959 0.373897 0.245355
0.734757 0.384649 0.253385
0.106731 0.407266 0.215811
0.185402 0.417877 0.223345
0.265546 0.428710 0.231010
0.347214 0.439761 0.238805
0.430448 0.451026 0.246729
0.515290 0.462501 0.254781
0.601776 0.474186 0.262963
0.689939 0.486079 0.271274
0.779811 0.498178 0.279714
0.130918 0.516415 0.240161
0.212219 0.528395 0.248107
0.295092 0.540600 0.256182
0.379576 0.553025 0.264385
0.465705 0.565669 0.272718
0.553514 0.578530 0.281181
0.643033 0.591607 0.289773
0.734290 0.604899 0.298495
0.827313 0.618405 0.307348
0.156630 0.632115 0.265812
0.240714 0.645514 0.274167
0.326449 0.659141 0.282652
0.413867 0.672993 0.291266
0.502997 0.687069 0.300011
0.593868 0.701369 0.308886
0.686506 0.715890 0.317892
0.780937 0.730632 0.327030
0.877184 0.745594 0.336301
0.183920 0.754641 0.292763
0.270914 0.769505 0.301530
0.359624 0.784601 0.310428
0.450078 0.799927 0.319457
0.542302 0.815482 0.328618
0.636321 0.831265 0.337911
0.732158 0.847275 0.347337
0.829837 0.863512 0.356896
0.928284 0.878986 0.366237
0.212839 0.884236 0.321026
0.302848 0.900607 0.330209
0.394631 0.917213 0.339525
0.488213 0.934054 0.348974
0.583615 0.951129 0.358556
0.678902 0.965774 0.367409
0.770080 0.974023 0.374209
0.861259 0.982271 0.381009
0.952437 0.990520 0.387809
0.025817 0.028271 0.193325
0.099131 0.034975 0.199040
0.172445 0.041679 0.204755
0.245759 0.048383 0.210470
0.319073 0.055087 0.216186
0.392387 0.061791 0.221901
0.465701 0.068495 0.227616
0.541893 0.075578 0.234302
0.619911 0.082862 0.241353
0.045238 0.118920 0.211455
0.118552 0.125624 0.217170
0.191866 0.132328 0.222886
0.265336 0.139110 0.228706
0.340687 0.146629 0.235499
0.417443 0.154413 0.242590
0.495608 0.162396 0.249885
0.575229 0.170564 0.257353
0.656356 0.178907 0.264981
0.064752 0.209854 0.229842
0.139029 0.217839 0.236704
0.214458 0.226141 0.243833
0.291157 0.234685 0.251159
0.369216 0.243442 0.258656
0.448701 0.252402 0.266310
0.529671 0.261556 0.274115
0.612176 0.270900 0.282066
0.696259 0.280432 0.290158
0.086138 0.307167 0.252439
0.162602 0.316525 0.259964
0.240419 0.326109 0.267644
0.319659 0.335909 0.275475
0.400379 0.345918 0.283450
0.482630 0.356131 0.291567
0.566455 0.366546 0.299824
0.651894 0.377160 0.308219
0.738985 0.387972 0.316753
0.108994 0.410483 0.276838
0.187911 0.421162 0.284838
0.268312 0.432062 0.292979
0.350244 0.443179 0.301260
0.433753 0.454508 0.309680
0.518876 0.466048 0.318237
0.605650 0.477796 0.326931
0.694107 0.489752 0.335761
0.784279 0.501914 0.344728
0.133326 0.520050 0.302701
0.214889 0.532099 0.311144
0.298032 0.544371 0.319724
0.382793 0.556863 0.328442
0.469208 0.569574 0.337296
0.557307 0.582501 0.346287
0.647123 0.595644 0.355414
0.738682 0.609001 0.364678
0.832012 0.622572 0.374078
0.159187 0.636183 0.329958
0.243547 0.649652 0.338835
0.329564 0.663347 0.347849
0.417269 0.677268 0.357000
0.506694 0.691413 0.366287
0.597864 0.705780 0.375711
0.690807 0.720368 0.385272
0.785547 0.735178 0.394970
0.882108 0.750207 0.404806
0.186632 0.759156 0.358590
0.273912 0.774091 0.367901
0.362914 0.789257 0.377348
0.453665 0.804653 0.386933
0.546192 0.820278 0.396655
0.640518 0.836130 0.406514
0.736667 0.852210 0.416511
0.834662 0.868516 0.426647
0.930609 0.881505 0.435430
0.215710 0.889211 0.388598
0.306015 0.905653 0.398343
0.398099 0.922331 0.408226
0.491986 0.939244 0.418247
0.587698 0.956390 0.428407
0.681227 0.968293 0.436601
0.772405 0.976542 0.443401
0.863584 0.984790 0.450202
0.954762 0.993039 0.457002
0.027687 0.030318 0.251478
0.101001 0.037022 0.257193
0.174315 0.043726 0.262908
0.247629 0.050430 0.268624
0.320943 0.057134 0.274339
0.394257 0.063838 0.280054
0.468146 0.070624 0.286044
0.544879 0.077785 0.293162
0.623230 0.085117 0.300604
0.047108 0.120968 0.269608
0.120422 0.127672 0.275323
0.193736 0.134376 0.281039
0.267625 0.141367 0.287235
0.343285 0.148983 0.294425
0.420313 0.156831 0.301911
0.498751 0.164872 0.309617
0.578651 0.173093 0.317513
0.660063 0.181489 0.325583
0.066738 0.212248 0.288445
0.141215 0.220346 0.295697
0.216865 0.228726 0.303224
0.293803 0.237337 0.310964
0.372113 0.246158 0.318891
0.451860 0.255177 0.326990
0.533101 0.264390 0.335252
0.615885 0.273792 0.343671
0.700255 0.283381 0.352243
0.088275 0.310000 0.312317
0.164965 0.319428 0.320274
0.243023 0.329079 0.328401
0.322516 0.338944 0.336691
0.403499 0.349015 0.345137
0.486021 0.359290 0.353735
0.570126 0.369766 0.362482
0.655853 0.380441 0.371378
0.743236 0.391313 0.380419
0.111272 0.413720 0.338135
0.190436 0.424468 0.346607
0.271094 0.435434 0.355231
0.353293 0.446616 0.364004
0.437077 0.458010 0.372925
0.522482 0.469614 0.381991
0.609545 0.481426 0.391202
0.698297 0.493445 0.400557
0.788770 0.505670 0.410056
0.135748 0.523706 0.365530
0.217575 0.535823 0.374476
0.300989 0.548163 0.383567
0.386029 0.560722 0.392803
0.472728 0.573499 0.402183
0.561120 0.586492 0.411706
0.651233 0.599700 0.421372
0.743095 0.613123 0.431181
0.836733 0.626759 0.441133
0.161760 0.640272 0.394409
0.246395 0.653810 0.403813
0.332695 0.667575 0.413361
0.420690 0.681564 0.423052
0.510409 0.695777 0.432885
0.601879 0.710211 0.442862
0.695128 0.724868 0.452980
0.790178 0.739744 0.463242
0.887054 0.754841 0.473646
0.189360 0.763693 0.424736
0.276926 0.778698 0.434594
0.366221 0.793935 0.444594
0.457270 0.809400 0.454738
0.550100 0.825095 0.465024
0.644735 0.841017 0.475453
0.741197 0.857166 0.486025
0.839508 0.873541 0.496740
0.932934 0.884024 0.504622
0.218598 0.894207 0.456500
0.309199 0.910722 0.466810
0.401584 0.927472 0.477264
0.495777 0.944456 0.487860
0.591800 0.961673 0.498600
0.683552 0.970812 0.505794
0.774731 0.979061 0.512594
0.865909 0.987309 0.519394
0.957088 0.995558 0.526194
0.029556 0.032365 0.309631
0.102870 0.039069 0.315346
0.176184 0.045773 0.321062
0.249498 0.052477 0.326777
0.322812 0.059181 0.332492
0.396126 0.065885 0.338207
0.470811 0.072790 0.344705
0.547926 0.080008 0.352234
0.626595 0.087387 0.360084
0.048977 0.123015 0.327761
0.122291 0.129719 0.333477
0.195605 0.136423 0.339192
0.269984 0.143663 0.345971
0.345922 0.151358 0.353566
0.423217 0.159267 0.361462
0.501926 0.167364 0.369591
0.582104 0.175639 0.377925
0.663800 0.184087 0.386446
0.068744 0.214685 0.347252
0.143420 0.222879 0.354907
0.219293 0.231333 0.362846
0.296471 0.240009 0.371013
0.375033 0.248891 0.379380
0.455043 0.257970 0.387932
0.536556 0.267241 0.396659
0.619620 0.276700 0.405553
0.704277 0.286346 0.414611
0.090426 0.312855 0.372440
0.167344 0.322353 0.380840
0.245645 0.332070 0.389423
0.325392 0.341998 0.398179
0.406639 0.352132 0.407102
0.489434 0.362469 0.416187
0.573820 0.373005 0.425431
0.659834 0.383740 0.434832
0.747511 0.394672 0.444386
0.113563 0.416979 0.399704
0.192976 0.427794 0.408656
0.273893 0.438826 0.417769
0.356361 0.450073 0.427040
0.440420 0.461531 0.436466
0.526108 0.473199 0.446047
0.613460 0.485074 0.455780
0.702509 0.497156 0.465663
0.793283 0.509444 0.475697
0.138185 0.527383 0.428652
0.220276 0.539568 0.438106
0.303963 0.551975 0.447713
0.389282 0.564601 0.457471
0.476268 0.577444 0.467381
0.564952 0.590503 0.477441
0.655363 0.603777 0.487650
0.747529 0.617265 0.498008
0.841475 0.630966 0.508514
0.164347 0.644382 0.459168
0.249260 0.657990 0.469103
0.335843 0.671823 0.479189
0.424128 0.685881 0.489423
0.514142 0.700161 0.499807
0.605914 0.714664 0.510339
0.699468 0.729387 0.521019
0.794830 0.744331 0.531847
0.892021 0.759495 0.542823
0.192103 0.768251 0.491201
0.279957 0.783327 0.501611
0.369545 0.798633 0.512168
0.460893 0.814169 0.522873
0.554027 0.829933 0.533727
0.648970 0.845924 0.544728
0.745746 0.862143 0.555878
0.844081 0.878295 0.567014
0.935260 0.886543 0.573815
0.221500 0.899226 0.524733
0.312399 0.915812 0.535612
0.405086 0.932634 0.546639
0.499586 0.949689 0.557813
0.594699 0.965083 0.568186
0.685877 0.973331 0.574986
0.777056 0.981580 0.581786
0.868234 0.989828 0.588586
0.959413 0.998077 0.595387
0.031426 0.034413 0.367784
0.104740 0.041117 0.373499
0.178054 0.047821 0.379215
0.251368 0.054525 0.384930
0.324682 0.061229 0.390645
0.397996 0.067933 0.396361
0.473572 0.074975 0.403579
0.551028 0.082245 0.411527
0.630005 0.089670 0.419797
0.050847 0.125062 0.385914
0.124161 0.131766 0.391630
0.197521 0.138501 0.397418
0.272392 0.145987 0.404919
0.348593 0.153752 0.412931
0.426152 0.161720 0.421249
0.505132 0.169872 0.429813
0.585587 0.178201 0.438594
0.667567 0.186702 0.447574
0.070765 0.217156 0.406273
0.145644 0.225436 0.414344
0.221742 0.233960 0.422707
0.299160 0.242700 0.431311
0.377975 0.251643 0.440127
0.458249 0.260781 0.449140
0.540034 0.270110 0.458339
0.623379 0.279626 0.467716
0.708324 0.289329 0.477265
0.092590 0.315732 0.432815
0.169739 0.325297 0.441666
0.248284 0.335079 0.450712
0.328287 0.345071 0.459942
0.409799 0.355267 0.469349
0.492868 0.365665 0.478928
0.577535 0.376263 0.488673
0.663837 0.387058 0.498583
0.751810 0.398050 0.508655
0.115868 0.420258 0.461550
0.195531 0.431140 0.470987
0.276709 0.442239 0.480595
0.359446 0.453550 0.490369
0.443782 0.465072 0.500307
0.529754 0.476804 0.510406
0.617397 0.488742 0.520665
0.706742 0.500887 0.531082
0.797819 0.513238 0.541655
0.140635 0.531080 0.492069
0.222992 0.543334 0.502035
0.306953 0.555808 0.512162
0.392553 0.568500 0.522448
0.479827 0.581409 0.532892
0.568804 0.594534 0.543492
0.659514 0.607873 0.554248
0.751984 0.621426 0.565158
0.846240 0.635193 0.576223
0.166949 0.648514 0.524236
0.252140 0.662191 0.534707
0.339008 0.676093 0.545334
0.427584 0.690219 0.556116
0.517895 0.704567 0.567053
0.609968 0.719137 0.578144
0.703829 0.733928 0.589389
0.799502 0.748939 0.600787
0.897010 0.764170 0.612337
0.194861 0.772830 0.557989
0.283004 0.787977 0.568953
0.372886 0.803354 0.580070
0.464534 0.818959 0.591341
0.557973 0.834793 0.602766
0.653225 0.850853 0.614343
0.750315 0.867141 0.626072
0.846406 0.880814 0.636207
0.937585 0.889062 0.643007
0.224419 0.904266 0.593298
0.315615 0.920925 0.604749
0.408605 0.937817 0.616352
0.503413 0.954944 0.628108
0.597024 0.967602 0.637378
0.688203 0.975850 0.644178
0.779381 0.984099 0.650979
0.870560 0.992347 0.657779
0.961738 1.000000 0.664579
0.033296 0.036460 0.425937
0.106610 0.043164 0.431653
0.179924 0.049868 0.437368
0.253238 0.056572 0.443083
0.326552 0.063276 0.448798
0.400192 0.070034 0.454803
0.476403 0.077178 0.462671
0.554177 0.084497 0.471048
0.633456 0.091968 0.479751
0.052717 0.127110 0.444068
0.126031 0.133814 0.449783
0.199683 0.140743 0.456100
0.274839 0.148335 0.464087
0.351296 0.156165 0.472526
0.429118 0.164191 0.481278
0.508367 0.172397 0.490287
0.589098 0.180779 0.499524
0.671362 0.189332 0.508971
0.072802 0.219655 0.465514
0.147886 0.228015 0.474014
0.224211 0.236607 0.482812
0.301871 0.245410 0.491862
0.380940 0.254414 0.501137
0.461478 0.263610 0.510619
0.543537 0.272996 0.520297
0.627163 0.282570 0.530162
0.712396 0.292329 0.540209
0.094768 0.318629 0.493444
0.172150 0.328262 0.502756
0.250940 0.338109 0.512272
0.331200 0.348163 0.521983
0.412979 0.358422 0.531880
0.496323 0.368881 0.541958
0.581272 0.379539 0.552211
0.667864 0.390394 0.562636
0.756131 0.401446 0.573230
0.118186 0.423558 0.523675
0.198102 0.434507 0.533603
0.279542 0.445671 0.543711
0.362549 0.457047 0.553994
0.447163 0.468633 0.564449
0.533421 0.480428 0.575071
0.621355 0.492429 0.585861
0.710997 0.504637 0.596814
0.802376 0.517050 0.607931
0.143100 0.534799 0.555783
0.225725 0.547120 0.566267
0.309960 0.559661 0.576918
0.395842 0.572420 0.587736
0.483404 0.585395 0.598718
0.572675 0.598585 0.609862
0.663685 0.611990 0.621168
0.756460 0.625608 0.632635
0.851026 0.639439 0.644261
0.169566 0.652667 0.589616
0.255036 0.666413 0.600626
0.342190 0.680383 0.611798
0.431057 0.694577 0.623132
0.521666 0.708993 0.634626
0.614042 0.723631 0.646280
0.708210 0.738489 0.658092
0.804195 0.753567 0.670063
0.902019 0.768865 0.682191
0.197634 0.777432 0.625101
0.286067 0.792649 0.636622
0.376245 0.808095 0.648303
0.468193 0.823771 0.660143
0.561937 0.839673 0.672141
0.657500 0.855803 0.684296
0.754904 0.872160 0.696610
0.848732 0.883333 0.705399
0.939910 0.891581 0.712199
0.227353 0.909329 0.662198
0.318848 0.926059 0.674223
0.412142 0.943023 0.686406
0.507258 0.960221 0.698746
0.599350 0.970121 0.706571
0.690528 0.978370 0.713371
0.781706 0.986618 0.720171
0.872885 0.994866 0.726971
0.964063 1.000000 0.733772
0.035165 0.038508 0.484090
0.108479 0.045212 0.489806
0.181793 0.051916 0.495521
0.255107 0.058620 0.501236
0.328421 0.065324 0.506952
0.402713 0.072193 0.513639
0.479292 0.079396 0.521989
0.557371 0.086762 0.530805
0.636946 0.094279 0.539950
0.054586 0.129157 0.502221
0.127900 0.135861 0.507936
0.201908 0.143030 0.515031
0.277319 0.150704 0.523480
0.354030 0.158596 0.532359
0.432112 0.166678 0.541554
0.511630 0.174938 0.551017
0.592638 0.183373 0.560719
0.675186 0.191978 0.570641
0.074853 0.222182 0.524984
0.150145 0.230616 0.533922
0.226698 0.239274 0.543166
0.304602 0.248139 0.552672
0.383926 0.257202 0.562413
0.464730 0.266457 0.572371
0.547063 0.275900 0.582534
0.630971 0.285531 0.592895
0.716493 0.295346 0.603444
0.096959 0.321548 0.554334
0.174575 0.331247 0.564113
0.253614 0.341158 0.574107
0.334132 0.351275 0.584305
0.416179 0.361594 0.594698
0.499798 0.372114 0.605280
0.585031 0.382833 0.616046
0.671912 0.393749 0.626990
0.760476 0.404861 0.638111
0.120519 0.426879 0.586082
0.200689 0.437893 0.596508
0.282391 0.449122 0.607122
0.365670 0.460563 0.617918
0.450563 0.472213 0.628893
0.537107 0.484071 0.640044
0.625333 0.496136 0.651368
0.715274 0.508406 0.662863
0.806957 0.520882 0.674527
0.145580 0.538538 0.619796
0.228472 0.550927 0.630802
0.312984 0.563534 0.641983
0.399149 0.576359 0.653336
0.487000 0.589400 0.664860
0.576566 0.602656 0.676553
0.667877 0.616126 0.688413
0.760958 0.629809 0.700439
0.855834 0.643706 0.712630
0.172197 0.656841 0.655309
0.257948 0.670655 0.666862
0.345389 0.684694 0.678584
0.434549 0.698956 0.690473
0.525455 0.713440 0.702527
0.618135 0.728145 0.714746
0.712612 0.743070 0.727130
0.808910 0.758216 0.739676
0.907051 0.773581 0.752386
0.200423 0.782054 0.692537
0.289146 0.797342 0.704620
0.379620 0.812858 0.716868
0.471870 0.828603 0.729279
0.565920 0.844575 0.741854
0.661794 0.860775 0.754591
0.759513 0.877200 0.767491
0.851057 0.885852 0.774592
0.942235 0.894101 0.781392
0.230302 0.914413 0.731434
0.322097 0.931215 0.744037
0.415696 0.948250 0.756802
0.510496 0.964392 0.768963
0.601675 0.972640 0.775763
0.692853 0.980889 0.782563
0.784032 0.989137 0.789363
0.875210 0.997385 0.796164
0.966389 1.000000 0.802964
