assets/lighting/cinematic/grade-liminal-fluorescent/lut.cube
TITLE "Liminal Fluorescent"
# TKRS lighting-batch-001 original LUT
# Intended usage: backrooms / liminal yellow-green fluorescent
# License: CC0-1.0
LUT_3D_SIZE 17
DOMAIN_MIN 0.0 0.0 0.0
DOMAIN_MAX 1.0 1.0 1.0
0.020208 0.022129 0.018865
0.056865 0.025481 0.021723
0.093522 0.028833 0.024580
0.130179 0.032185 0.027438
0.166836 0.035537 0.030296
0.203493 0.038889 0.033153
0.240150 0.042241 0.036011
0.276807 0.045593 0.038869
0.313464 0.048945 0.041726
0.350121 0.052297 0.044584
0.386778 0.055649 0.047442
0.423435 0.059001 0.050299
0.460092 0.062353 0.053157
0.496749 0.065705 0.056014
0.533522 0.069071 0.058882
0.571637 0.072598 0.061863
0.610293 0.076182 0.064884
0.029919 0.067453 0.027930
0.066576 0.070805 0.030788
0.103233 0.074157 0.033646
0.139890 0.077509 0.036503
0.176547 0.080861 0.039361
0.213204 0.084213 0.042219
0.249860 0.087565 0.045076
0.286517 0.090917 0.047934
0.323174 0.094269 0.050791
0.359831 0.097621 0.053649
0.396488 0.100973 0.056507
0.433396 0.104382 0.059391
0.471339 0.108010 0.062381
0.509733 0.111708 0.065407
0.548523 0.115458 0.068464
0.587697 0.119255 0.071549
0.627252 0.123095 0.074660
0.039629 0.112778 0.036996
0.076286 0.116130 0.039853
0.112943 0.119482 0.042711
0.149600 0.122834 0.045568
0.186257 0.126186 0.048426
0.222914 0.129538 0.051284
0.259571 0.132890 0.054141
0.296228 0.136242 0.056999
0.333213 0.139724 0.059903
0.370944 0.143459 0.062900
0.409061 0.147273 0.065932
0.447541 0.151147 0.068994
0.486382 0.155074 0.072083
0.525586 0.159051 0.075199
0.565158 0.163074 0.078341
0.605103 0.167143 0.081509
0.645427 0.171256 0.084703
0.049340 0.158103 0.046061
0.085997 0.161455 0.048918
0.122654 0.164807 0.051776
0.159311 0.168159 0.054634
0.195968 0.171511 0.057491
0.232955 0.175098 0.060416
0.270447 0.178945 0.063420
0.308275 0.182878 0.066457
0.346436 0.186879 0.069524
0.384937 0.190939 0.072618
0.423783 0.195053 0.075738
0.462984 0.199218 0.078884
0.502545 0.203433 0.082057
0.542474 0.207696 0.085255
0.582776 0.212005 0.088480
0.623459 0.216361 0.091731
0.664527 0.220763 0.095008
0.059050 0.203428 0.055126
0.095707 0.206780 0.057984
0.132613 0.210506 0.060930
0.169845 0.214468 0.063941
0.207372 0.218524 0.066984
0.245206 0.222654 0.070055
0.283360 0.226849 0.073153
0.321844 0.231102 0.076278
0.360668 0.235411 0.079429
0.399841 0.239772 0.082606
0.439371 0.244186 0.085809
0.479265 0.248649 0.089038
0.519531 0.253162 0.092293
0.560174 0.257723 0.095575
0.601201 0.262332 0.098883
0.642618 0.266988 0.102217
0.684428 0.271692 0.105578
0.069134 0.250031 0.064463
0.106350 0.254212 0.067511
0.143849 0.258474 0.070587
0.181650 0.262804 0.073690
0.219766 0.267198 0.076819
0.258209 0.271652 0.079974
0.296990 0.276162 0.083156
0.336118 0.280727 0.086363
0.375601 0.285345 0.089597
0.415446 0.290015 0.092857
0.455662 0.294737 0.096143
0.496253 0.299508 0.099455
0.537228 0.304330 0.102794
0.578590 0.309201 0.106160
0.620346 0.314121 0.109553
0.662500 0.319089 0.112972
0.705059 0.324106 0.116419
0.079806 0.298806 0.074227
0.117549 0.303342 0.077361
0.155607 0.307942 0.080521
0.193992 0.312602 0.083707
0.232714 0.317320 0.086919
0.271782 0.322094 0.090157
0.311204 0.326922 0.093421
0.350989 0.331805 0.096711
0.391143 0.336740 0.100028
0.431672 0.341727 0.103372
0.472584 0.346766 0.106742
0.513883 0.351856 0.110140
0.555575 0.356996 0.113564
0.597665 0.362187 0.117016
0.640159 0.367428 0.120495
0.683060 0.372718 0.124001
0.726373 0.378059 0.127536
0.090844 0.349092 0.084258
0.129157 0.353964 0.087475
0.167807 0.358895 0.090717
0.206804 0.363883 0.093986
0.246155 0.368927 0.097281
0.285868 0.374027 0.100603
0.325951 0.379181 0.103951
0.366410 0.384388 0.107326
0.407250 0.389649 0.110728
0.448477 0.394962 0.114157
0.490098 0.400327 0.117613
0.532116 0.405744 0.121097
0.574538 0.411213 0.124608
0.617366 0.416732 0.128147
0.660607 0.422303 0.131714
0.704264 0.427925 0.135309
0.748342 0.433597 0.138932
0.102244 0.400897 0.094552
0.141159 0.406104 0.097851
0.180430 0.411369 0.101177
0.220063 0.416690 0.104530
0.260066 0.422067 0.107910
0.300445 0.427499 0.111316
0.341206 0.432986 0.114750
0.382355 0.438526 0.118211
0.423897 0.444120 0.121700
0.465837 0.449767 0.125216
0.508179 0.455467 0.128760
0.550930 0.461220 0.132331
0.594092 0.467024 0.135931
0.637670 0.472881 0.139560
0.681669 0.478790 0.143216
0.726092 0.484751 0.146901
0.770943 0.490764 0.150615
0.114008 0.454257 0.105110
0.153554 0.459804 0.108495
0.193470 0.465408 0.111906
0.233762 0.471068 0.115344
0.274437 0.476784 0.118810
0.315500 0.482556 0.122303
0.356957 0.488382 0.125824
0.398812 0.494263 0.129373
0.441069 0.500197 0.132950
0.483735 0.506186 0.136554
0.526813 0.512228 0.140187
0.570307 0.518324 0.143849
0.614221 0.524473 0.147539
0.658560 0.530674 0.151258
0.703327 0.536929 0.155005
0.748526 0.543236 0.158782
0.794160 0.549596 0.162588
0.126144 0.509209 0.115939
0.166343 0.515102 0.119410
0.206926 0.521051 0.122908
0.247897 0.527057 0.126434
0.289263 0.533119 0.129987
0.331027 0.539237 0.133569
0.373194 0.545410 0.137178
0.415770 0.551638 0.140816
0.458758 0.557920 0.144482
0.502162 0.564257 0.148177
0.545988 0.570649 0.151901
0.590237 0.577095 0.155654
0.634915 0.583594 0.159435
0.680025 0.590148 0.163246
0.725571 0.596755 0.167086
0.771555 0.603416 0.170956
0.817981 0.610130 0.174855
0.138658 0.565793 0.127044
0.179532 0.572037 0.130602
0.220801 0.578338 0.134188
0.262469 0.584695 0.137803
0.304541 0.591110 0.141446
0.347021 0.597580 0.145117
0.389914 0.604106 0.148817
0.433225 0.610688 0.152545
0.476956 0.617325 0.156303
0.521112 0.624017 0.160090
0.565697 0.630765 0.163905
0.610713 0.637567 0.167751
0.656166 0.644424 0.171625
0.702057 0.651336 0.175529
0.748390 0.658302 0.179463
0.795169 0.665323 0.183427
0.842397 0.672398 0.187421
0.151558 0.624043 0.138428
0.193125 0.630644 0.142076
0.235096 0.637303 0.145752
0.277477 0.644018 0.149457
0.320271 0.650791 0.153191
0.363482 0.657620 0.156953
0.407115 0.664506 0.160745
0.451173 0.671447 0.164566
0.495660 0.678445 0.168416
0.540579 0.685499 0.172296
0.585934 0.692608 0.176205
0.631729 0.699773 0.180144
0.677966 0.706994 0.184113
0.724648 0.714270 0.188112
0.771779 0.721601 0.192141
0.819362 0.728987 0.196200
0.867400 0.736429 0.200290
0.164850 0.683994 0.150098
0.207126 0.690958 0.153837
0.249817 0.697980 0.157604
0.292925 0.705059 0.161401
0.336455 0.712195 0.165227
0.380411 0.719389 0.169082
0.424796 0.726640 0.172967
0.469614 0.733947 0.176881
0.514868 0.741312 0.180826
0.560562 0.748733 0.184800
0.606698 0.756210 0.188804
0.653280 0.763743 0.192838
0.700312 0.771333 0.196902
0.747795 0.778979 0.200997
0.795733 0.786681 0.205123
0.844129 0.794438 0.209279
0.892986 0.802252 0.213466
0.178540 0.745677 0.162058
0.221542 0.753009 0.165889
0.264965 0.760399 0.169749
0.308815 0.767847 0.173639
0.353094 0.775353 0.177559
0.397807 0.782917 0.181508
0.442956 0.790539 0.185487
0.488546 0.798218 0.189496
0.534578 0.805954 0.193536
0.581057 0.813747 0.197606
0.627985 0.821598 0.201706
0.675365 0.829505 0.205836
0.723200 0.837469 0.209998
0.771494 0.845490 0.214190
0.820248 0.853568 0.218413
0.869465 0.861702 0.222667
0.919149 0.869893 0.226952
0.192636 0.809121 0.174312
0.236376 0.816826 0.178237
0.280546 0.824590 0.182191
0.325150 0.832412 0.186176
0.370191 0.840293 0.190190
0.415672 0.848233 0.194235
0.461597 0.856230 0.198310
0.507969 0.864285 0.202415
0.554790 0.872399 0.206551
0.602064 0.880570 0.210718
0.649793 0.888798 0.214915
0.697981 0.897085 0.219143
0.746629 0.905429 0.223403
0.795741 0.913830 0.227693
0.844531 0.921466 0.231838
0.890121 0.925591 0.235239
0.935710 0.929715 0.238639
0.207142 0.874354 0.186865
0.251634 0.882437 0.190885
0.296563 0.890580 0.194935
0.341933 0.898782 0.199015
0.387747 0.907042 0.203125
0.434009 0.915362 0.207267
0.480720 0.923740 0.211439
0.527884 0.932177 0.215641
0.575504 0.940672 0.219875
0.623583 0.949226 0.224140
0.672123 0.957838 0.228435
0.719840 0.964861 0.232424
0.765430 0.968985 0.235824
0.811019 0.973109 0.239224
0.856608 0.977233 0.242624
0.902197 0.981357 0.246025
0.947787 0.985482 0.249425
0.021143 0.023152 0.047942
0.057800 0.026504 0.050799
0.094457 0.029856 0.053657
0.131114 0.033208 0.056515
0.167771 0.036560 0.059372
0.204428 0.039912 0.062230
0.241085 0.043264 0.065088
0.277742 0.046616 0.067945
0.314399 0.049968 0.070803
0.351056 0.053320 0.073660
0.387713 0.056672 0.076518
0.424370 0.060024 0.079376
0.461027 0.063376 0.082233
0.497684 0.066728 0.085091
0.534816 0.070139 0.088010
0.573096 0.073687 0.091066
0.611856 0.077286 0.094168
0.030853 0.068477 0.057007
0.067510 0.071829 0.059865
0.104167 0.075181 0.062722
0.140824 0.078533 0.065580
0.177481 0.081885 0.068437
0.214138 0.085237 0.071295
0.250795 0.088589 0.074153
0.287452 0.091941 0.077010
0.324109 0.095293 0.079868
0.360766 0.098645 0.082726
0.397423 0.101997 0.085583
0.434653 0.105481 0.088532
0.472718 0.109133 0.091598
0.511201 0.112848 0.094707
0.550072 0.116613 0.097850
0.589324 0.120423 0.101026
0.628956 0.124277 0.104232
0.040564 0.113802 0.066072
0.077221 0.117154 0.068930
0.113878 0.120506 0.071787
0.150535 0.123858 0.074645
0.187192 0.127210 0.077503
0.223849 0.130562 0.080360
0.260506 0.133914 0.083218
0.297163 0.137266 0.086076
0.334412 0.140854 0.089056
0.372237 0.144617 0.092131
0.410432 0.148450 0.095246
0.448985 0.152341 0.098395
0.487897 0.156284 0.101576
0.527172 0.160275 0.104787
0.566815 0.164312 0.108027
0.606832 0.168394 0.111296
0.647228 0.172521 0.114593
0.050274 0.159127 0.075137
0.086931 0.162479 0.077995
0.123588 0.165831 0.080853
0.160245 0.169183 0.083710
0.196902 0.172535 0.086568
0.234085 0.176261 0.089582
0.271650 0.180138 0.092665
0.309545 0.184093 0.095786
0.347771 0.188113 0.098941
0.386337 0.192190 0.102127
0.425250 0.196320 0.105343
0.464518 0.200500 0.108588
0.504147 0.204730 0.111862
0.544144 0.209007 0.115164
0.584517 0.213331 0.118494
0.625270 0.217701 0.121853
0.666410 0.222116 0.125240
0.059985 0.204452 0.084202
0.096662 0.207844 0.087074
0.133665 0.211704 0.090110
0.170954 0.215698 0.093200
0.208538 0.219778 0.096327
0.246431 0.223929 0.099488
0.284644 0.228142 0.102679
0.323190 0.232412 0.105900
0.362077 0.236737 0.109150
0.401315 0.241115 0.112429
0.440910 0.245543 0.115736
0.480872 0.250022 0.119071
0.521205 0.254550 0.122434
0.561917 0.259125 0.125826
0.603014 0.263749 0.129246
0.644501 0.268420 0.132693
0.686384 0.273138 0.136170
0.070145 0.251298 0.093736
0.107409 0.255506 0.096869
0.144961 0.259789 0.100035
0.182817 0.264140 0.103232
0.220990 0.268552 0.106458
0.259493 0.273023 0.109713
0.298334 0.277550 0.112996
0.337525 0.282132 0.116308
0.377072 0.286766 0.119648
0.416982 0.291452 0.123017
0.457264 0.296189 0.126413
0.497924 0.300975 0.129838
0.538966 0.305812 0.133290
0.580398 0.310698 0.136771
0.622225 0.315633 0.140281
0.664451 0.320616 0.143818
0.707081 0.325648 0.147385
0.080853 0.300184 0.103785
0.118649 0.304740 0.107016
0.156763 0.309359 0.110276
0.195205 0.314037 0.113565
0.233987 0.318772 0.116882
0.273116 0.323562 0.120227
0.312601 0.328408 0.123600
0.352450 0.333306 0.127001
0.392669 0.338257 0.130430
0.433265 0.343261 0.133888
0.474245 0.348315 0.137374
0.515612 0.353420 0.140888
0.557374 0.358576 0.144431
0.599535 0.363782 0.148002
0.642100 0.369038 0.151602
0.685074 0.374344 0.155230
0.728460 0.379699 0.158888
0.091926 0.350574 0.114134
0.130295 0.355464 0.117456
0.169004 0.360412 0.120806
0.208061 0.365417 0.124184
0.247474 0.370479 0.127590
0.287251 0.375595 0.131024
0.327398 0.380765 0.134486
0.367922 0.385989 0.137977
0.408829 0.391266 0.141496
0.450125 0.396595 0.145044
0.491814 0.401976 0.148620
0.533902 0.407409 0.152225
0.576395 0.412893 0.155858
0.619295 0.418428 0.159521
0.662609 0.424015 0.163212
0.706339 0.429652 0.166933
0.750491 0.435339 0.170683
0.103361 0.402481 0.124768
0.142335 0.407706 0.128179
0.181667 0.412988 0.131618
0.221363 0.418327 0.135086
0.261430 0.423720 0.138581
0.301874 0.429169 0.142105
0.342701 0.434672 0.145658
0.383917 0.440229 0.149239
0.425527 0.445839 0.152849
0.467536 0.451502 0.156487
0.509949 0.457218 0.160155
0.552771 0.462987 0.163851
0.596005 0.468808 0.167577
0.639656 0.474680 0.171332
0.683728 0.480605 0.175116
0.728225 0.486582 0.178930
0.773151 0.492610 0.182774
0.115160 0.455944 0.135686
0.154768 0.461509 0.139186
0.194747 0.467130 0.142715
0.235104 0.472808 0.146273
0.275845 0.478541 0.149859
0.316975 0.484329 0.153473
0.358499 0.490172 0.157117
0.400422 0.496069 0.160789
0.442750 0.502021 0.164491
0.485486 0.508026 0.168222
0.528635 0.514084 0.171982
0.572202 0.520196 0.175771
0.616189 0.526361 0.179590
0.660602 0.532579 0.183439
0.705443 0.538850 0.187318
0.750717 0.545173 0.191226
0.796427 0.551549 0.195164
0.127332 0.511003 0.146888
0.167596 0.516913 0.150479
0.208244 0.522879 0.154099
0.249281 0.528902 0.157747
0.290714 0.534981 0.161425
0.332546 0.541116 0.165132
0.374783 0.547306 0.168867
0.417429 0.553550 0.172633
0.460488 0.559850 0.176427
0.503964 0.566204 0.180251
0.547862 0.572612 0.184105
0.592185 0.579074 0.187989
0.636937 0.585590 0.191902
0.682122 0.592160 0.195846
0.727743 0.598784 0.199819
0.773803 0.605461 0.203823
0.820306 0.612191 0.207858
0.139883 0.567694 0.158379
0.180823 0.573955 0.162061
0.222159 0.580273 0.165773
0.263894 0.586648 0.169514
0.306035 0.593080 0.173284
0.348585 0.599567 0.177084
0.391549 0.606110 0.180913
0.434931 0.612709 0.184772
0.478735 0.619363 0.188661
0.522964 0.626072 0.192579
0.567622 0.632836 0.196528
0.612713 0.639656 0.200507
0.658240 0.646529 0.204516
0.704207 0.653458 0.208556
0.750617 0.660440 0.212626
0.797473 0.667478 0.216726
0.844778 0.674569 0.220858
0.152820 0.626053 0.170161
0.194455 0.632672 0.173937
0.236495 0.639348 0.177741
0.278945 0.646081 0.181576
0.321809 0.652870 0.185440
0.365092 0.659717 0.189334
0.408797 0.666620 0.193257
0.452927 0.673578 0.197211
0.497487 0.680593 0.201195
0.542481 0.687664 0.205210
0.587911 0.694791 0.209255
0.633780 0.701973 0.213330
0.680093 0.709210 0.217436
0.726852 0.716503 0.221572
0.774061 0.723851 0.225740
0.821722 0.731254 0.229938
0.869838 0.738713 0.234168
0.166150 0.686115 0.182239
0.208496 0.693096 0.186108
0.251256 0.700135 0.190007
0.294435 0.707232 0.193936
0.338037 0.714386 0.197895
0.382065 0.721597 0.201885
0.426523 0.728865 0.205904
0.471415 0.736190 0.209954
0.516744 0.743572 0.214035
0.562512 0.751010 0.218146
0.608724 0.758504 0.222288
0.655383 0.766055 0.226461
0.702492 0.773662 0.230665
0.750052 0.781325 0.234900
0.798069 0.789044 0.239166
0.846544 0.796819 0.243463
0.895479 0.804649 0.247792
0.179880 0.747910 0.194616
0.222951 0.755260 0.198581
0.266446 0.762667 0.202575
0.310368 0.770133 0.206600
0.354720 0.777657 0.210655
0.399506 0.785239 0.214741
0.444730 0.792878 0.218858
0.490394 0.800574 0.223005
0.536502 0.808328 0.227183
0.583057 0.816139 0.231392
0.630061 0.824006 0.235632
0.677519 0.831931 0.239904
0.725432 0.839913 0.244207
0.773804 0.847951 0.248541
0.822637 0.856046 0.252907
0.871934 0.864198 0.257304
0.921698 0.872406 0.261733
0.194014 0.811468 0.207296
0.237826 0.819191 0.211357
0.282069 0.826973 0.215448
0.326746 0.834813 0.219570
0.371861 0.842712 0.223722
0.417417 0.850669 0.227906
0.463417 0.858684 0.232120
0.509865 0.866757 0.236366
0.556762 0.874888 0.240643
0.604113 0.883077 0.244951
0.651920 0.891323 0.249291
0.700186 0.899627 0.253662
0.748913 0.907988 0.258065
0.798105 0.916407 0.262499
0.845694 0.922726 0.266435
0.891283 0.926850 0.269835
0.936873 0.930974 0.273235
0.208560 0.876816 0.220283
0.253125 0.884918 0.224441
0.298128 0.893078 0.228630
0.343573 0.901298 0.232849
0.389462 0.909577 0.237100
0.435799 0.917914 0.241383
0.482586 0.926310 0.245696
0.529827 0.934765 0.250041
0.577525 0.943278 0.254418
0.625681 0.951850 0.258826
0.674300 0.960479 0.263266
0.721003 0.966120 0.267020
0.766592 0.970244 0.270420
0.812182 0.974368 0.273821
0.857771 0.978493 0.277221
0.903360 0.982617 0.280621
0.948949 0.986741 0.284021
0.022078 0.024176 0.077018
0.058735 0.027528 0.079876
0.095392 0.030880 0.082734
0.132049 0.034232 0.085591
0.168706 0.037584 0.088449
0.205363 0.040936 0.091307
0.242020 0.044288 0.094164
0.278677 0.047640 0.097022
0.315334 0.050992 0.099879
0.351991 0.054344 0.102737
0.388648 0.057696 0.105595
0.425305 0.061048 0.108452
0.461962 0.064400 0.111310
0.498619 0.067752 0.114168
0.536169 0.071216 0.117178
0.574579 0.074782 0.120315
0.613436 0.078394 0.123502
0.031788 0.069501 0.086083
0.068445 0.072853 0.088941
0.105102 0.076205 0.091799
0.141759 0.079557 0.094656
0.178416 0.082909 0.097514
0.215073 0.086261 0.100372
0.251730 0.089613 0.103229
0.288387 0.092965 0.106087
0.325044 0.096317 0.108945
0.361701 0.099669 0.111802
0.398358 0.103021 0.114660
0.435947 0.106588 0.117714
0.474115 0.110262 0.120861
0.512684 0.113993 0.124055
0.551634 0.117772 0.127289
0.590963 0.121595 0.130558
0.630670 0.125462 0.133860
0.041499 0.114826 0.095149
0.078156 0.118178 0.098006
0.114813 0.121530 0.100864
0.151470 0.124882 0.103722
0.188127 0.128234 0.106579
0.224784 0.131586 0.109437
0.261441 0.134938 0.112295
0.298138 0.138307 0.115164
0.335636 0.141994 0.118252
0.373544 0.145781 0.121408
0.411813 0.149633 0.124610
0.450438 0.153540 0.127849
0.489421 0.157497 0.131124
0.528767 0.161503 0.134432
0.568481 0.165554 0.137772
0.608569 0.169650 0.141143
0.649037 0.173790 0.144545
0.051209 0.160150 0.104214
0.087866 0.163502 0.107072
0.124523 0.166854 0.109929
0.161180 0.170206 0.112787
0.197932 0.173637 0.115688
0.235230 0.177435 0.118792
0.272863 0.181338 0.121957
0.310823 0.185315 0.125165
0.349114 0.189352 0.128411
0.387745 0.193445 0.131692
0.426725 0.197591 0.135005
0.466059 0.201787 0.138351
0.505756 0.206031 0.141727
0.545822 0.210322 0.145134
0.586265 0.214660 0.148572
0.627088 0.219044 0.152040
0.668300 0.223474 0.155537
0.060920 0.205475 0.113279
0.097662 0.209000 0.116216
0.134725 0.212913 0.119333
0.172069 0.216936 0.122506
0.209710 0.221039 0.125722
0.247661 0.225209 0.128974
0.285935 0.229440 0.132260
0.324542 0.233727 0.135579
0.363493 0.238069 0.138930
0.402795 0.242462 0.142312
0.442456 0.246906 0.145724
0.482484 0.251400 0.149167
0.522885 0.255942 0.152640
0.563667 0.260532 0.156142
0.604833 0.265170 0.159675
0.646391 0.269856 0.163237
0.688345 0.274588 0.166829
0.071159 0.252575 0.123058
0.108472 0.256806 0.126279
0.146077 0.261111 0.129538
0.183988 0.265481 0.132830
0.222219 0.269912 0.136154
0.260781 0.274400 0.139511
0.299684 0.278944 0.142898
0.338937 0.283541 0.146315
0.378548 0.288191 0.149763
0.418524 0.292893 0.153241
0.458872 0.297645 0.156749
0.499599 0.302447 0.160286
0.540711 0.307299 0.163854
0.582213 0.312200 0.167451
0.624110 0.317149 0.171078
0.666408 0.322148 0.174734
0.709110 0.327194 0.178421
0.081903 0.301569 0.133400
0.119753 0.306144 0.136730
0.157923 0.310781 0.140092
0.196423 0.315477 0.143484
0.235264 0.320229 0.146907
0.274455 0.325036 0.150360
0.314003 0.329898 0.153843
0.353916 0.334813 0.157356
0.394201 0.339780 0.160899
0.434864 0.344799 0.164471
0.475911 0.349869 0.168074
0.517348 0.354990 0.171706
0.559179 0.360161 0.175367
0.601411 0.365382 0.179059
0.644047 0.370653 0.182780
0.687093 0.375974 0.186532
0.730553 0.381345 0.190313
0.093011 0.352061 0.144072
0.131437 0.356969 0.147500
0.170205 0.361935 0.150958
0.209322 0.366957 0.154446
0.248797 0.372035 0.157964
0.288637 0.377168 0.161512
0.328849 0.382355 0.165090
0.369439 0.387595 0.168697
0.410413 0.392888 0.172334
0.451777 0.398233 0.176001
0.493536 0.403630 0.179698
0.535694 0.409078 0.183425
0.578257 0.414578 0.187181
0.621229 0.420129 0.190968
0.664615 0.425731 0.194785
0.708419 0.431383 0.198632
0.752645 0.437086 0.202509
0.104481 0.404071 0.155050
0.143515 0.409313 0.158573
0.182908 0.414613 0.162126
0.222667 0.419968 0.165709
0.262798 0.425379 0.169321
0.303307 0.430844 0.172964
0.344201 0.436363 0.176636
0.385484 0.441936 0.180338
0.427163 0.447563 0.184070
0.469241 0.453242 0.187831
0.511724 0.458974 0.191623
0.554617 0.464759 0.195445
0.597923 0.470596 0.199297
0.641647 0.476484 0.203180
0.685793 0.482425 0.207093
0.730365 0.488417 0.211036
0.775366 0.494461 0.215010
0.116316 0.457638 0.166329
0.155986 0.463220 0.169947
0.196028 0.468858 0.173594
0.236450 0.474553 0.177271
0.277256 0.480303 0.180978
0.318453 0.486108 0.184715
0.360045 0.491967 0.188482
0.402038 0.497881 0.192279
0.444435 0.503849 0.196107
0.487242 0.509870 0.199964
0.530463 0.515945 0.203852
0.574102 0.522073 0.207770
0.618162 0.528254 0.211718
0.662649 0.534488 0.215698
0.707565 0.540775 0.219708
0.752914 0.547115 0.223748
0.798700 0.553507 0.227820
0.128524 0.512801 0.177908
0.168852 0.518729 0.181620
0.209565 0.524713 0.185362
0.250669 0.530753 0.189134
0.292169 0.536849 0.192937
0.334070 0.543000 0.196769
0.376376 0.549207 0.200632
0.419092 0.555468 0.204525
0.462222 0.561784 0.208448
0.505771 0.568155 0.212402
0.549741 0.574580 0.216386
0.594138 0.581058 0.220401
0.638964 0.587591 0.224447
0.684223 0.594177 0.228524
0.729920 0.600817 0.232632
0.776056 0.607511 0.236771
0.822636 0.614258 0.240941
0.141112 0.569600 0.189787
0.182118 0.575878 0.193595
0.223520 0.582214 0.197432
0.265324 0.588606 0.201300
0.307534 0.595055 0.205198
0.350154 0.601559 0.209127
0.393189 0.608120 0.213086
0.436642 0.614735 0.217076
0.480518 0.621406 0.221096
0.524820 0.628132 0.225147
0.569552 0.634913 0.229229
0.614718 0.641749 0.233343
0.660320 0.648639 0.237487
0.706363 0.655584 0.241662
0.752850 0.662584 0.245869
0.799783 0.669638 0.250107
0.847165 0.676746 0.254376
0.154086 0.628068 0.201969
0.195789 0.634704 0.205873
0.237897 0.641398 0.209807
0.280417 0.648148 0.213771
0.323352 0.654955 0.217766
0.366706 0.661819 0.221792
0.410482 0.668739 0.225848
0.454686 0.675715 0.229936
0.499319 0.682747 0.234054
0.544387 0.689835 0.238204
0.589892 0.696978 0.242385
0.635837 0.704177 0.246597
0.682226 0.711431 0.250840
0.729062 0.718741 0.255115
0.776348 0.726106 0.259421
0.824087 0.733526 0.263759
0.872281 0.741001 0.268129
0.167455 0.688241 0.214457
0.209869 0.695240 0.218457
0.252700 0.702297 0.222488
0.295950 0.709411 0.226550
0.339623 0.716582 0.230643
0.383724 0.723811 0.234767
0.428255 0.731096 0.238922
0.473221 0.738439 0.243108
0.518624 0.745838 0.247325
0.564468 0.753293 0.251574
0.610756 0.760804 0.255854
0.657491 0.768372 0.260166
0.704677 0.775996 0.264510
0.752315 0.783676 0.268885
0.800410 0.791412 0.273292
0.848963 0.799204 0.277731
0.897978 0.807052 0.282203
0.181223 0.750148 0.227253
0.224365 0.757516 0.231351
0.267931 0.764941 0.235480
0.311925 0.772425 0.239641
0.356350 0.779966 0.243832
0.401210 0.787565 0.248055
0.446508 0.795222 0.252309
0.492247 0.802936 0.256595
0.538431 0.810707 0.260912
0.585062 0.818535 0.265261
0.632143 0.826421 0.269642
0.679678 0.834363 0.274055
0.727669 0.842362 0.278499
0.776120 0.850417 0.282976
0.825032 0.858530 0.287485
0.874408 0.866698 0.292026
0.924252 0.874924 0.296599
0.195397 0.813820 0.240360
0.239280 0.821561 0.244557
0.283596 0.829361 0.248786
0.328346 0.837219 0.253045
0.373536 0.845136 0.257336
0.419166 0.853110 0.261659
0.465242 0.861143 0.266014
0.511765 0.869234 0.270400
0.558739 0.877383 0.274818
0.606167 0.885589 0.279268
0.654052 0.893853 0.283750
0.702396 0.902174 0.288265
0.751202 0.910553 0.292811
0.800473 0.918990 0.297390
0.846857 0.923986 0.301031
0.892446 0.928110 0.304431
0.938035 0.932234 0.307831
0.209983 0.879284 0.253782
0.254621 0.887404 0.258079
0.299697 0.895582 0.262407
0.345217 0.903820 0.266767
0.391181 0.912117 0.271159
0.437593 0.920472 0.275582
0.484457 0.928886 0.280038
0.531775 0.937359 0.284526
0.579550 0.945890 0.289046
0.627785 0.954479 0.293598
0.676482 0.963127 0.298182
0.722166 0.967380 0.301617
0.767755 0.971504 0.305017
0.813344 0.975628 0.308417
0.858933 0.979752 0.311817
0.904523 0.983876 0.315217
0.950112 0.988001 0.318617
0.023013 0.025200 0.106095
0.059670 0.028552 0.108953
0.096327 0.031904 0.111810
0.132984 0.035256 0.114668
0.169641 0.038608 0.117525
0.206298 0.041960 0.120383
0.242954 0.045312 0.123241
0.279611 0.048664 0.126098
0.316268 0.052016 0.128956
0.352925 0.055368 0.131814
0.389582 0.058720 0.134671
0.426239 0.062072 0.137529
0.462896 0.065424 0.140387
0.499588 0.068780 0.143252
