assets/lighting/day-night-palettes/grade-tungsten-3200k/lut.cube
TITLE "Tungsten 3200K"
# TKRS lighting-batch-001 original LUT
# Intended usage: practical tungsten interior / stage warm
# License: CC0-1.0
LUT_3D_SIZE 5
DOMAIN_MIN 0.0 0.0 0.0
DOMAIN_MAX 1.0 1.0 1.0
0.000000 0.000000 0.000000
0.245433 0.000000 0.000000
0.520866 0.000000 0.000000
0.796299 0.000000 0.000000
1.000000 0.000000 0.000000
0.000000 0.205223 0.000000
0.237140 0.202406 0.000000
0.512573 0.199589 0.000000
0.788006 0.196772 0.000000
1.000000 0.193955 0.000000
0.000000 0.440445 0.000000
0.228846 0.437628 0.000000
0.504279 0.434811 0.000000
0.779712 0.431994 0.000000
1.000000 0.429177 0.000000
0.000000 0.675668 0.000000
0.220553 0.672851 0.000000
0.495986 0.670034 0.000000
0.771419 0.667217 0.000000
1.000000 0.664400 0.000000
0.000000 0.910890 0.000000
0.212259 0.908073 0.000000
0.487692 0.905256 0.000000
0.763125 0.902440 0.000000
1.000000 0.899623 0.000000
0.000000 0.000000 0.183953
0.244695 0.000000 0.181136
0.520128 0.000000 0.178319
0.795561 0.000000 0.175503
1.000000 0.000000 0.172686
0.000000 0.204484 0.175660
0.236401 0.201668 0.172843
0.511835 0.198851 0.170026
0.787268 0.196034 0.167209
1.000000 0.193217 0.164392
0.000000 0.439707 0.167366
0.228108 0.436890 0.164550
0.503541 0.434073 0.161733
0.778974 0.431256 0.158916
1.000000 0.428439 0.156099
0.000000 0.674930 0.159073
0.219815 0.672113 0.156256
0.495248 0.669296 0.153439
0.770681 0.666479 0.150622
1.000000 0.663662 0.147805
0.000000 0.910152 0.150780
0.211521 0.907335 0.147963
0.486954 0.904518 0.145146
0.762387 0.901701 0.142329
1.000000 0.898884 0.139512
0.000000 0.000000 0.397907
0.243957 0.000000 0.395090
0.519390 0.000000 0.392273
0.794823 0.000000 0.389456
1.000000 0.000000 0.386639
0.000000 0.203746 0.389613
0.235663 0.200929 0.386796
0.511096 0.198112 0.383979
0.786529 0.195295 0.381162
1.000000 0.192479 0.378346
0.000000 0.438969 0.381320
0.227370 0.436152 0.378503
0.502803 0.433335 0.375686
0.778236 0.430518 0.372869
1.000000 0.427701 0.370052
0.000000 0.674192 0.373026
0.219076 0.671375 0.370209
0.494509 0.668558 0.367392
0.769943 0.665741 0.364576
1.000000 0.662924 0.361759
0.000000 0.909414 0.364733
0.210783 0.906597 0.361916
0.486216 0.903780 0.359099
0.761649 0.900963 0.356282
1.000000 0.898146 0.353465
0.000000 0.000000 0.611860
0.243219 0.000000 0.609043
0.518652 0.000000 0.606226
0.794085 0.000000 0.603409
1.000000 0.000000 0.600592
0.000000 0.203008 0.603567
0.234925 0.200191 0.600750
0.510358 0.197374 0.597933
0.785791 0.194557 0.595116
1.000000 0.191740 0.592299
0.000000 0.438231 0.595273
0.226632 0.435414 0.592456
0.502065 0.432597 0.589639
0.777498 0.429780 0.586822
1.000000 0.426963 0.584005
0.000000 0.673453 0.586980
0.218338 0.670636 0.584163
0.493771 0.667820 0.581346
0.769204 0.665003 0.578529
1.000000 0.662186 0.575712
0.000000 0.908676 0.578686
0.210045 0.905859 0.575869
0.485478 0.903042 0.573052
0.760911 0.900225 0.570235
1.000000 0.897408 0.567419
0.000000 0.000000 0.825814
0.242481 0.000000 0.822997
0.517914 0.000000 0.820180
0.793347 0.000000 0.817363
1.000000 0.000000 0.814546
0.000000 0.202270 0.817520
0.234187 0.199453 0.814703
0.509620 0.196636 0.811886
0.785053 0.193819 0.809069
1.000000 0.191002 0.806252
0.000000 0.437493 0.809227
0.225894 0.434676 0.806410
0.501327 0.431859 0.803593
0.776760 0.429042 0.800776
1.000000 0.426225 0.797959
0.000000 0.672715 0.800933
0.217600 0.669898 0.798116
0.493033 0.667081 0.795299
0.768466 0.664264 0.792482
1.000000 0.661447 0.789665
0.000000 0.907938 0.792640
0.209307 0.905121 0.789823
0.484740 0.902304 0.787006
0.760173 0.899487 0.784189
1.000000 0.896670 0.781372
