assets/lighting/day-night-palettes/grade-tungsten-3200k/lut.cube
TITLE "Tungsten 3200K"
# TKRS lighting-batch-001 original LUT
# Intended usage: practical tungsten interior / stage warm
# License: CC0-1.0
LUT_3D_SIZE 17
DOMAIN_MIN 0.0 0.0 0.0
DOMAIN_MAX 1.0 1.0 1.0
0.000000 0.000000 0.000000
0.038858 0.000000 0.000000
0.107717 0.000000 0.000000
0.176575 0.000000 0.000000
0.245433 0.000000 0.000000
0.314291 0.000000 0.000000
0.383150 0.000000 0.000000
0.452008 0.000000 0.000000
0.520866 0.000000 0.000000
0.589724 0.000000 0.000000
0.658583 0.000000 0.000000
0.727441 0.000000 0.000000
0.796299 0.000000 0.000000
0.865157 0.000000 0.000000
0.934016 0.000000 0.000000
1.000000 0.000000 0.000000
1.000000 0.000000 0.000000
0.000000 0.028806 0.000000
0.036785 0.028101 0.000000
0.105643 0.027397 0.000000
0.174501 0.026693 0.000000
0.243360 0.025989 0.000000
0.312218 0.025284 0.000000
0.381076 0.024580 0.000000
0.449934 0.023876 0.000000
0.518793 0.023172 0.000000
0.587651 0.022468 0.000000
0.656509 0.021763 0.000000
0.725368 0.021059 0.000000
0.794226 0.020355 0.000000
0.863084 0.019651 0.000000
0.931942 0.018946 0.000000
1.000000 0.018242 0.000000
1.000000 0.017538 0.000000
0.000000 0.087611 0.000000
0.034712 0.086907 0.000000
0.103570 0.086203 0.000000
0.172428 0.085499 0.000000
0.241286 0.084794 0.000000
0.310145 0.084090 0.000000
0.379003 0.083386 0.000000
0.447861 0.082682 0.000000
0.516719 0.081977 0.000000
0.585578 0.081273 0.000000
0.654436 0.080569 0.000000
0.723294 0.079865 0.000000
0.792152 0.079160 0.000000
0.861011 0.078456 0.000000
0.929869 0.077752 0.000000
0.998727 0.077048 0.000000
1.000000 0.076343 0.000000
0.000000 0.146417 0.000000
0.032638 0.145713 0.000000
0.101496 0.145008 0.000000
0.170355 0.144304 0.000000
0.239213 0.143600 0.000000
0.308071 0.142896 0.000000
0.376929 0.142192 0.000000
0.445788 0.141487 0.000000
0.514646 0.140783 0.000000
0.583504 0.140079 0.000000
0.652363 0.139375 0.000000
0.721221 0.138670 0.000000
0.790079 0.137966 0.000000
0.858937 0.137262 0.000000
0.927796 0.136558 0.000000
0.996654 0.135853 0.000000
1.000000 0.135149 0.000000
0.000000 0.205223 0.000000
0.030565 0.204518 0.000000
0.099423 0.203814 0.000000
0.168281 0.203110 0.000000
0.237140 0.202406 0.000000
0.305998 0.201701 0.000000
0.374856 0.200997 0.000000
0.443714 0.200293 0.000000
0.512573 0.199589 0.000000
0.581431 0.198884 0.000000
0.650289 0.198180 0.000000
0.719147 0.197476 0.000000
0.788006 0.196772 0.000000
0.856864 0.196068 0.000000
0.925722 0.195363 0.000000
0.994580 0.194659 0.000000
1.000000 0.193955 0.000000
0.000000 0.264028 0.000000
0.028491 0.263324 0.000000
0.097350 0.262620 0.000000
0.166208 0.261916 0.000000
0.235066 0.261211 0.000000
0.303924 0.260507 0.000000
0.372783 0.259803 0.000000
0.441641 0.259099 0.000000
0.510499 0.258394 0.000000
0.579358 0.257690 0.000000
0.648216 0.256986 0.000000
0.717074 0.256282 0.000000
0.785932 0.255577 0.000000
0.854791 0.254873 0.000000
0.923649 0.254169 0.000000
0.992507 0.253465 0.000000
1.000000 0.252760 0.000000
0.000000 0.322834 0.000000
0.026418 0.322130 0.000000
0.095276 0.321425 0.000000
0.164135 0.320721 0.000000
0.232993 0.320017 0.000000
0.301851 0.319313 0.000000
0.370709 0.318608 0.000000
0.439568 0.317904 0.000000
0.508426 0.317200 0.000000
0.577284 0.316496 0.000000
0.646142 0.315792 0.000000
0.715001 0.315087 0.000000
0.783859 0.314383 0.000000
0.852717 0.313679 0.000000
0.921575 0.312975 0.000000
0.990434 0.312270 0.000000
1.000000 0.311566 0.000000
0.000000 0.381640 0.000000
0.024345 0.380935 0.000000
0.093203 0.380231 0.000000
0.162061 0.379527 0.000000
0.230919 0.378823 0.000000
0.299778 0.378118 0.000000
0.368636 0.377414 0.000000
0.437494 0.376710 0.000000
0.506353 0.376006 0.000000
0.575211 0.375301 0.000000
0.644069 0.374597 0.000000
0.712927 0.373893 0.000000
0.781786 0.373189 0.000000
0.850644 0.372484 0.000000
0.919502 0.371780 0.000000
0.988360 0.371076 0.000000
1.000000 0.370372 0.000000
0.000000 0.440445 0.000000
0.022271 0.439741 0.000000
0.091130 0.439037 0.000000
0.159988 0.438332 0.000000
0.228846 0.437628 0.000000
0.297704 0.436924 0.000000
0.366563 0.436220 0.000000
0.435421 0.435516 0.000000
0.504279 0.434811 0.000000
0.573137 0.434107 0.000000
0.641996 0.433403 0.000000
0.710854 0.432699 0.000000
0.779712 0.431994 0.000000
0.848570 0.431290 0.000000
0.917429 0.430586 0.000000
0.986287 0.429882 0.000000
1.000000 0.429177 0.000000
0.000000 0.499251 0.000000
0.020198 0.498547 0.000000
0.089056 0.497842 0.000000
0.157914 0.497138 0.000000
0.226773 0.496434 0.000000
0.295631 0.495730 0.000000
0.364489 0.495025 0.000000
0.433348 0.494321 0.000000
0.502206 0.493617 0.000000
0.571064 0.492913 0.000000
0.639922 0.492208 0.000000
0.708781 0.491504 0.000000
0.777639 0.490800 0.000000
0.846497 0.490096 0.000000
0.915355 0.489392 0.000000
0.984214 0.488687 0.000000
1.000000 0.487983 0.000000
0.000000 0.558056 0.000000
0.018125 0.557352 0.000000
0.086983 0.556648 0.000000
0.155841 0.555944 0.000000
0.224699 0.555240 0.000000
0.293558 0.554535 0.000000
0.362416 0.553831 0.000000
0.431274 0.553127 0.000000
0.500132 0.552423 0.000000
0.568991 0.551718 0.000000
0.637849 0.551014 0.000000
0.706707 0.550310 0.000000
0.775565 0.549606 0.000000
0.844424 0.548901 0.000000
0.913282 0.548197 0.000000
0.982140 0.547493 0.000000
1.000000 0.546789 0.000000
0.000000 0.616862 0.000000
0.016051 0.616158 0.000000
0.084910 0.615454 0.000000
0.153768 0.614749 0.000000
0.222626 0.614045 0.000000
0.291484 0.613341 0.000000
0.360343 0.612637 0.000000
0.429201 0.611932 0.000000
0.498059 0.611228 0.000000
0.566917 0.610524 0.000000
0.635776 0.609820 0.000000
0.704634 0.609116 0.000000
0.773492 0.608411 0.000000
0.842350 0.607707 0.000000
0.911209 0.607003 0.000000
0.980067 0.606299 0.000000
1.000000 0.605594 0.000000
0.000000 0.675668 0.000000
0.013978 0.674964 0.000000
0.082836 0.674259 0.000000
0.151694 0.673555 0.000000
0.220553 0.672851 0.000000
0.289411 0.672147 0.000000
0.358269 0.671442 0.000000
0.427127 0.670738 0.000000
0.495986 0.670034 0.000000
0.564844 0.669330 0.000000
0.633702 0.668625 0.000000
0.702561 0.667921 0.000000
0.771419 0.667217 0.000000
0.840277 0.666513 0.000000
0.909135 0.665808 0.000000
0.977994 0.665104 0.000000
1.000000 0.664400 0.000000
0.000000 0.734473 0.000000
0.011905 0.733769 0.000000
0.080763 0.733065 0.000000
0.149621 0.732361 0.000000
0.218479 0.731656 0.000000
0.287338 0.730952 0.000000
0.356196 0.730248 0.000000
0.425054 0.729544 0.000000
0.493912 0.728840 0.000000
0.562771 0.728135 0.000000
0.631629 0.727431 0.000000
0.700487 0.726727 0.000000
0.769345 0.726023 0.000000
0.838204 0.725318 0.000000
0.907062 0.724614 0.000000
0.975920 0.723910 0.000000
1.000000 0.723206 0.000000
0.000000 0.793279 0.000000
0.009831 0.792575 0.000000
0.078689 0.791871 0.000000
0.147548 0.791166 0.000000
0.216406 0.790462 0.000000
0.285264 0.789758 0.000000
0.354122 0.789054 0.000000
0.422981 0.788349 0.000000
0.491839 0.787645 0.000000
0.560697 0.786941 0.000000
0.629556 0.786237 0.000000
0.698414 0.785532 0.000000
0.767272 0.784828 0.000000
0.836130 0.784124 0.000000
0.904989 0.783420 0.000000
0.973847 0.782716 0.000000
1.000000 0.782011 0.000000
0.000000 0.852085 0.000000
0.007758 0.851381 0.000000
0.076616 0.850676 0.000000
0.145474 0.849972 0.000000
0.214333 0.849268 0.000000
0.283191 0.848564 0.000000
0.352049 0.847859 0.000000
0.420907 0.847155 0.000000
0.489766 0.846451 0.000000
0.558624 0.845747 0.000000
0.627482 0.845042 0.000000
0.696340 0.844338 0.000000
0.765199 0.843634 0.000000
0.834057 0.842930 0.000000
0.902915 0.842225 0.000000
0.971773 0.841521 0.000000
1.000000 0.840817 0.000000
0.000000 0.910890 0.000000
0.005684 0.910186 0.000000
0.074543 0.909482 0.000000
0.143401 0.908778 0.000000
0.212259 0.908073 0.000000
0.281117 0.907369 0.000000
0.349976 0.906665 0.000000
0.418834 0.905961 0.000000
0.487692 0.905256 0.000000
0.556551 0.904552 0.000000
0.625409 0.903848 0.000000
0.694267 0.903144 0.000000
0.763125 0.902440 0.000000
0.831984 0.901735 0.000000
0.900842 0.901031 0.000000
0.969700 0.900327 0.000000
1.000000 0.899623 0.000000
0.000000 0.000000 0.023488
0.038674 0.000000 0.022784
0.107532 0.000000 0.022080
0.176390 0.000000 0.021376
0.245249 0.000000 0.020671
0.314107 0.000000 0.019967
0.382965 0.000000 0.019263
0.451823 0.000000 0.018559
0.520682 0.000000 0.017854
0.589540 0.000000 0.017150
0.658398 0.000000 0.016446
0.727256 0.000000 0.015742
0.796115 0.000000 0.015037
0.864973 0.000000 0.014333
0.933831 0.000000 0.013629
1.000000 0.000000 0.012925
1.000000 0.000000 0.012221
0.000000 0.028621 0.021415
0.036600 0.027917 0.020711
0.105459 0.027213 0.020007
0.174317 0.026508 0.019302
0.243175 0.025804 0.018598
0.312033 0.025100 0.017894
0.380892 0.024396 0.017190
0.449750 0.023691 0.016485
0.518608 0.022987 0.015781
0.587466 0.022283 0.015077
0.656325 0.021579 0.014373
0.725183 0.020875 0.013668
0.794041 0.020170 0.012964
0.862900 0.019466 0.012260
0.931758 0.018762 0.011556
1.000000 0.018058 0.010851
1.000000 0.017353 0.010147
0.000000 0.087427 0.019342
0.034527 0.086723 0.018637
0.103385 0.086018 0.017933
0.172244 0.085314 0.017229
0.241102 0.084610 0.016525
0.309960 0.083906 0.015820
0.378818 0.083201 0.015116
0.447677 0.082497 0.014412
0.516535 0.081793 0.013708
0.585393 0.081089 0.013003
0.654251 0.080384 0.012299
0.723110 0.079680 0.011595
0.791968 0.078976 0.010891
0.860826 0.078272 0.010187
0.929684 0.077567 0.009482
0.998543 0.076863 0.008778
1.000000 0.076159 0.008074
0.000000 0.146232 0.017268
0.032454 0.145528 0.016564
0.101312 0.144824 0.015860
0.170170 0.144120 0.015156
0.239028 0.143415 0.014451
0.307887 0.142711 0.013747
0.376745 0.142007 0.013043
0.445603 0.141303 0.012339
0.514461 0.140599 0.011634
0.583320 0.139894 0.010930
0.652178 0.139190 0.010226
0.721036 0.138486 0.009522
0.789895 0.137782 0.008817
0.858753 0.137077 0.008113
0.927611 0.136373 0.007409
0.996469 0.135669 0.006705
1.000000 0.134965 0.006000
0.000000 0.205038 0.015195
0.030380 0.204334 0.014491
0.099239 0.203630 0.013786
0.168097 0.202925 0.013082
0.236955 0.202221 0.012378
0.305813 0.201517 0.011674
0.374672 0.200813 0.010969
0.443530 0.200108 0.010265
0.512388 0.199404 0.009561
0.581246 0.198700 0.008857
0.650105 0.197996 0.008153
0.718963 0.197291 0.007448
0.787821 0.196587 0.006744
0.856679 0.195883 0.006040
0.925538 0.195179 0.005336
0.994396 0.194475 0.004631
1.000000 0.193770 0.003927
0.000000 0.263844 0.013122
0.028307 0.263139 0.012417
0.097165 0.262435 0.011713
0.166023 0.261731 0.011009
0.234882 0.261027 0.010305
0.303740 0.260323 0.009600
0.372598 0.259618 0.008896
0.441456 0.258914 0.008192
0.510315 0.258210 0.007488
0.579173 0.257506 0.006783
0.648031 0.256801 0.006079
0.716890 0.256097 0.005375
0.785748 0.255393 0.004671
0.854606 0.254689 0.003966
0.923464 0.253984 0.003262
0.992323 0.253280 0.002558
1.000000 0.252576 0.001854
0.000000 0.322649 0.011048
0.026234 0.321945 0.010344
0.095092 0.321241 0.009640
0.163950 0.320537 0.008935
0.232808 0.319832 0.008231
0.301667 0.319128 0.007527
0.370525 0.318424 0.006823
0.439383 0.317720 0.006118
0.508241 0.317015 0.005414
0.577100 0.316311 0.004710
0.645958 0.315607 0.004006
0.714816 0.314903 0.003302
0.783674 0.314199 0.002597
0.852533 0.313494 0.001893
0.921391 0.312790 0.001189
0.990249 0.312086 0.000485
1.000000 0.311382 0.000000
0.000000 0.381455 0.008975
0.024160 0.380751 0.008271
0.093018 0.380047 0.007566
0.161877 0.379342 0.006862
0.230735 0.378638 0.006158
0.299593 0.377934 0.005454
0.368451 0.377230 0.004749
0.437310 0.376525 0.004045
0.506168 0.375821 0.003341
0.575026 0.375117 0.002637
0.643885 0.374413 0.001932
0.712743 0.373708 0.001228
0.781601 0.373004 0.000524
0.850459 0.372300 0.000000
0.919318 0.371596 0.000000
0.988176 0.370891 0.000000
1.000000 0.370187 0.000000
0.000000 0.440261 0.006901
0.022087 0.439556 0.006197
0.090945 0.438852 0.005493
0.159803 0.438148 0.004789
0.228662 0.437444 0.004084
0.297520 0.436739 0.003380
0.366378 0.436035 0.002676
0.435236 0.435331 0.001972
0.504095 0.434627 0.001268
0.572953 0.433923 0.000563
0.641811 0.433218 0.000000
0.710669 0.432514 0.000000
0.779528 0.431810 0.000000
0.848386 0.431106 0.000000
0.917244 0.430401 0.000000
0.986102 0.429697 0.000000
1.000000 0.428993 0.000000
0.000000 0.499066 0.004828
0.020013 0.498362 0.004124
0.088872 0.497658 0.003420
0.157730 0.496954 0.002715
0.226588 0.496249 0.002011
0.295446 0.495545 0.001307
0.364305 0.494841 0.000603
0.433163 0.494137 0.000000
0.502021 0.493432 0.000000
0.570880 0.492728 0.000000
0.639738 0.492024 0.000000
0.708596 0.491320 0.000000
0.777454 0.490615 0.000000
0.846313 0.489911 0.000000
0.915171 0.489207 0.000000
0.984029 0.488503 0.000000
1.000000 0.487799 0.000000
0.000000 0.557872 0.002755
0.017940 0.557168 0.002050
0.086798 0.556463 0.001346
0.155657 0.555759 0.000642
0.224515 0.555055 0.000000
0.293373 0.554351 0.000000
0.362231 0.553647 0.000000
0.431090 0.552942 0.000000
0.499948 0.552238 0.000000
0.568806 0.551534 0.000000
0.637664 0.550830 0.000000
0.706523 0.550125 0.000000
0.775381 0.549421 0.000000
0.844239 0.548717 0.000000
0.913097 0.548013 0.000000
0.981956 0.547308 0.000000
1.000000 0.546604 0.000000
0.000000 0.616678 0.000681
0.015867 0.615973 0.000000
0.084725 0.615269 0.000000
0.153583 0.614565 0.000000
0.222441 0.613861 0.000000
0.291300 0.613156 0.000000
0.360158 0.612452 0.000000
0.429016 0.611748 0.000000
0.497875 0.611044 0.000000
0.566733 0.610339 0.000000
0.635591 0.609635 0.000000
0.704449 0.608931 0.000000
0.773308 0.608227 0.000000
0.842166 0.607523 0.000000
0.911024 0.606818 0.000000
0.979882 0.606114 0.000000
1.000000 0.605410 0.000000
0.000000 0.675483 0.000000
0.013793 0.674779 0.000000
0.082652 0.674075 0.000000
0.151510 0.673371 0.000000
0.220368 0.672666 0.000000
0.289226 0.671962 0.000000
0.358085 0.671258 0.000000
0.426943 0.670554 0.000000
0.495801 0.669849 0.000000
0.564659 0.669145 0.000000
0.633518 0.668441 0.000000
0.702376 0.667737 0.000000
0.771234 0.667032 0.000000
0.840092 0.666328 0.000000
0.908951 0.665624 0.000000
0.977809 0.664920 0.000000
1.000000 0.664215 0.000000
0.000000 0.734289 0.000000
0.011720 0.733585 0.000000
0.080578 0.732880 0.000000
0.149437 0.732176 0.000000
0.218295 0.731472 0.000000
0.287153 0.730768 0.000000
0.356011 0.730063 0.000000
0.424870 0.729359 0.000000
0.493728 0.728655 0.000000
0.562586 0.727951 0.000000
0.631444 0.727247 0.000000
0.700303 0.726542 0.000000
0.769161 0.725838 0.000000
0.838019 0.725134 0.000000
0.906877 0.724430 0.000000
0.975736 0.723725 0.000000
1.000000 0.723021 0.000000
0.000000 0.793095 0.000000
0.009647 0.792390 0.000000
0.078505 0.791686 0.000000
0.147363 0.790982 0.000000
0.216221 0.790278 0.000000
0.285080 0.789573 0.000000
0.353938 0.788869 0.000000
0.422796 0.788165 0.000000
0.491654 0.787461 0.000000
0.560513 0.786756 0.000000
0.629371 0.786052 0.000000
0.698229 0.785348 0.000000
0.767088 0.784644 0.000000
0.835946 0.783939 0.000000
0.904804 0.783235 0.000000
0.973662 0.782531 0.000000
1.000000 0.781827 0.000000
0.000000 0.851900 0.000000
0.007573 0.851196 0.000000
0.076432 0.850492 0.000000
0.145290 0.849788 0.000000
0.214148 0.849083 0.000000
0.283006 0.848379 0.000000
0.351865 0.847675 0.000000
0.420723 0.846971 0.000000
0.489581 0.846266 0.000000
0.558439 0.845562 0.000000
0.627298 0.844858 0.000000
0.696156 0.844154 0.000000
0.765014 0.843449 0.000000
0.833872 0.842745 0.000000
0.902731 0.842041 0.000000
0.971589 0.841337 0.000000
1.000000 0.840632 0.000000
0.000000 0.910706 0.000000
0.005500 0.910002 0.000000
0.074358 0.909297 0.000000
0.143216 0.908593 0.000000
0.212075 0.907889 0.000000
0.280933 0.907185 0.000000
0.349791 0.906480 0.000000
0.418649 0.905776 0.000000
0.487508 0.905072 0.000000
0.556366 0.904368 0.000000
0.625224 0.903663 0.000000
0.694083 0.902959 0.000000
0.762941 0.902255 0.000000
0.831799 0.901551 0.000000
0.900657 0.900847 0.000000
0.969516 0.900142 0.000000
1.000000 0.899438 0.000000
0.000000 0.000000 0.076977
0.038489 0.000000 0.076272
0.107347 0.000000 0.075568
0.176206 0.000000 0.074864
0.245064 0.000000 0.074160
0.313922 0.000000 0.073456
0.382781 0.000000 0.072751
0.451639 0.000000 0.072047
0.520497 0.000000 0.071343
0.589355 0.000000 0.070639
0.658214 0.000000 0.069934
0.727072 0.000000 0.069230
0.795930 0.000000 0.068526
0.864788 0.000000 0.067822
0.933647 0.000000 0.067117
1.000000 0.000000 0.066413
1.000000 0.000000 0.065709
0.000000 0.028437 0.074903
0.036416 0.027732 0.074199
0.105274 0.027028 0.073495
0.174132 0.026324 0.072791
0.242991 0.025620 0.072086
0.311849 0.024915 0.071382
0.380707 0.024211 0.070678
0.449565 0.023507 0.069974
0.518424 0.022803 0.069269
0.587282 0.022098 0.068565
0.656140 0.021394 0.067861
0.724998 0.020690 0.067157
0.793857 0.019986 0.066452
0.862715 0.019281 0.065748
0.931573 0.018577 0.065044
1.000000 0.017873 0.064340
1.000000 0.017169 0.063636
0.000000 0.087242 0.072830
0.034342 0.086538 0.072126
0.103201 0.085834 0.071421
0.172059 0.085130 0.070717
0.240917 0.084425 0.070013
0.309776 0.083721 0.069309
0.378634 0.083017 0.068605
0.447492 0.082313 0.067900
0.516350 0.081608 0.067196
0.585209 0.080904 0.066492
0.654067 0.080200 0.065788
0.722925 0.079496 0.065083
0.791783 0.078791 0.064379
0.860642 0.078087 0.063675
0.929500 0.077383 0.062971
0.998358 0.076679 0.062266
1.000000 0.075974 0.061562
0.000000 0.146048 0.070757
0.032269 0.145344 0.070052
0.101127 0.144639 0.069348
0.169986 0.143935 0.068644
0.238844 0.143231 0.067940
0.307702 0.142527 0.067235
0.376560 0.141822 0.066531
0.445419 0.141118 0.065827
0.514277 0.140414 0.065123
0.583135 0.139710 0.064418
0.651993 0.139006 0.063714
0.720852 0.138301 0.063010
0.789710 0.137597 0.062306
0.858568 0.136893 0.061602
0.927427 0.136189 0.060897
0.996285 0.135484 0.060193
1.000000 0.134780 0.059489
0.000000 0.204854 0.068683
0.030196 0.204149 0.067979
0.099054 0.203445 0.067275
0.167912 0.202741 0.066571
0.236771 0.202037 0.065866
0.305629 0.201332 0.065162
0.374487 0.200628 0.064458
0.443345 0.199924 0.063754
0.512204 0.199220 0.063049
0.581062 0.198515 0.062345
0.649920 0.197811 0.061641
0.718778 0.197107 0.060937
0.787637 0.196403 0.060232
0.856495 0.195698 0.059528
0.925353 0.194994 0.058824
0.994211 0.194290 0.058120
1.000000 0.193586 0.057415
0.000000 0.263659 0.066610
0.028122 0.262955 0.065906
0.096981 0.262251 0.065201
0.165839 0.261546 0.064497
0.234697 0.260842 0.063793
0.303555 0.260138 0.063089
0.372414 0.259434 0.062384
0.441272 0.258730 0.061680
0.510130 0.258025 0.060976
0.578988 0.257321 0.060272
0.647847 0.256617 0.059567
0.716705 0.255913 0.058863
0.785563 0.255208 0.058159
0.854422 0.254504 0.057455
0.923280 0.253800 0.056751
0.992138 0.253096 0.056046
1.000000 0.252391 0.055342
0.000000 0.322465 0.064537
0.026049 0.321761 0.063832
0.094907 0.321056 0.063128
0.163766 0.320352 0.062424
0.232624 0.319648 0.061720
0.301482 0.318944 0.061015
0.370340 0.318239 0.060311
0.439199 0.317535 0.059607
0.508057 0.316831 0.058903
0.576915 0.316127 0.058198
0.645773 0.315422 0.057494
0.714632 0.314718 0.056790
0.783490 0.314014 0.056086
0.852348 0.313310 0.055381
0.921206 0.312606 0.054677
0.990065 0.311901 0.053973
1.000000 0.311197 0.053269
0.000000 0.381270 0.062463
0.023976 0.380566 0.061759
0.092834 0.379862 0.061055
0.161692 0.379158 0.060350
0.230550 0.378454 0.059646
0.299409 0.377749 0.058942
0.368267 0.377045 0.058238
0.437125 0.376341 0.057533
0.505983 0.375637 0.056829
0.574842 0.374932 0.056125
0.643700 0.374228 0.055421
0.712558 0.373524 0.054717
0.781417 0.372820 0.054012
0.850275 0.372115 0.053308
0.919133 0.371411 0.052604
0.987991 0.370707 0.051900
1.000000 0.370003 0.051195
0.000000 0.440076 0.060390
0.021902 0.439372 0.059686
0.090761 0.438668 0.058981
0.159619 0.437963 0.058277
0.228477 0.437259 0.057573
0.297335 0.436555 0.056869
0.366194 0.435851 0.056164
0.435052 0.435146 0.055460
0.503910 0.434442 0.054756
0.572768 0.433738 0.054052
0.641627 0.433034 0.053347
0.710485 0.432330 0.052643
0.779343 0.431625 0.051939
0.848201 0.430921 0.051235
0.917060 0.430217 0.050530
0.985918 0.429513 0.049826
1.000000 0.428808 0.049122
0.000000 0.498882 0.058316
0.019829 0.498178 0.057612
0.088687 0.497473 0.056908
0.157545 0.496769 0.056204
0.226404 0.496065 0.055499
0.295262 0.495361 0.054795
0.364120 0.494656 0.054091
0.432978 0.493952 0.053387
0.501837 0.493248 0.052683
0.570695 0.492544 0.051978
0.639553 0.491839 0.051274
0.708412 0.491135 0.050570
0.777270 0.490431 0.049866
0.846128 0.489727 0.049161
0.914986 0.489022 0.048457
0.983845 0.488318 0.047753
1.000000 0.487614 0.047049
0.000000 0.557687 0.056243
0.017756 0.556983 0.055539
0.086614 0.556279 0.054835
0.155472 0.555575 0.054130
0.224330 0.554870 0.053426
0.293189 0.554166 0.052722
0.362047 0.553462 0.052018
0.430905 0.552758 0.051313
0.499763 0.552054 0.050609
0.568622 0.551349 0.049905
0.637480 0.550645 0.049201
0.706338 0.549941 0.048496
0.775196 0.549237 0.047792
0.844055 0.548532 0.047088
0.912913 0.547828 0.046384
0.981771 0.547124 0.045679
1.000000 0.546420 0.044975
0.000000 0.616493 0.054170
0.015682 0.615789 0.053465
0.084540 0.615085 0.052761
0.153399 0.614380 0.052057
0.222257 0.613676 0.051353
0.291115 0.612972 0.050648
0.359973 0.612268 0.049944
0.428832 0.611563 0.049240
0.497690 0.610859 0.048536
0.566548 0.610155 0.047832
0.635407 0.609451 0.047127
0.704265 0.608746 0.046423
0.773123 0.608042 0.045719
0.841981 0.607338 0.045015
0.910840 0.606634 0.044310
0.979698 0.605930 0.043606
1.000000 0.605225 0.042902
0.000000 0.675299 0.052096
0.013609 0.674594 0.051392
0.082467 0.673890 0.050688
0.151325 0.673186 0.049984
0.220184 0.672482 0.049279
0.289042 0.671778 0.048575
0.357900 0.671073 0.047871
0.426758 0.670369 0.047167
0.495617 0.669665 0.046462
0.564475 0.668961 0.045758
0.633333 0.668256 0.045054
0.702191 0.667552 0.044350
0.771050 0.666848 0.043645
0.839908 0.666144 0.042941
0.908766 0.665439 0.042237
0.977624 0.664735 0.041533
1.000000 0.664031 0.040829
0.000000 0.734104 0.050023
0.011535 0.733400 0.049319
0.080394 0.732696 0.048614
0.149252 0.731992 0.047910
0.218110 0.731287 0.047206
0.286968 0.730583 0.046502
0.355827 0.729879 0.045798
0.424685 0.729175 0.045093
0.493543 0.728470 0.044389
0.562402 0.727766 0.043685
0.631260 0.727062 0.042981
0.700118 0.726358 0.042276
0.768976 0.725654 0.041572
0.837835 0.724949 0.040868
0.906693 0.724245 0.040164
0.975551 0.723541 0.039459
1.000000 0.722837 0.038755
0.000000 0.792910 0.047950
0.009462 0.792206 0.047245
0.078320 0.791502 0.046541
0.147179 0.790797 0.045837
0.216037 0.790093 0.045133
0.284895 0.789389 0.044428
0.353753 0.788685 0.043724
0.422612 0.787980 0.043020
0.491470 0.787276 0.042316
0.560328 0.786572 0.041611
0.629186 0.785868 0.040907
0.698045 0.785163 0.040203
0.766903 0.784459 0.039499
0.835761 0.783755 0.038794
0.904619 0.783051 0.038090
0.973478 0.782346 0.037386
1.000000 0.781642 0.036682
0.000000 0.851716 0.045876
0.007389 0.851011 0.045172
0.076247 0.850307 0.044468
0.145105 0.849603 0.043763
0.213964 0.848899 0.043059
0.282822 0.848194 0.042355
0.351680 0.847490 0.041651
0.420538 0.846786 0.040947
0.489397 0.846082 0.040242
0.558255 0.845378 0.039538
0.627113 0.844673 0.038834
0.695971 0.843969 0.038130
0.764830 0.843265 0.037425
0.833688 0.842561 0.036721
0.902546 0.841856 0.036017
0.971404 0.841152 0.035313
1.000000 0.840448 0.034608
0.000000 0.910521 0.043803
0.005315 0.909817 0.043099
0.074174 0.909113 0.042394
0.143032 0.908409 0.041690
0.211890 0.907704 0.040986
0.280748 0.907000 0.040282
0.349607 0.906296 0.039577
0.418465 0.905592 0.038873
0.487323 0.904887 0.038169
0.556181 0.904183 0.037465
0.625040 0.903479 0.036760
0.693898 0.902775 0.036056
0.762756 0.902070 0.035352
0.831615 0.901366 0.034648
0.900473 0.900662 0.033944
0.969331 0.899958 0.033239
1.000000 0.899254 0.032535
0.000000 0.000000 0.130465
0.038305 0.000000 0.129761
0.107163 0.000000 0.129057
0.176021 0.000000 0.128352
0.244879 0.000000 0.127648
0.313738 0.000000 0.126944
0.382596 0.000000 0.126240
0.451454 0.000000 0.125535
0.520313 0.000000 0.124831
0.589171 0.000000 0.124127
0.658029 0.000000 0.123423
0.726887 0.000000 0.122718
0.795746 0.000000 0.122014
0.864604 0.000000 0.121310
