assets/lighting/day-night-palettes/grade-tungsten-3200k/lut.cube
TITLE "Tungsten 3200K"
# TKRS lighting-batch-001 original LUT
# Intended usage: practical tungsten interior / stage warm
# License: CC0-1.0
LUT_3D_SIZE 9
DOMAIN_MIN 0.0 0.0 0.0
DOMAIN_MAX 1.0 1.0 1.0
0.000000 0.000000 0.000000
0.107717 0.000000 0.000000
0.245433 0.000000 0.000000
0.383150 0.000000 0.000000
0.520866 0.000000 0.000000
0.658583 0.000000 0.000000
0.796299 0.000000 0.000000
0.934016 0.000000 0.000000
1.000000 0.000000 0.000000
0.000000 0.087611 0.000000
0.103570 0.086203 0.000000
0.241286 0.084794 0.000000
0.379003 0.083386 0.000000
0.516719 0.081977 0.000000
0.654436 0.080569 0.000000
0.792152 0.079160 0.000000
0.929869 0.077752 0.000000
1.000000 0.076343 0.000000
0.000000 0.205223 0.000000
0.099423 0.203814 0.000000
0.237140 0.202406 0.000000
0.374856 0.200997 0.000000
0.512573 0.199589 0.000000
0.650289 0.198180 0.000000
0.788006 0.196772 0.000000
0.925722 0.195363 0.000000
1.000000 0.193955 0.000000
0.000000 0.322834 0.000000
0.095276 0.321425 0.000000
0.232993 0.320017 0.000000
0.370709 0.318608 0.000000
0.508426 0.317200 0.000000
0.646142 0.315792 0.000000
0.783859 0.314383 0.000000
0.921575 0.312975 0.000000
1.000000 0.311566 0.000000
0.000000 0.440445 0.000000
0.091130 0.439037 0.000000
0.228846 0.437628 0.000000
0.366563 0.436220 0.000000
0.504279 0.434811 0.000000
0.641996 0.433403 0.000000
0.779712 0.431994 0.000000
0.917429 0.430586 0.000000
1.000000 0.429177 0.000000
0.000000 0.558056 0.000000
0.086983 0.556648 0.000000
0.224699 0.555240 0.000000
0.362416 0.553831 0.000000
0.500132 0.552423 0.000000
0.637849 0.551014 0.000000
0.775565 0.549606 0.000000
0.913282 0.548197 0.000000
1.000000 0.546789 0.000000
0.000000 0.675668 0.000000
0.082836 0.674259 0.000000
0.220553 0.672851 0.000000
0.358269 0.671442 0.000000
0.495986 0.670034 0.000000
0.633702 0.668625 0.000000
0.771419 0.667217 0.000000
0.909135 0.665808 0.000000
1.000000 0.664400 0.000000
0.000000 0.793279 0.000000
0.078689 0.791871 0.000000
0.216406 0.790462 0.000000
0.354122 0.789054 0.000000
0.491839 0.787645 0.000000
0.629556 0.786237 0.000000
0.767272 0.784828 0.000000
0.904989 0.783420 0.000000
1.000000 0.782011 0.000000
0.000000 0.910890 0.000000
0.074543 0.909482 0.000000
0.212259 0.908073 0.000000
0.349976 0.906665 0.000000
0.487692 0.905256 0.000000
0.625409 0.903848 0.000000
0.763125 0.902440 0.000000
0.900842 0.901031 0.000000
1.000000 0.899623 0.000000
0.000000 0.000000 0.076977
0.107347 0.000000 0.075568
0.245064 0.000000 0.074160
0.382781 0.000000 0.072751
0.520497 0.000000 0.071343
0.658214 0.000000 0.069934
0.795930 0.000000 0.068526
0.933647 0.000000 0.067117
1.000000 0.000000 0.065709
0.000000 0.087242 0.072830
0.103201 0.085834 0.071421
0.240917 0.084425 0.070013
0.378634 0.083017 0.068605
0.516350 0.081608 0.067196
0.654067 0.080200 0.065788
0.791783 0.078791 0.064379
0.929500 0.077383 0.062971
1.000000 0.075974 0.061562
0.000000 0.204854 0.068683
0.099054 0.203445 0.067275
0.236771 0.202037 0.065866
0.374487 0.200628 0.064458
0.512204 0.199220 0.063049
0.649920 0.197811 0.061641
0.787637 0.196403 0.060232
0.925353 0.194994 0.058824
1.000000 0.193586 0.057415
0.000000 0.322465 0.064537
0.094907 0.321056 0.063128
0.232624 0.319648 0.061720
0.370340 0.318239 0.060311
0.508057 0.316831 0.058903
0.645773 0.315422 0.057494
0.783490 0.314014 0.056086
0.921206 0.312606 0.054677
1.000000 0.311197 0.053269
0.000000 0.440076 0.060390
0.090761 0.438668 0.058981
0.228477 0.437259 0.057573
0.366194 0.435851 0.056164
0.503910 0.434442 0.054756
0.641627 0.433034 0.053347
0.779343 0.431625 0.051939
0.917060 0.430217 0.050530
1.000000 0.428808 0.049122
0.000000 0.557687 0.056243
0.086614 0.556279 0.054835
0.224330 0.554870 0.053426
0.362047 0.553462 0.052018
0.499763 0.552054 0.050609
0.637480 0.550645 0.049201
0.775196 0.549237 0.047792
0.912913 0.547828 0.046384
1.000000 0.546420 0.044975
0.000000 0.675299 0.052096
0.082467 0.673890 0.050688
0.220184 0.672482 0.049279
0.357900 0.671073 0.047871
0.495617 0.669665 0.046462
0.633333 0.668256 0.045054
0.771050 0.666848 0.043645
0.908766 0.665439 0.042237
1.000000 0.664031 0.040829
0.000000 0.792910 0.047950
0.078320 0.791502 0.046541
0.216037 0.790093 0.045133
0.353753 0.788685 0.043724
0.491470 0.787276 0.042316
0.629186 0.785868 0.040907
0.766903 0.784459 0.039499
0.904619 0.783051 0.038090
1.000000 0.781642 0.036682
0.000000 0.910521 0.043803
0.074174 0.909113 0.042394
0.211890 0.907704 0.040986
0.349607 0.906296 0.039577
0.487323 0.904887 0.038169
0.625040 0.903479 0.036760
0.762756 0.902070 0.035352
0.900473 0.900662 0.033944
1.000000 0.899254 0.032535
0.000000 0.000000 0.183953
0.106978 0.000000 0.182545
0.244695 0.000000 0.181136
0.382411 0.000000 0.179728
0.520128 0.000000 0.178319
0.657844 0.000000 0.176911
0.795561 0.000000 0.175503
0.933278 0.000000 0.174094
1.000000 0.000000 0.172686
0.000000 0.086873 0.179807
0.102832 0.085465 0.178398
0.240548 0.084056 0.176990
0.378265 0.082648 0.175581
0.515981 0.081239 0.174173
0.653698 0.079831 0.172764
0.791414 0.078422 0.171356
0.929131 0.077014 0.169947
1.000000 0.075605 0.168539
0.000000 0.204484 0.175660
0.098685 0.203076 0.174251
0.236401 0.201668 0.172843
0.374118 0.200259 0.171434
0.511835 0.198851 0.170026
0.649551 0.197442 0.168618
0.787268 0.196034 0.167209
0.924984 0.194625 0.165801
1.000000 0.193217 0.164392
0.000000 0.322096 0.171513
0.094538 0.320687 0.170105
0.232255 0.319279 0.168696
0.369971 0.317870 0.167288
0.507688 0.316462 0.165879
0.645404 0.315053 0.164471
0.783121 0.313645 0.163062
0.920837 0.312236 0.161654
1.000000 0.310828 0.160245
0.000000 0.439707 0.167366
0.090391 0.438299 0.165958
0.228108 0.436890 0.164550
0.365825 0.435482 0.163141
0.503541 0.434073 0.161733
0.641258 0.432665 0.160324
0.778974 0.431256 0.158916
0.916691 0.429848 0.157507
1.000000 0.428439 0.156099
0.000000 0.557318 0.163220
0.086245 0.555910 0.161811
0.223961 0.554501 0.160403
0.361678 0.553093 0.158994
0.499394 0.551684 0.157586
0.637111 0.550276 0.156177
0.774827 0.548868 0.154769
0.912544 0.547459 0.153360
1.000000 0.546051 0.151952
0.000000 0.674930 0.159073
0.082098 0.673521 0.157665
0.219815 0.672113 0.156256
0.357531 0.670704 0.154848
0.495248 0.669296 0.153439
0.632964 0.667887 0.152031
0.770681 0.666479 0.150622
0.908397 0.665070 0.149214
1.000000 0.663662 0.147805
0.000000 0.792541 0.154926
0.077951 0.791132 0.153518
0.215668 0.789724 0.152109
0.353384 0.788316 0.150701
0.491101 0.786907 0.149292
0.628817 0.785499 0.147884
0.766534 0.784090 0.146475
0.904250 0.782682 0.145067
1.000000 0.781273 0.143658
0.000000 0.910152 0.150780
0.073805 0.908744 0.149371
0.211521 0.907335 0.147963
0.349238 0.905927 0.146554
0.486954 0.904518 0.145146
0.624671 0.903110 0.143737
0.762387 0.901701 0.142329
0.900104 0.900293 0.140920
1.000000 0.898884 0.139512
0.000000 0.000000 0.290930
0.106609 0.000000 0.289522
0.244326 0.000000 0.288113
0.382042 0.000000 0.286705
0.519759 0.000000 0.285296
0.657475 0.000000 0.283888
0.795192 0.000000 0.282479
0.932908 0.000000 0.281071
1.000000 0.000000 0.279662
0.000000 0.086504 0.286783
0.102463 0.085096 0.285375
0.240179 0.083687 0.283966
0.377896 0.082279 0.282558
0.515612 0.080870 0.281149
0.653329 0.079462 0.279741
0.791045 0.078053 0.278332
0.928762 0.076645 0.276924
1.000000 0.075236 0.275516
0.000000 0.204115 0.282637
0.098316 0.202707 0.281228
0.236032 0.201298 0.279820
0.373749 0.199890 0.278411
0.511465 0.198482 0.277003
0.649182 0.197073 0.275594
0.786898 0.195665 0.274186
0.924615 0.194256 0.272777
1.000000 0.192848 0.271369
0.000000 0.321727 0.278490
0.094169 0.320318 0.277081
0.231886 0.318910 0.275673
0.369602 0.317501 0.274264
0.507319 0.316093 0.272856
0.645035 0.314684 0.271448
0.782752 0.313276 0.270039
0.920468 0.311867 0.268631
1.000000 0.310459 0.267222
0.000000 0.439338 0.274343
0.090022 0.437930 0.272935
0.227739 0.436521 0.271526
0.365455 0.435113 0.270118
0.503172 0.433704 0.268709
0.640889 0.432296 0.267301
0.778605 0.430887 0.265892
0.916322 0.429479 0.264484
1.000000 0.428070 0.263075
0.000000 0.556949 0.270196
0.085876 0.555541 0.268788
0.223592 0.554132 0.267379
0.361309 0.552724 0.265971
0.499025 0.551315 0.264563
0.636742 0.549907 0.263154
0.774458 0.548498 0.261746
0.912175 0.547090 0.260337
1.000000 0.545682 0.258929
0.000000 0.674561 0.266050
0.081729 0.673152 0.264641
0.219445 0.671744 0.263233
0.357162 0.670335 0.261824
0.494879 0.668927 0.260416
0.632595 0.667518 0.259007
0.770312 0.666110 0.257599
0.908028 0.664701 0.256190
1.000000 0.663293 0.254782
0.000000 0.792172 0.261903
0.077582 0.790763 0.260494
0.215299 0.789355 0.259086
0.353015 0.787946 0.257678
0.490732 0.786538 0.256269
0.628448 0.785130 0.254861
0.766165 0.783721 0.253452
0.903881 0.782313 0.252044
1.000000 0.780904 0.250635
0.000000 0.909783 0.257756
0.073435 0.908375 0.256348
0.211152 0.906966 0.254939
0.348869 0.905558 0.253531
0.486585 0.904149 0.252122
0.624302 0.902741 0.250714
0.762018 0.901332 0.249305
0.899735 0.899924 0.247897
1.000000 0.898515 0.246488
0.000000 0.000000 0.397907
0.106240 0.000000 0.396498
0.243957 0.000000 0.395090
0.381673 0.000000 0.393681
0.519390 0.000000 0.392273
0.657106 0.000000 0.390864
0.794823 0.000000 0.389456
0.932539 0.000000 0.388047
1.000000 0.000000 0.386639
0.000000 0.086135 0.393760
0.102094 0.084727 0.392352
0.239810 0.083318 0.390943
0.377527 0.081910 0.389535
0.515243 0.080501 0.388126
0.652960 0.079093 0.386718
0.790676 0.077684 0.385309
0.928393 0.076276 0.383901
1.000000 0.074867 0.382492
0.000000 0.203746 0.389613
0.097947 0.202338 0.388205
0.235663 0.200929 0.386796
0.373380 0.199521 0.385388
0.511096 0.198112 0.383979
0.648813 0.196704 0.382571
0.786529 0.195295 0.381162
0.924246 0.193887 0.379754
1.000000 0.192479 0.378346
0.000000 0.321358 0.385467
0.093800 0.319949 0.384058
0.231517 0.318541 0.382650
0.369233 0.317132 0.381241
0.506950 0.315724 0.379833
0.644666 0.314315 0.378424
0.782383 0.312907 0.377016
0.920099 0.311498 0.375607
1.000000 0.310090 0.374199
0.000000 0.438969 0.381320
0.089653 0.437560 0.379911
0.227370 0.436152 0.378503
0.365086 0.434744 0.377094
0.502803 0.433335 0.375686
0.640519 0.431927 0.374277
0.778236 0.430518 0.372869
0.915952 0.429110 0.371461
1.000000 0.427701 0.370052
0.000000 0.556580 0.377173
0.085507 0.555172 0.375765
0.223223 0.553763 0.374356
0.360940 0.552355 0.372948
0.498656 0.550946 0.371539
0.636373 0.549538 0.370131
0.774089 0.548129 0.368722
0.911806 0.546721 0.367314
1.000000 0.545312 0.365905
0.000000 0.674192 0.373026
0.081360 0.672783 0.371618
0.219076 0.671375 0.370209
0.356793 0.669966 0.368801
0.494509 0.668558 0.367392
0.632226 0.667149 0.365984
0.769943 0.665741 0.364576
0.907659 0.664332 0.363167
1.000000 0.662924 0.361759
0.000000 0.791803 0.368880
0.077213 0.790394 0.367471
0.214930 0.788986 0.366063
0.352646 0.787577 0.364654
0.490363 0.786169 0.363246
0.628079 0.784760 0.361837
0.765796 0.783352 0.360429
0.903512 0.781944 0.359020
1.000000 0.780535 0.357612
0.000000 0.909414 0.364733
0.073066 0.908006 0.363324
0.210783 0.906597 0.361916
0.348499 0.905189 0.360507
0.486216 0.903780 0.359099
0.623933 0.902372 0.357691
0.761649 0.900963 0.356282
0.899366 0.899555 0.354874
1.000000 0.898146 0.353465
0.000000 0.000000 0.504883
0.105871 0.000000 0.503475
0.243588 0.000000 0.502067
0.381304 0.000000 0.500658
0.519021 0.000000 0.499250
0.656737 0.000000 0.497841
0.794454 0.000000 0.496433
0.932170 0.000000 0.495024
1.000000 0.000000 0.493616
0.000000 0.085766 0.500737
0.101724 0.084358 0.499328
0.239441 0.082949 0.497920
0.377158 0.081541 0.496511
0.514874 0.080132 0.495103
0.652591 0.078724 0.493694
0.790307 0.077315 0.492286
0.928024 0.075907 0.490877
1.000000 0.074498 0.489469
0.000000 0.203377 0.496590
0.097578 0.201969 0.495182
0.235294 0.200560 0.493773
0.373011 0.199152 0.492365
0.510727 0.197743 0.490956
0.648444 0.196335 0.489548
0.786160 0.194926 0.488139
0.923877 0.193518 0.486731
1.000000 0.192109 0.485322
0.000000 0.320989 0.492443
0.093431 0.319580 0.491035
0.231148 0.318172 0.489626
0.368864 0.316763 0.488218
0.506581 0.315355 0.486809
0.644297 0.313946 0.485401
0.782014 0.312538 0.483992
0.919730 0.311129 0.482584
1.000000 0.309721 0.481175
0.000000 0.438600 0.488297
0.089284 0.437191 0.486888
0.227001 0.435783 0.485480
0.364717 0.434374 0.484071
0.502434 0.432966 0.482663
0.640150 0.431557 0.481254
0.777867 0.430149 0.479846
0.915583 0.428741 0.478437
1.000000 0.427332 0.477029
0.000000 0.556211 0.484150
0.085138 0.554803 0.482741
0.222854 0.553394 0.481333
0.360571 0.551986 0.479924
0.498287 0.550577 0.478516
0.636004 0.549169 0.477107
0.773720 0.547760 0.475699
0.911437 0.546352 0.474290
1.000000 0.544943 0.472882
0.000000 0.673822 0.480003
0.080991 0.672414 0.478595
0.218707 0.671006 0.477186
0.356424 0.669597 0.475778
0.494140 0.668189 0.474369
0.631857 0.666780 0.472961
0.769573 0.665372 0.471552
0.907290 0.663963 0.470144
1.000000 0.662555 0.468735
0.000000 0.791434 0.475856
0.076844 0.790025 0.474448
0.214561 0.788617 0.473039
0.352277 0.787208 0.471631
0.489994 0.785800 0.470222
0.627710 0.784391 0.468814
0.765427 0.782983 0.467405
0.903143 0.781574 0.465997
1.000000 0.780166 0.464589
0.000000 0.909045 0.471710
0.072697 0.907637 0.470301
0.210414 0.906228 0.468893
0.348130 0.904820 0.467484
0.485847 0.903411 0.466076
0.623563 0.902003 0.464667
0.761280 0.900594 0.463259
0.898997 0.899186 0.461850
1.000000 0.897777 0.460442
0.000000 0.000000 0.611860
0.105502 0.000000 0.610452
0.243219 0.000000 0.609043
0.380935 0.000000 0.607635
0.518652 0.000000 0.606226
0.656368 0.000000 0.604818
0.794085 0.000000 0.603409
0.931801 0.000000 0.602001
1.000000 0.000000 0.600592
0.000000 0.085397 0.607713
0.101355 0.083988 0.606305
0.239072 0.082580 0.604896
0.376788 0.081171 0.603488
0.514505 0.079763 0.602080
0.652222 0.078355 0.600671
0.789938 0.076946 0.599263
0.927655 0.075538 0.597854
1.000000 0.074129 0.596446
0.000000 0.203008 0.603567
0.097209 0.201600 0.602158
0.234925 0.200191 0.600750
0.372642 0.198783 0.599341
0.510358 0.197374 0.597933
0.648075 0.195966 0.596524
0.785791 0.194557 0.595116
0.923508 0.193149 0.593707
1.000000 0.191740 0.592299
0.000000 0.320620 0.599420
0.093062 0.319211 0.598011
0.230778 0.317803 0.596603
0.368495 0.316394 0.595195
0.506212 0.314986 0.593786
0.643928 0.313577 0.592378
0.781645 0.312169 0.590969
0.919361 0.310760 0.589561
1.000000 0.309352 0.588152
0.000000 0.438231 0.595273
0.088915 0.436822 0.593865
0.226632 0.435414 0.592456
0.364348 0.434005 0.591048
0.502065 0.432597 0.589639
0.639781 0.431188 0.588231
0.777498 0.429780 0.586822
0.915214 0.428371 0.585414
1.000000 0.426963 0.584005
0.000000 0.555842 0.591126
0.084768 0.554434 0.589718
0.222485 0.553025 0.588310
0.360202 0.551617 0.586901
0.497918 0.550208 0.585493
0.635635 0.548800 0.584084
0.773351 0.547391 0.582676
0.911068 0.545983 0.581267
1.000000 0.544574 0.579859
0.000000 0.673453 0.586980
0.080622 0.672045 0.585571
0.218338 0.670636 0.584163
0.356055 0.669228 0.582754
0.493771 0.667820 0.581346
0.631488 0.666411 0.579937
0.769204 0.665003 0.578529
0.906921 0.663594 0.577120
1.000000 0.662186 0.575712
0.000000 0.791065 0.582833
0.076475 0.789656 0.581425
0.214192 0.788248 0.580016
0.351908 0.786839 0.578608
0.489625 0.785431 0.577199
0.627341 0.784022 0.575791
0.765058 0.782614 0.574382
0.902774 0.781205 0.572974
1.000000 0.779797 0.571565
0.000000 0.908676 0.578686
0.072328 0.907268 0.577278
0.210045 0.905859 0.575869
0.347761 0.904451 0.574461
0.485478 0.903042 0.573052
0.623194 0.901634 0.571644
0.760911 0.900225 0.570235
0.898627 0.898817 0.568827
1.000000 0.897408 0.567419
0.000000 0.000000 0.718837
0.105133 0.000000 0.717428
0.242850 0.000000 0.716020
0.380566 0.000000 0.714611
0.518283 0.000000 0.713203
0.655999 0.000000 0.711794
0.793716 0.000000 0.710386
0.931432 0.000000 0.708978
1.000000 0.000000 0.707569
0.000000 0.085028 0.714690
0.100986 0.083619 0.713282
0.238703 0.082211 0.711873
0.376419 0.080802 0.710465
0.514136 0.079394 0.709056
0.651852 0.077985 0.707648
0.789569 0.076577 0.706239
0.927285 0.075169 0.704831
1.000000 0.073760 0.703422
0.000000 0.202639 0.710543
0.096840 0.201231 0.709135
0.234556 0.199822 0.707726
0.372273 0.198414 0.706318
0.509989 0.197005 0.704909
0.647706 0.195597 0.703501
0.785422 0.194188 0.702093
0.923139 0.192780 0.700684
1.000000 0.191371 0.699276
0.000000 0.320250 0.706397
0.092693 0.318842 0.704988
0.230409 0.317433 0.703580
0.368126 0.316025 0.702171
0.505842 0.314617 0.700763
0.643559 0.313208 0.699354
0.781276 0.311800 0.697946
0.918992 0.310391 0.696537
1.000000 0.308983 0.695129
0.000000 0.437862 0.702250
0.088546 0.436453 0.700841
0.226263 0.435045 0.699433
0.363979 0.433636 0.698024
0.501696 0.432228 0.696616
0.639412 0.430819 0.695208
0.777129 0.429411 0.693799
0.914845 0.428002 0.692391
1.000000 0.426594 0.690982
0.000000 0.555473 0.698103
0.084399 0.554065 0.696695
0.222116 0.552656 0.695286
0.359832 0.551248 0.693878
0.497549 0.549839 0.692469
0.635266 0.548431 0.691061
0.772982 0.547022 0.689652
0.910699 0.545614 0.688244
1.000000 0.544205 0.686835
0.000000 0.673084 0.693956
0.080253 0.671676 0.692548
0.217969 0.670267 0.691140
0.355686 0.668859 0.689731
0.493402 0.667450 0.688323
0.631119 0.666042 0.686914
0.768835 0.664633 0.685506
0.906552 0.663225 0.684097
1.000000 0.661817 0.682689
0.000000 0.790696 0.689810
0.076106 0.789287 0.688401
0.213822 0.787879 0.686993
0.351539 0.786470 0.685584
0.489256 0.785062 0.684176
0.626972 0.783653 0.682767
0.764689 0.782245 0.681359
0.902405 0.780836 0.679950
1.000000 0.779428 0.678542
0.000000 0.908307 0.685663
0.071959 0.906898 0.684255
0.209676 0.905490 0.682846
0.347392 0.904082 0.681438
0.485109 0.902673 0.680029
0.622825 0.901265 0.678621
0.760542 0.899856 0.677212
0.898258 0.898448 0.675804
1.000000 0.897039 0.674395
0.000000 0.000000 0.825814
0.104764 0.000000 0.824405
0.242481 0.000000 0.822997
0.380197 0.000000 0.821588
0.517914 0.000000 0.820180
0.655630 0.000000 0.818771
0.793347 0.000000 0.817363
0.931063 0.000000 0.815954
1.000000 0.000000 0.814546
0.000000 0.084659 0.821667
0.100617 0.083250 0.820258
0.238334 0.081842 0.818850
0.376050 0.080433 0.817441
0.513767 0.079025 0.816033
0.651483 0.077616 0.814624
0.789200 0.076208 0.813216
0.926916 0.074799 0.811807
1.000000 0.073391 0.810399
0.000000 0.202270 0.817520
0.096471 0.200862 0.816112
0.234187 0.199453 0.814703
0.371904 0.198045 0.813295
0.509620 0.196636 0.811886
0.647337 0.195228 0.810478
0.785053 0.193819 0.809069
0.922770 0.192411 0.807661
1.000000 0.191002 0.806252
0.000000 0.319881 0.813373
0.092324 0.318473 0.811965
0.230040 0.317064 0.810556
0.367757 0.315656 0.809148
0.505473 0.314247 0.807739
0.643190 0.312839 0.806331
0.780906 0.311431 0.804922
0.918623 0.310022 0.803514
1.000000 0.308614 0.802106
0.000000 0.437493 0.809227
0.088177 0.436084 0.807818
0.225894 0.434676 0.806410
0.363610 0.433267 0.805001
0.501327 0.431859 0.803593
0.639043 0.430450 0.802184
0.776760 0.429042 0.800776
0.914476 0.427633 0.799367
1.000000 0.426225 0.797959
0.000000 0.555104 0.805080
0.084030 0.553696 0.803671
0.221747 0.552287 0.802263
0.359463 0.550879 0.800854
0.497180 0.549470 0.799446
0.634896 0.548062 0.798038
0.772613 0.546653 0.796629
0.910330 0.545245 0.795221
1.000000 0.543836 0.793812
0.000000 0.672715 0.800933
0.079884 0.671307 0.799525
0.217600 0.669898 0.798116
0.355317 0.668490 0.796708
0.493033 0.667081 0.795299
0.630750 0.665673 0.793891
0.768466 0.664264 0.792482
0.906183 0.662856 0.791074
1.000000 0.661447 0.789665
0.000000 0.790327 0.796786
0.075737 0.788918 0.795378
0.213453 0.787510 0.793969
0.351170 0.786101 0.792561
0.488886 0.784693 0.791153
0.626603 0.783284 0.789744
0.764320 0.781876 0.788336
0.902036 0.780467 0.786927
1.000000 0.779059 0.785519
0.000000 0.907938 0.792640
0.071590 0.906529 0.791231
0.209307 0.905121 0.789823
0.347023 0.903712 0.788414
0.484740 0.902304 0.787006
0.622456 0.900896 0.785597
0.760173 0.899487 0.784189
0.897889 0.898079 0.782780
1.000000 0.896670 0.781372
