assets/lighting/cinematic/grade-arctic-night/lut.cube
TITLE "Arctic Night"
# TKRS lighting-batch-001 original LUT
# Intended usage: polar night deep blue, very low sat
# License: CC0-1.0
LUT_3D_SIZE 17
DOMAIN_MIN 0.0 0.0 0.0
DOMAIN_MAX 1.0 1.0 1.0
0.000000 0.000000 0.000000
0.000000 0.000000 0.000000
0.000000 0.000000 0.000000
0.010300 0.000000 0.000000
0.031806 0.000000 0.000000
0.053312 0.000000 0.000000
0.074818 0.000000 0.000000
0.096325 0.000000 0.000000
0.117831 0.000000 0.000000
0.139337 0.000000 0.000000
0.160843 0.000000 0.000000
0.182349 0.000000 0.000000
0.203855 0.000000 0.000000
0.225361 0.000000 0.000000
0.246867 0.000000 0.000000
0.268373 0.002427 0.002770
0.289879 0.006336 0.007233
0.000000 0.000000 0.000000
0.000000 0.000000 0.000000
0.002087 0.000000 0.000000
0.023593 0.000000 0.000000
0.045099 0.000000 0.000000
0.066605 0.000000 0.000000
0.088111 0.000294 0.000000
0.109617 0.004203 0.000000
0.131123 0.008112 0.000000
0.152629 0.012020 0.000000
0.174135 0.015929 0.000000
0.195641 0.019838 0.000652
0.217147 0.023747 0.005114
0.238653 0.027656 0.009577
0.260159 0.031565 0.014039
0.281665 0.035474 0.018502
0.303171 0.039383 0.022964
0.000000 0.009888 0.000000
0.000000 0.013796 0.000000
0.015379 0.017705 0.000000
0.036885 0.021614 0.000000
0.058391 0.025523 0.000000
0.079897 0.029432 0.000000
0.101403 0.033341 0.000000
0.122909 0.037250 0.000000
0.144415 0.041159 0.002996
0.165921 0.045068 0.007458
0.187427 0.048977 0.011921
0.208933 0.052886 0.016383
0.230439 0.056795 0.020846
0.251945 0.060704 0.025308
0.273451 0.064613 0.029771
0.295344 0.068629 0.034275
0.318061 0.072867 0.038876
0.000000 0.042935 0.000000
0.007165 0.046844 0.000000
0.028671 0.050753 0.000000
0.050177 0.054662 0.000000
0.071683 0.058571 0.000877
0.093189 0.062480 0.005340
0.114695 0.066389 0.009802
0.136201 0.070298 0.014265
0.157707 0.074207 0.018727
0.179213 0.078116 0.023190
0.200720 0.082025 0.027652
0.222227 0.085935 0.032115
0.244506 0.090183 0.036685
0.267164 0.094564 0.041315
0.290127 0.099035 0.045998
0.313383 0.103587 0.050732
0.336931 0.108216 0.055519
0.000000 0.075983 0.000000
0.020457 0.079892 0.003221
0.041963 0.083801 0.007684
0.063469 0.087710 0.012146
0.084975 0.091619 0.016609
0.106481 0.095528 0.021071
0.127988 0.099437 0.025534
0.149494 0.103346 0.029997
0.171252 0.107444 0.034506
0.193517 0.111860 0.039110
0.216067 0.116390 0.043768
0.238889 0.121013 0.048478
0.261986 0.125720 0.053240
0.285361 0.130508 0.058055
0.309019 0.135375 0.062924
0.332963 0.140320 0.067848
0.357199 0.145341 0.072827
0.012243 0.109031 0.014490
0.033750 0.112940 0.018953
0.055256 0.116849 0.023415
0.076762 0.120757 0.027878
0.098278 0.124682 0.032344
0.120177 0.129092 0.036917
0.142337 0.133667 0.041550
0.164746 0.138352 0.046236
0.187408 0.143131 0.050973
0.210330 0.147999 0.055763
0.233520 0.152951 0.060606
0.256983 0.157985 0.065503
0.280726 0.163100 0.070456
0.304755 0.168295 0.075465
0.329073 0.173570 0.080531
0.353687 0.178923 0.085655
0.378600 0.184356 0.090837
0.025536 0.142078 0.030222
0.047119 0.146274 0.034737
0.068922 0.150873 0.039344
0.090939 0.155609 0.044005
0.113184 0.160453 0.048717
0.135670 0.165394 0.053482
0.158405 0.170427 0.058300
0.181399 0.175547 0.063172
0.204659 0.180752 0.068098
0.228192 0.186041 0.073080
0.252005 0.191413 0.078119
0.276103 0.196867 0.083215
0.300491 0.202403 0.088369
0.325175 0.208020 0.093582
0.350159 0.213718 0.098855
0.375448 0.219498 0.104189
0.401045 0.225360 0.109583
0.039305 0.177690 0.046474
0.061369 0.182699 0.051214
0.083664 0.187806 0.056006
0.106201 0.193008 0.060852
0.128989 0.198299 0.065752
0.152037 0.203679 0.070708
0.175353 0.209145 0.075720
0.198944 0.214697 0.080788
0.222815 0.220333 0.085915
0.246972 0.226053 0.091100
0.271421 0.231857 0.096345
0.296166 0.237745 0.101649
0.321212 0.243716 0.107015
0.346564 0.249771 0.112441
0.372224 0.255909 0.117930
0.398199 0.262130 0.123481
0.424490 0.268436 0.129096
0.053710 0.215745 0.063419
0.076284 0.221211 0.068349
0.099112 0.226768 0.073334
0.122204 0.232415 0.078375
0.145566 0.238149 0.083474
0.169204 0.243970 0.088631
0.193125 0.249877 0.093848
0.217333 0.255870 0.099123
0.241835 0.261949 0.104460
0.266634 0.268114 0.109857
0.291735 0.274364 0.115317
0.317143 0.280699 0.120838
0.342862 0.287119 0.126423
0.368894 0.293625 0.132071
0.395245 0.300217 0.137783
0.421917 0.306894 0.143559
0.448914 0.313656 0.149401
0.068739 0.255852 0.081046
0.091866 0.261771 0.086176
0.115266 0.267779 0.091364
0.138945 0.273876 0.096611
0.162908 0.280061 0.101919
0.187161 0.286333 0.107287
0.211709 0.292693 0.112717
0.236556 0.299140 0.118209
0.261707 0.305675 0.123764
0.287166 0.312296 0.129381
0.312937 0.319004 0.135063
0.339023 0.325800 0.140809
0.365428 0.332682 0.146620
0.392156 0.339652 0.152496
0.419209 0.346709 0.158438
0.446592 0.353854 0.164447
0.474306 0.361086 0.170523
0.084428 0.298052 0.099392
0.108141 0.304431 0.104731
0.132141 0.310899 0.110132
0.156433 0.317456 0.115594
0.181023 0.324102 0.121119
0.205913 0.330837 0.126707
0.231108 0.337661 0.132358
0.256613 0.344573 0.138073
0.282432 0.351574 0.143853
0.308567 0.358664 0.149698
0.335022 0.365843 0.155609
0.361801 0.373110 0.161586
0.388907 0.380466 0.167630
0.416343 0.387911 0.173741
0.444113 0.395446 0.179919
0.472218 0.403069 0.186166
0.500661 0.410782 0.192480
0.100804 0.342403 0.118488
0.125131 0.349250 0.124046
0.149757 0.356188 0.129667
0.174686 0.363216 0.135352
0.199922 0.370334 0.141101
0.225469 0.377542 0.146915
0.251330 0.384841 0.152795
0.277511 0.392230 0.158741
0.304012 0.399709 0.164753
0.330839 0.407278 0.170831
0.357994 0.414937 0.176978
0.385480 0.422687 0.183192
0.413300 0.430528 0.189474
0.441458 0.438459 0.195825
0.469955 0.446481 0.202245
0.498794 0.454593 0.208734
0.527978 0.462797 0.215294
0.117895 0.388962 0.138364
0.142859 0.396288 0.144147
0.168131 0.403705 0.149996
0.193717 0.411214 0.155910
0.219618 0.418814 0.161890
0.245840 0.426506 0.167937
0.272385 0.434289 0.174051
0.299256 0.442164 0.180233
0.326456 0.450131 0.186483
0.353989 0.458190 0.192801
0.381857 0.466340 0.199188
0.410063 0.474583 0.205645
0.438610 0.482917 0.212171
0.467500 0.491344 0.218767
0.496737 0.499863 0.225434
0.526321 0.508475 0.232171
0.556257 0.517179 0.238980
0.135722 0.437783 0.159043
0.161343 0.445597 0.165058
0.187281 0.453503 0.171140
0.213541 0.461502 0.177290
0.240126 0.469594 0.183508
0.267038 0.477779 0.189793
0.294281 0.486057 0.196148
0.321857 0.494428 0.202571
0.349770 0.502893 0.209064
0.378023 0.511450 0.215627
0.406617 0.520101 0.222260
0.435555 0.528845 0.228964
0.464841 0.537683 0.235739
0.494476 0.546614 0.242585
0.524462 0.555639 0.249503
0.554803 0.564758 0.256493
0.585500 0.573971 0.263555
0.154307 0.488918 0.180547
0.180602 0.497228 0.186801
0.207223 0.505632 0.193122
0.234174 0.514131 0.199513
0.261456 0.522724 0.205973
0.289074 0.531411 0.212503
0.317029 0.540192 0.219102
0.345325 0.549068 0.225773
0.373964 0.558038 0.232514
0.402948 0.567103 0.239326
0.432280 0.576263 0.246210
0.461963 0.585518 0.253165
0.491998 0.594867 0.260193
0.522388 0.604311 0.267294
0.553136 0.613851 0.274468
0.584242 0.623486 0.281714
0.613236 0.630308 0.287944
0.173666 0.542411 0.202898
0.200652 0.551227 0.209394
0.227972 0.560138 0.215961
0.255628 0.569145 0.222597
0.283623 0.578247 0.229305
0.311960 0.587445 0.236083
0.340640 0.596738 0.242933
0.369668 0.606127 0.249854
0.399044 0.615612 0.256848
0.428772 0.625192 0.263914
0.458854 0.634869 0.271053
0.489291 0.644642 0.278265
0.519529 0.653708 0.285263
0.547237 0.658961 0.290912
0.574945 0.664215 0.296560
0.602653 0.669468 0.302209
0.630361 0.674722 0.307858
0.193817 0.598309 0.226112
0.221509 0.607638 0.232856
0.249541 0.617064 0.239672
0.277917 0.626587 0.246560
0.306637 0.636206 0.253519
0.335706 0.645923 0.260551
0.365124 0.655736 0.267655
0.394895 0.665646 0.274832
0.425021 0.675653 0.282083
0.453530 0.682362 0.288230
0.481238 0.687615 0.293879
0.508946 0.692868 0.299528
0.536654 0.698122 0.305176
0.564362 0.703375 0.310825
0.592071 0.708629 0.316474
0.619779 0.713882 0.322123
0.647487 0.719135 0.327771
0.000000 0.000000 0.000000
0.000000 0.000000 0.000000
0.000000 0.000000 0.000000
0.011784 0.000000 0.000000
0.033290 0.000000 0.000000
0.054796 0.000000 0.000000
0.076302 0.000000 0.000000
0.097808 0.000000 0.000000
0.119315 0.000000 0.000000
0.140821 0.000000 0.002077
0.162327 0.000000 0.006539
0.183833 0.000000 0.011002
0.205339 0.000000 0.015464
0.226845 0.000000 0.019927
0.248351 0.000056 0.024389
0.269857 0.003965 0.028852
0.291363 0.007874 0.033314
0.000000 0.000000 0.000000
0.000000 0.000000 0.000000
0.003570 0.000000 0.000000
0.025077 0.000000 0.000000
0.046583 0.000000 0.000000
0.068089 0.000000 0.000000
0.089595 0.001832 0.004421
0.111101 0.005741 0.008883
0.132607 0.009650 0.013346
0.154113 0.013559 0.017808
0.175619 0.017468 0.022271
0.197125 0.021377 0.026733
0.218631 0.025286 0.031196
0.240137 0.029195 0.035658
0.261643 0.033104 0.040121
0.283149 0.037013 0.044584
0.304655 0.040922 0.049046
0.000000 0.011426 0.000000
0.000000 0.015335 0.000000
0.016863 0.019244 0.002302
0.038369 0.023153 0.006765
0.059875 0.027062 0.011227
0.081381 0.030971 0.015690
0.102887 0.034880 0.020152
0.124393 0.038789 0.024615
0.145899 0.042698 0.029077
0.167405 0.046607 0.033540
0.188911 0.050516 0.038003
0.210417 0.054425 0.042465
0.231923 0.058333 0.046928
0.253429 0.062242 0.051390
0.274935 0.066151 0.055853
0.297237 0.070285 0.060464
0.320077 0.074560 0.065178
0.000000 0.044474 0.009109
0.008649 0.048383 0.013571
0.030155 0.052292 0.018034
0.051661 0.056201 0.022496
0.073167 0.060109 0.026959
0.094673 0.064018 0.031421
0.116179 0.067927 0.035884
0.137685 0.071836 0.040347
0.159191 0.075745 0.044809
0.180697 0.079654 0.049272
0.202203 0.083563 0.053734
0.223944 0.087582 0.058253
0.246372 0.091895 0.062932
0.269124 0.096314 0.067679
0.292170 0.100817 0.072487
0.315506 0.105400 0.077353
0.339132 0.110058 0.082278
0.000435 0.077521 0.024840
0.021941 0.081430 0.029303
0.043447 0.085339 0.033766
0.064953 0.089248 0.038228
0.086459 0.093157 0.042691
0.107965 0.097066 0.047153
0.129472 0.100975 0.051616
0.150978 0.104884 0.056078
0.172979 0.109165 0.060701
0.195331 0.113631 0.065418
0.217957 0.118199 0.070197
0.240853 0.122856 0.075036
0.264023 0.127595 0.079933
0.287472 0.132414 0.084888
0.311203 0.137312 0.089901
0.335223 0.142287 0.094973
0.359534 0.147338 0.100104
0.013727 0.110569 0.040572
0.035233 0.114478 0.045035
0.056740 0.118387 0.049497
0.078246 0.122296 0.053960
0.099872 0.126387 0.058488
0.121855 0.130878 0.063170
0.144082 0.135499 0.067921
0.166557 0.140222 0.072731
0.189286 0.145037 0.077601
0.212276 0.149938 0.082528
0.235535 0.154922 0.087514
0.259069 0.159989 0.092558
0.282884 0.165135 0.097661
0.306985 0.170362 0.102823
0.331377 0.175667 0.108046
0.356066 0.181052 0.113329
0.381055 0.186516 0.118674
0.027020 0.143617 0.056304
0.048674 0.148064 0.060938
0.070531 0.152723 0.065658
0.092605 0.157503 0.070440
0.114909 0.162387 0.075282
0.137456 0.167364 0.080182
0.160255 0.172432 0.085140
0.183315 0.177585 0.090156
0.206642 0.182824 0.095231
0.230244 0.188145 0.100365
0.254127 0.193550 0.105559
0.278297 0.199036 0.110813
0.302758 0.204604 0.116129
0.327516 0.210253 0.121506
0.352575 0.215983 0.126945
0.377939 0.221795 0.132447
0.403613 0.227689 0.138012
0.040883 0.179649 0.072976
0.063002 0.184698 0.077848
0.085354 0.189843 0.082779
0.107951 0.195080 0.087767
0.130802 0.200406 0.092814
0.153915 0.205820 0.097920
0.177297 0.211320 0.103086
0.200955 0.216905 0.108311
0.224896 0.222574 0.113598
0.249124 0.228327 0.118945
0.273645 0.234164 0.124355
0.298463 0.240085 0.129827
0.323583 0.246089 0.135362
0.349010 0.252176 0.140960
0.374747 0.258347 0.146623
0.400799 0.264602 0.152350
0.427168 0.270940 0.158143
0.055356 0.217885 0.090411
0.077990 0.223388 0.095489
0.100881 0.228980 0.100626
0.124036 0.234661 0.105823
0.147464 0.240429 0.111080
0.171170 0.246284 0.116399
0.195159 0.252226 0.121779
0.219438 0.258253 0.127221
0.244011 0.264365 0.132726
0.268883 0.270563 0.138295
0.294058 0.276847 0.143927
0.319541 0.283216 0.149623
0.345336 0.289670 0.155385
0.371445 0.296209 0.161211
0.397874 0.302834 0.167104
0.424624 0.309545 0.173063
0.451701 0.316341 0.179088
0.070457 0.258171 0.108577
0.093648 0.264125 0.113866
0.117114 0.270168 0.119217
0.140860 0.276300 0.124630
0.164892 0.282519 0.130105
0.189215 0.288826 0.135643
0.213834 0.295220 0.141245
0.238754 0.301702 0.146911
0.263978 0.308270 0.152641
0.289512 0.314926 0.158437
0.315358 0.321668 0.164298
0.341521 0.328498 0.170226
0.368004 0.335415 0.176219
0.394810 0.342419 0.182280
0.421943 0.349511 0.188409
0.449405 0.356690 0.194605
0.477201 0.363957 0.200869
0.086221 0.300552 0.127498
0.110002 0.306966 0.133006
0.134071 0.313469 0.138578
0.158433 0.320061 0.144213
0.183093 0.326742 0.149913
0.208056 0.333512 0.155678
0.233325 0.340371 0.161508
0.258904 0.347318 0.167403
0.284798 0.354354 0.173366
0.311010 0.361479 0.179395
0.337543 0.368692 0.185491
0.364400 0.375995 0.191655
0.391585 0.383386 0.197887
0.419101 0.390866 0.204188
0.446951 0.398435 0.210557
0.475137 0.406094 0.216996
0.503663 0.413842 0.223505
0.102676 0.345087 0.147199
0.127073 0.351970 0.152933
0.151770 0.358943 0.158732
0.176771 0.366007 0.164596
0.202081 0.373160 0.170527
0.227702 0.380404 0.176524
0.253639 0.387738 0.182588
0.279896 0.395162 0.188720
0.306475 0.402677 0.194920
0.333380 0.410281 0.201188
0.360614 0.417976 0.207525
0.388180 0.425762 0.213931
0.416081 0.433638 0.220406
0.444319 0.441605 0.226952
0.472898 0.449663 0.233567
0.501820 0.457811 0.240254
0.531087 0.466051 0.247011
0.119848 0.391834 0.167703
0.144884 0.399196 0.173669
0.170230 0.406649 0.179701
0.195890 0.414194 0.185801
0.221867 0.421830 0.191968
0.248165 0.429558 0.198204
0.274787 0.437378 0.204508
0.301736 0.445289 0.210881
0.329016 0.453292 0.217323
0.356628 0.461387 0.223835
0.384577 0.469573 0.230418
0.412864 0.477852 0.237071
0.441493 0.486223 0.243794
0.470466 0.494686 0.250589
0.499785 0.503241 0.257456
0.529454 0.511889 0.264395
0.559474 0.520630 0.271405
0.137759 0.440847 0.189032
0.163454 0.448697 0.195235
0.189468 0.456640 0.201507
0.215804 0.464676 0.207847
0.242466 0.472805 0.214256
0.269456 0.481026 0.220735
0.296778 0.489341 0.227284
0.324434 0.497748 0.233904
0.352428 0.506249 0.240594
0.380761 0.514843 0.247355
0.409437 0.523531 0.254187
0.438458 0.532312 0.261092
0.467827 0.541186 0.268068
0.497545 0.550155 0.275117
0.527616 0.559217 0.282239
0.558042 0.568373 0.289434
0.588825 0.577623 0.296702
0.156429 0.492177 0.211205
0.182801 0.500524 0.217651
0.209499 0.508966 0.224167
0.236528 0.517501 0.230752
0.263889 0.526131 0.237409
0.291587 0.534856 0.244136
0.319622 0.543674 0.250935
0.347999 0.552587 0.257805
0.376719 0.561595 0.264747
0.405786 0.570697 0.271762
0.435201 0.579894 0.278849
0.464968 0.589186 0.286009
0.495087 0.598573 0.293242
0.525563 0.608054 0.300549
0.556396 0.617632 0.307930
0.587439 0.627122 0.315310
0.615148 0.632375 0.320959
0.175876 0.545870 0.234240
0.202940 0.554723 0.240934
0.230339 0.563672 0.247698
0.258075 0.572716 0.254535
0.286150 0.581855 0.261442
0.314568 0.591091 0.268423
0.343330 0.600422 0.275475
0.372440 0.609848 0.282601
0.401900 0.619371 0.289799
0.431711 0.628989 0.297071
0.461877 0.638704 0.304417
0.492400 0.648515 0.311837
0.521441 0.655776 0.318278
0.549149 0.661029 0.323926
0.576857 0.666282 0.329575
0.604565 0.671536 0.335224
0.632273 0.676789 0.340873
0.196116 0.601969 0.258154
0.223888 0.611337 0.265100
0.252001 0.620801 0.272118
0.280457 0.630361 0.279209
0.309260 0.640019 0.286373
0.338411 0.649773 0.293610
0.367912 0.659624 0.300921
0.397767 0.669572 0.308305
0.427733 0.679176 0.315596
0.455442 0.684429 0.321245
0.483150 0.689683 0.326894
0.510858 0.694936 0.332542
0.538566 0.700189 0.338191
0.566274 0.705443 0.343840
0.593983 0.710696 0.349489
0.621691 0.715950 0.355137
0.649399 0.721203 0.360786
0.000000 0.000000 0.000000
0.000000 0.000000 0.000000
0.000000 0.000000 0.000000
0.013268 0.000000 0.001383
0.034774 0.000000 0.005846
0.056280 0.000000 0.010308
0.077786 0.000000 0.014771
0.099292 0.000000 0.019233
0.120799 0.000000 0.023696
0.142305 0.000000 0.028158
0.163811 0.000000 0.032621
0.185317 0.000000 0.037083
0.206823 0.000000 0.041546
0.228329 0.000000 0.046009
0.249835 0.001594 0.050471
0.271341 0.005503 0.054934
0.292847 0.009412 0.059396
0.000000 0.000000 0.003727
0.000000 0.000000 0.008190
0.005054 0.000000 0.012652
0.026560 0.000000 0.017115
0.048067 0.000000 0.021577
0.069573 0.000000 0.026040
0.091079 0.003370 0.030502
0.112585 0.007279 0.034965
0.134091 0.011188 0.039427
0.155597 0.015097 0.043890
0.177103 0.019006 0.048353
0.198609 0.022915 0.052815
0.220115 0.026824 0.057278
0.241621 0.030733 0.061740
0.263127 0.034642 0.066203
0.284633 0.038551 0.070665
0.306139 0.042460 0.075128
0.000000 0.012964 0.019459
0.000000 0.016873 0.023921
0.018347 0.020782 0.028384
0.039853 0.024691 0.032846
0.061359 0.028600 0.037309
0.082865 0.032509 0.041772
0.104371 0.036418 0.046234
0.125877 0.040327 0.050697
0.147383 0.044236 0.055159
0.168889 0.048145 0.059622
0.190395 0.052054 0.064084
0.211901 0.055963 0.068547
0.233407 0.059872 0.073009
0.254913 0.063781 0.077472
0.276599 0.067742 0.081984
0.299174 0.071957 0.086731
0.322120 0.076266 0.091564
0.000000 0.046012 0.035190
0.010133 0.049921 0.039653
0.031639 0.053830 0.044116
0.053145 0.057739 0.048578
0.074651 0.061648 0.053041
0.096157 0.065557 0.057503
0.117663 0.069466 0.061966
0.139169 0.073375 0.066428
0.160675 0.077284 0.070891
0.182181 0.081193 0.075353
0.203687 0.085102 0.079816
0.225731 0.089264 0.084464
0.248266 0.093623 0.089260
0.271104 0.098076 0.094132
0.294231 0.102611 0.099070
0.317645 0.107224 0.104073
0.341350 0.111912 0.109138
0.001919 0.079060 0.050922
0.023425 0.082969 0.055385
0.044931 0.086878 0.059847
0.066437 0.090787 0.064310
0.087943 0.094696 0.068772
0.109449 0.098605 0.073235
0.130955 0.102514 0.077697
0.152584 0.106524 0.082221
0.174732 0.110909 0.086973
0.197163 0.115418 0.091811
0.219863 0.120021 0.096718
0.242832 0.124711 0.101690
0.266075 0.129482 0.106726
0.289597 0.134333 0.111824
0.313402 0.139261 0.116985
0.337496 0.144266 0.122208
0.361884 0.149347 0.127493
0.015211 0.112107 0.066654
0.036717 0.116016 0.071116
0.058224 0.119925 0.075579
0.079730 0.123834 0.080041
0.101496 0.128135 0.084704
0.123547 0.132683 0.089505
0.145840 0.137346 0.094380
0.168381 0.142106 0.099322
0.191176 0.146955 0.104327
0.214235 0.151890 0.109396
0.237563 0.156907 0.114527
0.261168 0.162005 0.119720
0.285054 0.167183 0.124976
0.309228 0.172440 0.130295
0.333694 0.177777 0.135676
0.358458 0.183193 0.141122
0.383523 0.188688 0.146630
0.028531 0.145320 0.082458
0.050239 0.149881 0.087216
0.072150 0.154591 0.092057
0.094280 0.159413 0.096968
0.116644 0.164335 0.101943
0.139253 0.169348 0.106982
0.162116 0.174450 0.112083
0.185241 0.179637 0.117247
0.208636 0.184908 0.122473
0.232308 0.190263 0.127762
0.256261 0.195699 0.133114
0.280502 0.201217 0.138529
0.305036 0.206817 0.144007
0.329868 0.212498 0.149550
0.355002 0.218261 0.155157
0.380443 0.224105 0.160829
0.406194 0.230031 0.166566
0.042469 0.181624 0.099573
0.064643 0.186711 0.104582
0.087053 0.191893 0.109654
0.109710 0.197166 0.114788
0.132624 0.202527 0.119985
0.155802 0.207974 0.125244
0.179251 0.213508 0.130565
0.202977 0.219126 0.135950
0.226987 0.224828 0.141398
0.251286 0.230615 0.146911
0.275879 0.236485 0.152487
0.300771 0.242438 0.158128
0.325966 0.248475 0.163834
0.351469 0.254595 0.169606
0.377282 0.260799 0.175444
0.403411 0.267086 0.181349
0.429859 0.273458 0.187320
0.057010 0.220040 0.117510
0.079704 0.225578 0.122739
0.102658 0.231205 0.128031
0.125878 0.236921 0.133386
0.149372 0.242723 0.138804
0.173145 0.248612 0.144286
0.197204 0.254587 0.149832
0.221553 0.260648 0.155442
0.246198 0.266794 0.161117
0.271143 0.273026 0.166858
0.296392 0.279343 0.172665
0.321950 0.285746 0.178537
0.347821 0.292233 0.184477
0.374008 0.298806 0.190484
0.400514 0.305465 0.196558
0.427344 0.312210 0.202700
0.454500 0.319040 0.208911
0.072184 0.260503 0.136224
0.095439 0.266493 0.141675
0.118971 0.272571 0.147191
0.142784 0.278737 0.152771
0.166885 0.284991 0.158415
0.191279 0.291332 0.164125
0.215969 0.297761 0.169900
0.240962 0.304276 0.175741
0.266260 0.310879 0.181649
0.291869 0.317569 0.187624
0.317791 0.324346 0.193666
0.344031 0.331210 0.199776
0.370591 0.338161 0.205954
0.397476 0.345200 0.212200
0.424688 0.352326 0.218516
0.452231 0.359539 0.224901
0.480107 0.366841 0.231356
0.088023 0.303065 0.155727
0.111872 0.309514 0.161406
0.136010 0.316053 0.167150
0.160442 0.322680 0.172960
0.185174 0.329396 0.178836
0.210209 0.336201 0.184779
0.235552 0.343094 0.190789
0.261206 0.350077 0.196867
0.287176 0.357148 0.203012
0.313464 0.364307 0.209226
0.340074 0.371556 0.215509
0.367010 0.378893 0.221861
0.394275 0.386319 0.228283
0.421871 0.393834 0.234774
0.449801 0.401439 0.241336
0.478069 0.409133 0.247968
0.506677 0.416916 0.254672
0.104558 0.347785 0.176038
0.129025 0.354704 0.181949
0.153793 0.361712 0.187928
0.178867 0.368811 0.193973
0.204250 0.376000 0.200086
0.229946 0.383280 0.206268
0.255959 0.390649 0.212518
0.282292 0.398109 0.218837
0.308948 0.405659 0.225225
0.335932 0.413299 0.231684
0.363245 0.421030 0.238212
0.390891 0.428851 0.244811
0.418872 0.436763 0.251480
0.447192 0.444765 0.258221
0.475853 0.452859 0.265034
0.504858 0.461043 0.271918
0.534209 0.469319 0.278875
0.121811 0.394721 0.197176
0.146919 0.402118 0.203325
0.172339 0.409608 0.209542
0.198074 0.417188 0.215828
0.224126 0.424861 0.222184
0.250501 0.432625 0.228609
0.277200 0.440480 0.235104
0.304227 0.448428 0.241669
0.331586 0.456467 0.248305
0.359278 0.464598 0.255012
0.387307 0.472820 0.261791
0.415676 0.481135 0.268641
0.444387 0.489542 0.275563
0.473443 0.498042 0.282558
0.502845 0.506634 0.289625
0.532598 0.515318 0.296766
0.562703 0.524095 0.303980
0.139806 0.443926 0.219158
0.165575 0.451812 0.225550
0.191665 0.459792 0.232012
0.218077 0.467864 0.238544
0.244816 0.476029 0.245146
0.271885 0.484287 0.251819
0.299286 0.492639 0.258564
0.327022 0.501083 0.265380
0.355096 0.509621 0.272268
0.383510 0.518251 0.279228
0.412268 0.526976 0.286261
0.441372 0.535793 0.293367
0.470824 0.544705 0.300546
0.500627 0.553710 0.307798
0.530782 0.562809 0.315125
0.561293 0.572002 0.322525
0.592162 0.581289 0.330000
0.158561 0.495451 0.242003
0.185009 0.503835 0.248643
0.211786 0.512314 0.255353
0.238892 0.520887 0.262135
0.266333 0.529554 0.268989
0.294110 0.538315 0.275915
0.322226 0.547171 0.282913
0.350684 0.556121 0.289984
0.379486 0.565166 0.297129
0.408636 0.574305 0.304346
0.438134 0.583540 0.311637
0.467984 0.592869 0.319003
0.498189 0.602293 0.326442
0.528749 0.611812 0.333957
0.559668 0.621427 0.341546
0.589351 0.629189 0.348325
0.617060 0.634443 0.353974
0.178096 0.549343 0.265726
0.205239 0.558233 0.272618
0.232716 0.567220 0.279582
0.260532 0.576301 0.286618
0.288688 0.585479 0.293728
0.317187 0.594752 0.300911
0.346031 0.604120 0.308167
0.375224 0.613585 0.315497
0.404766 0.623145 0.322901
0.434662 0.632801 0.330380
0.464912 0.642554 0.337934
0.495520 0.652402 0.345562
0.523352 0.657843 0.351292
0.551061 0.663096 0.356941
0.578769 0.668350 0.362590
0.606477 0.673603 0.368239
0.634185 0.678857 0.373888
0.198426 0.605644 0.290344
0.226278 0.615050 0.297492
0.254471 0.624552 0.304713
0.283009 0.634151 0.312008
0.311893 0.643846 0.319377
0.341126 0.653639 0.326820
0.370711 0.663528 0.334338
0.400650 0.673514 0.341931
0.429645 0.681243 0.348611
0.457354 0.686497 0.354260
0.485062 0.691750 0.359908
0.512770 0.697004 0.365557
0.540478 0.702257 0.371206
0.568186 0.707510 0.376855
0.595894 0.712764 0.382504
0.623603 0.718017 0.388152
0.651311 0.723270 0.393801
0.000000 0.000000 0.014077
0.000000 0.000000 0.018540
0.000000 0.000000 0.023002
0.014752 0.000000 0.027465
0.036258 0.000000 0.031927
0.057764 0.000000 0.036390
0.079270 0.000000 0.040852
0.100776 0.000000 0.045315
0.122282 0.000000 0.049777
0.143789 0.000000 0.054240
0.165295 0.000000 0.058703
0.186801 0.000000 0.063165
0.208307 0.000000 0.067628
0.229813 0.000000 0.072090
