assets/lighting/cinematic/grade-arctic-night/lut.cube
TITLE "Arctic Night"
# TKRS lighting-batch-001 original LUT
# Intended usage: polar night deep blue, very low sat
# License: CC0-1.0
LUT_3D_SIZE 5
DOMAIN_MIN 0.0 0.0 0.0
DOMAIN_MAX 1.0 1.0 1.0
0.000000 0.000000 0.000000
0.031806 0.000000 0.000000
0.117831 0.000000 0.000000
0.203855 0.000000 0.000000
0.289879 0.006336 0.007233
0.000000 0.075983 0.000000
0.084975 0.091619 0.016609
0.171252 0.107444 0.034506
0.261986 0.125720 0.053240
0.357199 0.145341 0.072827
0.053710 0.215745 0.063419
0.145566 0.238149 0.083474
0.241835 0.261949 0.104460
0.342862 0.287119 0.126423
0.448914 0.313656 0.149401
0.117895 0.388962 0.138364
0.219618 0.418814 0.161890
0.326456 0.450131 0.186483
0.438610 0.482917 0.212171
0.556257 0.517179 0.238980
0.193817 0.598309 0.226112
0.306637 0.636206 0.253519
0.425021 0.675653 0.282083
0.536654 0.698122 0.305176
0.647487 0.719135 0.327771
0.000000 0.000000 0.040159
0.037742 0.000000 0.058009
0.123766 0.000000 0.075859
0.209791 0.000000 0.093709
0.295815 0.012489 0.111560
0.004887 0.082137 0.103086
0.090911 0.097772 0.120936
0.178298 0.114450 0.139771
0.270221 0.133294 0.160623
0.366623 0.153401 0.182615
0.060342 0.224392 0.172037
0.153215 0.247351 0.194608
0.250604 0.271692 0.218276
0.352826 0.297400 0.243056
0.460134 0.324477 0.268964
0.125764 0.400536 0.256523
0.228675 0.430964 0.283031
0.336759 0.462859 0.310697
0.450210 0.496225 0.339539
0.569196 0.531069 0.369576
0.203075 0.613040 0.355166
0.317191 0.651546 0.385838
0.433469 0.685379 0.414640
0.544302 0.706392 0.437236
0.655135 0.727405 0.459831
0.000000 0.000000 0.144486
0.043678 0.000000 0.162336
0.129702 0.000000 0.180186
0.215726 0.003007 0.198036
0.301751 0.018643 0.215886
0.010823 0.088290 0.207412
0.096847 0.103926 0.225263
0.185622 0.121707 0.246483
0.278673 0.141060 0.269709
0.376262 0.161651 0.294267
0.067102 0.233261 0.282450
0.161018 0.256768 0.307670
0.259543 0.281647 0.334127
0.362973 0.307893 0.361810
0.471546 0.335510 0.390722
0.133781 0.412337 0.376843
0.237895 0.443342 0.406403
0.347237 0.475815 0.437203
0.461993 0.509761 0.469255
0.582329 0.545190 0.502571
0.212496 0.628009 0.486597
0.327918 0.667126 0.520582
0.441117 0.693649 0.546700
0.551950 0.714662 0.569295
0.662782 0.735676 0.591890
0.000000 0.000000 0.248812
0.049614 0.000000 0.266663
0.135638 0.000000 0.284513
0.221662 0.009161 0.302363
0.307687 0.024797 0.320213
0.016759 0.094444 0.311739
0.103208 0.110623 0.330846
0.193161 0.129173 0.354824
0.287330 0.149018 0.380602
0.386110 0.170090 0.407856
0.073993 0.242347 0.394742
0.168974 0.266396 0.422726
0.268651 0.291813 0.452064
0.373301 0.318598 0.482730
0.483151 0.346758 0.514715
0.141949 0.424364 0.499367
0.247278 0.455947 0.532042
0.357890 0.488999 0.566036
0.473962 0.523527 0.601351
0.595654 0.559542 0.637995
0.222081 0.643219 0.620433
0.337932 0.680905 0.656164
0.448765 0.701919 0.678759
0.559597 0.722932 0.701354
0.670430 0.743946 0.723949
0.000000 0.000000 0.353139
0.055550 0.000000 0.370989
0.141574 0.000000 0.388840
0.227598 0.015314 0.406690
0.314297 0.031030 0.425382
0.022695 0.100598 0.416066
0.109911 0.117754 0.438303
0.200893 0.136836 0.464916
0.296185 0.157165 0.493386
0.396162 0.178720 0.523446
0.081017 0.251648 0.508986
0.177085 0.276236 0.539834
0.277930 0.302191 0.572137
0.383812 0.329516 0.605858
0.494947 0.358221 0.640979
0.150270 0.436619 0.624132
0.256827 0.468779 0.659985
0.368718 0.502411 0.697226
0.486115 0.537524 0.735855
0.609172 0.574126 0.775873
0.231830 0.658669 0.756702
0.345580 0.689175 0.788223
0.456412 0.710189 0.810818
0.567245 0.731202 0.833413
0.678078 0.752216 0.856008
