assets/lighting/cinematic/grade-arctic-night/lut.cube
TITLE "Arctic Night"
# TKRS lighting-batch-001 original LUT
# Intended usage: polar night deep blue, very low sat
# License: CC0-1.0
LUT_3D_SIZE 9
DOMAIN_MIN 0.0 0.0 0.0
DOMAIN_MAX 1.0 1.0 1.0
0.000000 0.000000 0.000000
0.000000 0.000000 0.000000
0.031806 0.000000 0.000000
0.074818 0.000000 0.000000
0.117831 0.000000 0.000000
0.160843 0.000000 0.000000
0.203855 0.000000 0.000000
0.246867 0.000000 0.000000
0.289879 0.006336 0.007233
0.000000 0.009888 0.000000
0.015379 0.017705 0.000000
0.058391 0.025523 0.000000
0.101403 0.033341 0.000000
0.144415 0.041159 0.002996
0.187427 0.048977 0.011921
0.230439 0.056795 0.020846
0.273451 0.064613 0.029771
0.318061 0.072867 0.038876
0.000000 0.075983 0.000000
0.041963 0.083801 0.007684
0.084975 0.091619 0.016609
0.127988 0.099437 0.025534
0.171252 0.107444 0.034506
0.216067 0.116390 0.043768
0.261986 0.125720 0.053240
0.309019 0.135375 0.062924
0.357199 0.145341 0.072827
0.025536 0.142078 0.030222
0.068922 0.150873 0.039344
0.113184 0.160453 0.048717
0.158405 0.170427 0.058300
0.204659 0.180752 0.068098
0.252005 0.191413 0.078119
0.300491 0.202403 0.088369
0.350159 0.213718 0.098855
0.401045 0.225360 0.109583
0.053710 0.215745 0.063419
0.099112 0.226768 0.073334
0.145566 0.238149 0.083474
0.193125 0.249877 0.093848
0.241835 0.261949 0.104460
0.291735 0.274364 0.115317
0.342862 0.287119 0.126423
0.395245 0.300217 0.137783
0.448914 0.313656 0.149401
0.084428 0.298052 0.099392
0.132141 0.310899 0.110132
0.181023 0.324102 0.121119
0.231108 0.337661 0.132358
0.282432 0.351574 0.143853
0.335022 0.365843 0.155609
0.388907 0.380466 0.167630
0.444113 0.395446 0.179919
0.500661 0.410782 0.192480
0.117895 0.388962 0.138364
0.168131 0.403705 0.149996
0.219618 0.418814 0.161890
0.272385 0.434289 0.174051
0.326456 0.450131 0.186483
0.381857 0.466340 0.199188
0.438610 0.482917 0.212171
0.496737 0.499863 0.225434
0.556257 0.517179 0.238980
0.154307 0.488918 0.180547
0.207223 0.505632 0.193122
0.261456 0.522724 0.205973
0.317029 0.540192 0.219102
0.373964 0.558038 0.232514
0.432280 0.576263 0.246210
0.491998 0.594867 0.260193
0.553136 0.613851 0.274468
0.613236 0.630308 0.287944
0.193817 0.598309 0.226112
0.249541 0.617064 0.239672
0.306637 0.636206 0.253519
0.365124 0.655736 0.267655
0.425021 0.675653 0.282083
0.481238 0.687615 0.293879
0.536654 0.698122 0.305176
0.592071 0.708629 0.316474
0.647487 0.719135 0.327771
0.000000 0.000000 0.000000
0.000000 0.000000 0.000000
0.034774 0.000000 0.005846
0.077786 0.000000 0.014771
0.120799 0.000000 0.023696
0.163811 0.000000 0.032621
0.206823 0.000000 0.041546
0.249835 0.001594 0.050471
0.292847 0.009412 0.059396
0.000000 0.012964 0.019459
0.018347 0.020782 0.028384
0.061359 0.028600 0.037309
0.104371 0.036418 0.046234
0.147383 0.044236 0.055159
0.190395 0.052054 0.064084
0.233407 0.059872 0.073009
0.276599 0.067742 0.081984
0.322120 0.076266 0.091564
0.001919 0.079060 0.050922
0.044931 0.086878 0.059847
0.087943 0.094696 0.068772
0.130955 0.102514 0.077697
0.174732 0.110909 0.086973
0.219863 0.120021 0.096718
0.266075 0.129482 0.106726
0.313402 0.139261 0.116985
0.361884 0.149347 0.127493
0.028531 0.145320 0.082458
0.072150 0.154591 0.092057
0.116644 0.164335 0.101943
0.162116 0.174450 0.112083
0.208636 0.184908 0.122473
0.256261 0.195699 0.133114
0.305036 0.206817 0.144007
0.355002 0.218261 0.155157
0.406194 0.230031 0.166566
0.057010 0.220040 0.117510
0.102658 0.231205 0.128031
0.149372 0.242723 0.138804
0.197204 0.254587 0.149832
0.246198 0.266794 0.161117
0.296392 0.279343 0.172665
0.347821 0.292233 0.184477
0.400514 0.305465 0.196558
0.454500 0.319040 0.208911
0.088023 0.303065 0.155727
0.136010 0.316053 0.167150
0.185174 0.329396 0.178836
0.235552 0.343094 0.190789
0.287176 0.357148 0.203012
0.340074 0.371556 0.215509
0.394275 0.386319 0.228283
0.449801 0.401439 0.241336
0.506677 0.416916 0.254672
0.121811 0.394721 0.197176
0.172339 0.409608 0.209542
0.224126 0.424861 0.222184
0.277200 0.440480 0.235104
0.331586 0.456467 0.248305
0.387307 0.472820 0.261791
0.444387 0.489542 0.275563
0.502845 0.506634 0.289625
0.562703 0.524095 0.303980
0.158561 0.495451 0.242003
0.211786 0.512314 0.255353
0.266333 0.529554 0.268989
0.322226 0.547171 0.282913
0.379486 0.565166 0.297129
0.438134 0.583540 0.311637
0.498189 0.602293 0.326442
0.559668 0.621427 0.341546
0.617060 0.634443 0.353974
0.198426 0.605644 0.290344
0.254471 0.624552 0.304713
0.311893 0.643846 0.319377
0.370711 0.663528 0.334338
0.429645 0.681243 0.348611
0.485062 0.691750 0.359908
0.540478 0.702257 0.371206
0.595894 0.712764 0.382504
0.651311 0.723270 0.393801
0.000000 0.000000 0.040159
0.000000 0.000000 0.049084
0.037742 0.000000 0.058009
0.080754 0.000000 0.066934
0.123766 0.000000 0.075859
0.166779 0.000000 0.084784
0.209791 0.000000 0.093709
0.252803 0.004671 0.102634
0.295815 0.012489 0.111560
0.000000 0.016041 0.071622
0.021315 0.023859 0.080547
0.064327 0.031677 0.089472
0.107339 0.039495 0.098397
0.150351 0.047313 0.107323
0.193363 0.055131 0.116248
0.236375 0.062949 0.125173
0.280326 0.071050 0.134513
0.326278 0.079712 0.144609
0.004887 0.082137 0.103086
0.047899 0.089955 0.112011
0.090911 0.097772 0.120936
0.133952 0.105617 0.129886
0.178298 0.114450 0.139771
0.223720 0.123706 0.150046
0.270221 0.133294 0.160623
0.317841 0.143194 0.171481
0.366623 0.153401 0.182615
0.031590 0.148895 0.135014
0.075416 0.158378 0.145128
0.120145 0.168274 0.155566
0.165870 0.178526 0.166292
0.212658 0.189116 0.177295
0.260563 0.200036 0.188574
0.309628 0.211282 0.200126
0.359893 0.222854 0.211953
0.411392 0.234752 0.224057
0.060342 0.224392 0.172037
0.106238 0.235697 0.183185
0.153215 0.247351 0.194608
0.201323 0.259351 0.206304
0.250604 0.271692 0.218276
0.301094 0.284376 0.230526
0.352826 0.297400 0.243056
0.405830 0.310767 0.255867
0.460134 0.324477 0.268964
0.091654 0.308134 0.212558
0.139915 0.321262 0.224676
0.189364 0.334745 0.237073
0.240037 0.348583 0.249750
0.291963 0.362776 0.262711
0.345171 0.377323 0.275957
0.399687 0.392227 0.289492
0.455537 0.407488 0.303317
0.512741 0.423106 0.317435
0.125764 0.400536 0.256523
0.176586 0.415567 0.269633
0.228675 0.430964 0.283031
0.282058 0.446728 0.296718
0.336759 0.462859 0.310697
0.392803 0.479358 0.324969
0.450210 0.496225 0.339539
0.509001 0.513462 0.354407
0.569196 0.531069 0.369576
0.162855 0.502043 0.304024
0.216388 0.519054 0.318157
0.271251 0.536442 0.332585
0.327466 0.554208 0.347311
0.385054 0.572352 0.362337
0.444034 0.590875 0.377665
0.504426 0.609778 0.393297
0.565467 0.628071 0.408706
0.620883 0.638578 0.420004
0.203075 0.613040 0.355166
0.259442 0.632099 0.370350
0.317191 0.651546 0.385838
0.376342 0.671380 0.401631
0.433469 0.685379 0.414640
0.488886 0.695885 0.425938
0.544302 0.706392 0.437236
0.599718 0.716899 0.448533
0.655135 0.727405 0.459831
0.000000 0.000000 0.092322
0.000000 0.000000 0.101247
0.040710 0.000000 0.110172
0.083722 0.000000 0.119098
0.126734 0.000000 0.128023
0.169746 0.000000 0.136948
0.212759 0.000000 0.145873
0.255771 0.007748 0.154798
0.298783 0.015566 0.163723
0.000000 0.019118 0.123786
0.024283 0.026936 0.132711
0.067295 0.034754 0.141636
0.110307 0.042572 0.150561
0.153319 0.050390 0.159486
0.196331 0.058208 0.168411
0.239343 0.066026 0.177336
0.284207 0.074421 0.187387
0.330521 0.083204 0.198036
0.007855 0.085213 0.155249
0.050867 0.093031 0.164174
0.093879 0.100849 0.173099
0.137268 0.109024 0.182486
0.181931 0.118051 0.192933
0.227634 0.127441 0.203774
0.274420 0.137153 0.214946
0.322334 0.147174 0.226425
0.371416 0.157502 0.238203
0.034680 0.152571 0.187916
0.078717 0.162228 0.198584
0.123684 0.172267 0.209603
0.169665 0.182654 0.220938
0.216724 0.193374 0.232575
0.264910 0.204423 0.244508
0.314267 0.215798 0.256734
0.364833 0.227498 0.269252
0.416640 0.239524 0.282062
0.063706 0.228799 0.227014
0.109854 0.240242 0.238807
0.157097 0.252033 0.250893
0.205483 0.264167 0.263273
0.255052 0.276643 0.275944
0.305839 0.289461 0.288908
0.357876 0.302620 0.302165
0.411193 0.316121 0.315717
0.465816 0.329967 0.329566
0.095320 0.313258 0.269892
0.143858 0.326526 0.282717
0.193594 0.340149 0.295835
0.244562 0.354126 0.309247
0.296792 0.368459 0.322954
0.350311 0.383146 0.336959
0.405146 0.398190 0.351263
0.461319 0.413592 0.365868
0.518853 0.429351 0.380776
0.129754 0.406408 0.316410
0.180872 0.421583 0.330274
0.233265 0.437125 0.344435
0.286958 0.453033 0.358897
0.341976 0.469308 0.373661
0.398343 0.485952 0.388728
0.456078 0.502964 0.404102
0.515204 0.520347 0.419782
0.575738 0.538101 0.435772
0.167187 0.508693 0.366615
0.221031 0.525852 0.381538
0.276211 0.543389 0.396765
0.332749 0.561303 0.412300
0.390665 0.579596 0.428142
0.449979 0.598269 0.444295
0.510710 0.617322 0.460760
0.569291 0.632206 0.474736
0.624707 0.642713 0.486033
0.207765 0.620495 0.420583
0.264455 0.639706 0.436588
0.322533 0.659306 0.452905
0.381877 0.679007 0.469372
0.437293 0.689514 0.480670
0.492709 0.700020 0.491968
0.548126 0.710527 0.503265
0.603542 0.721034 0.514563
0.658958 0.731541 0.525860
0.000000 0.000000 0.144486
0.000666 0.000000 0.153411
0.043678 0.000000 0.162336
0.086690 0.000000 0.171261
0.129702 0.000000 0.180186
0.172714 0.000000 0.189111
0.215726 0.003007 0.198036
0.258739 0.010825 0.206961
0.301751 0.018643 0.215886
0.000000 0.022195 0.175949
0.027250 0.030013 0.184874
0.070263 0.037831 0.193799
0.113275 0.045649 0.202724
0.156287 0.053467 0.211649
0.199299 0.061285 0.220574
0.242749 0.069252 0.229882
0.288190 0.077842 0.240633
0.334839 0.086740 0.251866
0.010823 0.088290 0.207412
0.053835 0.096108 0.216337
0.096847 0.103926 0.225263
0.140680 0.112527 0.235455
0.185622 0.121707 0.246483
0.231602 0.131226 0.257920
0.278673 0.141060 0.269709
0.326879 0.151203 0.281829
0.376262 0.161651 0.294267
0.037801 0.156322 0.241191
0.082054 0.166136 0.252444
0.127262 0.176315 0.264070
0.173502 0.186834 0.276035
0.220833 0.197684 0.288323
0.269303 0.208861 0.300926
0.318953 0.220364 0.313839
0.369820 0.232192 0.327059
0.421937 0.244347 0.340587
0.067102 0.233261 0.282450
0.113505 0.244842 0.294904
0.161018 0.256768 0.307670
0.209684 0.269037 0.320745
0.259543 0.281647 0.334127
0.310628 0.294599 0.347815
0.362973 0.307893 0.361810
0.416603 0.321529 0.376112
0.471546 0.335510 0.390722
0.099020 0.318437 0.327736
0.147838 0.331845 0.341279
0.197864 0.345607 0.355128
0.249130 0.359725 0.369284
0.301665 0.374197 0.383748
0.355497 0.389025 0.398519
0.410650 0.404209 0.413601
0.467148 0.419751 0.428993
0.525013 0.435652 0.444697
0.133781 0.412337 0.376843
0.185197 0.427656 0.391468
0.237895 0.443342 0.406403
0.291900 0.459394 0.421647
0.347237 0.475815 0.437203
0.403928 0.492603 0.453072
0.461993 0.509761 0.469255
0.521454 0.527290 0.485755
0.582329 0.545190 0.502571
0.171559 0.515401 0.429779
0.225715 0.532709 0.445499
0.281214 0.550394 0.461533
0.338075 0.568458 0.477883
0.396321 0.586900 0.494548
0.455970 0.605722 0.511532
0.517040 0.624925 0.528836
0.573115 0.636341 0.540765
0.628531 0.646848 0.552063
0.212496 0.628009 0.486597
0.269510 0.647374 0.503430
0.327918 0.667126 0.520582
0.385701 0.683142 0.535402
0.441117 0.693649 0.546700
0.496533 0.704155 0.557997
0.551950 0.714662 0.569295
0.607366 0.725169 0.580592
0.662782 0.735676 0.591890
0.000000 0.000000 0.196649
0.003634 0.000000 0.205574
0.046646 0.000000 0.214499
0.089658 0.000000 0.223424
0.132670 0.000000 0.232349
0.175682 0.000000 0.241274
0.218694 0.006084 0.250200
0.261707 0.013902 0.259125
0.304719 0.021720 0.268050
0.000000 0.025272 0.228112
0.030218 0.033090 0.237038
0.073230 0.040908 0.245963
0.116243 0.048726 0.254888
0.159255 0.056543 0.263813
0.202267 0.064361 0.272738
0.246453 0.072591 0.282905
0.292258 0.081310 0.294273
0.339227 0.090320 0.306116
0.013791 0.091367 0.259576
0.056803 0.099185 0.268501
0.099941 0.107164 0.277750
0.144157 0.116096 0.288808
0.189366 0.125415 0.300442
0.235622 0.135060 0.312497
0.282976 0.145016 0.324924
0.331476 0.155278 0.337702
0.381160 0.165847 0.350815
0.040951 0.160138 0.294861
0.085426 0.170100 0.306725
0.130879 0.180415 0.318980
0.177380 0.191065 0.331593
0.224985 0.202044 0.344548
0.273740 0.213349 0.357835
0.323685 0.224980 0.371448
0.374855 0.236937 0.385383
0.427283 0.249221 0.399639
0.070531 0.237777 0.338356
0.117193 0.249494 0.351487
0.164977 0.261556 0.364945
0.213925 0.273959 0.378728
0.264076 0.286704 0.392832
0.315462 0.299790 0.407255
0.368114 0.313219 0.421997
0.422060 0.326991 0.437057
0.477324 0.341107 0.452436
0.102757 0.323672 0.386096
0.151856 0.337219 0.400368
0.202173 0.351121 0.414959
0.253738 0.365378 0.429868
0.306580 0.379990 0.445096
0.360726 0.394958 0.460642
0.416199 0.410283 0.476509
0.473024 0.425966 0.492696
0.531220 0.442009 0.509204
0.137846 0.418322 0.437827
0.189562 0.433786 0.453222
0.242566 0.449616 0.468937
0.296885 0.465813 0.484971
0.352541 0.482378 0.501327
0.409558 0.499312 0.518004
0.467954 0.516616 0.535004
0.527751 0.534290 0.552328
0.588967 0.552337 0.569978
0.175970 0.522168 0.493522
0.230440 0.539624 0.510047
0.286258 0.557458 0.526893
0.343445 0.575671 0.544064
0.402022 0.594262 0.561559
0.462007 0.613234 0.579380
0.521522 0.629970 0.595497
0.576939 0.640476 0.606795
0.632355 0.650983 0.618093
0.217268 0.635584 0.553213
0.274608 0.655101 0.570879
0.333346 0.675006 0.588871
0.389524 0.687277 0.601432
0.444941 0.697784 0.612729
0.500357 0.708290 0.624027
0.555773 0.718797 0.635324
0.611190 0.729304 0.646622
0.666606 0.739811 0.657920
0.000000 0.000000 0.248812
0.006602 0.000000 0.257738
0.049614 0.000000 0.266663
0.092626 0.000000 0.275588
0.135638 0.000000 0.284513
0.178650 0.001343 0.293438
0.221662 0.009161 0.302363
0.264674 0.016979 0.311288
0.307687 0.024797 0.320213
0.000000 0.028349 0.280276
0.033186 0.036167 0.289201
0.076198 0.043984 0.298126
0.119211 0.051802 0.307051
0.162223 0.059620 0.315976
0.205331 0.067476 0.325042
0.250265 0.075986 0.336328
0.296398 0.084822 0.348326
0.343679 0.093943 0.360800
0.016759 0.094444 0.311739
0.059771 0.102262 0.320664
0.103208 0.110623 0.330846
0.147687 0.119723 0.342564
0.193161 0.129173 0.354824
0.239691 0.138941 0.367518
0.287330 0.149018 0.380602
0.336124 0.159401 0.394053
0.386110 0.170090 0.407856
0.044130 0.164015 0.348946
0.088833 0.174119 0.361441
0.134534 0.184567 0.374344
0.181299 0.195347 0.387623
0.229180 0.206454 0.401260
0.278222 0.217888 0.415244
0.328463 0.229647 0.429569
0.379938 0.241732 0.444230
0.432677 0.254146 0.459224
0.073993 0.242347 0.394742
0.120916 0.254200 0.408563
0.168974 0.266396 0.422726
0.218207 0.278934 0.437228
0.268651 0.291813 0.452064
0.320340 0.305034 0.467232
0.373301 0.318598 0.482730
0.427563 0.332505 0.498558
0.483151 0.346758 0.514715
0.106529 0.328961 0.444980
0.155912 0.342648 0.459990
0.206522 0.356690 0.475332
0.258388 0.371086 0.491003
0.311539 0.385838 0.507003
0.366000 0.400947 0.523333
0.421795 0.416413 0.539992
0.478947 0.432237 0.556980
0.537476 0.448422 0.574299
0.141949 0.424364 0.499367
0.193966 0.439972 0.515540
0.247278 0.455947 0.532042
0.301912 0.472288 0.548874
0.357890 0.488999 0.566036
0.415233 0.506078 0.583528
0.473962 0.523527 0.601351
0.534096 0.541349 0.619507
0.595654 0.559542 0.637995
0.180421 0.528993 0.557848
0.235206 0.546598 0.575183
0.291345 0.564581 0.592849
0.348859 0.582942 0.610846
0.407767 0.601684 0.629176
0.468089 0.620805 0.647840
0.525346 0.634105 0.661527
0.580762 0.644611 0.672825
0.636179 0.655118 0.684122
0.222081 0.643219 0.620433
0.279747 0.662888 0.638938
0.337932 0.680905 0.656164
0.393348 0.691412 0.667461
0.448765 0.701919 0.678759
0.504181 0.712426 0.690057
0.559597 0.722932 0.701354
0.615014 0.733439 0.712652
0.670430 0.743946 0.723949
0.000000 0.000000 0.300976
0.009570 0.000000 0.309901
0.052582 0.000000 0.318826
0.095594 0.000000 0.327751
0.138606 0.000000 0.336676
0.181618 0.004420 0.345601
0.224630 0.012238 0.354526
0.267642 0.020056 0.363451
0.310654 0.027873 0.372377
0.000000 0.031425 0.332439
0.036154 0.039243 0.341364
0.079166 0.047061 0.350289
0.122178 0.054879 0.359214
0.165191 0.062697 0.368140
0.208852 0.070777 0.378148
0.254161 0.079429 0.390162
0.300605 0.088378 0.402806
0.348193 0.097609 0.415931
0.019727 0.097521 0.363903
0.062743 0.105348 0.372852
0.106535 0.114158 0.384363
0.151267 0.123403 0.396738
0.197003 0.132980 0.409645
0.243809 0.142870 0.422997
0.291733 0.153068 0.436753
0.340821 0.163571 0.450891
0.391111 0.174381 0.465397
0.047340 0.167949 0.403459
0.092275 0.178190 0.416606
0.138227 0.188770 0.430174
0.185258 0.199679 0.444133
0.233417 0.210915 0.458466
0.282748 0.222477 0.473160
0.333287 0.234364 0.488208
0.385068 0.246579 0.503605
0.438120 0.259122 0.519347
0.077488 0.246971 0.451616
0.124676 0.258959 0.466140
0.173010 0.271290 0.481021
0.222529 0.283962 0.496252
0.273269 0.296976 0.511831
0.325261 0.310331 0.527753
0.378534 0.324030 0.544016
0.433114 0.338073 0.560619
0.489025 0.352463 0.577561
0.110336 0.334305 0.504392
0.160007 0.348132 0.520151
0.210911 0.362313 0.536253
0.263080 0.376850 0.552694
0.316541 0.391742 0.569476
0.371318 0.406991 0.586596
0.427436 0.422598 0.604054
0.484916 0.438564 0.621851
0.543780 0.454891 0.639986
0.146090 0.430463 0.561467
0.198410 0.446215 0.578426
0.252032 0.462334 0.595724
0.306982 0.478821 0.613360
0.363282 0.495676 0.631334
0.420953 0.512901 0.649648
0.480015 0.530497 0.668300
0.540488 0.548464 0.687293
0.602389 0.566805 0.706625
0.184912 0.535877 0.622759
0.240013 0.553630 0.640912
0.296474 0.571762 0.659403
0.354316 0.590273 0.678234
0.413557 0.609164 0.697405
0.473754 0.627733 0.716259
0.529170 0.638240 0.727557
0.584586 0.648747 0.738854
0.640003 0.659253 0.750152
0.226934 0.650914 0.688262
0.284929 0.670736 0.707611
0.341756 0.685040 0.722193
0.397172 0.695547 0.733491
0.452588 0.706054 0.744789
0.508005 0.716561 0.756086
0.563421 0.727067 0.767384
0.618837 0.737574 0.778681
0.674254 0.748081 0.789979
0.000000 0.000000 0.353139
0.012538 0.000000 0.362064
0.055550 0.000000 0.370989
0.098562 0.000000 0.379915
0.141574 0.000000 0.388840
0.184586 0.007497 0.397765
0.227598 0.015314 0.406690
0.270610 0.023132 0.415615
0.314297 0.031030 0.425382
0.000000 0.034502 0.384603
0.039122 0.042320 0.393528
0.082134 0.050138 0.402453
0.125146 0.057956 0.411378
0.168158 0.065774 0.420303
0.212498 0.074143 0.431714
0.258128 0.082917 0.444422
0.304875 0.091978 0.457728
0.352767 0.101318 0.471521
0.022695 0.100598 0.416066
0.065872 0.108741 0.425976
0.109911 0.117754 0.438303
0.154892 0.127134 0.451346
0.200893 0.136836 0.464916
0.247974 0.146847 0.478942
0.296185 0.157165 0.493386
0.345569 0.167789 0.508226
0.396162 0.178720 0.523446
0.050579 0.171939 0.458414
0.095752 0.182314 0.472230
0.141958 0.193024 0.486479
0.189258 0.204062 0.501133
0.237697 0.215427 0.516174
0.287318 0.227116 0.531589
0.338157 0.239132 0.547372
0.390245 0.251476 0.563515
0.443611 0.264149 0.580014
0.081017 0.251648 0.508986
0.128473 0.263771 0.524225
0.177085 0.276236 0.539834
0.226893 0.289043 0.555806
0.277930 0.302191 0.572137
0.330227 0.315682 0.588822
0.383812 0.329516 0.605858
0.438711 0.343695 0.623244
0.494947 0.358221 0.640979
0.114181 0.339705 0.564340
0.164139 0.353671 0.580857
0.215340 0.367992 0.597727
0.267814 0.382668 0.614947
0.321586 0.397701 0.632517
0.376681 0.413090 0.650434
0.433123 0.428839 0.668699
0.490933 0.444946 0.687311
0.550131 0.461416 0.706270
0.150270 0.436619 0.624132
0.202893 0.452515 0.641885
0.256827 0.468779 0.659985
0.312095 0.485411 0.678432
0.368718 0.502411 0.697226
0.426718 0.519782 0.716367
0.486115 0.537524 0.735855
0.546927 0.555638 0.755690
0.609172 0.574126 0.775873
0.189442 0.542819 0.688261
0.244861 0.560721 0.707237
0.301646 0.579002 0.726560
0.359817 0.597662 0.746230
0.419393 0.616703 0.766248
0.477577 0.631868 0.782289
0.532994 0.642375 0.793586
0.588410 0.652882 0.804884
0.643826 0.663388 0.816181
0.231830 0.658669 0.756702
0.290154 0.678644 0.776902
0.345580 0.689175 0.788223
0.400996 0.699682 0.799521
0.456412 0.710189 0.810818
0.511829 0.720696 0.822116
0.567245 0.731202 0.833413
0.622661 0.741709 0.844711
0.678078 0.752216 0.856008
