assets/lighting/tone-mapping/grade-filmic-highlight-roll/lut.cube
TITLE "Filmic Highlight Roll-off"
# TKRS lighting-batch-001 original LUT
# Intended usage: compress highlights, lift toe slightly
# License: CC0-1.0
LUT_3D_SIZE 5
DOMAIN_MIN 0.0 0.0 0.0
DOMAIN_MAX 1.0 1.0 1.0
0.077213 0.074149 0.075654
0.315586 0.074149 0.075654
0.521562 0.074149 0.075654
0.714669 0.074149 0.075654
0.899698 0.074149 0.075654
0.077213 0.306830 0.075654
0.315586 0.306830 0.075654
0.521562 0.306830 0.075654
0.714669 0.306830 0.075654
0.899698 0.306830 0.075654
0.077213 0.513284 0.075654
0.315586 0.513284 0.075654
0.521562 0.513284 0.075654
0.714669 0.513284 0.075654
0.899698 0.513284 0.075654
0.077213 0.709087 0.075654
0.315586 0.709087 0.075654
0.521562 0.709087 0.075654
0.714669 0.709087 0.075654
0.899698 0.709087 0.075654
0.077213 0.898138 0.075654
0.315586 0.898138 0.075654
0.521562 0.898138 0.075654
0.714669 0.898138 0.075654
0.899698 0.898138 0.075654
0.077213 0.074149 0.308471
0.315586 0.074149 0.308471
0.521562 0.074149 0.308471
0.714669 0.074149 0.308471
0.899698 0.074149 0.308471
0.077213 0.306830 0.308471
0.315586 0.306830 0.308471
0.521562 0.306830 0.308471
0.714669 0.306830 0.308471
0.899698 0.306830 0.308471
0.077213 0.513284 0.308471
0.315586 0.513284 0.308471
0.521562 0.513284 0.308471
0.714669 0.513284 0.308471
0.899698 0.513284 0.308471
0.077213 0.709087 0.308471
0.315586 0.709087 0.308471
0.521562 0.709087 0.308471
0.714669 0.709087 0.308471
0.899698 0.709087 0.308471
0.077213 0.898138 0.308471
0.315586 0.898138 0.308471
0.521562 0.898138 0.308471
0.714669 0.898138 0.308471
0.899698 0.898138 0.308471
0.077213 0.074149 0.519218
0.315586 0.074149 0.519218
0.521562 0.074149 0.519218
0.714669 0.074149 0.519218
0.899698 0.074149 0.519218
0.077213 0.306830 0.519218
0.315586 0.306830 0.519218
0.521562 0.306830 0.519218
0.714669 0.306830 0.519218
0.899698 0.306830 0.519218
0.077213 0.513284 0.519218
0.315586 0.513284 0.519218
0.521562 0.513284 0.519218
0.714669 0.513284 0.519218
0.899698 0.513284 0.519218
0.077213 0.709087 0.519218
0.315586 0.709087 0.519218
0.521562 0.709087 0.519218
0.714669 0.709087 0.519218
0.899698 0.709087 0.519218
0.077213 0.898138 0.519218
0.315586 0.898138 0.519218
0.521562 0.898138 0.519218
0.714669 0.898138 0.519218
0.899698 0.898138 0.519218
0.077213 0.074149 0.720757
0.315586 0.074149 0.720757
0.521562 0.074149 0.720757
0.714669 0.074149 0.720757
0.899698 0.074149 0.720757
0.077213 0.306830 0.720757
0.315586 0.306830 0.720757
0.521562 0.306830 0.720757
0.714669 0.306830 0.720757
0.899698 0.306830 0.720757
0.077213 0.513284 0.720757
0.315586 0.513284 0.720757
0.521562 0.513284 0.720757
0.714669 0.513284 0.720757
0.899698 0.513284 0.720757
0.077213 0.709087 0.720757
0.315586 0.709087 0.720757
0.521562 0.709087 0.720757
0.714669 0.709087 0.720757
0.899698 0.709087 0.720757
0.077213 0.898138 0.720757
0.315586 0.898138 0.720757
0.521562 0.898138 0.720757
0.714669 0.898138 0.720757
0.899698 0.898138 0.720757
0.077213 0.074149 0.916404
0.315586 0.074149 0.916404
0.521562 0.074149 0.916404
0.714669 0.074149 0.916404
0.899698 0.074149 0.916404
0.077213 0.306830 0.916404
0.315586 0.306830 0.916404
0.521562 0.306830 0.916404
0.714669 0.306830 0.916404
0.899698 0.306830 0.916404
0.077213 0.513284 0.916404
0.315586 0.513284 0.916404
0.521562 0.513284 0.916404
0.714669 0.513284 0.916404
0.899698 0.513284 0.916404
0.077213 0.709087 0.916404
0.315586 0.709087 0.916404
0.521562 0.709087 0.916404
0.714669 0.709087 0.916404
0.899698 0.709087 0.916404
0.077213 0.898138 0.916404
0.315586 0.898138 0.916404
0.521562 0.898138 0.916404
0.714669 0.898138 0.916404
0.899698 0.898138 0.916404
