assets/lighting/tone-mapping/grade-filmic-highlight-roll/lut.cube
TITLE "Filmic Highlight Roll-off"
# TKRS lighting-batch-001 original LUT
# Intended usage: compress highlights, lift toe slightly
# License: CC0-1.0
LUT_3D_SIZE 17
DOMAIN_MIN 0.0 0.0 0.0
DOMAIN_MAX 1.0 1.0 1.0
0.077213 0.074149 0.075654
0.143707 0.074149 0.075654
0.203865 0.074149 0.075654
0.260799 0.074149 0.075654
0.315586 0.074149 0.075654
0.368774 0.074149 0.075654
0.420695 0.074149 0.075654
0.471572 0.074149 0.075654
0.521562 0.074149 0.075654
0.570783 0.074149 0.075654
0.619329 0.074149 0.075654
0.667271 0.074149 0.075654
0.714669 0.074149 0.075654
0.761572 0.074149 0.075654
0.808021 0.074149 0.075654
0.854053 0.074149 0.075654
0.899698 0.074149 0.075654
0.077213 0.137817 0.075654
0.143707 0.137817 0.075654
0.203865 0.137817 0.075654
0.260799 0.137817 0.075654
0.315586 0.137817 0.075654
0.368774 0.137817 0.075654
0.420695 0.137817 0.075654
0.471572 0.137817 0.075654
0.521562 0.137817 0.075654
0.570783 0.137817 0.075654
0.619329 0.137817 0.075654
0.667271 0.137817 0.075654
0.714669 0.137817 0.075654
0.761572 0.137817 0.075654
0.808021 0.137817 0.075654
0.854053 0.137817 0.075654
0.899698 0.137817 0.075654
0.077213 0.196464 0.075654
0.143707 0.196464 0.075654
0.203865 0.196464 0.075654
0.260799 0.196464 0.075654
0.315586 0.196464 0.075654
0.368774 0.196464 0.075654
0.420695 0.196464 0.075654
0.471572 0.196464 0.075654
0.521562 0.196464 0.075654
0.570783 0.196464 0.075654
0.619329 0.196464 0.075654
0.667271 0.196464 0.075654
0.714669 0.196464 0.075654
0.761572 0.196464 0.075654
0.808021 0.196464 0.075654
0.854053 0.196464 0.075654
0.899698 0.196464 0.075654
0.077213 0.252518 0.075654
0.143707 0.252518 0.075654
0.203865 0.252518 0.075654
0.260799 0.252518 0.075654
0.315586 0.252518 0.075654
0.368774 0.252518 0.075654
0.420695 0.252518 0.075654
0.471572 0.252518 0.075654
0.521562 0.252518 0.075654
0.570783 0.252518 0.075654
0.619329 0.252518 0.075654
0.667271 0.252518 0.075654
0.714669 0.252518 0.075654
0.761572 0.252518 0.075654
0.808021 0.252518 0.075654
0.854053 0.252518 0.075654
0.899698 0.252518 0.075654
0.077213 0.306830 0.075654
0.143707 0.306830 0.075654
0.203865 0.306830 0.075654
0.260799 0.306830 0.075654
0.315586 0.306830 0.075654
0.368774 0.306830 0.075654
0.420695 0.306830 0.075654
0.471572 0.306830 0.075654
0.521562 0.306830 0.075654
0.570783 0.306830 0.075654
0.619329 0.306830 0.075654
0.667271 0.306830 0.075654
0.714669 0.306830 0.075654
0.761572 0.306830 0.075654
0.808021 0.306830 0.075654
0.854053 0.306830 0.075654
0.899698 0.306830 0.075654
0.077213 0.359836 0.075654
0.143707 0.359836 0.075654
0.203865 0.359836 0.075654
0.260799 0.359836 0.075654
0.315586 0.359836 0.075654
0.368774 0.359836 0.075654
0.420695 0.359836 0.075654
0.471572 0.359836 0.075654
0.521562 0.359836 0.075654
0.570783 0.359836 0.075654
0.619329 0.359836 0.075654
0.667271 0.359836 0.075654
0.714669 0.359836 0.075654
0.761572 0.359836 0.075654
0.808021 0.359836 0.075654
0.854053 0.359836 0.075654
0.899698 0.359836 0.075654
0.077213 0.411803 0.075654
0.143707 0.411803 0.075654
0.203865 0.411803 0.075654
0.260799 0.411803 0.075654
0.315586 0.411803 0.075654
0.368774 0.411803 0.075654
0.420695 0.411803 0.075654
0.471572 0.411803 0.075654
0.521562 0.411803 0.075654
0.570783 0.411803 0.075654
0.619329 0.411803 0.075654
0.667271 0.411803 0.075654
0.714669 0.411803 0.075654
0.761572 0.411803 0.075654
0.808021 0.411803 0.075654
0.854053 0.411803 0.075654
0.899698 0.411803 0.075654
0.077213 0.462910 0.075654
0.143707 0.462910 0.075654
0.203865 0.462910 0.075654
0.260799 0.462910 0.075654
0.315586 0.462910 0.075654
0.368774 0.462910 0.075654
0.420695 0.462910 0.075654
0.471572 0.462910 0.075654
0.521562 0.462910 0.075654
0.570783 0.462910 0.075654
0.619329 0.462910 0.075654
0.667271 0.462910 0.075654
0.714669 0.462910 0.075654
0.761572 0.462910 0.075654
0.808021 0.462910 0.075654
0.854053 0.462910 0.075654
0.899698 0.462910 0.075654
0.077213 0.513284 0.075654
0.143707 0.513284 0.075654
0.203865 0.513284 0.075654
0.260799 0.513284 0.075654
0.315586 0.513284 0.075654
0.368774 0.513284 0.075654
0.420695 0.513284 0.075654
0.471572 0.513284 0.075654
0.521562 0.513284 0.075654
0.570783 0.513284 0.075654
0.619329 0.513284 0.075654
0.667271 0.513284 0.075654
0.714669 0.513284 0.075654
0.761572 0.513284 0.075654
0.808021 0.513284 0.075654
0.854053 0.513284 0.075654
0.899698 0.513284 0.075654
0.077213 0.563021 0.075654
0.143707 0.563021 0.075654
0.203865 0.563021 0.075654
0.260799 0.563021 0.075654
0.315586 0.563021 0.075654
0.368774 0.563021 0.075654
0.420695 0.563021 0.075654
0.471572 0.563021 0.075654
0.521562 0.563021 0.075654
0.570783 0.563021 0.075654
0.619329 0.563021 0.075654
0.667271 0.563021 0.075654
0.714669 0.563021 0.075654
0.761572 0.563021 0.075654
0.808021 0.563021 0.075654
0.854053 0.563021 0.075654
0.899698 0.563021 0.075654
0.077213 0.612196 0.075654
0.143707 0.612196 0.075654
0.203865 0.612196 0.075654
0.260799 0.612196 0.075654
0.315586 0.612196 0.075654
0.368774 0.612196 0.075654
0.420695 0.612196 0.075654
0.471572 0.612196 0.075654
0.521562 0.612196 0.075654
0.570783 0.612196 0.075654
0.619329 0.612196 0.075654
0.667271 0.612196 0.075654
0.714669 0.612196 0.075654
0.761572 0.612196 0.075654
0.808021 0.612196 0.075654
0.854053 0.612196 0.075654
0.899698 0.612196 0.075654
0.077213 0.660869 0.075654
0.143707 0.660869 0.075654
0.203865 0.660869 0.075654
0.260799 0.660869 0.075654
0.315586 0.660869 0.075654
0.368774 0.660869 0.075654
0.420695 0.660869 0.075654
0.471572 0.660869 0.075654
0.521562 0.660869 0.075654
0.570783 0.660869 0.075654
0.619329 0.660869 0.075654
0.667271 0.660869 0.075654
0.714669 0.660869 0.075654
0.761572 0.660869 0.075654
0.808021 0.660869 0.075654
0.854053 0.660869 0.075654
0.899698 0.660869 0.075654
0.077213 0.709087 0.075654
0.143707 0.709087 0.075654
0.203865 0.709087 0.075654
0.260799 0.709087 0.075654
0.315586 0.709087 0.075654
0.368774 0.709087 0.075654
0.420695 0.709087 0.075654
0.471572 0.709087 0.075654
0.521562 0.709087 0.075654
0.570783 0.709087 0.075654
0.619329 0.709087 0.075654
0.667271 0.709087 0.075654
0.714669 0.709087 0.075654
0.761572 0.709087 0.075654
0.808021 0.709087 0.075654
0.854053 0.709087 0.075654
0.899698 0.709087 0.075654
0.077213 0.756891 0.075654
0.143707 0.756891 0.075654
0.203865 0.756891 0.075654
0.260799 0.756891 0.075654
0.315586 0.756891 0.075654
0.368774 0.756891 0.075654
0.420695 0.756891 0.075654
0.471572 0.756891 0.075654
0.521562 0.756891 0.075654
0.570783 0.756891 0.075654
0.619329 0.756891 0.075654
0.667271 0.756891 0.075654
0.714669 0.756891 0.075654
0.761572 0.756891 0.075654
0.808021 0.756891 0.075654
0.854053 0.756891 0.075654
0.899698 0.756891 0.075654
0.077213 0.804316 0.075654
0.143707 0.804316 0.075654
0.203865 0.804316 0.075654
0.260799 0.804316 0.075654
0.315586 0.804316 0.075654
0.368774 0.804316 0.075654
0.420695 0.804316 0.075654
0.471572 0.804316 0.075654
0.521562 0.804316 0.075654
0.570783 0.804316 0.075654
0.619329 0.804316 0.075654
0.667271 0.804316 0.075654
0.714669 0.804316 0.075654
0.761572 0.804316 0.075654
0.808021 0.804316 0.075654
0.854053 0.804316 0.075654
0.899698 0.804316 0.075654
0.077213 0.851390 0.075654
0.143707 0.851390 0.075654
0.203865 0.851390 0.075654
0.260799 0.851390 0.075654
0.315586 0.851390 0.075654
0.368774 0.851390 0.075654
0.420695 0.851390 0.075654
0.471572 0.851390 0.075654
0.521562 0.851390 0.075654
0.570783 0.851390 0.075654
0.619329 0.851390 0.075654
0.667271 0.851390 0.075654
0.714669 0.851390 0.075654
0.761572 0.851390 0.075654
0.808021 0.851390 0.075654
0.854053 0.851390 0.075654
0.899698 0.851390 0.075654
0.077213 0.898138 0.075654
0.143707 0.898138 0.075654
0.203865 0.898138 0.075654
0.260799 0.898138 0.075654
0.315586 0.898138 0.075654
0.368774 0.898138 0.075654
0.420695 0.898138 0.075654
0.471572 0.898138 0.075654
0.521562 0.898138 0.075654
0.570783 0.898138 0.075654
0.619329 0.898138 0.075654
0.667271 0.898138 0.075654
0.714669 0.898138 0.075654
0.761572 0.898138 0.075654
0.808021 0.898138 0.075654
0.854053 0.898138 0.075654
0.899698 0.898138 0.075654
0.077213 0.074149 0.138367
0.143707 0.074149 0.138367
0.203865 0.074149 0.138367
0.260799 0.074149 0.138367
0.315586 0.074149 0.138367
0.368774 0.074149 0.138367
0.420695 0.074149 0.138367
0.471572 0.074149 0.138367
0.521562 0.074149 0.138367
0.570783 0.074149 0.138367
0.619329 0.074149 0.138367
0.667271 0.074149 0.138367
0.714669 0.074149 0.138367
0.761572 0.074149 0.138367
0.808021 0.074149 0.138367
0.854053 0.074149 0.138367
0.899698 0.074149 0.138367
0.077213 0.137817 0.138367
0.143707 0.137817 0.138367
0.203865 0.137817 0.138367
0.260799 0.137817 0.138367
0.315586 0.137817 0.138367
0.368774 0.137817 0.138367
0.420695 0.137817 0.138367
0.471572 0.137817 0.138367
0.521562 0.137817 0.138367
0.570783 0.137817 0.138367
0.619329 0.137817 0.138367
0.667271 0.137817 0.138367
0.714669 0.137817 0.138367
0.761572 0.137817 0.138367
0.808021 0.137817 0.138367
0.854053 0.137817 0.138367
0.899698 0.137817 0.138367
0.077213 0.196464 0.138367
0.143707 0.196464 0.138367
0.203865 0.196464 0.138367
0.260799 0.196464 0.138367
0.315586 0.196464 0.138367
0.368774 0.196464 0.138367
0.420695 0.196464 0.138367
0.471572 0.196464 0.138367
0.521562 0.196464 0.138367
0.570783 0.196464 0.138367
0.619329 0.196464 0.138367
0.667271 0.196464 0.138367
0.714669 0.196464 0.138367
0.761572 0.196464 0.138367
0.808021 0.196464 0.138367
0.854053 0.196464 0.138367
0.899698 0.196464 0.138367
0.077213 0.252518 0.138367
0.143707 0.252518 0.138367
0.203865 0.252518 0.138367
0.260799 0.252518 0.138367
0.315586 0.252518 0.138367
0.368774 0.252518 0.138367
0.420695 0.252518 0.138367
0.471572 0.252518 0.138367
0.521562 0.252518 0.138367
0.570783 0.252518 0.138367
0.619329 0.252518 0.138367
0.667271 0.252518 0.138367
0.714669 0.252518 0.138367
0.761572 0.252518 0.138367
0.808021 0.252518 0.138367
0.854053 0.252518 0.138367
0.899698 0.252518 0.138367
0.077213 0.306830 0.138367
0.143707 0.306830 0.138367
0.203865 0.306830 0.138367
0.260799 0.306830 0.138367
0.315586 0.306830 0.138367
0.368774 0.306830 0.138367
0.420695 0.306830 0.138367
0.471572 0.306830 0.138367
0.521562 0.306830 0.138367
0.570783 0.306830 0.138367
0.619329 0.306830 0.138367
0.667271 0.306830 0.138367
0.714669 0.306830 0.138367
0.761572 0.306830 0.138367
0.808021 0.306830 0.138367
0.854053 0.306830 0.138367
0.899698 0.306830 0.138367
0.077213 0.359836 0.138367
0.143707 0.359836 0.138367
0.203865 0.359836 0.138367
0.260799 0.359836 0.138367
0.315586 0.359836 0.138367
0.368774 0.359836 0.138367
0.420695 0.359836 0.138367
0.471572 0.359836 0.138367
0.521562 0.359836 0.138367
0.570783 0.359836 0.138367
0.619329 0.359836 0.138367
0.667271 0.359836 0.138367
0.714669 0.359836 0.138367
0.761572 0.359836 0.138367
0.808021 0.359836 0.138367
0.854053 0.359836 0.138367
0.899698 0.359836 0.138367
0.077213 0.411803 0.138367
0.143707 0.411803 0.138367
0.203865 0.411803 0.138367
0.260799 0.411803 0.138367
0.315586 0.411803 0.138367
0.368774 0.411803 0.138367
0.420695 0.411803 0.138367
0.471572 0.411803 0.138367
0.521562 0.411803 0.138367
0.570783 0.411803 0.138367
0.619329 0.411803 0.138367
0.667271 0.411803 0.138367
0.714669 0.411803 0.138367
0.761572 0.411803 0.138367
0.808021 0.411803 0.138367
0.854053 0.411803 0.138367
0.899698 0.411803 0.138367
0.077213 0.462910 0.138367
0.143707 0.462910 0.138367
0.203865 0.462910 0.138367
0.260799 0.462910 0.138367
0.315586 0.462910 0.138367
0.368774 0.462910 0.138367
0.420695 0.462910 0.138367
0.471572 0.462910 0.138367
0.521562 0.462910 0.138367
0.570783 0.462910 0.138367
0.619329 0.462910 0.138367
0.667271 0.462910 0.138367
0.714669 0.462910 0.138367
0.761572 0.462910 0.138367
0.808021 0.462910 0.138367
0.854053 0.462910 0.138367
0.899698 0.462910 0.138367
0.077213 0.513284 0.138367
0.143707 0.513284 0.138367
0.203865 0.513284 0.138367
0.260799 0.513284 0.138367
0.315586 0.513284 0.138367
0.368774 0.513284 0.138367
0.420695 0.513284 0.138367
0.471572 0.513284 0.138367
0.521562 0.513284 0.138367
0.570783 0.513284 0.138367
0.619329 0.513284 0.138367
0.667271 0.513284 0.138367
0.714669 0.513284 0.138367
0.761572 0.513284 0.138367
0.808021 0.513284 0.138367
0.854053 0.513284 0.138367
0.899698 0.513284 0.138367
0.077213 0.563021 0.138367
0.143707 0.563021 0.138367
0.203865 0.563021 0.138367
0.260799 0.563021 0.138367
0.315586 0.563021 0.138367
0.368774 0.563021 0.138367
0.420695 0.563021 0.138367
0.471572 0.563021 0.138367
0.521562 0.563021 0.138367
0.570783 0.563021 0.138367
0.619329 0.563021 0.138367
0.667271 0.563021 0.138367
0.714669 0.563021 0.138367
0.761572 0.563021 0.138367
0.808021 0.563021 0.138367
0.854053 0.563021 0.138367
0.899698 0.563021 0.138367
0.077213 0.612196 0.138367
0.143707 0.612196 0.138367
0.203865 0.612196 0.138367
0.260799 0.612196 0.138367
0.315586 0.612196 0.138367
0.368774 0.612196 0.138367
0.420695 0.612196 0.138367
0.471572 0.612196 0.138367
0.521562 0.612196 0.138367
0.570783 0.612196 0.138367
0.619329 0.612196 0.138367
0.667271 0.612196 0.138367
0.714669 0.612196 0.138367
0.761572 0.612196 0.138367
0.808021 0.612196 0.138367
0.854053 0.612196 0.138367
0.899698 0.612196 0.138367
0.077213 0.660869 0.138367
0.143707 0.660869 0.138367
0.203865 0.660869 0.138367
0.260799 0.660869 0.138367
0.315586 0.660869 0.138367
0.368774 0.660869 0.138367
0.420695 0.660869 0.138367
0.471572 0.660869 0.138367
0.521562 0.660869 0.138367
0.570783 0.660869 0.138367
0.619329 0.660869 0.138367
0.667271 0.660869 0.138367
0.714669 0.660869 0.138367
0.761572 0.660869 0.138367
0.808021 0.660869 0.138367
0.854053 0.660869 0.138367
0.899698 0.660869 0.138367
0.077213 0.709087 0.138367
0.143707 0.709087 0.138367
0.203865 0.709087 0.138367
0.260799 0.709087 0.138367
0.315586 0.709087 0.138367
0.368774 0.709087 0.138367
0.420695 0.709087 0.138367
0.471572 0.709087 0.138367
0.521562 0.709087 0.138367
0.570783 0.709087 0.138367
0.619329 0.709087 0.138367
0.667271 0.709087 0.138367
0.714669 0.709087 0.138367
0.761572 0.709087 0.138367
0.808021 0.709087 0.138367
0.854053 0.709087 0.138367
0.899698 0.709087 0.138367
0.077213 0.756891 0.138367
0.143707 0.756891 0.138367
0.203865 0.756891 0.138367
0.260799 0.756891 0.138367
0.315586 0.756891 0.138367
0.368774 0.756891 0.138367
0.420695 0.756891 0.138367
0.471572 0.756891 0.138367
0.521562 0.756891 0.138367
0.570783 0.756891 0.138367
0.619329 0.756891 0.138367
0.667271 0.756891 0.138367
0.714669 0.756891 0.138367
0.761572 0.756891 0.138367
0.808021 0.756891 0.138367
0.854053 0.756891 0.138367
0.899698 0.756891 0.138367
0.077213 0.804316 0.138367
0.143707 0.804316 0.138367
0.203865 0.804316 0.138367
0.260799 0.804316 0.138367
0.315586 0.804316 0.138367
0.368774 0.804316 0.138367
0.420695 0.804316 0.138367
0.471572 0.804316 0.138367
0.521562 0.804316 0.138367
0.570783 0.804316 0.138367
0.619329 0.804316 0.138367
0.667271 0.804316 0.138367
0.714669 0.804316 0.138367
0.761572 0.804316 0.138367
0.808021 0.804316 0.138367
0.854053 0.804316 0.138367
0.899698 0.804316 0.138367
0.077213 0.851390 0.138367
0.143707 0.851390 0.138367
0.203865 0.851390 0.138367
0.260799 0.851390 0.138367
0.315586 0.851390 0.138367
0.368774 0.851390 0.138367
0.420695 0.851390 0.138367
0.471572 0.851390 0.138367
0.521562 0.851390 0.138367
0.570783 0.851390 0.138367
0.619329 0.851390 0.138367
0.667271 0.851390 0.138367
0.714669 0.851390 0.138367
0.761572 0.851390 0.138367
0.808021 0.851390 0.138367
0.854053 0.851390 0.138367
0.899698 0.851390 0.138367
0.077213 0.898138 0.138367
0.143707 0.898138 0.138367
0.203865 0.898138 0.138367
0.260799 0.898138 0.138367
0.315586 0.898138 0.138367
0.368774 0.898138 0.138367
0.420695 0.898138 0.138367
0.471572 0.898138 0.138367
0.521562 0.898138 0.138367
0.570783 0.898138 0.138367
0.619329 0.898138 0.138367
0.667271 0.898138 0.138367
0.714669 0.898138 0.138367
0.761572 0.898138 0.138367
0.808021 0.898138 0.138367
0.854053 0.898138 0.138367
0.899698 0.898138 0.138367
0.077213 0.074149 0.197004
0.143707 0.074149 0.197004
0.203865 0.074149 0.197004
0.260799 0.074149 0.197004
0.315586 0.074149 0.197004
0.368774 0.074149 0.197004
0.420695 0.074149 0.197004
0.471572 0.074149 0.197004
0.521562 0.074149 0.197004
0.570783 0.074149 0.197004
0.619329 0.074149 0.197004
0.667271 0.074149 0.197004
0.714669 0.074149 0.197004
0.761572 0.074149 0.197004
0.808021 0.074149 0.197004
0.854053 0.074149 0.197004
0.899698 0.074149 0.197004
0.077213 0.137817 0.197004
0.143707 0.137817 0.197004
0.203865 0.137817 0.197004
0.260799 0.137817 0.197004
0.315586 0.137817 0.197004
0.368774 0.137817 0.197004
0.420695 0.137817 0.197004
0.471572 0.137817 0.197004
0.521562 0.137817 0.197004
0.570783 0.137817 0.197004
0.619329 0.137817 0.197004
0.667271 0.137817 0.197004
0.714669 0.137817 0.197004
0.761572 0.137817 0.197004
0.808021 0.137817 0.197004
0.854053 0.137817 0.197004
0.899698 0.137817 0.197004
0.077213 0.196464 0.197004
0.143707 0.196464 0.197004
0.203865 0.196464 0.197004
0.260799 0.196464 0.197004
0.315586 0.196464 0.197004
0.368774 0.196464 0.197004
0.420695 0.196464 0.197004
0.471572 0.196464 0.197004
0.521562 0.196464 0.197004
0.570783 0.196464 0.197004
0.619329 0.196464 0.197004
0.667271 0.196464 0.197004
0.714669 0.196464 0.197004
0.761572 0.196464 0.197004
0.808021 0.196464 0.197004
0.854053 0.196464 0.197004
0.899698 0.196464 0.197004
0.077213 0.252518 0.197004
0.143707 0.252518 0.197004
0.203865 0.252518 0.197004
0.260799 0.252518 0.197004
0.315586 0.252518 0.197004
0.368774 0.252518 0.197004
0.420695 0.252518 0.197004
0.471572 0.252518 0.197004
0.521562 0.252518 0.197004
0.570783 0.252518 0.197004
0.619329 0.252518 0.197004
0.667271 0.252518 0.197004
0.714669 0.252518 0.197004
0.761572 0.252518 0.197004
0.808021 0.252518 0.197004
0.854053 0.252518 0.197004
0.899698 0.252518 0.197004
0.077213 0.306830 0.197004
0.143707 0.306830 0.197004
0.203865 0.306830 0.197004
0.260799 0.306830 0.197004
0.315586 0.306830 0.197004
0.368774 0.306830 0.197004
0.420695 0.306830 0.197004
0.471572 0.306830 0.197004
0.521562 0.306830 0.197004
0.570783 0.306830 0.197004
0.619329 0.306830 0.197004
0.667271 0.306830 0.197004
0.714669 0.306830 0.197004
0.761572 0.306830 0.197004
0.808021 0.306830 0.197004
0.854053 0.306830 0.197004
0.899698 0.306830 0.197004
0.077213 0.359836 0.197004
0.143707 0.359836 0.197004
0.203865 0.359836 0.197004
0.260799 0.359836 0.197004
0.315586 0.359836 0.197004
0.368774 0.359836 0.197004
0.420695 0.359836 0.197004
0.471572 0.359836 0.197004
0.521562 0.359836 0.197004
0.570783 0.359836 0.197004
0.619329 0.359836 0.197004
0.667271 0.359836 0.197004
0.714669 0.359836 0.197004
0.761572 0.359836 0.197004
0.808021 0.359836 0.197004
0.854053 0.359836 0.197004
0.899698 0.359836 0.197004
0.077213 0.411803 0.197004
0.143707 0.411803 0.197004
0.203865 0.411803 0.197004
0.260799 0.411803 0.197004
0.315586 0.411803 0.197004
0.368774 0.411803 0.197004
0.420695 0.411803 0.197004
0.471572 0.411803 0.197004
0.521562 0.411803 0.197004
0.570783 0.411803 0.197004
0.619329 0.411803 0.197004
0.667271 0.411803 0.197004
0.714669 0.411803 0.197004
0.761572 0.411803 0.197004
0.808021 0.411803 0.197004
0.854053 0.411803 0.197004
0.899698 0.411803 0.197004
0.077213 0.462910 0.197004
0.143707 0.462910 0.197004
0.203865 0.462910 0.197004
0.260799 0.462910 0.197004
0.315586 0.462910 0.197004
0.368774 0.462910 0.197004
0.420695 0.462910 0.197004
0.471572 0.462910 0.197004
0.521562 0.462910 0.197004
0.570783 0.462910 0.197004
0.619329 0.462910 0.197004
0.667271 0.462910 0.197004
0.714669 0.462910 0.197004
0.761572 0.462910 0.197004
0.808021 0.462910 0.197004
0.854053 0.462910 0.197004
0.899698 0.462910 0.197004
0.077213 0.513284 0.197004
0.143707 0.513284 0.197004
0.203865 0.513284 0.197004
0.260799 0.513284 0.197004
0.315586 0.513284 0.197004
0.368774 0.513284 0.197004
0.420695 0.513284 0.197004
0.471572 0.513284 0.197004
0.521562 0.513284 0.197004
0.570783 0.513284 0.197004
0.619329 0.513284 0.197004
0.667271 0.513284 0.197004
0.714669 0.513284 0.197004
0.761572 0.513284 0.197004
0.808021 0.513284 0.197004
0.854053 0.513284 0.197004
0.899698 0.513284 0.197004
0.077213 0.563021 0.197004
0.143707 0.563021 0.197004
0.203865 0.563021 0.197004
0.260799 0.563021 0.197004
0.315586 0.563021 0.197004
0.368774 0.563021 0.197004
0.420695 0.563021 0.197004
0.471572 0.563021 0.197004
0.521562 0.563021 0.197004
0.570783 0.563021 0.197004
0.619329 0.563021 0.197004
0.667271 0.563021 0.197004
0.714669 0.563021 0.197004
0.761572 0.563021 0.197004
0.808021 0.563021 0.197004
0.854053 0.563021 0.197004
0.899698 0.563021 0.197004
0.077213 0.612196 0.197004
0.143707 0.612196 0.197004
0.203865 0.612196 0.197004
0.260799 0.612196 0.197004
0.315586 0.612196 0.197004
0.368774 0.612196 0.197004
0.420695 0.612196 0.197004
0.471572 0.612196 0.197004
0.521562 0.612196 0.197004
0.570783 0.612196 0.197004
0.619329 0.612196 0.197004
0.667271 0.612196 0.197004
0.714669 0.612196 0.197004
0.761572 0.612196 0.197004
0.808021 0.612196 0.197004
0.854053 0.612196 0.197004
0.899698 0.612196 0.197004
0.077213 0.660869 0.197004
0.143707 0.660869 0.197004
0.203865 0.660869 0.197004
0.260799 0.660869 0.197004
0.315586 0.660869 0.197004
0.368774 0.660869 0.197004
0.420695 0.660869 0.197004
0.471572 0.660869 0.197004
0.521562 0.660869 0.197004
0.570783 0.660869 0.197004
0.619329 0.660869 0.197004
0.667271 0.660869 0.197004
0.714669 0.660869 0.197004
0.761572 0.660869 0.197004
0.808021 0.660869 0.197004
0.854053 0.660869 0.197004
0.899698 0.660869 0.197004
0.077213 0.709087 0.197004
0.143707 0.709087 0.197004
0.203865 0.709087 0.197004
0.260799 0.709087 0.197004
0.315586 0.709087 0.197004
0.368774 0.709087 0.197004
0.420695 0.709087 0.197004
0.471572 0.709087 0.197004
0.521562 0.709087 0.197004
0.570783 0.709087 0.197004
0.619329 0.709087 0.197004
0.667271 0.709087 0.197004
0.714669 0.709087 0.197004
0.761572 0.709087 0.197004
0.808021 0.709087 0.197004
0.854053 0.709087 0.197004
0.899698 0.709087 0.197004
0.077213 0.756891 0.197004
0.143707 0.756891 0.197004
0.203865 0.756891 0.197004
0.260799 0.756891 0.197004
0.315586 0.756891 0.197004
0.368774 0.756891 0.197004
0.420695 0.756891 0.197004
0.471572 0.756891 0.197004
0.521562 0.756891 0.197004
0.570783 0.756891 0.197004
0.619329 0.756891 0.197004
0.667271 0.756891 0.197004
0.714669 0.756891 0.197004
0.761572 0.756891 0.197004
0.808021 0.756891 0.197004
0.854053 0.756891 0.197004
0.899698 0.756891 0.197004
0.077213 0.804316 0.197004
0.143707 0.804316 0.197004
0.203865 0.804316 0.197004
0.260799 0.804316 0.197004
0.315586 0.804316 0.197004
0.368774 0.804316 0.197004
0.420695 0.804316 0.197004
0.471572 0.804316 0.197004
0.521562 0.804316 0.197004
0.570783 0.804316 0.197004
0.619329 0.804316 0.197004
0.667271 0.804316 0.197004
0.714669 0.804316 0.197004
0.761572 0.804316 0.197004
0.808021 0.804316 0.197004
0.854053 0.804316 0.197004
0.899698 0.804316 0.197004
0.077213 0.851390 0.197004
0.143707 0.851390 0.197004
0.203865 0.851390 0.197004
0.260799 0.851390 0.197004
0.315586 0.851390 0.197004
0.368774 0.851390 0.197004
0.420695 0.851390 0.197004
0.471572 0.851390 0.197004
0.521562 0.851390 0.197004
0.570783 0.851390 0.197004
0.619329 0.851390 0.197004
0.667271 0.851390 0.197004
0.714669 0.851390 0.197004
0.761572 0.851390 0.197004
0.808021 0.851390 0.197004
0.854053 0.851390 0.197004
0.899698 0.851390 0.197004
0.077213 0.898138 0.197004
0.143707 0.898138 0.197004
0.203865 0.898138 0.197004
0.260799 0.898138 0.197004
0.315586 0.898138 0.197004
0.368774 0.898138 0.197004
0.420695 0.898138 0.197004
0.471572 0.898138 0.197004
0.521562 0.898138 0.197004
0.570783 0.898138 0.197004
0.619329 0.898138 0.197004
0.667271 0.898138 0.197004
0.714669 0.898138 0.197004
0.761572 0.898138 0.197004
0.808021 0.898138 0.197004
0.854053 0.898138 0.197004
0.899698 0.898138 0.197004
0.077213 0.074149 0.253475
0.143707 0.074149 0.253475
0.203865 0.074149 0.253475
0.260799 0.074149 0.253475
0.315586 0.074149 0.253475
0.368774 0.074149 0.253475
0.420695 0.074149 0.253475
0.471572 0.074149 0.253475
0.521562 0.074149 0.253475
0.570783 0.074149 0.253475
0.619329 0.074149 0.253475
0.667271 0.074149 0.253475
0.714669 0.074149 0.253475
0.761572 0.074149 0.253475
