assets/lighting/tone-mapping/grade-filmic-highlight-roll/lut.cube
TITLE "Filmic Highlight Roll-off"
# TKRS lighting-batch-001 original LUT
# Intended usage: compress highlights, lift toe slightly
# License: CC0-1.0
LUT_3D_SIZE 9
DOMAIN_MIN 0.0 0.0 0.0
DOMAIN_MAX 1.0 1.0 1.0
0.077213 0.074149 0.075654
0.203865 0.074149 0.075654
0.315586 0.074149 0.075654
0.420695 0.074149 0.075654
0.521562 0.074149 0.075654
0.619329 0.074149 0.075654
0.714669 0.074149 0.075654
0.808021 0.074149 0.075654
0.899698 0.074149 0.075654
0.077213 0.196464 0.075654
0.203865 0.196464 0.075654
0.315586 0.196464 0.075654
0.420695 0.196464 0.075654
0.521562 0.196464 0.075654
0.619329 0.196464 0.075654
0.714669 0.196464 0.075654
0.808021 0.196464 0.075654
0.899698 0.196464 0.075654
0.077213 0.306830 0.075654
0.203865 0.306830 0.075654
0.315586 0.306830 0.075654
0.420695 0.306830 0.075654
0.521562 0.306830 0.075654
0.619329 0.306830 0.075654
0.714669 0.306830 0.075654
0.808021 0.306830 0.075654
0.899698 0.306830 0.075654
0.077213 0.411803 0.075654
0.203865 0.411803 0.075654
0.315586 0.411803 0.075654
0.420695 0.411803 0.075654
0.521562 0.411803 0.075654
0.619329 0.411803 0.075654
0.714669 0.411803 0.075654
0.808021 0.411803 0.075654
0.899698 0.411803 0.075654
0.077213 0.513284 0.075654
0.203865 0.513284 0.075654
0.315586 0.513284 0.075654
0.420695 0.513284 0.075654
0.521562 0.513284 0.075654
0.619329 0.513284 0.075654
0.714669 0.513284 0.075654
0.808021 0.513284 0.075654
0.899698 0.513284 0.075654
0.077213 0.612196 0.075654
0.203865 0.612196 0.075654
0.315586 0.612196 0.075654
0.420695 0.612196 0.075654
0.521562 0.612196 0.075654
0.619329 0.612196 0.075654
0.714669 0.612196 0.075654
0.808021 0.612196 0.075654
0.899698 0.612196 0.075654
0.077213 0.709087 0.075654
0.203865 0.709087 0.075654
0.315586 0.709087 0.075654
0.420695 0.709087 0.075654
0.521562 0.709087 0.075654
0.619329 0.709087 0.075654
0.714669 0.709087 0.075654
0.808021 0.709087 0.075654
0.899698 0.709087 0.075654
0.077213 0.804316 0.075654
0.203865 0.804316 0.075654
0.315586 0.804316 0.075654
0.420695 0.804316 0.075654
0.521562 0.804316 0.075654
0.619329 0.804316 0.075654
0.714669 0.804316 0.075654
0.808021 0.804316 0.075654
0.899698 0.804316 0.075654
0.077213 0.898138 0.075654
0.203865 0.898138 0.075654
0.315586 0.898138 0.075654
0.420695 0.898138 0.075654
0.521562 0.898138 0.075654
0.619329 0.898138 0.075654
0.714669 0.898138 0.075654
0.808021 0.898138 0.075654
0.899698 0.898138 0.075654
0.077213 0.074149 0.197004
0.203865 0.074149 0.197004
0.315586 0.074149 0.197004
0.420695 0.074149 0.197004
0.521562 0.074149 0.197004
0.619329 0.074149 0.197004
0.714669 0.074149 0.197004
0.808021 0.074149 0.197004
0.899698 0.074149 0.197004
0.077213 0.196464 0.197004
0.203865 0.196464 0.197004
0.315586 0.196464 0.197004
0.420695 0.196464 0.197004
0.521562 0.196464 0.197004
0.619329 0.196464 0.197004
0.714669 0.196464 0.197004
0.808021 0.196464 0.197004
0.899698 0.196464 0.197004
0.077213 0.306830 0.197004
0.203865 0.306830 0.197004
0.315586 0.306830 0.197004
0.420695 0.306830 0.197004
0.521562 0.306830 0.197004
0.619329 0.306830 0.197004
0.714669 0.306830 0.197004
0.808021 0.306830 0.197004
0.899698 0.306830 0.197004
0.077213 0.411803 0.197004
0.203865 0.411803 0.197004
0.315586 0.411803 0.197004
0.420695 0.411803 0.197004
0.521562 0.411803 0.197004
0.619329 0.411803 0.197004
0.714669 0.411803 0.197004
0.808021 0.411803 0.197004
0.899698 0.411803 0.197004
0.077213 0.513284 0.197004
0.203865 0.513284 0.197004
0.315586 0.513284 0.197004
0.420695 0.513284 0.197004
0.521562 0.513284 0.197004
0.619329 0.513284 0.197004
0.714669 0.513284 0.197004
0.808021 0.513284 0.197004
0.899698 0.513284 0.197004
0.077213 0.612196 0.197004
0.203865 0.612196 0.197004
0.315586 0.612196 0.197004
0.420695 0.612196 0.197004
0.521562 0.612196 0.197004
0.619329 0.612196 0.197004
0.714669 0.612196 0.197004
0.808021 0.612196 0.197004
0.899698 0.612196 0.197004
0.077213 0.709087 0.197004
0.203865 0.709087 0.197004
0.315586 0.709087 0.197004
0.420695 0.709087 0.197004
0.521562 0.709087 0.197004
0.619329 0.709087 0.197004
0.714669 0.709087 0.197004
0.808021 0.709087 0.197004
0.899698 0.709087 0.197004
0.077213 0.804316 0.197004
0.203865 0.804316 0.197004
0.315586 0.804316 0.197004
0.420695 0.804316 0.197004
0.521562 0.804316 0.197004
0.619329 0.804316 0.197004
0.714669 0.804316 0.197004
0.808021 0.804316 0.197004
0.899698 0.804316 0.197004
0.077213 0.898138 0.197004
0.203865 0.898138 0.197004
0.315586 0.898138 0.197004
0.420695 0.898138 0.197004
0.521562 0.898138 0.197004
0.619329 0.898138 0.197004
0.714669 0.898138 0.197004
0.808021 0.898138 0.197004
0.899698 0.898138 0.197004
0.077213 0.074149 0.308471
0.203865 0.074149 0.308471
0.315586 0.074149 0.308471
0.420695 0.074149 0.308471
0.521562 0.074149 0.308471
0.619329 0.074149 0.308471
0.714669 0.074149 0.308471
0.808021 0.074149 0.308471
0.899698 0.074149 0.308471
0.077213 0.196464 0.308471
0.203865 0.196464 0.308471
0.315586 0.196464 0.308471
0.420695 0.196464 0.308471
0.521562 0.196464 0.308471
0.619329 0.196464 0.308471
0.714669 0.196464 0.308471
0.808021 0.196464 0.308471
0.899698 0.196464 0.308471
0.077213 0.306830 0.308471
0.203865 0.306830 0.308471
0.315586 0.306830 0.308471
0.420695 0.306830 0.308471
0.521562 0.306830 0.308471
0.619329 0.306830 0.308471
0.714669 0.306830 0.308471
0.808021 0.306830 0.308471
0.899698 0.306830 0.308471
0.077213 0.411803 0.308471
0.203865 0.411803 0.308471
0.315586 0.411803 0.308471
0.420695 0.411803 0.308471
0.521562 0.411803 0.308471
0.619329 0.411803 0.308471
0.714669 0.411803 0.308471
0.808021 0.411803 0.308471
0.899698 0.411803 0.308471
0.077213 0.513284 0.308471
0.203865 0.513284 0.308471
0.315586 0.513284 0.308471
0.420695 0.513284 0.308471
0.521562 0.513284 0.308471
0.619329 0.513284 0.308471
0.714669 0.513284 0.308471
0.808021 0.513284 0.308471
0.899698 0.513284 0.308471
0.077213 0.612196 0.308471
0.203865 0.612196 0.308471
0.315586 0.612196 0.308471
0.420695 0.612196 0.308471
0.521562 0.612196 0.308471
0.619329 0.612196 0.308471
0.714669 0.612196 0.308471
0.808021 0.612196 0.308471
0.899698 0.612196 0.308471
0.077213 0.709087 0.308471
0.203865 0.709087 0.308471
0.315586 0.709087 0.308471
0.420695 0.709087 0.308471
0.521562 0.709087 0.308471
0.619329 0.709087 0.308471
0.714669 0.709087 0.308471
0.808021 0.709087 0.308471
0.899698 0.709087 0.308471
0.077213 0.804316 0.308471
0.203865 0.804316 0.308471
0.315586 0.804316 0.308471
0.420695 0.804316 0.308471
0.521562 0.804316 0.308471
0.619329 0.804316 0.308471
0.714669 0.804316 0.308471
0.808021 0.804316 0.308471
0.899698 0.804316 0.308471
0.077213 0.898138 0.308471
0.203865 0.898138 0.308471
0.315586 0.898138 0.308471
0.420695 0.898138 0.308471
0.521562 0.898138 0.308471
0.619329 0.898138 0.308471
0.714669 0.898138 0.308471
0.808021 0.898138 0.308471
0.899698 0.898138 0.308471
0.077213 0.074149 0.415346
0.203865 0.074149 0.415346
0.315586 0.074149 0.415346
0.420695 0.074149 0.415346
0.521562 0.074149 0.415346
0.619329 0.074149 0.415346
0.714669 0.074149 0.415346
0.808021 0.074149 0.415346
0.899698 0.074149 0.415346
0.077213 0.196464 0.415346
0.203865 0.196464 0.415346
0.315586 0.196464 0.415346
0.420695 0.196464 0.415346
0.521562 0.196464 0.415346
0.619329 0.196464 0.415346
0.714669 0.196464 0.415346
0.808021 0.196464 0.415346
0.899698 0.196464 0.415346
0.077213 0.306830 0.415346
0.203865 0.306830 0.415346
0.315586 0.306830 0.415346
0.420695 0.306830 0.415346
0.521562 0.306830 0.415346
0.619329 0.306830 0.415346
0.714669 0.306830 0.415346
0.808021 0.306830 0.415346
0.899698 0.306830 0.415346
0.077213 0.411803 0.415346
0.203865 0.411803 0.415346
0.315586 0.411803 0.415346
0.420695 0.411803 0.415346
0.521562 0.411803 0.415346
0.619329 0.411803 0.415346
0.714669 0.411803 0.415346
0.808021 0.411803 0.415346
0.899698 0.411803 0.415346
0.077213 0.513284 0.415346
0.203865 0.513284 0.415346
0.315586 0.513284 0.415346
0.420695 0.513284 0.415346
0.521562 0.513284 0.415346
0.619329 0.513284 0.415346
0.714669 0.513284 0.415346
0.808021 0.513284 0.415346
0.899698 0.513284 0.415346
0.077213 0.612196 0.415346
0.203865 0.612196 0.415346
0.315586 0.612196 0.415346
0.420695 0.612196 0.415346
0.521562 0.612196 0.415346
0.619329 0.612196 0.415346
0.714669 0.612196 0.415346
0.808021 0.612196 0.415346
0.899698 0.612196 0.415346
0.077213 0.709087 0.415346
0.203865 0.709087 0.415346
0.315586 0.709087 0.415346
0.420695 0.709087 0.415346
0.521562 0.709087 0.415346
0.619329 0.709087 0.415346
0.714669 0.709087 0.415346
0.808021 0.709087 0.415346
0.899698 0.709087 0.415346
0.077213 0.804316 0.415346
0.203865 0.804316 0.415346
0.315586 0.804316 0.415346
0.420695 0.804316 0.415346
0.521562 0.804316 0.415346
0.619329 0.804316 0.415346
0.714669 0.804316 0.415346
0.808021 0.804316 0.415346
0.899698 0.804316 0.415346
0.077213 0.898138 0.415346
0.203865 0.898138 0.415346
0.315586 0.898138 0.415346
0.420695 0.898138 0.415346
0.521562 0.898138 0.415346
0.619329 0.898138 0.415346
0.714669 0.898138 0.415346
0.808021 0.898138 0.415346
0.899698 0.898138 0.415346
0.077213 0.074149 0.519218
0.203865 0.074149 0.519218
0.315586 0.074149 0.519218
0.420695 0.074149 0.519218
0.521562 0.074149 0.519218
0.619329 0.074149 0.519218
0.714669 0.074149 0.519218
0.808021 0.074149 0.519218
0.899698 0.074149 0.519218
0.077213 0.196464 0.519218
0.203865 0.196464 0.519218
0.315586 0.196464 0.519218
0.420695 0.196464 0.519218
0.521562 0.196464 0.519218
0.619329 0.196464 0.519218
0.714669 0.196464 0.519218
0.808021 0.196464 0.519218
0.899698 0.196464 0.519218
0.077213 0.306830 0.519218
0.203865 0.306830 0.519218
0.315586 0.306830 0.519218
0.420695 0.306830 0.519218
0.521562 0.306830 0.519218
0.619329 0.306830 0.519218
0.714669 0.306830 0.519218
0.808021 0.306830 0.519218
0.899698 0.306830 0.519218
0.077213 0.411803 0.519218
0.203865 0.411803 0.519218
0.315586 0.411803 0.519218
0.420695 0.411803 0.519218
0.521562 0.411803 0.519218
0.619329 0.411803 0.519218
0.714669 0.411803 0.519218
0.808021 0.411803 0.519218
0.899698 0.411803 0.519218
0.077213 0.513284 0.519218
0.203865 0.513284 0.519218
0.315586 0.513284 0.519218
0.420695 0.513284 0.519218
0.521562 0.513284 0.519218
0.619329 0.513284 0.519218
0.714669 0.513284 0.519218
0.808021 0.513284 0.519218
0.899698 0.513284 0.519218
0.077213 0.612196 0.519218
0.203865 0.612196 0.519218
0.315586 0.612196 0.519218
0.420695 0.612196 0.519218
0.521562 0.612196 0.519218
0.619329 0.612196 0.519218
0.714669 0.612196 0.519218
0.808021 0.612196 0.519218
0.899698 0.612196 0.519218
0.077213 0.709087 0.519218
0.203865 0.709087 0.519218
0.315586 0.709087 0.519218
0.420695 0.709087 0.519218
0.521562 0.709087 0.519218
0.619329 0.709087 0.519218
0.714669 0.709087 0.519218
0.808021 0.709087 0.519218
0.899698 0.709087 0.519218
0.077213 0.804316 0.519218
0.203865 0.804316 0.519218
0.315586 0.804316 0.519218
0.420695 0.804316 0.519218
0.521562 0.804316 0.519218
0.619329 0.804316 0.519218
0.714669 0.804316 0.519218
0.808021 0.804316 0.519218
0.899698 0.804316 0.519218
0.077213 0.898138 0.519218
0.203865 0.898138 0.519218
0.315586 0.898138 0.519218
0.420695 0.898138 0.519218
0.521562 0.898138 0.519218
0.619329 0.898138 0.519218
0.714669 0.898138 0.519218
0.808021 0.898138 0.519218
0.899698 0.898138 0.519218
0.077213 0.074149 0.620866
0.203865 0.074149 0.620866
0.315586 0.074149 0.620866
0.420695 0.074149 0.620866
0.521562 0.074149 0.620866
0.619329 0.074149 0.620866
0.714669 0.074149 0.620866
0.808021 0.074149 0.620866
0.899698 0.074149 0.620866
0.077213 0.196464 0.620866
0.203865 0.196464 0.620866
0.315586 0.196464 0.620866
0.420695 0.196464 0.620866
0.521562 0.196464 0.620866
0.619329 0.196464 0.620866
0.714669 0.196464 0.620866
0.808021 0.196464 0.620866
0.899698 0.196464 0.620866
0.077213 0.306830 0.620866
0.203865 0.306830 0.620866
0.315586 0.306830 0.620866
0.420695 0.306830 0.620866
0.521562 0.306830 0.620866
0.619329 0.306830 0.620866
0.714669 0.306830 0.620866
0.808021 0.306830 0.620866
0.899698 0.306830 0.620866
0.077213 0.411803 0.620866
0.203865 0.411803 0.620866
0.315586 0.411803 0.620866
0.420695 0.411803 0.620866
0.521562 0.411803 0.620866
0.619329 0.411803 0.620866
0.714669 0.411803 0.620866
0.808021 0.411803 0.620866
0.899698 0.411803 0.620866
0.077213 0.513284 0.620866
0.203865 0.513284 0.620866
0.315586 0.513284 0.620866
0.420695 0.513284 0.620866
0.521562 0.513284 0.620866
0.619329 0.513284 0.620866
0.714669 0.513284 0.620866
0.808021 0.513284 0.620866
0.899698 0.513284 0.620866
0.077213 0.612196 0.620866
0.203865 0.612196 0.620866
0.315586 0.612196 0.620866
0.420695 0.612196 0.620866
0.521562 0.612196 0.620866
0.619329 0.612196 0.620866
0.714669 0.612196 0.620866
0.808021 0.612196 0.620866
0.899698 0.612196 0.620866
0.077213 0.709087 0.620866
0.203865 0.709087 0.620866
0.315586 0.709087 0.620866
0.420695 0.709087 0.620866
0.521562 0.709087 0.620866
0.619329 0.709087 0.620866
0.714669 0.709087 0.620866
0.808021 0.709087 0.620866
0.899698 0.709087 0.620866
0.077213 0.804316 0.620866
0.203865 0.804316 0.620866
0.315586 0.804316 0.620866
0.420695 0.804316 0.620866
0.521562 0.804316 0.620866
0.619329 0.804316 0.620866
0.714669 0.804316 0.620866
0.808021 0.804316 0.620866
0.899698 0.804316 0.620866
0.077213 0.898138 0.620866
0.203865 0.898138 0.620866
0.315586 0.898138 0.620866
0.420695 0.898138 0.620866
0.521562 0.898138 0.620866
0.619329 0.898138 0.620866
0.714669 0.898138 0.620866
0.808021 0.898138 0.620866
0.899698 0.898138 0.620866
0.077213 0.074149 0.720757
0.203865 0.074149 0.720757
0.315586 0.074149 0.720757
0.420695 0.074149 0.720757
0.521562 0.074149 0.720757
0.619329 0.074149 0.720757
0.714669 0.074149 0.720757
0.808021 0.074149 0.720757
0.899698 0.074149 0.720757
0.077213 0.196464 0.720757
0.203865 0.196464 0.720757
0.315586 0.196464 0.720757
0.420695 0.196464 0.720757
0.521562 0.196464 0.720757
0.619329 0.196464 0.720757
0.714669 0.196464 0.720757
0.808021 0.196464 0.720757
0.899698 0.196464 0.720757
0.077213 0.306830 0.720757
0.203865 0.306830 0.720757
0.315586 0.306830 0.720757
0.420695 0.306830 0.720757
0.521562 0.306830 0.720757
0.619329 0.306830 0.720757
0.714669 0.306830 0.720757
0.808021 0.306830 0.720757
0.899698 0.306830 0.720757
0.077213 0.411803 0.720757
0.203865 0.411803 0.720757
0.315586 0.411803 0.720757
0.420695 0.411803 0.720757
0.521562 0.411803 0.720757
0.619329 0.411803 0.720757
0.714669 0.411803 0.720757
0.808021 0.411803 0.720757
0.899698 0.411803 0.720757
0.077213 0.513284 0.720757
0.203865 0.513284 0.720757
0.315586 0.513284 0.720757
0.420695 0.513284 0.720757
0.521562 0.513284 0.720757
0.619329 0.513284 0.720757
0.714669 0.513284 0.720757
0.808021 0.513284 0.720757
0.899698 0.513284 0.720757
0.077213 0.612196 0.720757
0.203865 0.612196 0.720757
0.315586 0.612196 0.720757
0.420695 0.612196 0.720757
0.521562 0.612196 0.720757
0.619329 0.612196 0.720757
0.714669 0.612196 0.720757
0.808021 0.612196 0.720757
0.899698 0.612196 0.720757
0.077213 0.709087 0.720757
0.203865 0.709087 0.720757
0.315586 0.709087 0.720757
0.420695 0.709087 0.720757
0.521562 0.709087 0.720757
0.619329 0.709087 0.720757
0.714669 0.709087 0.720757
0.808021 0.709087 0.720757
0.899698 0.709087 0.720757
0.077213 0.804316 0.720757
0.203865 0.804316 0.720757
0.315586 0.804316 0.720757
0.420695 0.804316 0.720757
0.521562 0.804316 0.720757
0.619329 0.804316 0.720757
0.714669 0.804316 0.720757
0.808021 0.804316 0.720757
0.899698 0.804316 0.720757
0.077213 0.898138 0.720757
0.203865 0.898138 0.720757
0.315586 0.898138 0.720757
0.420695 0.898138 0.720757
0.521562 0.898138 0.720757
0.619329 0.898138 0.720757
0.714669 0.898138 0.720757
0.808021 0.898138 0.720757
0.899698 0.898138 0.720757
0.077213 0.074149 0.819196
0.203865 0.074149 0.819196
0.315586 0.074149 0.819196
0.420695 0.074149 0.819196
0.521562 0.074149 0.819196
0.619329 0.074149 0.819196
0.714669 0.074149 0.819196
0.808021 0.074149 0.819196
0.899698 0.074149 0.819196
0.077213 0.196464 0.819196
0.203865 0.196464 0.819196
0.315586 0.196464 0.819196
0.420695 0.196464 0.819196
0.521562 0.196464 0.819196
0.619329 0.196464 0.819196
0.714669 0.196464 0.819196
0.808021 0.196464 0.819196
0.899698 0.196464 0.819196
0.077213 0.306830 0.819196
0.203865 0.306830 0.819196
0.315586 0.306830 0.819196
0.420695 0.306830 0.819196
0.521562 0.306830 0.819196
0.619329 0.306830 0.819196
0.714669 0.306830 0.819196
0.808021 0.306830 0.819196
0.899698 0.306830 0.819196
0.077213 0.411803 0.819196
0.203865 0.411803 0.819196
0.315586 0.411803 0.819196
0.420695 0.411803 0.819196
0.521562 0.411803 0.819196
0.619329 0.411803 0.819196
0.714669 0.411803 0.819196
0.808021 0.411803 0.819196
0.899698 0.411803 0.819196
0.077213 0.513284 0.819196
0.203865 0.513284 0.819196
0.315586 0.513284 0.819196
0.420695 0.513284 0.819196
0.521562 0.513284 0.819196
0.619329 0.513284 0.819196
0.714669 0.513284 0.819196
0.808021 0.513284 0.819196
0.899698 0.513284 0.819196
0.077213 0.612196 0.819196
0.203865 0.612196 0.819196
0.315586 0.612196 0.819196
0.420695 0.612196 0.819196
0.521562 0.612196 0.819196
0.619329 0.612196 0.819196
0.714669 0.612196 0.819196
0.808021 0.612196 0.819196
0.899698 0.612196 0.819196
0.077213 0.709087 0.819196
0.203865 0.709087 0.819196
0.315586 0.709087 0.819196
0.420695 0.709087 0.819196
0.521562 0.709087 0.819196
0.619329 0.709087 0.819196
0.714669 0.709087 0.819196
0.808021 0.709087 0.819196
0.899698 0.709087 0.819196
0.077213 0.804316 0.819196
0.203865 0.804316 0.819196
0.315586 0.804316 0.819196
0.420695 0.804316 0.819196
0.521562 0.804316 0.819196
0.619329 0.804316 0.819196
0.714669 0.804316 0.819196
0.808021 0.804316 0.819196
0.899698 0.804316 0.819196
0.077213 0.898138 0.819196
0.203865 0.898138 0.819196
0.315586 0.898138 0.819196
0.420695 0.898138 0.819196
0.521562 0.898138 0.819196
0.619329 0.898138 0.819196
0.714669 0.898138 0.819196
0.808021 0.898138 0.819196
0.899698 0.898138 0.819196
0.077213 0.074149 0.916404
0.203865 0.074149 0.916404
0.315586 0.074149 0.916404
0.420695 0.074149 0.916404
0.521562 0.074149 0.916404
0.619329 0.074149 0.916404
0.714669 0.074149 0.916404
0.808021 0.074149 0.916404
0.899698 0.074149 0.916404
0.077213 0.196464 0.916404
0.203865 0.196464 0.916404
0.315586 0.196464 0.916404
0.420695 0.196464 0.916404
0.521562 0.196464 0.916404
0.619329 0.196464 0.916404
0.714669 0.196464 0.916404
0.808021 0.196464 0.916404
0.899698 0.196464 0.916404
0.077213 0.306830 0.916404
0.203865 0.306830 0.916404
0.315586 0.306830 0.916404
0.420695 0.306830 0.916404
0.521562 0.306830 0.916404
0.619329 0.306830 0.916404
0.714669 0.306830 0.916404
0.808021 0.306830 0.916404
0.899698 0.306830 0.916404
0.077213 0.411803 0.916404
0.203865 0.411803 0.916404
0.315586 0.411803 0.916404
0.420695 0.411803 0.916404
0.521562 0.411803 0.916404
0.619329 0.411803 0.916404
0.714669 0.411803 0.916404
0.808021 0.411803 0.916404
0.899698 0.411803 0.916404
0.077213 0.513284 0.916404
0.203865 0.513284 0.916404
0.315586 0.513284 0.916404
0.420695 0.513284 0.916404
0.521562 0.513284 0.916404
0.619329 0.513284 0.916404
0.714669 0.513284 0.916404
0.808021 0.513284 0.916404
0.899698 0.513284 0.916404
0.077213 0.612196 0.916404
0.203865 0.612196 0.916404
0.315586 0.612196 0.916404
0.420695 0.612196 0.916404
0.521562 0.612196 0.916404
0.619329 0.612196 0.916404
0.714669 0.612196 0.916404
0.808021 0.612196 0.916404
0.899698 0.612196 0.916404
0.077213 0.709087 0.916404
0.203865 0.709087 0.916404
0.315586 0.709087 0.916404
0.420695 0.709087 0.916404
0.521562 0.709087 0.916404
0.619329 0.709087 0.916404
0.714669 0.709087 0.916404
0.808021 0.709087 0.916404
0.899698 0.709087 0.916404
0.077213 0.804316 0.916404
0.203865 0.804316 0.916404
0.315586 0.804316 0.916404
0.420695 0.804316 0.916404
0.521562 0.804316 0.916404
0.619329 0.804316 0.916404
0.714669 0.804316 0.916404
0.808021 0.804316 0.916404
0.899698 0.804316 0.916404
0.077213 0.898138 0.916404
0.203865 0.898138 0.916404
0.315586 0.898138 0.916404
0.420695 0.898138 0.916404
0.521562 0.898138 0.916404
0.619329 0.898138 0.916404
0.714669 0.898138 0.916404
0.808021 0.898138 0.916404
0.899698 0.898138 0.916404
