assets/lighting/cinematic/grade-sodium-night-city/lut.cube
TITLE "Sodium Night City"
# TKRS lighting-batch-001 original LUT
# Intended usage: urban night under sodium streetlights
# License: CC0-1.0
LUT_3D_SIZE 5
DOMAIN_MIN 0.0 0.0 0.0
DOMAIN_MAX 1.0 1.0 1.0
0.000000 0.000000 0.000000
0.132957 0.000000 0.000000
0.316564 0.000000 0.000000
0.500171 0.000000 0.000000
0.683779 0.000000 0.000000
0.000000 0.090973 0.000000
0.132957 0.090973 0.000000
0.316978 0.091056 0.000000
0.515293 0.092879 0.000000
0.729201 0.095160 0.000000
0.000000 0.234724 0.000000
0.139889 0.240214 0.000000
0.345330 0.246433 0.000000
0.566516 0.253142 0.000000
0.804647 0.260228 0.000000
0.000000 0.402776 0.000000
0.154198 0.413952 0.000000
0.381497 0.425663 0.000000
0.626326 0.437825 0.000000
0.889493 0.450379 0.000000
0.000000 0.596869 0.000000
0.170479 0.613971 0.000000
0.421566 0.631575 0.000000
0.691457 0.649628 0.000000
0.973350 0.664231 0.000000
0.000000 0.000000 0.053652
0.132957 0.000000 0.053652
0.316564 0.000000 0.053652
0.500171 0.000000 0.053652
0.683779 0.000000 0.053652
0.000000 0.090973 0.053652
0.132957 0.090973 0.053652
0.318355 0.091330 0.053669
0.518512 0.093284 0.053762
0.734180 0.095618 0.053873
0.000000 0.235679 0.053724
0.140821 0.241339 0.053829
0.347754 0.247663 0.053948
0.570587 0.254449 0.054075
0.810479 0.261598 0.054209
0.000000 0.404834 0.054026
0.155313 0.416119 0.054157
0.384264 0.427919 0.054295
0.630848 0.440159 0.054437
0.895857 0.452782 0.054584
0.000000 0.600047 0.054382
0.171703 0.617248 0.054528
0.424560 0.634939 0.054677
0.696300 0.653073 0.054830
0.973350 0.664231 0.054925
0.000000 0.000000 0.160477
0.132957 0.000000 0.160477
0.316564 0.000000 0.160477
0.500171 0.000000 0.160477
0.683779 0.000000 0.160477
0.000000 0.090973 0.160477
0.132957 0.090973 0.160477
0.319962 0.091650 0.160574
0.521828 0.093702 0.160866
0.739242 0.096085 0.161206
0.000000 0.236677 0.160748
0.141771 0.242487 0.161073
0.350209 0.248909 0.161433
0.574698 0.255769 0.161817
0.816357 0.262978 0.162221
0.000000 0.406914 0.161668
0.156438 0.418303 0.162065
0.387049 0.430191 0.162479
0.635397 0.442507 0.162908
0.902254 0.455197 0.163350
0.000000 0.603244 0.162744
0.172934 0.620542 0.163181
0.427568 0.638320 0.163630
0.701163 0.656532 0.164090
0.973350 0.664231 0.164285
0.000000 0.000000 0.267303
0.132957 0.000000 0.267303
0.316564 0.000000 0.267303
0.500171 0.000000 0.267303
0.683985 0.000000 0.267307
0.000000 0.090973 0.267303
0.132957 0.090973 0.267303
0.321711 0.091998 0.267546
0.525232 0.094131 0.268053
0.744383 0.096559 0.268630
0.000000 0.237710 0.267850
0.142739 0.243656 0.268404
0.352695 0.250170 0.269012
0.578847 0.257102 0.269658
0.822279 0.264369 0.270336
0.000000 0.409015 0.269409
0.157572 0.420505 0.270075
0.389854 0.432478 0.270770
0.639971 0.444868 0.271489
0.908681 0.457624 0.272229
0.000000 0.606460 0.271213
0.174172 0.623852 0.271945
0.430590 0.641716 0.272697
0.706045 0.660005 0.273467
0.973350 0.664231 0.273645
0.000000 0.000000 0.374128
0.132957 0.000000 0.374128
0.316564 0.000000 0.374128
0.500171 0.000000 0.374128
0.686703 0.000000 0.374218
0.000000 0.090973 0.374128
0.132957 0.090973 0.374128
0.323568 0.092368 0.374592
0.528714 0.094570 0.375324
0.749597 0.097039 0.376146
0.000000 0.238774 0.375033
0.143723 0.244845 0.375825
0.355210 0.251446 0.376687
0.583033 0.258446 0.377601
0.828243 0.265770 0.378557
0.000000 0.411136 0.377248
0.158715 0.422724 0.378189
0.392676 0.434780 0.379168
0.644571 0.447242 0.380180
0.915140 0.460062 0.381221
0.000000 0.609695 0.379792
0.175415 0.627180 0.380822
0.433625 0.645127 0.381880
0.710948 0.663492 0.382962
0.973350 0.664231 0.383006
