assets/lighting/cinematic/grade-sodium-night-city/lut.cube
TITLE "Sodium Night City"
# TKRS lighting-batch-001 original LUT
# Intended usage: urban night under sodium streetlights
# License: CC0-1.0
LUT_3D_SIZE 9
DOMAIN_MIN 0.0 0.0 0.0
DOMAIN_MAX 1.0 1.0 1.0
0.000000 0.000000 0.000000
0.041153 0.000000 0.000000
0.132957 0.000000 0.000000
0.224761 0.000000 0.000000
0.316564 0.000000 0.000000
0.408368 0.000000 0.000000
0.500171 0.000000 0.000000
0.591975 0.000000 0.000000
0.683779 0.000000 0.000000
0.000000 0.020540 0.000000
0.041153 0.020540 0.000000
0.132957 0.020540 0.000000
0.224761 0.020540 0.000000
0.316564 0.020540 0.000000
0.408368 0.020540 0.000000
0.500171 0.020540 0.000000
0.595350 0.020621 0.000000
0.697543 0.020827 0.000000
0.000000 0.090973 0.000000
0.041153 0.090973 0.000000
0.132957 0.090973 0.000000
0.224761 0.090973 0.000000
0.316978 0.091056 0.000000
0.414215 0.091876 0.000000
0.515293 0.092879 0.000000
0.620241 0.093982 0.000000
0.729201 0.095160 0.000000
0.000000 0.161407 0.000000
0.041153 0.161407 0.000000
0.134138 0.162400 0.000000
0.230146 0.164086 0.000000
0.329524 0.165984 0.000000
0.432548 0.168027 0.000000
0.539430 0.170182 0.000000
0.650341 0.172431 0.000000
0.765432 0.174758 0.000000
0.000000 0.234724 0.000000
0.042566 0.237351 0.000000
0.139889 0.240214 0.000000
0.240732 0.243252 0.000000
0.345330 0.246433 0.000000
0.453872 0.249735 0.000000
0.566516 0.253142 0.000000
0.683400 0.256643 0.000000
0.804647 0.260228 0.000000
0.000000 0.315624 0.000000
0.044579 0.319705 0.000000
0.146723 0.323953 0.000000
0.252746 0.328345 0.000000
0.362813 0.332864 0.000000
0.477066 0.337498 0.000000
0.595631 0.342235 0.000000
0.718620 0.347069 0.000000
0.846138 0.351991 0.000000
0.000000 0.402776 0.000000
0.046825 0.408291 0.000000
0.154198 0.413952 0.000000
0.265712 0.419747 0.000000
0.381497 0.425663 0.000000
0.501666 0.431691 0.000000
0.626326 0.437825 0.000000
0.755572 0.444056 0.000000
0.889493 0.450379 0.000000
0.000000 0.496435 0.000000
0.049234 0.503415 0.000000
0.162147 0.510534 0.000000
0.279412 0.517780 0.000000
0.401133 0.525145 0.000000
0.527409 0.532622 0.000000
0.658330 0.540205 0.000000
0.793979 0.547888 0.000000
0.934436 0.555666 0.000000
0.000000 0.596869 0.000000
0.051770 0.605354 0.000000
0.170479 0.613971 0.000000
0.293714 0.622714 0.000000
0.421566 0.631575 0.000000
0.554120 0.640548 0.000000
0.691457 0.649628 0.000000
0.833649 0.658811 0.000000
0.973350 0.664231 0.000000
0.000000 0.000000 0.000239
0.041153 0.000000 0.000239
0.132957 0.000000 0.000239
0.224761 0.000000 0.000239
0.316564 0.000000 0.000239
0.408368 0.000000 0.000239
0.500171 0.000000 0.000239
0.591975 0.000000 0.000239
0.683779 0.000000 0.000239
0.000000 0.020540 0.000239
0.041153 0.020540 0.000239
0.132957 0.020540 0.000239
0.224761 0.020540 0.000239
0.316564 0.020540 0.000239
0.408368 0.020540 0.000239
0.500171 0.020540 0.000239
0.596814 0.020656 0.000239
0.699590 0.020869 0.000239
0.000000 0.090973 0.000239
0.041153 0.090973 0.000239
0.132957 0.090973 0.000239
0.224761 0.090973 0.000239
0.317627 0.091185 0.000239
0.415374 0.092055 0.000239
0.516889 0.093080 0.000239
0.622275 0.094199 0.000240
0.731680 0.095388 0.000240
0.000000 0.161407 0.000239
0.041153 0.161407 0.000239
0.134489 0.162695 0.000239
0.230838 0.164430 0.000239
0.330585 0.166359 0.000240
0.434001 0.168425 0.000240
0.541293 0.170599 0.000240
0.652631 0.172863 0.000240
0.768160 0.175204 0.000241
0.000000 0.235196 0.000239
0.042700 0.237874 0.000239
0.140353 0.240773 0.000240
0.241556 0.243841 0.000240
0.346538 0.247046 0.000240
0.455483 0.250369 0.000240
0.568546 0.253794 0.000241
0.685864 0.257311 0.000241
0.807557 0.260912 0.000241
0.000000 0.316378 0.000240
0.044734 0.320492 0.000240
0.147241 0.324769 0.000240
0.253649 0.329186 0.000241
0.364119 0.333728 0.000241
0.478790 0.338382 0.000241
0.597787 0.343138 0.000242
0.721221 0.347989 0.000242
0.849194 0.352927 0.000242
0.000000 0.403802 0.000241
0.046994 0.409346 0.000241
0.154754 0.415033 0.000241
0.266674 0.420851 0.000241
0.382878 0.426789 0.000242
0.503480 0.432838 0.000242
0.628584 0.438990 0.000242
0.758285 0.445239 0.000243
0.892671 0.451579 0.000243
0.000000 0.497738 0.000241
0.049412 0.504745 0.000242
0.162734 0.511888 0.000242
0.280420 0.519157 0.000242
0.402576 0.526544 0.000243
0.529297 0.534041 0.000243
0.660674 0.541644 0.000243
0.796788 0.549345 0.000244
0.937719 0.557141 0.000244
0.000000 0.598456 0.000242
0.051957 0.606966 0.000242
0.171090 0.615607 0.000243
0.294762 0.624373 0.000243
0.423061 0.633255 0.000243
0.556073 0.642249 0.000244
0.693876 0.651349 0.000244
0.836543 0.660550 0.000244
0.973350 0.664231 0.000245
0.000000 0.000000 0.053652
0.041153 0.000000 0.053652
0.132957 0.000000 0.053652
0.224761 0.000000 0.053652
0.316564 0.000000 0.053652
0.408368 0.000000 0.053652
0.500171 0.000000 0.053652
0.591975 0.000000 0.053652
0.683779 0.000000 0.053652
0.000000 0.020540 0.053652
0.041153 0.020540 0.053652
0.132957 0.020540 0.053652
0.224761 0.020540 0.053652
0.316564 0.020540 0.053652
0.408368 0.020540 0.053652
0.500171 0.020540 0.053652
0.598358 0.020694 0.053684
0.701681 0.020913 0.053730
0.000000 0.090973 0.053652
0.041153 0.090973 0.053652
0.132957 0.090973 0.053652
0.224761 0.090973 0.053652
0.318355 0.091330 0.053669
0.416566 0.092239 0.053712
0.518512 0.093284 0.053762
0.624332 0.094418 0.053816
0.734180 0.095618 0.053873
0.000000 0.161407 0.053652
0.041206 0.161549 0.053655
0.134854 0.163002 0.053695
0.231543 0.164780 0.053742
0.331660 0.166738 0.053795
0.435468 0.168827 0.053851
0.543170 0.171019 0.053910
0.654934 0.173298 0.053971
0.770903 0.175653 0.054035
0.000000 0.235679 0.053724
0.042836 0.238405 0.053775
0.140821 0.241339 0.053829
0.242387 0.244434 0.053887
0.347754 0.247663 0.053948
0.457103 0.251006 0.054010
0.570587 0.254449 0.054075
0.688340 0.257983 0.054141
0.810479 0.261598 0.054209
0.000000 0.317139 0.053865
0.044890 0.321286 0.053925
0.147763 0.325590 0.053986
0.254557 0.330031 0.054050
0.365430 0.334595 0.054116
0.480521 0.339269 0.054183
0.599951 0.344044 0.054251
0.723830 0.348912 0.054321
0.852260 0.353866 0.054392
0.000000 0.404834 0.054026
0.047163 0.410406 0.054091
0.155313 0.416119 0.054157
0.267639 0.421960 0.054225
0.384264 0.427919 0.054295
0.505299 0.433988 0.054365
0.630848 0.440159 0.054437
0.761005 0.446425 0.054510
0.895857 0.452782 0.054584
0.000000 0.499046 0.054199
0.049591 0.506079 0.054268
0.163322 0.513247 0.054338
0.281432 0.520538 0.054410
0.404023 0.527947 0.054482
0.531190 0.535464 0.054556
0.663023 0.543086 0.054630
0.799604 0.550805 0.054706
0.941010 0.558618 0.054783
0.000000 0.600047 0.054382
0.052144 0.608582 0.054455
0.171703 0.617248 0.054528
0.295812 0.626036 0.054602
0.424560 0.634939 0.054677
0.558030 0.643954 0.054753
0.696300 0.653073 0.054830
0.839443 0.662293 0.054908
0.973350 0.664231 0.054925
0.000000 0.000000 0.107064
0.041153 0.000000 0.107064
0.132957 0.000000 0.107064
0.224761 0.000000 0.107064
0.316564 0.000000 0.107064
0.408368 0.000000 0.107064
0.500171 0.000000 0.107064
0.591975 0.000000 0.107064
0.683779 0.000000 0.107064
0.000000 0.020540 0.107064
0.041153 0.020540 0.107064
0.132957 0.020540 0.107064
0.224761 0.020540 0.107064
0.316564 0.020540 0.107064
0.408368 0.020540 0.107064
0.500559 0.020551 0.107069
0.599966 0.020732 0.107145
0.703814 0.020957 0.107240
0.000000 0.090973 0.107064
0.041153 0.090973 0.107064
0.132957 0.090973 0.107064
0.224761 0.090973 0.107064
0.319137 0.091486 0.107113
0.417788 0.092427 0.107203
0.520159 0.093492 0.107304
0.626410 0.094639 0.107413
0.736701 0.095851 0.107529
0.000000 0.161407 0.107064
0.041290 0.161778 0.107084
0.135231 0.163319 0.107167
0.232260 0.165137 0.107265
0.332747 0.167122 0.107371
0.436948 0.169232 0.107484
0.545061 0.171441 0.107603
0.657252 0.173736 0.107726
0.773661 0.176104 0.107853
0.000000 0.236173 0.107226
0.042974 0.238943 0.107330
0.141294 0.241910 0.107441
0.243224 0.245032 0.107557
0.348978 0.248284 0.107679
0.458732 0.251647 0.107804
0.572638 0.255108 0.107934
0.690825 0.258657 0.108066
0.813413 0.262287 0.108202
0.000000 0.317906 0.107512
0.045047 0.322084 0.107632
0.148287 0.326416 0.107756
0.255469 0.330882 0.107884
0.366748 0.335467 0.108015
0.482259 0.340160 0.108150
0.602123 0.344953 0.108287
0.726448 0.349838 0.108427
0.855335 0.354807 0.108569
0.000000 0.405871 0.107835
0.047332 0.411471 0.107965
0.155875 0.417209 0.108098
0.268608 0.423073 0.108235
0.385654 0.429054 0.108374
0.507124 0.435142 0.108515
0.633119 0.441331 0.108659
0.763733 0.447615 0.108805
0.899051 0.453988 0.108953
0.000000 0.500359 0.108183
0.049771 0.507418 0.108321
0.163913 0.514610 0.108461
0.282446 0.521924 0.108604
0.405473 0.529353 0.108749
0.533088 0.536891 0.108897
0.665379 0.544531 0.109046
0.802426 0.552269 0.109197
0.944308 0.560099 0.109350
0.000000 0.601643 0.108549
0.052331 0.610204 0.108694
0.172318 0.618892 0.108840
0.296866 0.627703 0.108989
0.426062 0.636628 0.109139
0.559991 0.645662 0.109292
0.698729 0.654801 0.109446
0.842349 0.664039 0.109602
0.973350 0.664231 0.109605
0.000000 0.000000 0.160477
0.041153 0.000000 0.160477
0.132957 0.000000 0.160477
0.224761 0.000000 0.160477
0.316564 0.000000 0.160477
0.408368 0.000000 0.160477
0.500171 0.000000 0.160477
0.591975 0.000000 0.160477
0.683779 0.000000 0.160477
0.000000 0.020540 0.160477
0.041153 0.020540 0.160477
0.132957 0.020540 0.160477
0.224761 0.020540 0.160477
0.316564 0.020540 0.160477
0.408368 0.020540 0.160477
0.501532 0.020579 0.160502
0.601631 0.020772 0.160624
0.705986 0.021002 0.160769
0.000000 0.090973 0.160477
0.041153 0.090973 0.160477
0.132957 0.090973 0.160477
0.224761 0.090973 0.160477
0.319962 0.091650 0.160574
0.419037 0.092620 0.160712
0.521828 0.093702 0.160866
0.628510 0.094863 0.161032
0.739242 0.096085 0.161206
0.000000 0.161407 0.160477
0.041384 0.162034 0.160528
0.135619 0.163645 0.160657
0.232989 0.165500 0.160806
0.333847 0.167511 0.160968
0.438441 0.169640 0.161139
0.546966 0.171867 0.161318
0.659583 0.174176 0.161504
0.776433 0.176557 0.161696
0.000000 0.236677 0.160748
0.043113 0.239488 0.160905
0.141771 0.242487 0.161073
0.244067 0.245635 0.161249
0.350209 0.248909 0.161433
0.460371 0.252291 0.161622
0.574698 0.255769 0.161817
0.693322 0.259334 0.162017
0.816357 0.262978 0.162221
0.000000 0.318680 0.161182
0.045205 0.322889 0.161362
0.148815 0.327247 0.161550
0.256386 0.331736 0.161742
0.368072 0.336342 0.161940
0.484004 0.341055 0.162143
0.604303 0.345866 0.162349
0.729075 0.350767 0.162560
0.858419 0.355752 0.162774
0.000000 0.406914 0.161668
0.047503 0.412540 0.161864
0.156438 0.418303 0.162065
0.269580 0.424190 0.162270
0.387049 0.430191 0.162479
0.508955 0.436299 0.162692
0.635397 0.442507 0.162908
0.766468 0.448808 0.163128
0.902254 0.455197 0.163350
0.000000 0.501677 0.162192
0.049951 0.508762 0.162399
0.164505 0.515977 0.162611
0.283464 0.523314 0.162826
0.406928 0.530764 0.163044
0.534991 0.538321 0.163265
0.667740 0.545980 0.163490
0.805255 0.553735 0.163717
0.947613 0.561582 0.163947
0.000000 0.603244 0.162744
0.052519 0.611829 0.162961
0.172934 0.620542 0.163181
0.297921 0.629374 0.163404
0.427568 0.638320 0.163630
0.561956 0.647374 0.163859
0.701163 0.656532 0.164090
0.842669 0.664231 0.164285
0.973350 0.664231 0.164285
0.000000 0.000000 0.213890
0.041153 0.000000 0.213890
0.132957 0.000000 0.213890
0.224761 0.000000 0.213890
0.316564 0.000000 0.213890
0.408368 0.000000 0.213890
0.500171 0.000000 0.213890
0.591975 0.000000 0.213890
0.683779 0.000000 0.213890
0.000000 0.020540 0.213890
0.041153 0.020540 0.213890
0.132957 0.020540 0.213890
0.224761 0.020540 0.213890
0.316564 0.020540 0.213890
0.408368 0.020540 0.213890
0.502652 0.020611 0.213949
0.603345 0.020813 0.214120
0.708194 0.021048 0.214318
0.000000 0.090973 0.213890
0.041153 0.090973 0.213890
0.132957 0.090973 0.213890
0.224928 0.091020 0.213899
0.320822 0.091821 0.214051
0.420310 0.092816 0.214240
0.523520 0.093915 0.214449
0.630631 0.095088 0.214672
0.741803 0.096321 0.214907
0.000000 0.161407 0.213890
0.041486 0.162310 0.213987
0.136017 0.163980 0.214166
0.233729 0.165868 0.214368
0.334958 0.167903 0.214586
0.439946 0.170053 0.214817
0.548883 0.172296 0.215057
0.661928 0.174619 0.215306
0.779219 0.177013 0.215563
0.000000 0.237189 0.214289
0.043255 0.240040 0.214502
0.142253 0.243069 0.214728
0.244917 0.246242 0.214965
0.351449 0.249537 0.215210
0.462017 0.252939 0.215464
0.576768 0.256434 0.215725
0.695828 0.260014 0.215992
0.819312 0.263672 0.216265
0.000000 0.319459 0.214873
0.045364 0.323698 0.215116
0.149345 0.328082 0.215367
0.257308 0.332594 0.215625
0.369401 0.337221 0.215890
0.485756 0.341953 0.216161
0.606490 0.346782 0.216437
0.731709 0.351699 0.216719
0.861512 0.356699 0.217005
0.000000 0.407962 0.215526
0.047674 0.413615 0.215789
0.157004 0.419402 0.216057
0.270556 0.425311 0.216332
0.388449 0.431333 0.216611
0.510791 0.437460 0.216896
0.637681 0.443686 0.217185
0.769210 0.450004 0.217478
0.905463 0.456409 0.217775
0.000000 0.503000 0.216227
0.050132 0.510110 0.216504
0.165099 0.517349 0.216787
0.284484 0.524707 0.217074
0.408387 0.532178 0.217366
0.536898 0.539755 0.217662
0.670106 0.547433 0.217962
0.808090 0.555205 0.218265
0.950925 0.563069 0.218572
0.000000 0.604850 0.216965
0.052708 0.613460 0.217255
0.173552 0.622195 0.217549
0.298980 0.631049 0.217847
0.429077 0.640016 0.218149
0.563926 0.649090 0.218455
0.703602 0.658267 0.218764
0.842669 0.664231 0.218965
0.973350 0.664231 0.218965
0.000000 0.000000 0.267303
0.041153 0.000000 0.267303
0.132957 0.000000 0.267303
0.224761 0.000000 0.267303
0.316564 0.000000 0.267303
0.408368 0.000000 0.267303
0.500171 0.000000 0.267303
0.591975 0.000000 0.267303
0.683985 0.000000 0.267307
0.000000 0.020540 0.267303
0.041153 0.020540 0.267303
0.132957 0.020540 0.267303
0.224761 0.020540 0.267303
0.316564 0.020540 0.267303
0.408368 0.020540 0.267303
0.503865 0.020645 0.267413
0.605104 0.020856 0.267635
0.710436 0.021095 0.267886
0.000000 0.090973 0.267303
0.041153 0.090973 0.267303
0.132957 0.090973 0.267303
0.225363 0.091142 0.267343
0.321711 0.091998 0.267546
0.421607 0.093016 0.267788
0.525232 0.094131 0.268053
0.632771 0.095316 0.268335
0.744383 0.096559 0.268630
0.000000 0.161407 0.267303
0.041593 0.162601 0.267463
0.136423 0.164321 0.267693
0.234479 0.166241 0.267950
0.336081 0.168300 0.268226
0.441464 0.170468 0.268516
0.550813 0.172727 0.268819
0.664286 0.175064 0.269132
0.782018 0.177470 0.269454
0.000000 0.237710 0.267850
0.043397 0.240597 0.268119
0.142739 0.243656 0.268404
0.245773 0.246854 0.268703
0.352695 0.250170 0.269012
0.463673 0.253590 0.269331
0.578847 0.257102 0.269658
0.698345 0.260697 0.269994
0.822279 0.264369 0.270336
0.000000 0.320245 0.268588
0.045524 0.324513 0.268893
0.149878 0.328922 0.269209
0.258233 0.333457 0.269533
0.370736 0.338104 0.269866
0.487514 0.342855 0.270205
0.608685 0.347700 0.270552
0.734353 0.352634 0.270905
0.864614 0.357649 0.271264
0.000000 0.409015 0.269409
0.047846 0.414694 0.269738
0.157572 0.420505 0.270075
0.271536 0.426436 0.270420
0.389854 0.432478 0.270770
0.512633 0.438625 0.271127
0.639971 0.444868 0.271489
0.771959 0.451203 0.271856
0.908681 0.457624 0.272229
0.000000 0.504328 0.270288
0.050313 0.511463 0.270636
0.165695 0.518725 0.270990
0.285508 0.526105 0.271351
0.409849 0.533596 0.271716
0.538811 0.541193 0.272087
0.672478 0.548888 0.272462
0.810931 0.556679 0.272842
0.954244 0.564559 0.273227
0.000000 0.606460 0.271213
0.052897 0.615094 0.271577
0.174172 0.623852 0.271945
0.300041 0.632728 0.272319
0.430590 0.641716 0.272697
0.565900 0.650809 0.273080
0.706045 0.660005 0.273467
0.842669 0.664231 0.273645
0.973350 0.664231 0.273645
0.000000 0.000000 0.320715
0.041153 0.000000 0.320715
0.132957 0.000000 0.320715
0.224761 0.000000 0.320715
0.316564 0.000000 0.320715
0.408368 0.000000 0.320715
0.500171 0.000000 0.320715
0.591975 0.000000 0.320715
0.685221 0.000000 0.320753
0.000000 0.020540 0.320715
0.041153 0.020540 0.320715
0.132957 0.020540 0.320715
0.224761 0.020540 0.320715
0.316564 0.020540 0.320715
0.408368 0.020540 0.320715
0.505149 0.020682 0.320894
0.606903 0.020899 0.321168
0.712709 0.021142 0.321476
0.000000 0.090973 0.320715
0.041153 0.090973 0.320715
0.132957 0.090973 0.320715
0.225865 0.091283 0.320804
0.322628 0.092180 0.321059
0.422925 0.093220 0.321356
0.526964 0.094349 0.321678
0.634929 0.095546 0.322019
0.746981 0.096798 0.322376
0.000000 0.161486 0.320728
0.041705 0.162905 0.320956
0.136837 0.164670 0.321240
0.235239 0.166619 0.321553
0.337215 0.168700 0.321888
0.442993 0.170887 0.322239
0.552756 0.173161 0.322605
0.666657 0.175512 0.322982
0.784831 0.177930 0.323371
0.000000 0.238238 0.321431
0.043542 0.241161 0.321758
0.143229 0.244248 0.322104
0.246634 0.247469 0.322464
0.353949 0.250806 0.322837
0.465336 0.254244 0.323222
0.580936 0.257772 0.323617
0.700872 0.261383 0.324021
0.825255 0.265068 0.324433
0.000000 0.321036 0.322326
0.045685 0.325332 0.322694
0.150414 0.329766 0.323075
0.259163 0.334323 0.323466
0.372076 0.338991 0.323866
0.489279 0.343760 0.324276
0.610887 0.348622 0.324693
0.737004 0.353571 0.325118
0.867725 0.358601 0.325550
0.000000 0.410073 0.323316
0.048019 0.415778 0.323713
0.158143 0.421612 0.324119
0.272519 0.427565 0.324534
0.391263 0.433628 0.324956
0.514480 0.439792 0.325385
0.642268 0.446053 0.325821
0.774715 0.452405 0.326263
0.911907 0.458842 0.326711
0.000000 0.505661 0.324375
0.050495 0.512821 0.324794
0.166293 0.520105 0.325221
0.286534 0.527507 0.325654
0.411315 0.535018 0.326094
0.540728 0.542634 0.326540
0.674856 0.550347 0.326991
0.813778 0.558155 0.327448
0.957570 0.566052 0.327911
0.000000 0.608076 0.325489
0.053087 0.616733 0.325926
0.174793 0.625514 0.326370
0.301104 0.634411 0.326819
0.432106 0.643419 0.327274
0.567877 0.652532 0.327734
0.708494 0.661746 0.328200
0.842669 0.664231 0.328325
0.973350 0.664231 0.328325
0.000000 0.000000 0.374128
0.041153 0.000000 0.374128
0.132957 0.000000 0.374128
0.224761 0.000000 0.374128
0.316564 0.000000 0.374128
0.408368 0.000000 0.374128
0.500171 0.000000 0.374128
0.591975 0.000000 0.374128
0.686703 0.000000 0.374218
0.000000 0.020540 0.374128
0.041153 0.020540 0.374128
0.132957 0.020540 0.374128
0.224761 0.020540 0.374128
0.316564 0.020540 0.374128
0.408480 0.020544 0.374134
0.506492 0.020720 0.374393
0.608739 0.020943 0.374722
0.715013 0.021190 0.375086
0.000000 0.090973 0.374128
0.041153 0.090973 0.374128
0.132957 0.090973 0.374128
0.226410 0.091436 0.374282
0.323568 0.092368 0.374592
0.424263 0.093426 0.374944
0.528714 0.094570 0.375324
0.637106 0.095778 0.375726
0.749597 0.097039 0.376146
0.000000 0.161702 0.374183
0.041820 0.163219 0.374468
0.137259 0.165025 0.374806
0.236008 0.167002 0.375177
0.338359 0.169104 0.375571
0.444534 0.171309 0.375984
0.554710 0.173598 0.376414
0.669041 0.175962 0.376857
0.787657 0.178392 0.377313
0.000000 0.238774 0.375033
0.043688 0.241731 0.375419
0.143723 0.244845 0.375825
0.247501 0.248089 0.376249
0.355210 0.251446 0.376687
0.467008 0.254901 0.377138
0.583033 0.258446 0.377601
0.703408 0.262071 0.378074
0.828243 0.265770 0.378557
0.000000 0.321834 0.376086
0.045847 0.326157 0.376519
0.150953 0.330615 0.376965
0.260098 0.335193 0.377424
0.373422 0.339881 0.377893
0.491051 0.344668 0.378372
0.613097 0.349547 0.378861
0.739663 0.354512 0.379358
0.870845 0.359557 0.379863
0.000000 0.411136 0.377248
0.048192 0.416867 0.377714
0.158715 0.422724 0.378189
0.273505 0.428698 0.378674
0.392676 0.434780 0.379168
0.516333 0.440964 0.379670
0.644571 0.447242 0.380180
0.777479 0.453610 0.380697
0.915140 0.460062 0.381221
0.000000 0.506998 0.378489
0.050678 0.514182 0.378980
0.166893 0.521490 0.379479
0.287563 0.528912 0.379985
0.412785 0.536444 0.380500
0.542649 0.544078 0.381021
0.677238 0.551810 0.381549
0.816631 0.559635 0.382084
0.960902 0.567548 0.382624
0.000000 0.609695 0.379792
0.053277 0.618377 0.380304
0.175415 0.627180 0.380822
0.302170 0.636098 0.381348
0.433625 0.645127 0.381880
0.569859 0.654259 0.382418
0.710948 0.663492 0.382962
0.842669 0.664231 0.383006
0.973350 0.664231 0.383006
