assets/lighting/cinematic/grade-sodium-night-city/lut.cube
TITLE "Sodium Night City"
# TKRS lighting-batch-001 original LUT
# Intended usage: urban night under sodium streetlights
# License: CC0-1.0
LUT_3D_SIZE 17
DOMAIN_MIN 0.0 0.0 0.0
DOMAIN_MAX 1.0 1.0 1.0
0.000000 0.000000 0.000000
0.000000 0.000000 0.000000
0.041153 0.000000 0.000000
0.087055 0.000000 0.000000
0.132957 0.000000 0.000000
0.178859 0.000000 0.000000
0.224761 0.000000 0.000000
0.270662 0.000000 0.000000
0.316564 0.000000 0.000000
0.362466 0.000000 0.000000
0.408368 0.000000 0.000000
0.454270 0.000000 0.000000
0.500171 0.000000 0.000000
0.546073 0.000000 0.000000
0.591975 0.000000 0.000000
0.637877 0.000000 0.000000
0.683779 0.000000 0.000000
0.000000 0.000000 0.000000
0.000000 0.000000 0.000000
0.041153 0.000000 0.000000
0.087055 0.000000 0.000000
0.132957 0.000000 0.000000
0.178859 0.000000 0.000000
0.224761 0.000000 0.000000
0.270662 0.000000 0.000000
0.316564 0.000000 0.000000
0.362466 0.000000 0.000000
0.408368 0.000000 0.000000
0.454270 0.000000 0.000000
0.500171 0.000000 0.000000
0.546073 0.000000 0.000000
0.591975 0.000000 0.000000
0.637877 0.000000 0.000000
0.685166 0.000000 0.000000
0.000000 0.020540 0.000000
0.000000 0.020540 0.000000
0.041153 0.020540 0.000000
0.087055 0.020540 0.000000
0.132957 0.020540 0.000000
0.178859 0.020540 0.000000
0.224761 0.020540 0.000000
0.270662 0.020540 0.000000
0.316564 0.020540 0.000000
0.362466 0.020540 0.000000
0.408368 0.020540 0.000000
0.454270 0.020540 0.000000
0.500171 0.020540 0.000000
0.546200 0.020543 0.000000
0.595350 0.020621 0.000000
0.645885 0.020719 0.000000
0.697543 0.020827 0.000000
0.000000 0.055757 0.000000
0.000000 0.055757 0.000000
0.041153 0.055757 0.000000
0.087055 0.055757 0.000000
0.132957 0.055757 0.000000
0.178859 0.055757 0.000000
0.224761 0.055757 0.000000
0.270662 0.055757 0.000000
0.316564 0.055757 0.000000
0.362466 0.055757 0.000000
0.408368 0.055757 0.000000
0.455804 0.055887 0.000000
0.505098 0.056137 0.000000
0.555457 0.056420 0.000000
0.606831 0.056726 0.000000
0.659216 0.057049 0.000000
0.712619 0.057386 0.000000
0.000000 0.090973 0.000000
0.000000 0.090973 0.000000
0.041153 0.090973 0.000000
0.087055 0.090973 0.000000
0.132957 0.090973 0.000000
0.178859 0.090973 0.000000
0.224761 0.090973 0.000000
0.270662 0.090973 0.000000
0.316978 0.091056 0.000000
0.365099 0.091431 0.000000
0.414215 0.091876 0.000000
0.464278 0.092362 0.000000
0.515293 0.092879 0.000000
0.567274 0.093420 0.000000
0.620241 0.093982 0.000000
0.674210 0.094563 0.000000
0.729201 0.095160 0.000000
0.000000 0.126190 0.000000
0.000000 0.126190 0.000000
0.041153 0.126190 0.000000
0.087055 0.126190 0.000000
0.132957 0.126190 0.000000
0.178859 0.126190 0.000000
0.225845 0.126612 0.000000
0.273788 0.127199 0.000000
0.322591 0.127854 0.000000
0.372277 0.128556 0.000000
0.422873 0.129295 0.000000
0.474404 0.130064 0.000000
0.526895 0.130860 0.000000
0.580368 0.131680 0.000000
0.634844 0.132520 0.000000
0.690341 0.133380 0.000000
0.746878 0.134257 0.000000
0.000000 0.161407 0.000000
0.000000 0.161407 0.000000
0.041153 0.161407 0.000000
0.087280 0.161695 0.000000
0.134138 0.162400 0.000000
0.181742 0.163209 0.000000
0.230146 0.164086 0.000000
0.279395 0.165014 0.000000
0.329524 0.165984 0.000000
0.380566 0.166990 0.000000
0.432548 0.168027 0.000000
0.485495 0.169092 0.000000
0.539430 0.170182 0.000000
0.594372 0.171296 0.000000
0.650341 0.172431 0.000000
0.707356 0.173585 0.000000
0.765432 0.174758 0.000000
0.000000 0.196711 0.000000
0.000000 0.197488 0.000000
0.041700 0.198433 0.000000
0.088877 0.199473 0.000000
0.136821 0.200582 0.000000
0.185585 0.201745 0.000000
0.235208 0.202955 0.000000
0.285727 0.204204 0.000000
0.337170 0.205489 0.000000
0.389564 0.206806 0.000000
0.442933 0.208152 0.000000
0.497298 0.209524 0.000000
0.552679 0.210922 0.000000
0.609095 0.212342 0.000000
0.666564 0.213785 0.000000
0.725100 0.215248 0.000000
0.784720 0.216730 0.000000
0.000000 0.234724 0.000000
0.000000 0.236003 0.000000
0.042566 0.237351 0.000000
0.090805 0.238758 0.000000
0.139889 0.240214 0.000000
0.189855 0.241713 0.000000
0.240732 0.243252 0.000000
0.292549 0.244827 0.000000
0.345330 0.246433 0.000000
0.399097 0.248070 0.000000
0.453872 0.249735 0.000000
0.509672 0.251426 0.000000
0.566516 0.253142 0.000000
0.624420 0.254881 0.000000
0.683400 0.256643 0.000000
0.743471 0.258425 0.000000
0.804647 0.260228 0.000000
0.000000 0.274403 0.000000
0.000000 0.276059 0.000000
0.043536 0.277768 0.000000
0.092922 0.279524 0.000000
0.143210 0.281322 0.000000
0.194428 0.283159 0.000000
0.246600 0.285032 0.000000
0.299751 0.286938 0.000000
0.353900 0.288875 0.000000
0.409067 0.290841 0.000000
0.465271 0.292834 0.000000
0.522527 0.294853 0.000000
0.580853 0.296897 0.000000
0.640263 0.298965 0.000000
0.700772 0.301056 0.000000
0.762393 0.303168 0.000000
0.825138 0.305301 0.000000
0.000000 0.315624 0.000000
0.000000 0.317642 0.000000
0.044579 0.319705 0.000000
0.095178 0.321809 0.000000
0.146723 0.323953 0.000000
0.199239 0.326132 0.000000
0.252746 0.328345 0.000000
0.307265 0.330589 0.000000
0.362813 0.332864 0.000000
0.419408 0.335167 0.000000
0.477066 0.337498 0.000000
0.535802 0.339854 0.000000
0.595631 0.342235 0.000000
0.656566 0.344641 0.000000
0.718620 0.347069 0.000000
0.781807 0.349519 0.000000
0.846138 0.351991 0.000000
0.000000 0.358404 0.000000
0.000000 0.360781 0.000000
0.045679 0.363199 0.000000
0.097543 0.365656 0.000000
0.150393 0.368149 0.000000
0.204248 0.370676 0.000000
0.259127 0.373236 0.000000
0.315046 0.375826 0.000000
0.372023 0.378446 0.000000
0.430073 0.381095 0.000000
0.489210 0.383770 0.000000
0.549448 0.386472 0.000000
0.610800 0.389198 0.000000
0.673280 0.391949 0.000000
0.736899 0.394723 0.000000
0.801670 0.397520 0.000000
0.867602 0.400339 0.000000
0.000000 0.402776 0.000000
0.000000 0.405514 0.000000
0.046825 0.408291 0.000000
0.100003 0.411104 0.000000
0.154198 0.413952 0.000000
0.209429 0.416834 0.000000
0.265712 0.419747 0.000000
0.323063 0.422690 0.000000
0.381497 0.425663 0.000000
0.441027 0.428664 0.000000
0.501666 0.431691 0.000000
0.563429 0.434745 0.000000
0.626326 0.437825 0.000000
0.690370 0.440928 0.000000
0.755572 0.444056 0.000000
0.821943 0.447206 0.000000
0.889493 0.450379 0.000000
0.000000 0.448775 0.000000
0.000000 0.451878 0.000000
0.048012 0.455018 0.000000
0.102542 0.458193 0.000000
0.158120 0.461402 0.000000
0.214761 0.464644 0.000000
0.272480 0.467916 0.000000
0.331291 0.471219 0.000000
0.391207 0.474551 0.000000
0.452242 0.477911 0.000000
0.514407 0.481298 0.000000
0.577715 0.484711 0.000000
0.642177 0.488149 0.000000
0.707804 0.491613 0.000000
0.774607 0.495100 0.000000
0.842595 0.498611 0.000000
0.911780 0.502145 0.000000
0.000000 0.496435 0.000000
0.000000 0.499907 0.000000
0.049234 0.503415 0.000000
0.105154 0.506958 0.000000
0.162147 0.510534 0.000000
0.220229 0.514141 0.000000
0.279412 0.517780 0.000000
0.339709 0.521448 0.000000
0.401133 0.525145 0.000000
0.463696 0.528870 0.000000
0.527409 0.532622 0.000000
0.592283 0.536401 0.000000
0.658330 0.540205 0.000000
0.725558 0.544034 0.000000
0.793979 0.547888 0.000000
0.863602 0.551766 0.000000
0.934436 0.555666 0.000000
0.000000 0.545789 0.000000
0.000000 0.549636 0.000000
0.050488 0.553517 0.000000
0.107830 0.557432 0.000000
0.166270 0.561380 0.000000
0.225820 0.565359 0.000000
0.286494 0.569369 0.000000
0.348302 0.573408 0.000000
0.411258 0.577476 0.000000
0.475371 0.581572 0.000000
0.540652 0.585696 0.000000
0.607113 0.589846 0.000000
0.674762 0.594022 0.000000
0.743610 0.598223 0.000000
0.813666 0.602449 0.000000
0.884939 0.606699 0.000000
0.957439 0.610973 0.000000
0.000000 0.596869 0.000000
0.000000 0.601094 0.000000
0.051770 0.605354 0.000000
0.110565 0.609646 0.000000
0.170479 0.613971 0.000000
0.231525 0.618327 0.000000
0.293714 0.622714 0.000000
0.357057 0.627130 0.000000
0.421566 0.631575 0.000000
0.487250 0.636047 0.000000
0.554120 0.640548 0.000000
0.622186 0.645075 0.000000
0.691457 0.649628 0.000000
0.761941 0.654207 0.000000
0.833649 0.658811 0.000000
0.906589 0.663439 0.000000
0.973350 0.664231 0.000000
0.000000 0.000000 0.000000
0.000000 0.000000 0.000000
0.041153 0.000000 0.000000
0.087055 0.000000 0.000000
0.132957 0.000000 0.000000
0.178859 0.000000 0.000000
0.224761 0.000000 0.000000
0.270662 0.000000 0.000000
0.316564 0.000000 0.000000
0.362466 0.000000 0.000000
0.408368 0.000000 0.000000
0.454270 0.000000 0.000000
0.500171 0.000000 0.000000
0.546073 0.000000 0.000000
0.591975 0.000000 0.000000
0.637877 0.000000 0.000000
0.683779 0.000000 0.000000
0.000000 0.000000 0.000000
0.000000 0.000000 0.000000
0.041153 0.000000 0.000000
0.087055 0.000000 0.000000
0.132957 0.000000 0.000000
0.178859 0.000000 0.000000
0.224761 0.000000 0.000000
0.270662 0.000000 0.000000
0.316564 0.000000 0.000000
0.362466 0.000000 0.000000
0.408368 0.000000 0.000000
0.454270 0.000000 0.000000
0.500171 0.000000 0.000000
0.546073 0.000000 0.000000
0.591975 0.000000 0.000000
0.637877 0.000000 0.000000
0.685882 0.000000 0.000000
0.000000 0.020540 0.000000
0.000000 0.020540 0.000000
0.041153 0.020540 0.000000
0.087055 0.020540 0.000000
0.132957 0.020540 0.000000
0.178859 0.020540 0.000000
0.224761 0.020540 0.000000
0.270662 0.020540 0.000000
0.316564 0.020540 0.000000
0.362466 0.020540 0.000000
0.408368 0.020540 0.000000
0.454270 0.020540 0.000000
0.500171 0.020540 0.000000
0.546647 0.020555 0.000000
0.596071 0.020639 0.000000
0.646765 0.020738 0.000000
0.698561 0.020848 0.000000
0.000000 0.055757 0.000000
0.000000 0.055757 0.000000
0.041153 0.055757 0.000000
0.087055 0.055757 0.000000
0.132957 0.055757 0.000000
0.178859 0.055757 0.000000
0.224761 0.055757 0.000000
0.270662 0.055757 0.000000
0.316564 0.055757 0.000000
0.362466 0.055757 0.000000
0.408368 0.055757 0.000000
0.456315 0.055931 0.000000
0.505761 0.056188 0.000000
0.556249 0.056476 0.000000
0.607744 0.056786 0.000000
0.660247 0.057111 0.000000
0.713767 0.057451 0.000000
0.000000 0.090973 0.000000
0.000000 0.090973 0.000000
0.041153 0.090973 0.000000
0.087055 0.090973 0.000000
0.132957 0.090973 0.000000
0.178859 0.090973 0.000000
0.224761 0.090973 0.000000
0.270662 0.090973 0.000000
0.317290 0.091118 0.000000
0.365557 0.091511 0.000000
0.414790 0.091965 0.000000
0.464964 0.092457 0.000000
0.516088 0.092979 0.000000
0.568179 0.093524 0.000000
0.621255 0.094090 0.000000
0.675335 0.094674 0.000000
0.730437 0.095274 0.000000
0.000000 0.126190 0.000000
0.000000 0.126190 0.000000
0.041153 0.126190 0.000000
0.087055 0.126190 0.000000
0.132957 0.126190 0.000000
0.178934 0.126227 0.000000
0.226112 0.126716 0.000000
0.274156 0.127318 0.000000
0.323058 0.127983 0.000000
0.372843 0.128693 0.000000
0.423539 0.129438 0.000000
0.475173 0.130212 0.000000
0.527768 0.131013 0.000000
0.581347 0.131836 0.000000
0.635930 0.132681 0.000000
0.691536 0.133543 0.000000
0.748184 0.134423 0.000000
0.000000 0.161407 0.000000
0.000000 0.161407 0.000000
0.041153 0.161407 0.000000
0.087374 0.161816 0.000000
0.134312 0.162546 0.000000
0.181999 0.163370 0.000000
0.230490 0.164257 0.000000
0.279830 0.165194 0.000000
0.330053 0.166171 0.000000
0.381192 0.167183 0.000000
0.433273 0.168226 0.000000
0.486321 0.169296 0.000000
0.540359 0.170390 0.000000
0.595407 0.171508 0.000000
0.651484 0.172646 0.000000
0.708608 0.173804 0.000000
0.766794 0.174981 0.000000
0.000000 0.196835 0.000000
0.000000 0.197657 0.000000
0.041758 0.198623 0.000000
0.089007 0.199677 0.000000
0.137031 0.200797 0.000000
0.185879 0.201969 0.000000
0.235592 0.203187 0.000000
0.286202 0.204443 0.000000
0.337741 0.205735 0.000000
0.390232 0.207057 0.000000
0.443701 0.208408 0.000000
0.498169 0.209786 0.000000
0.553655 0.211187 0.000000
0.610177 0.212612 0.000000
0.667754 0.214059 0.000000
0.726400 0.215525 0.000000
0.786131 0.217011 0.000000
0.000000 0.234958 0.000000
0.000000 0.236251 0.000000
0.042632 0.237612 0.000000
0.090952 0.239028 0.000000
0.140121 0.240493 0.000000
0.190174 0.242000 0.000000
0.241143 0.243546 0.000000
0.293055 0.245127 0.000000
0.345933 0.246739 0.000000
0.399800 0.248381 0.000000
0.454676 0.250051 0.000000
0.510580 0.251747 0.000000
0.567530 0.253468 0.000000
0.625541 0.255211 0.000000
0.684631 0.256977 0.000000
0.744813 0.258763 0.000000
0.806101 0.260569 0.000000
0.000000 0.274710 0.000000
0.000000 0.276377 0.000000
0.043609 0.278095 0.000000
0.093080 0.279859 0.000000
0.143456 0.281665 0.000000
0.194766 0.283509 0.000000
0.247033 0.285388 0.000000
0.300281 0.287300 0.000000
0.354529 0.289242 0.000000
0.409798 0.291214 0.000000
0.466105 0.293212 0.000000
0.523468 0.295236 0.000000
0.581901 0.297285 0.000000
0.641420 0.299357 0.000000
0.702039 0.301452 0.000000
0.763771 0.303568 0.000000
0.826630 0.305704 0.000000
0.000000 0.316000 0.000000
0.000000 0.318027 0.000000
0.044657 0.320098 0.000000
0.095344 0.322210 0.000000
0.146982 0.324360 0.000000
0.199592 0.326546 0.000000
0.253197 0.328765 0.000000
0.307815 0.331015 0.000000
0.363465 0.333295 0.000000
0.420164 0.335604 0.000000
0.477927 0.337939 0.000000
0.536770 0.340300 0.000000
0.596708 0.342686 0.000000
0.657753 0.345096 0.000000
0.719920 0.347528 0.000000
0.783220 0.349983 0.000000
0.847665 0.352459 0.000000
0.000000 0.358848 0.000000
0.000000 0.361233 0.000000
0.045760 0.363659 0.000000
0.097717 0.366122 0.000000
0.150662 0.368622 0.000000
0.204615 0.371155 0.000000
0.259593 0.373721 0.000000
0.315615 0.376317 0.000000
0.372695 0.378943 0.000000
0.430850 0.381596 0.000000
0.490094 0.384277 0.000000
0.550441 0.386983 0.000000
0.611904 0.389714 0.000000
0.674496 0.392469 0.000000
0.738228 0.395248 0.000000
0.803113 0.398049 0.000000
0.869161 0.400872 0.000000
0.000000 0.403288 0.000000
0.000000 0.406034 0.000000
0.046909 0.408818 0.000000
0.100182 0.411638 0.000000
0.154476 0.414492 0.000000
0.209807 0.417380 0.000000
0.266193 0.420299 0.000000
0.323648 0.423248 0.000000
0.382187 0.426226 0.000000
0.441824 0.429231 0.000000
0.502572 0.432264 0.000000
0.564445 0.435323 0.000000
0.627454 0.438407 0.000000
0.691611 0.441515 0.000000
0.756927 0.444647 0.000000
0.823414 0.447802 0.000000
0.891081 0.450978 0.000000
0.000000 0.449356 0.000000
0.000000 0.452466 0.000000
0.048099 0.455613 0.000000
0.102728 0.458795 0.000000
0.158406 0.462010 0.000000
0.215149 0.465257 0.000000
0.272972 0.468536 0.000000
0.331889 0.471844 0.000000
0.391913 0.475181 0.000000
0.453057 0.478546 0.000000
0.515333 0.481938 0.000000
0.578753 0.485356 0.000000
0.643328 0.488799 0.000000
0.709069 0.492267 0.000000
0.775987 0.495759 0.000000
0.844093 0.499274 0.000000
0.913395 0.502812 0.000000
0.000000 0.497086 0.000000
0.000000 0.500565 0.000000
0.049323 0.504080 0.000000
0.105344 0.507628 0.000000
0.162440 0.511210 0.000000
0.220626 0.514824 0.000000
0.279916 0.518468 0.000000
0.340321 0.522141 0.000000
0.401854 0.525844 0.000000
0.464527 0.529574 0.000000
0.528352 0.533331 0.000000
0.593340 0.537115 0.000000
0.659501 0.540924 0.000000
0.726845 0.544758 0.000000
0.795383 0.548616 0.000000
0.865123 0.552498 0.000000
0.936077 0.556403 0.000000
0.000000 0.546511 0.000000
0.000000 0.550364 0.000000
0.050579 0.554251 0.000000
0.108024 0.558173 0.000000
0.166569 0.562126 0.000000
0.226226 0.566111 0.000000
0.287008 0.570127 0.000000
0.348926 0.574171 0.000000
0.411992 0.578245 0.000000
0.476217 0.582346 0.000000
0.541612 0.586475 0.000000
0.608187 0.590630 0.000000
0.675953 0.594811 0.000000
0.744918 0.599017 0.000000
0.815092 0.603247 0.000000
0.886484 0.607502 0.000000
0.959104 0.611780 0.000000
0.000000 0.597662 0.000000
0.000000 0.601894 0.000000
0.051864 0.606159 0.000000
0.110763 0.610458 0.000000
0.170784 0.614789 0.000000
0.231938 0.619150 0.000000
0.294237 0.623543 0.000000
0.357692 0.627964 0.000000
0.422313 0.632414 0.000000
0.488111 0.636892 0.000000
0.555096 0.641398 0.000000
0.623278 0.645930 0.000000
0.692665 0.650488 0.000000
0.763268 0.655071 0.000000
0.835095 0.659680 0.000000
0.908010 0.664231 0.000000
0.973350 0.664231 0.000000
0.000000 0.000000 0.000239
0.000000 0.000000 0.000239
0.041153 0.000000 0.000239
0.087055 0.000000 0.000239
0.132957 0.000000 0.000239
0.178859 0.000000 0.000239
0.224761 0.000000 0.000239
0.270662 0.000000 0.000239
0.316564 0.000000 0.000239
0.362466 0.000000 0.000239
0.408368 0.000000 0.000239
0.454270 0.000000 0.000239
0.500171 0.000000 0.000239
0.546073 0.000000 0.000239
0.591975 0.000000 0.000239
0.637877 0.000000 0.000239
0.683779 0.000000 0.000239
0.000000 0.000000 0.000239
0.000000 0.000000 0.000239
0.041153 0.000000 0.000239
0.087055 0.000000 0.000239
0.132957 0.000000 0.000239
0.178859 0.000000 0.000239
0.224761 0.000000 0.000239
0.270662 0.000000 0.000239
0.316564 0.000000 0.000239
0.362466 0.000000 0.000239
0.408368 0.000000 0.000239
0.454270 0.000000 0.000239
0.500171 0.000000 0.000239
0.546073 0.000000 0.000239
0.591975 0.000000 0.000239
0.637877 0.000000 0.000239
0.686641 0.000000 0.000239
0.000000 0.020540 0.000239
0.000000 0.020540 0.000239
0.041153 0.020540 0.000239
0.087055 0.020540 0.000239
0.132957 0.020540 0.000239
0.178859 0.020540 0.000239
0.224761 0.020540 0.000239
0.270662 0.020540 0.000239
0.316564 0.020540 0.000239
0.362466 0.020540 0.000239
0.408368 0.020540 0.000239
0.454270 0.020540 0.000239
0.500171 0.020540 0.000239
0.547171 0.020569 0.000239
0.596814 0.020656 0.000239
0.647659 0.020758 0.000239
0.699590 0.020869 0.000239
0.000000 0.055757 0.000239
0.000000 0.055757 0.000239
0.041153 0.055757 0.000239
0.087055 0.055757 0.000239
0.132957 0.055757 0.000239
0.178859 0.055757 0.000239
0.224761 0.055757 0.000239
0.270662 0.055757 0.000239
0.316564 0.055757 0.000239
0.362466 0.055757 0.000239
0.408457 0.055765 0.000239
0.456849 0.055976 0.000239
0.506438 0.056241 0.000239
0.557051 0.056533 0.000239
0.608666 0.056846 0.000239
0.661286 0.057174 0.000239
0.714922 0.057516 0.000240
0.000000 0.090973 0.000239
0.000000 0.090973 0.000239
0.041153 0.090973 0.000239
0.087055 0.090973 0.000239
0.132957 0.090973 0.000239
0.178859 0.090973 0.000239
0.224761 0.090973 0.000239
0.270662 0.090973 0.000239
0.317627 0.091185 0.000239
0.366027 0.091593 0.000239
0.415374 0.092055 0.000239
0.465657 0.092553 0.000239
0.516889 0.093080 0.000239
0.569089 0.093629 0.000240
0.622275 0.094199 0.000240
0.676466 0.094786 0.000240
0.731680 0.095388 0.000240
0.000000 0.126190 0.000239
0.000000 0.126190 0.000239
0.041153 0.126190 0.000239
0.087055 0.126190 0.000239
0.132957 0.126190 0.000239
0.179089 0.126303 0.000239
0.226388 0.126823 0.000239
0.274531 0.127440 0.000239
0.323530 0.128114 0.000239
0.373414 0.128830 0.000239
0.424210 0.129581 0.000239
0.475946 0.130361 0.000240
0.528645 0.131166 0.000240
0.582330 0.131994 0.000240
0.637020 0.132842 0.000240
0.692736 0.133708 0.000240
0.749494 0.134591 0.000240
0.000000 0.161407 0.000239
0.000000 0.161407 0.000239
0.041153 0.161407 0.000239
0.087473 0.161944 0.000239
0.134489 0.162695 0.000239
0.182259 0.163532 0.000239
0.230838 0.164430 0.000239
0.280268 0.165375 0.000239
0.330585 0.166359 0.000240
0.381821 0.167377 0.000240
0.434001 0.168425 0.000240
0.487151 0.169500 0.000240
0.541293 0.170599 0.000240
0.596446 0.171721 0.000240
0.652631 0.172863 0.000240
0.709863 0.174025 0.000240
0.768160 0.175204 0.000241
0.000000 0.196972 0.000239
0.000000 0.197830 0.000239
0.041816 0.198816 0.000239
0.089139 0.199883 0.000239
0.137243 0.201014 0.000239
0.186176 0.202195 0.000239
0.235977 0.203421 0.000240
0.286680 0.204684 0.000240
0.338314 0.205981 0.000240
0.390903 0.207309 0.000240
0.444473 0.208665 0.000240
0.499043 0.210048 0.000240
0.554633 0.211454 0.000240
0.611262 0.212883 0.000241
0.668947 0.214333 0.000241
0.727703 0.215803 0.000241
0.787546 0.217293 0.000241
0.000000 0.235196 0.000239
0.000000 0.236503 0.000239
0.042700 0.237874 0.000239
0.091099 0.239300 0.000240
0.140353 0.240773 0.000240
0.190495 0.242288 0.000240
0.241556 0.243841 0.000240
0.293562 0.245428 0.000240
0.346538 0.247046 0.000240
0.400505 0.248694 0.000240
0.455483 0.250369 0.000240
0.511491 0.252069 0.000241
0.568546 0.253794 0.000241
0.626666 0.255542 0.000241
0.685864 0.257311 0.000241
0.746157 0.259102 0.000241
0.807557 0.260912 0.000241
0.000000 0.275019 0.000240
0.000000 0.276697 0.000240
0.043682 0.278424 0.000240
0.093238 0.280196 0.000240
0.143704 0.282010 0.000240
0.195105 0.283860 0.000240
0.247467 0.285746 0.000240
0.300812 0.287663 0.000240
0.355160 0.289611 0.000241
0.410531 0.291588 0.000241
0.466942 0.293591 0.000241
0.524410 0.295620 0.000241
0.582951 0.297673 0.000241
0.642578 0.299750 0.000241
0.703308 0.301848 0.000241
0.765153 0.303968 0.000242
0.828125 0.306109 0.000242
0.000000 0.316378 0.000240
0.000000 0.318413 0.000240
0.044734 0.320492 0.000240
0.095511 0.322612 0.000240
0.147241 0.324769 0.000240
0.199947 0.326961 0.000241
0.253649 0.329186 0.000241
0.308367 0.331442 0.000241
0.364119 0.333728 0.000241
0.420921 0.336041 0.000241
0.478790 0.338382 0.000241
0.537740 0.340748 0.000241
0.597787 0.343138 0.000242
0.658943 0.345552 0.000242
0.721221 0.347989 0.000242
0.784634 0.350447 0.000242
0.849194 0.352927 0.000242
0.000000 0.359294 0.000240
0.000000 0.361687 0.000240
0.045841 0.364120 0.000240
0.097891 0.366590 0.000241
0.150932 0.369096 0.000241
0.204982 0.371636 0.000241
0.260061 0.374207 0.000241
0.316184 0.376809 0.000241
0.373369 0.379440 0.000241
0.431629 0.382099 0.000241
0.490981 0.384784 0.000242
0.551436 0.387495 0.000242
0.613010 0.390231 0.000242
0.675713 0.392991 0.000242
0.739559 0.395773 0.000242
0.804558 0.398578 0.000242
0.870722 0.401405 0.000243
0.000000 0.403802 0.000241
0.000000 0.406555 0.000241
0.046994 0.409346 0.000241
0.100363 0.412172 0.000241
0.154754 0.415033 0.000241
0.210186 0.417927 0.000241
0.266674 0.420851 0.000241
0.324233 0.423806 0.000242
0.382878 0.426789 0.000242
0.442622 0.429800 0.000242
0.503480 0.432838 0.000242
0.565463 0.435902 0.000242
0.628584 0.438990 0.000242
0.692854 0.442103 0.000243
0.758285 0.445239 0.000243
0.824887 0.448398 0.000243
0.892671 0.451579 0.000243
0.000000 0.449938 0.000241
0.000000 0.453056 0.000241
0.048186 0.456209 0.000241
0.102913 0.459397 0.000241
0.158693 0.462619 0.000242
0.215539 0.465872 0.000242
0.273466 0.469156 0.000242
0.332489 0.472470 0.000242
0.392620 0.475812 0.000242
0.453873 0.479182 0.000242
0.516260 0.482579 0.000242
0.579791 0.486002 0.000243
0.644480 0.489450 0.000243
0.710336 0.492923 0.000243
0.777370 0.496419 0.000243
0.845592 0.499938 0.000243
0.915012 0.503480 0.000243
0.000000 0.497738 0.000241
0.000000 0.501224 0.000241
0.049412 0.504745 0.000242
0.105534 0.508300 0.000242
0.162734 0.511888 0.000242
0.221025 0.515507 0.000242
0.280420 0.519157 0.000242
0.340933 0.522836 0.000242
0.402576 0.526544 0.000243
0.465360 0.530279 0.000243
0.529297 0.534041 0.000243
0.594398 0.537830 0.000243
0.660674 0.541644 0.000243
0.728134 0.545482 0.000243
0.796788 0.549345 0.000244
0.866647 0.553231 0.000244
0.937719 0.557141 0.000244
0.000000 0.547233 0.000242
0.000000 0.551093 0.000242
0.050670 0.554987 0.000242
0.108219 0.558914 0.000242
0.166869 0.562874 0.000242
0.226633 0.566865 0.000243
0.287523 0.570886 0.000243
0.349550 0.574936 0.000243
0.412728 0.579015 0.000243
0.477065 0.583121 0.000243
0.542574 0.587255 0.000243
0.609264 0.591415 0.000244
0.677145 0.595600 0.000244
0.746227 0.599811 0.000244
0.816519 0.604046 0.000244
0.888031 0.608305 0.000244
0.960771 0.612588 0.000244
0.000000 0.598456 0.000242
0.000000 0.602694 0.000242
0.051957 0.606966 0.000242
0.110962 0.611271 0.000243
0.171090 0.615607 0.000243
0.232353 0.619975 0.000243
0.294762 0.624373 0.000243
0.358328 0.628799 0.000243
0.423061 0.633255 0.000243
0.488973 0.637738 0.000244
0.556073 0.642249 0.000244
0.624371 0.646786 0.000244
0.693876 0.651349 0.000244
0.764597 0.655937 0.000244
0.836543 0.660550 0.000244
0.908010 0.664231 0.000245
0.973350 0.664231 0.000245
0.000000 0.000000 0.026945
0.000000 0.000000 0.026945
0.041153 0.000000 0.026945
0.087055 0.000000 0.026945
0.132957 0.000000 0.026945
0.178859 0.000000 0.026945
0.224761 0.000000 0.026945
0.270662 0.000000 0.026945
0.316564 0.000000 0.026945
0.362466 0.000000 0.026945
0.408368 0.000000 0.026945
0.454270 0.000000 0.026945
0.500171 0.000000 0.026945
0.546073 0.000000 0.026945
