assets/lighting/cinematic/grade-cross-process/lut.cube
TITLE "Cross Process"
# TKRS lighting-batch-001 original LUT
# Intended usage: cross-processed slide, cyan shadows magenta highs
# License: CC0-1.0
LUT_3D_SIZE 5
DOMAIN_MIN 0.0 0.0 0.0
DOMAIN_MAX 1.0 1.0 1.0
0.000000 0.000000 0.000000
0.165392 0.000000 0.000000
0.401033 0.000000 0.000000
0.636675 0.000000 0.000000
0.872317 0.000000 0.000000
0.000000 0.171849 0.000000
0.142782 0.164124 0.000000
0.385037 0.156678 0.000000
0.646511 0.149477 0.000000
0.928754 0.142290 0.000000
0.000000 0.427360 0.000000
0.133213 0.421350 0.000000
0.410209 0.415396 0.000000
0.709464 0.409466 0.000000
1.000000 0.403539 0.000000
0.000000 0.692083 0.000000
0.123533 0.687555 0.000000
0.438805 0.683056 0.000000
0.778789 0.678570 0.000000
1.000000 0.674084 0.000000
0.000000 0.966598 0.000000
0.106697 0.961880 0.000000
0.442130 0.953820 0.000000
0.777563 0.945759 0.000000
1.000000 0.937699 0.000000
0.000000 0.000000 0.203675
0.163109 0.000000 0.195615
0.398751 0.000000 0.187555
0.634393 0.000000 0.179495
0.870034 0.000000 0.171434
0.000000 0.169225 0.176560
0.140500 0.161500 0.168500
0.386957 0.154227 0.161119
0.652196 0.147037 0.153861
0.938485 0.139845 0.146601
0.000000 0.425310 0.151221
0.132425 0.419324 0.143950
0.413096 0.413381 0.136630
0.716324 0.407454 0.129242
1.000000 0.401524 0.121774
0.000000 0.690541 0.126533
0.122269 0.686025 0.119032
0.441610 0.681532 0.111437
0.785863 0.677047 0.103740
1.000000 0.671414 0.095703
0.000000 0.965593 0.100911
0.103448 0.959142 0.092586
0.438881 0.951082 0.084023
0.774314 0.943022 0.075461
1.000000 0.934962 0.066899
0.000000 0.000000 0.491600
0.160827 0.000000 0.483540
0.396469 0.000000 0.475480
0.632110 0.000000 0.467420
0.867752 0.000000 0.459360
0.000000 0.166602 0.464485
0.139305 0.159004 0.456954
0.389127 0.151783 0.451059
0.658100 0.144596 0.445471
0.948429 0.137398 0.440018
0.000000 0.423270 0.443475
0.131605 0.417303 0.438051
0.415997 0.411367 0.432676
0.723232 0.405441 0.427314
1.000000 0.399507 0.421941
0.000000 0.689004 0.425360
0.120943 0.684497 0.419978
0.444386 0.680008 0.414561
0.792935 0.675524 0.409094
1.000000 0.668677 0.401570
0.000000 0.964465 0.407016
0.100199 0.956405 0.398453
0.435632 0.948345 0.389891
0.771065 0.940285 0.381328
1.000000 0.932225 0.372766
0.000000 0.000000 0.779526
0.158544 0.000000 0.771465
0.394186 0.000000 0.763405
0.629828 0.000000 0.755345
0.871695 0.000000 0.748076
0.000000 0.163978 0.752411
0.138392 0.156542 0.746330
0.391477 0.149342 0.742093
0.664187 0.142154 0.738283
0.958562 0.134947 0.734717
0.000000 0.421238 0.736962
0.130748 0.415285 0.733460
0.418907 0.409355 0.730089
0.730180 0.403427 0.726804
1.000000 0.397488 0.723571
0.000000 0.687470 0.725622
0.119554 0.682971 0.722402
0.447130 0.678485 0.719200
0.800000 0.674000 0.716000
1.000000 0.665940 0.707438
0.000000 0.961728 0.712883
0.096950 0.953668 0.704320
0.432383 0.945608 0.695758
0.767816 0.937547 0.687195
1.000000 0.929487 0.678633
0.000000 0.000000 1.000000
0.156262 0.000000 1.000000
0.391904 0.000000 1.000000
0.627545 0.000000 1.000000
0.878118 0.000000 1.000000
0.000000 0.161359 1.000000
0.137583 0.154092 1.000000
0.393964 0.146902 1.000000
0.670429 0.139710 1.000000
0.968863 0.132491 1.000000
0.000000 0.419212 1.000000
0.129849 0.413269 1.000000
0.421819 0.407342 1.000000
0.737161 0.401412 1.000000
1.000000 0.395466 1.000000
0.000000 0.685940 1.000000
0.118100 0.681447 1.000000
0.449839 0.676963 1.000000
0.796751 0.671263 1.000000
1.000000 0.663203 1.000000
0.000000 0.958991 1.000000
0.093701 0.950931 1.000000
0.429134 0.942870 1.000000
0.764567 0.934810 0.993062
1.000000 0.926750 0.984500
