assets/lighting/cinematic/grade-cross-process/lut.cube
TITLE "Cross Process"
# TKRS lighting-batch-001 original LUT
# Intended usage: cross-processed slide, cyan shadows magenta highs
# License: CC0-1.0
LUT_3D_SIZE 17
DOMAIN_MIN 0.0 0.0 0.0
DOMAIN_MAX 1.0 1.0 1.0
0.000000 0.000000 0.000000
0.000000 0.000000 0.000000
0.047571 0.000000 0.000000
0.106481 0.000000 0.000000
0.165392 0.000000 0.000000
0.224302 0.000000 0.000000
0.283213 0.000000 0.000000
0.342123 0.000000 0.000000
0.401033 0.000000 0.000000
0.459944 0.000000 0.000000
0.518854 0.000000 0.000000
0.577765 0.000000 0.000000
0.636675 0.000000 0.000000
0.695585 0.000000 0.000000
0.754496 0.000000 0.000000
0.813406 0.000000 0.000000
0.872317 0.000000 0.000000
0.000000 0.000000 0.000000
0.000000 0.000000 0.000000
0.041919 0.000000 0.000000
0.100829 0.000000 0.000000
0.159739 0.000000 0.000000
0.218650 0.000000 0.000000
0.277560 0.000000 0.000000
0.336471 0.000000 0.000000
0.395381 0.000000 0.000000
0.454291 0.000000 0.000000
0.513202 0.000000 0.000000
0.572112 0.000000 0.000000
0.631023 0.000000 0.000000
0.689933 0.000000 0.000000
0.748844 0.000000 0.000000
0.807754 0.000000 0.000000
0.868965 0.000000 0.000000
0.000000 0.045549 0.000000
0.000000 0.043618 0.000000
0.036266 0.041687 0.000000
0.095177 0.039755 0.000000
0.154087 0.037824 0.000000
0.212997 0.035893 0.000000
0.271908 0.033961 0.000000
0.330818 0.032030 0.000000
0.389729 0.030099 0.000000
0.448639 0.028167 0.000000
0.507550 0.026236 0.000000
0.566460 0.024305 0.000000
0.625370 0.022373 0.000000
0.687625 0.020452 0.000000
0.752012 0.018533 0.000000
0.817868 0.016613 0.000000
0.885127 0.014690 0.000000
0.000000 0.108699 0.000000
0.000000 0.106768 0.000000
0.030614 0.104837 0.000000
0.089524 0.102905 0.000000
0.148435 0.100974 0.000000
0.207345 0.099042 0.000000
0.266256 0.097111 0.000000
0.325166 0.095180 0.000000
0.384076 0.093248 0.000000
0.443505 0.091328 0.000000
0.505566 0.089453 0.000000
0.569011 0.087585 0.000000
0.633748 0.085721 0.000000
0.699777 0.083858 0.000000
0.767113 0.081996 0.000000
0.835778 0.080132 0.000000
0.905795 0.078267 0.000000
0.000000 0.171849 0.000000
0.000000 0.169918 0.000000
0.024962 0.167986 0.000000
0.083872 0.166055 0.000000
0.142782 0.164124 0.000000
0.201693 0.162192 0.000000
0.261437 0.160313 0.000000
0.322669 0.158490 0.000000
0.385037 0.156678 0.000000
0.448569 0.154873 0.000000
0.513302 0.153072 0.000000
0.579271 0.151274 0.000000
0.646511 0.149477 0.000000
0.715052 0.147681 0.000000
0.784922 0.145884 0.000000
0.856148 0.144087 0.000000
0.928754 0.142290 0.000000
0.000000 0.234999 0.000000
0.000000 0.233067 0.000000
0.019309 0.231136 0.000000
0.078649 0.229333 0.000000
0.138852 0.227565 0.000000
0.200041 0.225813 0.000000
0.262294 0.224069 0.000000
0.325673 0.222332 0.000000
0.390227 0.220600 0.000000
0.455999 0.218871 0.000000
0.523027 0.217145 0.000000
0.591344 0.215420 0.000000
0.660979 0.213696 0.000000
0.731961 0.211972 0.000000
0.804316 0.210248 0.000000
0.878066 0.208524 0.000000
0.953235 0.206799 0.000000
0.000000 0.298391 0.000000
0.000000 0.296682 0.000000
0.013977 0.294991 0.000000
0.074887 0.293311 0.000000
0.136861 0.291640 0.000000
0.199956 0.289975 0.000000
0.264222 0.288316 0.000000
0.329703 0.286661 0.000000
0.396434 0.285008 0.000000
0.464451 0.283358 0.000000
0.533783 0.281709 0.000000
0.604457 0.280062 0.000000
0.676501 0.278415 0.000000
0.749937 0.276769 0.000000
0.824788 0.275122 0.000000
0.901075 0.273475 0.000000
0.978817 0.271828 0.000000
0.000000 0.362600 0.000000
0.000000 0.360996 0.000000
0.008435 0.359401 0.000000
0.071159 0.357812 0.000000
0.135060 0.356229 0.000000
0.200178 0.354650 0.000000
0.266548 0.353074 0.000000
0.334204 0.351502 0.000000
0.403176 0.349932 0.000000
0.473490 0.348363 0.000000
0.545172 0.346796 0.000000
0.618246 0.345230 0.000000
0.692735 0.343664 0.000000
0.768658 0.342099 0.000000
0.846036 0.340533 0.000000
0.924887 0.338967 0.000000
1.000000 0.337401 0.000000
0.000000 0.427360 0.000000
0.000000 0.425850 0.000000
0.002558 0.424345 0.000000
0.067256 0.422846 0.000000
0.133213 0.421350 0.000000
0.200458 0.419858 0.000000
0.269022 0.418369 0.000000
0.338931 0.416882 0.000000
0.410209 0.415396 0.000000
0.482880 0.413913 0.000000
0.556966 0.412430 0.000000
0.632488 0.410948 0.000000
0.709464 0.409466 0.000000
0.787914 0.407985 0.000000
0.867856 0.406503 0.000000
0.949306 0.405021 0.000000
1.000000 0.403539 0.000000
0.000000 0.492673 0.000000
0.000000 0.491255 0.000000
0.000000 0.489842 0.000000
0.063086 0.488432 0.000000
0.131201 0.487026 0.000000
0.200665 0.485622 0.000000
0.271502 0.484221 0.000000
0.343734 0.482821 0.000000
0.417383 0.481424 0.000000
0.492469 0.480027 0.000000
0.569011 0.478631 0.000000
0.647028 0.477236 0.000000
0.726538 0.475841 0.000000
0.807556 0.474446 0.000000
0.890099 0.473051 0.000000
0.974183 0.471656 0.000000
1.000000 0.470260 0.000000
0.000000 0.558554 0.000000
0.000000 0.557229 0.000000
0.000000 0.555908 0.000000
0.058589 0.554590 0.000000
0.128951 0.553274 0.000000
0.200712 0.551961 0.000000
0.273892 0.550650 0.000000
0.348512 0.549340 0.000000
0.424591 0.548032 0.000000
0.502146 0.546724 0.000000
0.581195 0.545418 0.000000
0.661754 0.544112 0.000000
0.743840 0.542806 0.000000
0.827467 0.541501 0.000000
0.912651 0.540195 0.000000
0.999405 0.538889 0.000000
1.000000 0.537582 0.000000
0.000000 0.625019 0.000000
0.000000 0.623788 0.000000
0.000000 0.622560 0.000000
0.053725 0.621335 0.000000
0.126409 0.620112 0.000000
0.200535 0.618891 0.000000
0.276123 0.617672 0.000000
0.353189 0.616454 0.000000
0.431752 0.615238 0.000000
0.511828 0.614022 0.000000
0.593431 0.612807 0.000000
0.676577 0.611592 0.000000
0.761281 0.610378 0.000000
0.847557 0.609163 0.000000
0.935418 0.607949 0.000000
1.000000 0.606734 0.000000
1.000000 0.605519 0.000000
0.000000 0.692083 0.000000
0.000000 0.690948 0.000000
0.000000 0.689815 0.000000
0.048461 0.688684 0.000000
0.123533 0.687555 0.000000
0.200087 0.686428 0.000000
0.278140 0.685303 0.000000
0.357707 0.684179 0.000000
0.438805 0.683056 0.000000
0.521448 0.681934 0.000000
0.605651 0.680812 0.000000
0.691426 0.679691 0.000000
0.778789 0.678570 0.000000
0.867751 0.677449 0.000000
0.958326 0.676328 0.000000
1.000000 0.675206 0.000000
1.000000 0.674084 0.000000
0.000000 0.759761 0.000000
0.000000 0.758722 0.000000
0.000000 0.757685 0.000000
0.042769 0.756651 0.000000
0.120290 0.755618 0.000000
0.199328 0.754587 0.000000
0.279899 0.753557 0.000000
0.362018 0.752528 0.000000
0.445698 0.751501 0.000000
0.530953 0.750474 0.000000
0.617797 0.749447 0.000000
0.706243 0.748421 0.000000
0.796302 0.747395 0.000000
0.885559 0.746084 0.000000
0.969417 0.744069 0.000000
1.000000 0.742054 0.000000
1.000000 0.740039 0.000000
0.000000 0.828064 0.000000
0.000000 0.827123 0.000000
0.000000 0.826185 0.000000
0.036628 0.825248 0.000000
0.116652 0.824313 0.000000
0.198226 0.823379 0.000000
0.281365 0.822446 0.000000
0.366080 0.821515 0.000000
0.452387 0.820584 0.000000
0.540297 0.819654 0.000000
0.625939 0.818016 0.000000
0.709797 0.816001 0.000000
0.793655 0.813986 0.000000
0.877513 0.811971 0.000000
0.961371 0.809955 0.000000
1.000000 0.807940 0.000000
1.000000 0.805925 0.000000
0.000000 0.897006 0.000000
0.000000 0.896165 0.000000
0.000000 0.895325 0.000000
0.030018 0.894488 0.000000
0.112596 0.893652 0.000000
0.196754 0.892817 0.000000
0.282460 0.891963 0.000000
0.366318 0.889948 0.000000
0.450176 0.887933 0.000000
0.534034 0.885918 0.000000
0.617893 0.883903 0.000000
0.701751 0.881888 0.000000
0.785609 0.879872 0.000000
0.869467 0.877857 0.000000
0.953325 0.875842 0.000000
1.000000 0.873827 0.000000
1.000000 0.871812 0.000000
0.000000 0.966598 0.000000
0.000000 0.965858 0.000000
0.000000 0.965119 0.000000
0.022839 0.963895 0.000000
0.106697 0.961880 0.000000
0.190555 0.959865 0.000000
0.274413 0.957850 0.000000
0.358272 0.955835 0.000000
0.442130 0.953820 0.000000
0.525988 0.951804 0.000000
0.609847 0.949789 0.000000
0.693705 0.947774 0.000000
0.777563 0.945759 0.000000
0.861421 0.943744 0.000000
0.945279 0.941729 0.000000
1.000000 0.939714 0.000000
1.000000 0.937699 0.000000
0.000000 0.000000 0.000000
0.000000 0.000000 0.000000
0.047000 0.000000 0.000000
0.105911 0.000000 0.000000
0.164821 0.000000 0.000000
0.223731 0.000000 0.000000
0.282642 0.000000 0.000000
0.341552 0.000000 0.000000
0.400463 0.000000 0.000000
0.459373 0.000000 0.000000
0.518284 0.000000 0.000000
0.577194 0.000000 0.000000
0.636104 0.000000 0.000000
0.695015 0.000000 0.000000
0.753925 0.000000 0.000000
0.812836 0.000000 0.000000
0.871746 0.000000 0.000000
0.000000 0.000000 0.000000
0.000000 0.000000 0.000000
0.041348 0.000000 0.000000
0.100258 0.000000 0.000000
0.159169 0.000000 0.000000
0.218079 0.000000 0.000000
0.276990 0.000000 0.000000
0.335900 0.000000 0.000000
0.394810 0.000000 0.000000
0.453721 0.000000 0.000000
0.512631 0.000000 0.000000
0.571542 0.000000 0.000000
0.630452 0.000000 0.000000
0.689363 0.000000 0.000000
0.748273 0.000000 0.000000
0.807183 0.000000 0.000000
0.870191 0.000000 0.000000
0.000000 0.044894 0.000000
0.000000 0.042962 0.000000
0.035696 0.041031 0.000000
0.094606 0.039100 0.000000
0.153516 0.037168 0.000000
0.212427 0.035237 0.000000
0.271337 0.033306 0.000000
0.330248 0.031374 0.000000
0.389158 0.029443 0.000000
0.448069 0.027512 0.000000
0.506979 0.025580 0.000000
0.565889 0.023649 0.000000
0.625454 0.021720 0.000000
0.688593 0.019801 0.000000
0.753343 0.017881 0.000000
0.819515 0.015960 0.000000
0.887072 0.014036 0.000000
0.000000 0.108043 0.000000
0.000000 0.106112 0.000000
0.030043 0.104181 0.000000
0.088954 0.102249 0.000000
0.147864 0.100318 0.000000
0.206775 0.098387 0.000000
0.265685 0.096455 0.000000
0.324595 0.094524 0.000000
0.383506 0.092593 0.000000
0.443767 0.090690 0.000000
0.506189 0.088818 0.000000
0.569919 0.086952 0.000000
0.634925 0.085089 0.000000
0.701217 0.083226 0.000000
0.768816 0.081363 0.000000
0.837744 0.079499 0.000000
0.908027 0.077634 0.000000
0.000000 0.171193 0.000000
0.000000 0.169262 0.000000
0.024391 0.167330 0.000000
0.083301 0.165399 0.000000
0.142212 0.163468 0.000000
0.201122 0.161536 0.000000
0.261417 0.159692 0.000000
0.322890 0.157873 0.000000
0.385488 0.156064 0.000000
0.449251 0.154261 0.000000
0.514218 0.152461 0.000000
0.580426 0.150663 0.000000
0.647909 0.148867 0.000000
0.716697 0.147071 0.000000
0.786819 0.145274 0.000000
0.858300 0.143477 0.000000
0.931165 0.141679 0.000000
0.000000 0.234343 0.000000
0.000000 0.232411 0.000000
0.018767 0.230516 0.000000
0.078253 0.228731 0.000000
0.138628 0.226969 0.000000
0.200005 0.225220 0.000000
0.262458 0.223479 0.000000
0.326047 0.221744 0.000000
0.390819 0.220013 0.000000
0.456816 0.218285 0.000000
0.524075 0.216559 0.000000
0.592628 0.214834 0.000000
0.662505 0.213110 0.000000
0.733734 0.211387 0.000000
0.806340 0.209663 0.000000
0.880345 0.207939 0.000000
0.955773 0.206213 0.000000
0.000000 0.297808 0.000000
0.000000 0.296106 0.000000
0.013430 0.294419 0.000000
0.074515 0.292743 0.000000
0.136676 0.291074 0.000000
0.199970 0.289411 0.000000
0.264444 0.287753 0.000000
0.330141 0.286099 0.000000
0.397096 0.284447 0.000000
0.465342 0.282798 0.000000
0.534908 0.281150 0.000000
0.605823 0.279503 0.000000
0.678111 0.277856 0.000000
0.751797 0.276210 0.000000
0.826901 0.274563 0.000000
0.903446 0.272916 0.000000
0.981450 0.271268 0.000000
0.000000 0.362054 0.000000
0.000000 0.360453 0.000000
0.007858 0.358860 0.000000
0.070775 0.357274 0.000000
0.134878 0.355692 0.000000
0.200206 0.354114 0.000000
0.266794 0.352540 0.000000
0.334674 0.350969 0.000000
0.403876 0.349399 0.000000
0.474425 0.347831 0.000000
0.546348 0.346264 0.000000
0.619667 0.344698 0.000000
0.694404 0.343133 0.000000
0.770580 0.341567 0.000000
0.848215 0.340001 0.000000
0.927327 0.338435 0.000000
1.000000 0.336868 0.000000
0.000000 0.426846 0.000000
0.000000 0.425338 0.000000
0.001944 0.423836 0.000000
0.066849 0.422338 0.000000
0.133019 0.420843 0.000000
0.200484 0.419352 0.000000
0.269274 0.417864 0.000000
0.339414 0.416377 0.000000
0.410929 0.414892 0.000000
0.483841 0.413409 0.000000
0.558173 0.411926 0.000000
0.633944 0.410445 0.000000
0.711174 0.408963 0.000000
0.789882 0.407481 0.000000
0.870084 0.406000 0.000000
0.951798 0.404518 0.000000
1.000000 0.403035 0.000000
0.000000 0.492191 0.000000
0.000000 0.490775 0.000000
0.000000 0.489363 0.000000
0.062648 0.487954 0.000000
0.130986 0.486549 0.000000
0.200678 0.485146 0.000000
0.271749 0.483746 0.000000
0.344219 0.482347 0.000000
0.418110 0.480949 0.000000
0.493443 0.479553 0.000000
0.570236 0.478157 0.000000
0.648508 0.476762 0.000000
0.728275 0.475367 0.000000
0.809555 0.473972 0.000000
0.892364 0.472578 0.000000
0.976716 0.471182 0.000000
1.000000 0.469786 0.000000
0.000000 0.558104 0.000000
0.000000 0.556780 0.000000
0.000000 0.555460 0.000000
0.058116 0.554143 0.000000
0.128708 0.552828 0.000000
0.200705 0.551515 0.000000
0.274125 0.550205 0.000000
0.348990 0.548896 0.000000
0.425317 0.547588 0.000000
0.503124 0.546281 0.000000
0.582429 0.544974 0.000000
0.663247 0.543668 0.000000
0.745596 0.542363 0.000000
0.829489 0.541057 0.000000
0.914941 0.539751 0.000000
1.000000 0.538445 0.000000
1.000000 0.537139 0.000000
0.000000 0.624601 0.000000
0.000000 0.623371 0.000000
0.000000 0.622144 0.000000
0.053212 0.620920 0.000000
0.126134 0.619697 0.000000
0.200503 0.618477 0.000000
0.276337 0.617258 0.000000
0.353654 0.616041 0.000000
0.432470 0.614825 0.000000
0.512803 0.613609 0.000000
0.594666 0.612394 0.000000
0.678076 0.611180 0.000000
0.763047 0.609965 0.000000
0.849592 0.608751 0.000000
0.937726 0.607537 0.000000
1.000000 0.606322 0.000000
1.000000 0.605106 0.000000
0.000000 0.691697 0.000000
0.000000 0.690563 0.000000
0.000000 0.689430 0.000000
0.047906 0.688300 0.000000
0.123222 0.687172 0.000000
0.200025 0.686046 0.000000
0.278329 0.684921 0.000000
0.358152 0.683798 0.000000
0.439509 0.682675 0.000000
0.522414 0.681553 0.000000
0.606881 0.680431 0.000000
0.692925 0.679310 0.000000
0.780558 0.678189 0.000000
0.869793 0.677068 0.000000
0.960644 0.675947 0.000000
1.000000 0.674825 0.000000
1.000000 0.673467 0.000000
0.000000 0.759407 0.000000
0.000000 0.758369 0.000000
0.000000 0.757333 0.000000
0.042170 0.756300 0.000000
0.119941 0.755267 0.000000
0.199233 0.754237 0.000000
0.280061 0.753207 0.000000
0.362440 0.752179 0.000000
0.446383 0.751152 0.000000
0.531904 0.750125 0.000000
0.619017 0.749099 0.000000
0.707734 0.748073 0.000000
0.798068 0.747047 0.000000
0.884747 0.745399 0.000000
0.968605 0.743384 0.000000
1.000000 0.741369 0.000000
1.000000 0.739354 0.000000
0.000000 0.827744 0.000000
0.000000 0.826804 0.000000
0.000000 0.825866 0.000000
0.035982 0.824930 0.000000
0.116262 0.823995 0.000000
0.198095 0.823062 0.000000
0.281495 0.822130 0.000000
0.366475 0.821199 0.000000
0.453049 0.820268 0.000000
0.541229 0.819338 0.000000
0.625126 0.817331 0.000000
0.708985 0.815316 0.000000
0.792843 0.813301 0.000000
0.876701 0.811286 0.000000
0.960559 0.809271 0.000000
1.000000 0.807256 0.000000
1.000000 0.805241 0.000000
0.000000 0.896720 0.000000
0.000000 0.895880 0.000000
0.000000 0.895041 0.000000
0.029324 0.894204 0.000000
0.112162 0.893368 0.000000
0.196584 0.892533 0.000000
0.281647 0.891278 0.000000
0.365506 0.889263 0.000000
0.449364 0.887248 0.000000
0.533222 0.885233 0.000000
0.617080 0.883218 0.000000
0.700939 0.881203 0.000000
0.784797 0.879188 0.000000
0.868655 0.877173 0.000000
0.952513 0.875158 0.000000
1.000000 0.873143 0.000000
1.000000 0.871128 0.000000
0.000000 0.966347 0.000000
0.000000 0.965607 0.000000
0.000000 0.964868 0.000000
0.022027 0.963210 0.000000
0.105885 0.961195 0.000000
0.189743 0.959180 0.000000
0.273601 0.957165 0.000000
0.357460 0.955150 0.000000
0.441318 0.953135 0.000000
0.525176 0.951120 0.000000
0.609034 0.949105 0.000000
0.692893 0.947090 0.000000
0.776751 0.945075 0.000000
0.860609 0.943060 0.000000
0.944467 0.941045 0.000000
1.000000 0.939030 0.000000
1.000000 0.937015 0.000000
0.000000 0.000000 0.059713
0.000000 0.000000 0.057698
0.046430 0.000000 0.055683
0.105340 0.000000 0.053667
0.164250 0.000000 0.051652
0.223161 0.000000 0.049637
0.282071 0.000000 0.047622
0.340982 0.000000 0.045607
0.399892 0.000000 0.043592
0.458803 0.000000 0.041577
0.517713 0.000000 0.039562
0.576623 0.000000 0.037547
0.635534 0.000000 0.035532
0.694444 0.000000 0.033517
0.753355 0.000000 0.031502
0.812265 0.000000 0.029487
0.871176 0.000000 0.027472
0.000000 0.000000 0.052934
0.000000 0.000000 0.050919
0.040777 0.000000 0.048904
0.099688 0.000000 0.046889
0.158598 0.000000 0.044874
0.217509 0.000000 0.042859
0.276419 0.000000 0.040844
0.335329 0.000000 0.038829
0.394240 0.000000 0.036813
0.453150 0.000000 0.034798
0.512061 0.000000 0.032783
0.570971 0.000000 0.030768
0.629882 0.000000 0.028753
0.688792 0.000000 0.026738
0.747702 0.000000 0.024723
0.807361 0.000000 0.022711
0.871560 0.000000 0.020714
0.000000 0.044238 0.046155
0.000000 0.042306 0.044140
0.035125 0.040375 0.042125
0.094035 0.038444 0.040110
0.152946 0.036512 0.038095
0.211856 0.034581 0.036080
0.270767 0.032650 0.034065
0.329677 0.030718 0.032050
0.388588 0.028787 0.030035
0.447498 0.026856 0.028020
0.506408 0.024924 0.026005
0.565319 0.022993 0.023990
0.626044 0.021068 0.021984
0.689645 0.019149 0.019987
0.754731 0.017229 0.017990
0.821206 0.015307 0.015989
0.889053 0.013383 0.013984
0.000000 0.107387 0.039376
0.000000 0.105456 0.037361
0.029473 0.103525 0.035346
0.088383 0.101593 0.033331
0.147294 0.099662 0.031316
0.206204 0.097731 0.029301
0.265114 0.095799 0.027286
0.324025 0.093868 0.025271
0.382935 0.091937 0.023256
0.444128 0.090053 0.021257
0.506861 0.088184 0.019260
0.570864 0.086319 0.017261
0.636132 0.084456 0.015259
0.702684 0.082593 0.013253
0.770543 0.080730 0.011242
0.839733 0.078866 0.009226
0.910279 0.077000 0.007204
0.000000 0.170537 0.032598
0.000000 0.168606 0.030583
0.023820 0.166674 0.028567
0.082731 0.164743 0.026552
0.141641 0.162812 0.024537
0.200831 0.160903 0.022527
0.261436 0.159073 0.020530
0.323136 0.157258 0.018533
0.385960 0.155451 0.016533
0.449952 0.153650 0.014529
0.515152 0.151850 0.012521
0.581598 0.150053 0.010508
0.649323 0.148257 0.008491
0.718358 0.146460 0.006467
0.788731 0.144664 0.004438
0.860467 0.142866 0.002403
0.933591 0.141068 0.000362
0.000000 0.233687 0.025819
0.000000 0.231756 0.023804
0.018231 0.229906 0.021800
0.077864 0.228130 0.019803
0.138412 0.226374 0.017805
0.199978 0.224628 0.015804
0.262631 0.222889 0.013799
0.326430 0.221155 0.011789
0.391420 0.219426 0.009774
0.457642 0.217698 0.007755
0.525132 0.215973 0.005729
0.593922 0.214249 0.003698
0.664042 0.212525 0.001661
0.735517 0.210801 0.000000
0.808374 0.209077 0.000000
0.882635 0.207353 0.000000
0.958322 0.205627 0.000000
0.000000 0.297228 0.019076
0.000000 0.295532 0.017077
0.012881 0.293849 0.015074
0.074142 0.292175 0.013068
0.136492 0.290509 0.011056
0.199987 0.288848 0.009040
0.264670 0.287191 0.007018
0.330584 0.285538 0.004990
0.397762 0.283887 0.002957
0.466238 0.282238 0.000918
0.536040 0.280590 0.000000
0.607196 0.278943 0.000000
0.679729 0.277297 0.000000
0.753664 0.275651 0.000000
0.829023 0.274004 0.000000
0.905825 0.272357 0.000000
0.984090 0.270708 0.000000
0.000000 0.361509 0.012336
0.000000 0.359912 0.010323
0.007277 0.358321 0.008304
0.070389 0.356736 0.006280
0.134696 0.355156 0.004251
0.200235 0.353579 0.002215
0.267041 0.352006 0.000174
0.335146 0.350435 0.000000
0.404578 0.348866 0.000000
0.475363 0.347299 0.000000
0.547527 0.345732 0.000000
0.621091 0.344166 0.000000
0.696078 0.342601 0.000000
0.772508 0.341035 0.000000
0.850400 0.339470 0.000000
0.929774 0.337903 0.000000
1.000000 0.336336 0.000000
0.000000 0.426333 0.005542
0.000000 0.424827 0.003510
0.001326 0.423327 0.001473
0.066438 0.421830 0.000000
0.132823 0.420337 0.000000
0.200509 0.418846 0.000000
0.269526 0.417359 0.000000
0.339898 0.415873 0.000000
0.411650 0.414388 0.000000
0.484804 0.412905 0.000000
0.559382 0.411423 0.000000
0.635404 0.409941 0.000000
0.712888 0.408460 0.000000
0.791853 0.406978 0.000000
0.872317 0.405497 0.000000
0.954296 0.404014 0.000000
1.000000 0.402531 0.000000
0.000000 0.491709 0.000000
0.000000 0.490295 0.000000
0.000000 0.488884 0.000000
0.062206 0.487477 0.000000
0.130768 0.486072 0.000000
0.200690 0.484670 0.000000
0.271994 0.483270 0.000000
0.344703 0.481872 0.000000
0.418838 0.480475 0.000000
0.494418 0.479079 0.000000
0.571463 0.477683 0.000000
0.649990 0.476288 0.000000
0.730016 0.474894 0.000000
0.811557 0.473499 0.000000
0.894631 0.472104 0.000000
0.979251 0.470708 0.000000
1.000000 0.469312 0.000000
0.000000 0.557654 0.000000
0.000000 0.556331 0.000000
0.000000 0.555012 0.000000
0.057638 0.553696 0.000000
0.128463 0.552382 0.000000
0.200696 0.551070 0.000000
0.274357 0.549760 0.000000
0.349467 0.548451 0.000000
0.426042 0.547144 0.000000
0.504102 0.545837 0.000000
0.583663 0.544531 0.000000
0.664742 0.543225 0.000000
0.747353 0.541919 0.000000
0.831512 0.540614 0.000000
0.917233 0.539308 0.000000
1.000000 0.538002 0.000000
1.000000 0.536695 0.000000
0.000000 0.624183 0.000000
0.000000 0.622954 0.000000
0.000000 0.621728 0.000000
0.052696 0.620504 0.000000
0.125856 0.619283 0.000000
0.200468 0.618063 0.000000
0.276549 0.616845 0.000000
0.354116 0.615628 0.000000
0.433187 0.614412 0.000000
0.513777 0.613196 0.000000
0.595901 0.611982 0.000000
0.679575 0.610767 0.000000
0.764813 0.609553 0.000000
0.851628 0.608339 0.000000
0.940034 0.607124 0.000000
1.000000 0.605909 0.000000
1.000000 0.604694 0.000000
0.000000 0.691312 0.000000
0.000000 0.690178 0.000000
0.000000 0.689046 0.000000
0.047347 0.687917 0.000000
0.122908 0.686790 0.000000
0.199960 0.685664 0.000000
0.278517 0.684540 0.000000
0.358596 0.683416 0.000000
0.440211 0.682294 0.000000
0.523378 0.681172 0.000000
0.608111 0.680050 0.000000
0.694422 0.678929 0.000000
0.782326 0.677808 0.000000
0.871836 0.676687 0.000000
0.962963 0.675566 0.000000
1.000000 0.674444 0.000000
1.000000 0.672783 0.000000
0.000000 0.759055 0.000000
0.000000 0.758017 0.000000
0.000000 0.756982 0.000000
0.041566 0.755949 0.000000
0.119588 0.754917 0.000000
0.199134 0.753887 0.000000
0.280220 0.752858 0.000000
0.362859 0.751830 0.000000
0.447066 0.750803 0.000000
0.532854 0.749776 0.000000
0.620236 0.748750 0.000000
0.709225 0.747724 0.000000
0.799834 0.746698 0.000000
0.883935 0.744715 0.000000
0.967793 0.742700 0.000000
1.000000 0.740685 0.000000
1.000000 0.738670 0.000000
0.000000 0.827425 0.000000
0.000000 0.826486 0.000000
0.000000 0.825548 0.000000
0.035332 0.824612 0.000000
0.115868 0.823678 0.000000
0.197960 0.822745 0.000000
0.281622 0.821813 0.000000
0.366867 0.820882 0.000000
0.453709 0.819952 0.000000
0.540456 0.818662 0.000000
0.624314 0.816647 0.000000
0.708172 0.814632 0.000000
0.792031 0.812617 0.000000
0.875889 0.810602 0.000000
0.959747 0.808587 0.000000
1.000000 0.806572 0.000000
1.000000 0.804557 0.000000
0.000000 0.896435 0.000000
0.000000 0.895595 0.000000
0.000000 0.894756 0.000000
0.028625 0.893920 0.000000
0.111724 0.893084 0.000000
0.196409 0.892250 0.000000
0.280835 0.890594 0.000000
0.364693 0.888579 0.000000
0.448552 0.886564 0.000000
0.532410 0.884549 0.000000
0.616268 0.882534 0.000000
0.700126 0.880519 0.000000
0.783985 0.878504 0.000000
0.867843 0.876489 0.000000
0.951701 0.874474 0.000000
1.000000 0.872459 0.000000
1.000000 0.870444 0.000000
0.000000 0.966095 0.000000
0.000000 0.965356 0.000000
0.000000 0.964541 0.000000
0.021214 0.962526 0.000000
0.105073 0.960511 0.000000
0.188931 0.958496 0.000000
0.272789 0.956481 0.000000
0.356647 0.954466 0.000000
0.440506 0.952451 0.000000
0.524364 0.950436 0.000000
0.608222 0.948421 0.000000
0.692080 0.946406 0.000000
0.775939 0.944391 0.000000
0.859797 0.942376 0.000000
0.943655 0.940361 0.000000
1.000000 0.938346 0.000000
1.000000 0.936330 0.000000
0.000000 0.000000 0.131694
0.000000 0.000000 0.129679
0.045859 0.000000 0.127664
0.104769 0.000000 0.125649
0.163680 0.000000 0.123634
0.222590 0.000000 0.121619
0.281501 0.000000 0.119604
0.340411 0.000000 0.117589
0.399322 0.000000 0.115574
0.458232 0.000000 0.113558
0.517142 0.000000 0.111543
0.576053 0.000000 0.109528
0.634963 0.000000 0.107513
0.693874 0.000000 0.105498
