assets/lighting/cinematic/grade-cross-process/lut.cube
TITLE "Cross Process"
# TKRS lighting-batch-001 original LUT
# Intended usage: cross-processed slide, cyan shadows magenta highs
# License: CC0-1.0
LUT_3D_SIZE 9
DOMAIN_MIN 0.0 0.0 0.0
DOMAIN_MAX 1.0 1.0 1.0
0.000000 0.000000 0.000000
0.047571 0.000000 0.000000
0.165392 0.000000 0.000000
0.283213 0.000000 0.000000
0.401033 0.000000 0.000000
0.518854 0.000000 0.000000
0.636675 0.000000 0.000000
0.754496 0.000000 0.000000
0.872317 0.000000 0.000000
0.000000 0.045549 0.000000
0.036266 0.041687 0.000000
0.154087 0.037824 0.000000
0.271908 0.033961 0.000000
0.389729 0.030099 0.000000
0.507550 0.026236 0.000000
0.625370 0.022373 0.000000
0.752012 0.018533 0.000000
0.885127 0.014690 0.000000
0.000000 0.171849 0.000000
0.024962 0.167986 0.000000
0.142782 0.164124 0.000000
0.261437 0.160313 0.000000
0.385037 0.156678 0.000000
0.513302 0.153072 0.000000
0.646511 0.149477 0.000000
0.784922 0.145884 0.000000
0.928754 0.142290 0.000000
0.000000 0.298391 0.000000
0.013977 0.294991 0.000000
0.136861 0.291640 0.000000
0.264222 0.288316 0.000000
0.396434 0.285008 0.000000
0.533783 0.281709 0.000000
0.676501 0.278415 0.000000
0.824788 0.275122 0.000000
0.978817 0.271828 0.000000
0.000000 0.427360 0.000000
0.002558 0.424345 0.000000
0.133213 0.421350 0.000000
0.269022 0.418369 0.000000
0.410209 0.415396 0.000000
0.556966 0.412430 0.000000
0.709464 0.409466 0.000000
0.867856 0.406503 0.000000
1.000000 0.403539 0.000000
0.000000 0.558554 0.000000
0.000000 0.555908 0.000000
0.128951 0.553274 0.000000
0.273892 0.550650 0.000000
0.424591 0.548032 0.000000
0.581195 0.545418 0.000000
0.743840 0.542806 0.000000
0.912651 0.540195 0.000000
1.000000 0.537582 0.000000
0.000000 0.692083 0.000000
0.000000 0.689815 0.000000
0.123533 0.687555 0.000000
0.278140 0.685303 0.000000
0.438805 0.683056 0.000000
0.605651 0.680812 0.000000
0.778789 0.678570 0.000000
0.958326 0.676328 0.000000
1.000000 0.674084 0.000000
0.000000 0.828064 0.000000
0.000000 0.826185 0.000000
0.116652 0.824313 0.000000
0.281365 0.822446 0.000000
0.452387 0.820584 0.000000
0.625939 0.818016 0.000000
0.793655 0.813986 0.000000
0.961371 0.809955 0.000000
1.000000 0.805925 0.000000
0.000000 0.966598 0.000000
0.000000 0.965119 0.000000
0.106697 0.961880 0.000000
0.274413 0.957850 0.000000
0.442130 0.953820 0.000000
0.609847 0.949789 0.000000
0.777563 0.945759 0.000000
0.945279 0.941729 0.000000
1.000000 0.937699 0.000000
0.000000 0.000000 0.059713
0.046430 0.000000 0.055683
0.164250 0.000000 0.051652
0.282071 0.000000 0.047622
0.399892 0.000000 0.043592
0.517713 0.000000 0.039562
0.635534 0.000000 0.035532
0.753355 0.000000 0.031502
0.871176 0.000000 0.027472
0.000000 0.044238 0.046155
0.035125 0.040375 0.042125
0.152946 0.036512 0.038095
0.270767 0.032650 0.034065
0.388588 0.028787 0.030035
0.506408 0.024924 0.026005
0.626044 0.021068 0.021984
0.754731 0.017229 0.017990
0.889053 0.013383 0.013984
0.000000 0.170537 0.032598
0.023820 0.166674 0.028567
0.141641 0.162812 0.024537
0.261436 0.159073 0.020530
0.385960 0.155451 0.016533
0.515152 0.151850 0.012521
0.649323 0.148257 0.008491
0.788731 0.144664 0.004438
0.933591 0.141068 0.000362
0.000000 0.297228 0.019076
0.012881 0.293849 0.015074
0.136492 0.290509 0.011056
0.264670 0.287191 0.007018
0.397762 0.283887 0.002957
0.536040 0.280590 0.000000
0.679729 0.277297 0.000000
0.829023 0.274004 0.000000
0.984090 0.270708 0.000000
0.000000 0.426333 0.005542
0.001326 0.423327 0.001473
0.132823 0.420337 0.000000
0.269526 0.417359 0.000000
0.411650 0.414388 0.000000
0.559382 0.411423 0.000000
0.712888 0.408460 0.000000
0.872317 0.405497 0.000000
1.000000 0.402531 0.000000
0.000000 0.557654 0.000000
0.000000 0.555012 0.000000
0.128463 0.552382 0.000000
0.274357 0.549760 0.000000
0.426042 0.547144 0.000000
0.583663 0.544531 0.000000
0.747353 0.541919 0.000000
0.917233 0.539308 0.000000
1.000000 0.536695 0.000000
0.000000 0.691312 0.000000
0.000000 0.689046 0.000000
0.122908 0.686790 0.000000
0.278517 0.684540 0.000000
0.440211 0.682294 0.000000
0.608111 0.680050 0.000000
0.782326 0.677808 0.000000
0.962963 0.675566 0.000000
1.000000 0.672783 0.000000
0.000000 0.827425 0.000000
0.000000 0.825548 0.000000
0.115868 0.823678 0.000000
0.281622 0.821813 0.000000
0.453709 0.819952 0.000000
0.624314 0.816647 0.000000
0.792031 0.812617 0.000000
0.959747 0.808587 0.000000
1.000000 0.804557 0.000000
0.000000 0.966095 0.000000
0.000000 0.964541 0.000000
0.105073 0.960511 0.000000
0.272789 0.956481 0.000000
0.440506 0.952451 0.000000
0.608222 0.948421 0.000000
0.775939 0.944391 0.000000
0.943655 0.940361 0.000000
1.000000 0.936330 0.000000
0.000000 0.000000 0.203675
0.045288 0.000000 0.199645
0.163109 0.000000 0.195615
0.280930 0.000000 0.191585
0.398751 0.000000 0.187555
0.516572 0.000000 0.183525
0.634393 0.000000 0.179495
0.752213 0.000000 0.175465
0.870034 0.000000 0.171434
0.000000 0.042926 0.190118
0.033984 0.039063 0.186088
0.151805 0.035201 0.182058
0.269625 0.031338 0.178027
0.387446 0.027475 0.173997
0.505267 0.023613 0.169967
0.627618 0.019765 0.166115
0.757648 0.015924 0.162445
0.893119 0.012074 0.158807
0.000000 0.169225 0.176560
0.022679 0.165363 0.172530
0.140500 0.161500 0.168500
0.261554 0.157839 0.164773
0.386957 0.154227 0.161119
0.517066 0.150630 0.157486
0.652196 0.147037 0.153861
0.792598 0.143443 0.150234
0.938485 0.139845 0.146601
0.000000 0.296074 0.163438
0.011774 0.292711 0.159795
0.136128 0.289380 0.156166
0.265131 0.286068 0.152541
0.399109 0.282767 0.148913
0.538321 0.279472 0.145276
0.682984 0.276179 0.141629
0.833287 0.272885 0.137967
0.989395 0.269588 0.134289
0.000000 0.425310 0.151221
0.000077 0.422310 0.147590
0.132425 0.419324 0.143950
0.270029 0.416349 0.140297
0.413096 0.413381 0.136630
0.561807 0.410417 0.132946
0.716324 0.407454 0.129242
0.876794 0.404490 0.125519
1.000000 0.401524 0.121774
0.000000 0.556755 0.138964
0.000000 0.554118 0.135291
0.127962 0.551491 0.131600
0.274815 0.548871 0.127889
0.427492 0.546256 0.124158
0.586134 0.543644 0.120405
0.750870 0.541033 0.116628
0.921823 0.538421 0.112827
1.000000 0.535807 0.109001
0.000000 0.690541 0.126533
0.000000 0.688279 0.122794
0.122269 0.686025 0.119032
0.278883 0.683776 0.115247
0.441610 0.681532 0.111437
0.610567 0.679289 0.107602
0.785863 0.677047 0.103740
0.967602 0.674804 0.099851
1.000000 0.671414 0.095703
0.000000 0.826787 0.113863
0.000000 0.824912 0.110044
0.115066 0.823044 0.106199
0.281866 0.821181 0.102327
0.454973 0.819309 0.098426
0.622690 0.815278 0.094145
0.790406 0.811248 0.089863
0.958122 0.807218 0.085582
1.000000 0.803188 0.081301
0.000000 0.965593 0.100911
0.000000 0.963173 0.096867
0.103448 0.959142 0.092586
0.271165 0.955112 0.088305
0.438881 0.951082 0.084023
0.606598 0.947052 0.079742
0.774314 0.943022 0.075461
0.942030 0.938992 0.071180
1.000000 0.934962 0.066899
0.000000 0.000000 0.347638
0.044147 0.000000 0.343608
0.161968 0.000000 0.339578
0.279789 0.000000 0.335548
0.397610 0.000000 0.331517
0.515431 0.000000 0.327487
0.633251 0.000000 0.323457
0.751072 0.000000 0.319427
0.868893 0.000000 0.315397
0.000000 0.041614 0.334080
0.032843 0.037751 0.330050
0.150663 0.033889 0.326020
0.268484 0.030026 0.321990
0.386305 0.026163 0.317960
0.504126 0.022301 0.313930
0.629503 0.018461 0.310454
0.760726 0.014618 0.307145
0.897308 0.010763 0.303897
0.000000 0.167914 0.320523
0.021538 0.164051 0.316493
0.139836 0.160244 0.312620
0.261751 0.156610 0.309239
0.388016 0.153004 0.305957
0.519037 0.149409 0.302724
0.655123 0.145817 0.299519
0.796518 0.142222 0.296330
0.943432 0.138622 0.293152
0.000000 0.294927 0.308037
0.010656 0.291577 0.304775
0.135767 0.288254 0.301554
0.265603 0.284946 0.298356
0.400472 0.281647 0.295172
0.540623 0.278353 0.291995
0.686264 0.275060 0.288820
0.837579 0.271766 0.285642
0.994730 0.268468 0.282459
0.000000 0.424289 0.297196
0.000000 0.421294 0.294015
0.132019 0.418313 0.290839
0.270530 0.415341 0.287663
0.414545 0.412374 0.284484
0.564240 0.409410 0.281298
0.719773 0.406447 0.278102
0.881286 0.403483 0.274896
1.000000 0.400515 0.271676
0.000000 0.555858 0.286506
0.000000 0.553225 0.283325
0.127449 0.550600 0.280136
0.275266 0.547983 0.276936
0.428938 0.545369 0.273725
0.588605 0.542757 0.270500
0.754393 0.540146 0.267259
0.926421 0.537533 0.264001
1.000000 0.534918 0.260725
0.000000 0.689772 0.275769
0.000000 0.687513 0.272553
0.121614 0.685261 0.269322
0.279238 0.683014 0.266075
0.443002 0.680770 0.262811
0.613020 0.678528 0.259527
0.789400 0.676285 0.256224
0.972243 0.674042 0.252900
1.000000 0.670046 0.248637
0.000000 0.826149 0.264889
0.000000 0.824277 0.261618
0.114247 0.822411 0.258327
0.282096 0.820549 0.255017
0.453349 0.817940 0.251359
0.621065 0.813910 0.247078
0.788782 0.809880 0.242797
0.956498 0.805850 0.238516
1.000000 0.801819 0.234234
0.000000 0.965091 0.253806
0.000000 0.961804 0.249801
0.101824 0.957774 0.245520
0.269540 0.953744 0.241238
0.437257 0.949714 0.236957
0.604973 0.945684 0.232676
0.772690 0.941653 0.228395
0.940406 0.937623 0.224113
1.000000 0.933593 0.219832
0.000000 0.000000 0.491600
0.043006 0.000000 0.487570
0.160827 0.000000 0.483540
0.278648 0.000000 0.479510
0.396469 0.000000 0.475480
0.514289 0.000000 0.471450
0.632110 0.000000 0.467420
0.749931 0.000000 0.463390
0.867752 0.000000 0.459360
0.000000 0.040302 0.478043
0.031701 0.036440 0.474013
0.149522 0.032577 0.469983
0.267343 0.028714 0.465953
0.385164 0.024852 0.461923
0.504559 0.020996 0.458103
0.631599 0.017157 0.455023
0.763941 0.013310 0.452101
0.901607 0.009452 0.449261
0.000000 0.166602 0.464485
0.020397 0.162739 0.460455
0.139305 0.159004 0.456954
0.262007 0.155384 0.453947
0.389127 0.151783 0.451059
0.521059 0.148189 0.448242
0.658100 0.144596 0.445471
0.800489 0.141000 0.442733
0.948429 0.137398 0.440018
0.000000 0.293786 0.452885
0.009525 0.290446 0.450027
0.135405 0.287129 0.447228
0.266084 0.283825 0.444471
0.401850 0.280528 0.441742
0.542944 0.277235 0.439034
0.689567 0.273942 0.436339
0.841898 0.270646 0.433653
1.000000 0.267346 0.430971
0.000000 0.423270 0.443475
0.000000 0.420281 0.440754
0.131605 0.417303 0.438051
0.271029 0.414333 0.435360
0.415997 0.411367 0.432676
0.566680 0.408404 0.429995
0.723232 0.405441 0.427314
0.885793 0.402476 0.424630
1.000000 0.399507 0.421941
0.000000 0.554963 0.434382
0.000000 0.552333 0.431700
0.126923 0.549711 0.429019
0.275709 0.547094 0.426337
0.430381 0.544482 0.423652
0.591076 0.541870 0.420960
0.757919 0.539259 0.418260
0.931025 0.536645 0.415550
1.000000 0.534029 0.412828
0.000000 0.689004 0.425360
0.000000 0.686747 0.422673
0.120943 0.684497 0.419978
0.279582 0.682251 0.417275
0.444386 0.680008 0.414561
0.615468 0.677766 0.411834
0.792935 0.675524 0.409094
0.970965 0.672707 0.405852
1.000000 0.668677 0.401570
0.000000 0.825513 0.416288
0.000000 0.823643 0.413570
0.113410 0.821778 0.410839
0.282312 0.819917 0.408093
0.451724 0.816571 0.404293
0.619441 0.812541 0.400012
0.787157 0.808511 0.395731
0.954873 0.804481 0.391449
1.000000 0.800451 0.387168
0.000000 0.964465 0.407016
0.000000 0.960435 0.402734
0.100199 0.956405 0.398453
0.267915 0.952375 0.394172
0.435632 0.948345 0.389891
0.603349 0.944315 0.385609
0.771065 0.940285 0.381328
0.938781 0.936255 0.377047
1.000000 0.932225 0.372766
0.000000 0.000000 0.635563
0.041865 0.000000 0.631533
0.159686 0.000000 0.627503
0.277506 0.000000 0.623473
0.395327 0.000000 0.619443
0.513148 0.000000 0.615413
0.630969 0.000000 0.611382
0.748790 0.000000 0.607352
0.869073 0.000000 0.603575
0.000000 0.038991 0.622006
0.030560 0.035128 0.617975
0.148381 0.031265 0.613945
0.266202 0.027403 0.609915
0.384023 0.023540 0.605885
0.505622 0.019692 0.602522
0.633858 0.015852 0.599840
0.767272 0.012001 0.597324
0.906005 0.008138 0.594909
0.000000 0.165290 0.608448
0.019258 0.161429 0.604427
0.138831 0.157771 0.601519
0.262309 0.154159 0.598909
0.390282 0.150562 0.596435
0.523125 0.146969 0.594048
0.661122 0.143375 0.591724
0.804506 0.139777 0.589446
0.953474 0.136173 0.587205
0.000000 0.292648 0.597996
0.008380 0.289318 0.595557
0.135043 0.286006 0.593196
0.266571 0.282705 0.590890
0.403242 0.279410 0.588627
0.545283 0.276117 0.586396
0.692892 0.272823 0.584190
0.846241 0.269526 0.582002
1.000000 0.266225 0.579829
0.000000 0.422253 0.590062
0.000000 0.419268 0.587811
0.131181 0.416293 0.585590
0.271525 0.413325 0.583391
0.417451 0.410361 0.581210
0.569126 0.407398 0.579041
0.726701 0.404434 0.576880
0.890312 0.401468 0.574725
1.000000 0.398497 0.572572
0.000000 0.554068 0.582596
0.000000 0.551441 0.580419
0.126383 0.548822 0.578253
0.276143 0.546207 0.576095
0.431820 0.543595 0.573941
0.593547 0.540983 0.571788
0.761448 0.538372 0.569634
0.935636 0.535757 0.567476
1.000000 0.533140 0.565314
0.000000 0.688237 0.575310
0.000000 0.685983 0.573157
0.120257 0.683734 0.571004
0.279914 0.681489 0.568849
0.445762 0.679247 0.566690
0.617912 0.677005 0.564525
0.796468 0.674762 0.562352
0.969341 0.671339 0.558785
1.000000 0.667308 0.554504
0.000000 0.824877 0.568063
0.000000 0.823009 0.565902
0.112555 0.821146 0.563735
0.282383 0.819233 0.561508
0.450100 0.815203 0.557227
0.617816 0.811172 0.552945
0.785533 0.807142 0.548664
0.953249 0.803112 0.544383
1.000000 0.799082 0.540102
0.000000 0.963097 0.559949
0.000000 0.959067 0.555668
0.098575 0.955037 0.551387
0.266291 0.951006 0.547105
0.434008 0.946976 0.542824
0.601724 0.942946 0.538543
0.769441 0.938916 0.534262
0.937157 0.934886 0.529981
1.000000 0.930856 0.525699
0.000000 0.000000 0.779526
0.040724 0.000000 0.775496
0.158544 0.000000 0.771465
0.276365 0.000000 0.767435
0.394186 0.000000 0.763405
0.512007 0.000000 0.759375
0.629828 0.000000 0.755345
0.747649 0.000000 0.751315
0.871695 0.000000 0.748076
0.000000 0.037679 0.765968
0.029419 0.033816 0.761938
0.147240 0.029953 0.757908
0.265061 0.026091 0.753878
0.382881 0.022228 0.749848
0.506926 0.018389 0.747182
0.636247 0.014545 0.744915
0.770707 0.010691 0.742824
0.910493 0.006823 0.740847
0.000000 0.163978 0.752411
0.018180 0.160175 0.748783
0.138392 0.156542 0.746330
0.262648 0.152937 0.744138
0.391477 0.149342 0.742093
0.525232 0.145749 0.740150
0.664187 0.142154 0.738283
0.808566 0.138554 0.736476
0.958562 0.134947 0.734717
0.000000 0.291514 0.743379
0.007222 0.288191 0.741375
0.134678 0.284884 0.739462
0.267065 0.281585 0.737619
0.404644 0.278291 0.735831
0.547638 0.274998 0.734086
0.696236 0.271704 0.732376
0.850607 0.268406 0.730695
1.000000 0.265102 0.729037
0.000000 0.421238 0.736962
0.000000 0.418257 0.735191
0.130748 0.415285 0.733460
0.272017 0.412318 0.731761
0.418907 0.409355 0.730089
0.571579 0.406392 0.728438
0.730180 0.403427 0.726804
0.894845 0.400460 0.725183
1.000000 0.397488 0.723571
0.000000 0.553175 0.731150
0.000000 0.550551 0.729486
0.125830 0.547933 0.727842
0.276568 0.545320 0.726212
0.433254 0.542708 0.724595
0.596018 0.540097 0.722986
0.764979 0.537484 0.721382
0.940252 0.534869 0.719782
1.000000 0.532250 0.718183
0.000000 0.687470 0.725622
0.000000 0.685218 0.724008
0.119554 0.682971 0.722402
0.280234 0.680728 0.720800
0.447130 0.678485 0.719200
0.620351 0.676243 0.717601
0.800000 0.674000 0.716000
0.967716 0.669970 0.711719
1.000000 0.665940 0.707438
0.000000 0.824242 0.720217
0.000000 0.822376 0.718618
0.111683 0.820514 0.717018
0.280759 0.817864 0.714441
0.448475 0.813834 0.710160
0.616192 0.809804 0.705879
0.783908 0.805774 0.701598
0.951624 0.801744 0.697316
1.000000 0.797714 0.693035
0.000000 0.961728 0.712883
0.000000 0.957698 0.708601
0.096950 0.953668 0.704320
0.264667 0.949638 0.700039
0.432383 0.945608 0.695758
0.600100 0.941578 0.691477
0.767816 0.937547 0.687195
0.935532 0.933517 0.682914
1.000000 0.929487 0.678633
0.000000 0.000000 0.923488
0.039582 0.000000 0.919458
0.157403 0.000000 0.915428
0.275224 0.000000 0.911398
0.393045 0.000000 0.907368
0.510866 0.000000 0.903338
0.628687 0.000000 0.899308
0.746507 0.000000 0.895278
0.874756 0.000000 0.892830
0.000000 0.036367 0.909931
0.028278 0.032504 0.905901
0.146099 0.028642 0.901871
0.263919 0.024779 0.897840
0.383022 0.020923 0.894252
0.508396 0.017084 0.892096
0.638747 0.013238 0.890261
0.774233 0.009379 0.888608
0.915063 0.005506 0.887083
0.000000 0.162666 0.896373
0.017111 0.158936 0.893411
0.137978 0.155316 0.891401
0.263018 0.151715 0.889641
0.392706 0.148122 0.888040
0.527376 0.144529 0.886553
0.667290 0.140932 0.885155
0.812666 0.137330 0.883828
0.963693 0.133719 0.882558
0.000000 0.290384 0.889043
0.006050 0.287067 0.887487
0.134310 0.283763 0.886035
0.267562 0.280466 0.884664
0.406057 0.277173 0.883359
0.550008 0.273880 0.882109
0.699599 0.270584 0.880903
0.854994 0.267284 0.879735
1.000000 0.263978 0.878598
0.000000 0.420224 0.884182
0.000000 0.417247 0.882898
0.130304 0.414277 0.881665
0.272505 0.411312 0.880474
0.420363 0.408348 0.879317
0.574035 0.405385 0.878191
0.733667 0.402420 0.877088
0.899388 0.399451 0.876006
1.000000 0.396477 0.874941
0.000000 0.552283 0.880049
0.000000 0.549661 0.878904
0.125262 0.547045 0.877787
0.276985 0.544433 0.876692
0.434684 0.541821 0.875617
0.598487 0.539210 0.874557
0.768513 0.536596 0.873509
0.944873 0.533980 0.872470
1.000000 0.531359 0.871439
0.000000 0.686705 0.876299
0.000000 0.684455 0.875229
0.118836 0.682209 0.874174
0.280542 0.679966 0.873130
0.448489 0.677724 0.872094
0.622784 0.675482 0.871065
0.798376 0.672631 0.868934
0.966092 0.668601 0.864652
1.000000 0.664571 0.860371
0.000000 0.823608 0.872752
0.000000 0.821743 0.871719
0.110792 0.819882 0.870691
0.279134 0.816495 0.867375
0.446851 0.812465 0.863094
0.614567 0.808435 0.858812
0.782284 0.804405 0.854531
0.950000 0.800375 0.850250
1.000000 0.796345 0.845969
0.000000 0.960359 0.865816
0.000000 0.956329 0.861535
0.095326 0.952299 0.857254
0.263042 0.948269 0.852973
0.430759 0.944239 0.848691
0.598475 0.940209 0.844410
0.766192 0.936179 0.840129
0.933908 0.932149 0.835848
1.000000 0.928119 0.831566
0.000000 0.000000 1.000000
0.038441 0.000000 1.000000
0.156262 0.000000 1.000000
0.274083 0.000000 1.000000
0.391904 0.000000 1.000000
0.509725 0.000000 1.000000
0.627545 0.000000 1.000000
0.747650 0.000000 1.000000
0.878118 0.000000 1.000000
0.000000 0.035055 1.000000
0.027137 0.031193 1.000000
0.144957 0.027330 1.000000
0.262778 0.023467 1.000000
0.383564 0.019620 1.000000
0.509992 0.015779 1.000000
0.641342 0.011929 1.000000
0.777842 0.008065 1.000000
0.919709 0.004188 1.000000
0.000000 0.161359 1.000000
0.016039 0.157703 1.000000
0.137583 0.154092 1.000000
0.263413 0.150494 1.000000
0.393964 0.146902 1.000000
0.529553 0.143308 1.000000
0.670429 0.139710 1.000000
0.816805 0.136105 1.000000
0.968863 0.132491 1.000000
0.000000 0.289255 1.000000
0.004863 0.285944 1.000000
0.133938 0.282643 1.000000
0.268063 0.279348 1.000000
0.407479 0.276055 1.000000
0.552391 0.272761 1.000000
0.702979 0.269464 1.000000
0.859402 0.266162 1.000000
1.000000 0.262854 1.000000
0.000000 0.419212 1.000000
0.000000 0.416237 1.000000
0.129849 0.413269 1.000000
0.272988 0.410305 1.000000
0.421819 0.407342 1.000000
0.576496 0.404378 1.000000
0.737161 0.401412 1.000000
0.903943 0.398442 1.000000
1.000000 0.395466 1.000000
0.000000 0.551392 1.000000
0.000000 0.548773 1.000000
0.124681 0.546158 1.000000
0.277392 0.543546 1.000000
0.436108 0.540934 1.000000
0.600954 0.538322 1.000000
0.772049 0.535708 1.000000
0.949499 0.533090 1.000000
1.000000 0.530468 1.000000
0.000000 0.685940 1.000000
0.000000 0.683692 1.000000
0.118100 0.681447 1.000000
0.280838 0.679205 1.000000
0.449839 0.676963 1.000000
0.625212 0.674720 1.000000
0.796751 0.671263 1.000000
0.964467 0.667233 1.000000
1.000000 0.663203 1.000000
0.000000 0.822974 1.000000
0.000000 0.821111 1.000000
0.109793 0.819157 1.000000
0.277510 0.815127 1.000000
0.445226 0.811097 1.000000
0.612943 0.807067 1.000000
0.780659 0.803036 1.000000
0.948375 0.799006 1.000000
1.000000 0.794976 0.998902
0.000000 0.958991 1.000000
0.000000 0.954961 1.000000
0.093701 0.950931 1.000000
0.261418 0.946900 1.000000
0.429134 0.942870 1.000000
0.596851 0.938840 0.997344
0.764567 0.934810 0.993062
0.932284 0.930780 0.988781
1.000000 0.926750 0.984500
