assets/lighting/cinematic/grade-cool-product/lut.cube
TITLE "Cool Product"
# TKRS lighting-batch-001 original LUT
# Intended usage: tech product cool clean grade
# License: CC0-1.0
LUT_3D_SIZE 17
DOMAIN_MIN 0.0 0.0 0.0
DOMAIN_MAX 1.0 1.0 1.0
0.000000 0.000000 0.004135
0.043015 0.000000 0.005540
0.103868 0.000000 0.006944
0.164721 0.000000 0.008348
0.225574 0.000000 0.009753
0.286427 0.000000 0.011157
0.347280 0.000000 0.012561
0.408133 0.000000 0.013966
0.468986 0.000000 0.015370
0.529839 0.000000 0.016774
0.590691 0.001066 0.018179
0.651544 0.002470 0.019583
0.712397 0.003874 0.020987
0.773250 0.005278 0.022391
0.834103 0.006683 0.023796
0.894956 0.008087 0.025200
0.955809 0.009491 0.026604
0.000000 0.052705 0.008971
0.047851 0.054109 0.010375
0.108704 0.055513 0.011779
0.169556 0.056918 0.013184
0.230409 0.058322 0.014588
0.291262 0.059726 0.015992
0.352115 0.061131 0.017397
0.412968 0.062535 0.018801
0.473821 0.063939 0.020205
0.534674 0.065343 0.021610
0.595527 0.066748 0.023014
0.656380 0.068152 0.024418
0.717233 0.069556 0.025822
0.778085 0.070961 0.027227
0.838938 0.072365 0.028631
0.899791 0.073769 0.030035
0.960644 0.075174 0.031440
0.000000 0.118387 0.013806
0.052686 0.119791 0.015210
0.113539 0.121196 0.016615
0.174392 0.122600 0.018019
0.235245 0.124004 0.019423
0.296098 0.125408 0.020828
0.356950 0.126813 0.022232
0.417803 0.128217 0.023636
0.478656 0.129621 0.025041
0.539509 0.131026 0.026445
0.600362 0.132430 0.027849
0.661215 0.133834 0.029253
0.722068 0.135239 0.030658
0.782921 0.136643 0.032062
0.843774 0.138047 0.033466
0.904627 0.139452 0.034871
0.965479 0.140856 0.036275
0.000000 0.184069 0.018641
0.057521 0.185473 0.020046
0.118374 0.186878 0.021450
0.179227 0.188282 0.022854
0.240080 0.189686 0.024259
0.300933 0.191091 0.025663
0.361786 0.192495 0.027067
0.422639 0.193899 0.028472
0.483492 0.195304 0.029876
0.544344 0.196708 0.031280
0.605197 0.198112 0.032684
0.666050 0.199517 0.034089
0.726903 0.200921 0.035493
0.787756 0.202325 0.036897
0.848609 0.203729 0.038302
0.909462 0.205134 0.039706
0.970315 0.206538 0.041110
0.001504 0.249751 0.023477
0.062357 0.251156 0.024881
0.123209 0.252560 0.026285
0.184062 0.253964 0.027690
0.244915 0.255369 0.029094
0.305768 0.256773 0.030498
0.366621 0.258177 0.031903
0.427474 0.259582 0.033307
0.488327 0.260986 0.034711
0.549180 0.262390 0.036115
0.610033 0.263794 0.037520
0.670886 0.265199 0.038924
0.731738 0.266603 0.040328
0.792591 0.268007 0.041733
0.853444 0.269412 0.043137
0.914297 0.270816 0.044541
0.975150 0.272220 0.045946
0.006339 0.315434 0.028312
0.067192 0.316838 0.029716
0.128045 0.318242 0.031121
0.188898 0.319647 0.032525
0.249751 0.321051 0.033929
0.310603 0.322455 0.035334
0.371456 0.323859 0.036738
0.432309 0.325264 0.038142
0.493162 0.326668 0.039546
0.554015 0.328072 0.040951
0.614868 0.329477 0.042355
0.675721 0.330881 0.043759
0.736574 0.332285 0.045164
0.797427 0.333690 0.046568
0.858280 0.335094 0.047972
0.919132 0.336498 0.049377
0.979985 0.337903 0.050781
0.011174 0.381116 0.033147
0.072027 0.382520 0.034552
0.132880 0.383924 0.035956
0.193733 0.385329 0.037360
0.254586 0.386733 0.038765
0.315439 0.388137 0.040169
0.376292 0.389542 0.041573
0.437145 0.390946 0.042977
0.497997 0.392350 0.044382
0.558850 0.393755 0.045786
0.619703 0.395159 0.047190
0.680556 0.396563 0.048595
0.741409 0.397968 0.049999
0.802262 0.399372 0.051403
0.863115 0.400776 0.052808
0.923968 0.402180 0.054212
0.984821 0.403585 0.055616
0.016010 0.446798 0.037983
0.076862 0.448202 0.039387
0.137715 0.449607 0.040791
0.198568 0.451011 0.042196
0.259421 0.452415 0.043600
0.320274 0.453820 0.045004
0.381127 0.455224 0.046408
0.441980 0.456628 0.047813
0.502833 0.458033 0.049217
0.563686 0.459437 0.050621
0.624539 0.460841 0.052026
0.685391 0.462245 0.053430
0.746244 0.463650 0.054834
0.807097 0.465054 0.056239
0.867950 0.466458 0.057643
0.928803 0.467863 0.059047
0.989656 0.469267 0.060452
0.020845 0.512480 0.042818
0.081698 0.513885 0.044222
0.142551 0.515289 0.045627
0.203404 0.516693 0.047031
0.264256 0.518098 0.048435
0.325109 0.519502 0.049839
0.385962 0.520906 0.051244
0.446815 0.522310 0.052648
0.507668 0.523715 0.054052
0.568521 0.525119 0.055457
0.629374 0.526523 0.056861
0.690227 0.527928 0.058265
0.751080 0.529332 0.059670
0.811933 0.530736 0.061074
0.872785 0.532141 0.062478
0.933638 0.533545 0.063883
0.994491 0.534949 0.065287
0.025680 0.578163 0.047653
0.086533 0.579567 0.049058
0.147386 0.580971 0.050462
0.208239 0.582375 0.051866
0.269092 0.583780 0.053270
0.329945 0.585184 0.054675
0.390798 0.586588 0.056079
0.451650 0.587993 0.057483
0.512503 0.589397 0.058888
0.573356 0.590801 0.060292
0.634209 0.592206 0.061696
0.695062 0.593610 0.063101
0.755915 0.595014 0.064505
0.816768 0.596419 0.065909
0.877621 0.597823 0.067314
0.938474 0.599227 0.068718
0.999327 0.600631 0.070122
0.030516 0.643845 0.052489
0.091368 0.645249 0.053893
0.152221 0.646653 0.055297
0.213074 0.648058 0.056701
0.273927 0.649462 0.058106
0.334780 0.650866 0.059510
0.395633 0.652271 0.060914
0.456486 0.653675 0.062319
0.517339 0.655079 0.063723
0.578192 0.656484 0.065127
0.639045 0.657888 0.066532
0.699897 0.659292 0.067936
0.760750 0.660696 0.069340
0.821603 0.662101 0.070745
0.882456 0.663505 0.072149
0.943309 0.664909 0.073553
1.000000 0.666314 0.074957
0.035351 0.709527 0.057324
0.096204 0.710931 0.058728
0.157057 0.712336 0.060132
0.217910 0.713740 0.061537
0.278762 0.715144 0.062941
0.339615 0.716548 0.064345
0.400468 0.717953 0.065750
0.461321 0.719357 0.067154
0.522174 0.720761 0.068558
0.583027 0.722166 0.069963
0.643880 0.723570 0.071367
0.704733 0.724974 0.072771
0.765586 0.726379 0.074176
0.826439 0.727783 0.075580
0.887291 0.729187 0.076984
0.948144 0.730592 0.078388
1.000000 0.731996 0.079793
0.040186 0.775209 0.062159
0.101039 0.776613 0.063563
0.161892 0.778018 0.064968
0.222745 0.779422 0.066372
0.283598 0.780826 0.067776
0.344451 0.782231 0.069181
0.405304 0.783635 0.070585
0.466156 0.785039 0.071989
0.527009 0.786444 0.073394
0.587862 0.787848 0.074798
0.648715 0.789252 0.076202
0.709568 0.790657 0.077607
0.770421 0.792061 0.079011
0.831274 0.793465 0.080415
0.892127 0.794869 0.081819
0.952980 0.796274 0.083224
1.000000 0.797678 0.084628
0.045021 0.840891 0.066994
0.105874 0.842296 0.068399
0.166727 0.843700 0.069803
0.227580 0.845104 0.071207
0.288433 0.846509 0.072612
0.349286 0.847913 0.074016
0.410139 0.849317 0.075420
0.470992 0.850722 0.076825
0.531845 0.852126 0.078229
0.592698 0.853530 0.079633
0.653550 0.854934 0.081038
0.714403 0.856339 0.082442
0.775256 0.857743 0.083846
0.836109 0.859147 0.085250
0.896962 0.860552 0.086655
0.957815 0.861956 0.088059
1.000000 0.863360 0.089463
0.049857 0.906574 0.071830
0.110710 0.907978 0.073234
0.171563 0.909382 0.074638
0.232415 0.910787 0.076043
0.293268 0.912191 0.077447
0.354121 0.913595 0.078851
0.414974 0.914999 0.080256
0.475827 0.916404 0.081660
0.536680 0.917808 0.083064
0.597533 0.919212 0.084468
0.658386 0.920617 0.085873
0.719239 0.922021 0.087277
0.780092 0.923425 0.088681
0.840944 0.924830 0.090086
0.901797 0.926234 0.091490
0.962650 0.927638 0.092894
1.000000 0.929043 0.094299
0.054692 0.972256 0.076665
0.115545 0.973660 0.078069
0.176398 0.975064 0.079474
0.237251 0.976469 0.080878
0.298104 0.977873 0.082282
0.358957 0.979277 0.083687
0.419809 0.980682 0.085091
0.480662 0.982086 0.086495
0.541515 0.983490 0.087899
0.602368 0.984895 0.089304
0.663221 0.986299 0.090708
0.724074 0.987703 0.092112
0.784927 0.989108 0.093517
0.845780 0.990512 0.094921
0.906633 0.991916 0.096325
0.967486 0.993320 0.097730
1.000000 0.994725 0.099134
0.059527 1.000000 0.081500
0.120380 1.000000 0.082905
0.181233 1.000000 0.084309
0.242086 1.000000 0.085713
0.302939 1.000000 0.087118
0.363792 1.000000 0.088522
0.424645 1.000000 0.089926
0.485498 1.000000 0.091330
0.546351 1.000000 0.092735
0.607203 1.000000 0.094139
0.668056 1.000000 0.095543
0.728909 1.000000 0.096948
0.789762 1.000000 0.098352
0.850615 1.000000 0.099756
0.911468 1.000000 0.101161
0.972321 1.000000 0.102565
1.000000 1.000000 0.103969
0.000000 0.000000 0.071568
0.043552 0.000000 0.072972
0.104405 0.000000 0.074376
0.165258 0.000000 0.075781
0.226111 0.000000 0.077185
0.286964 0.000000 0.078589
0.347817 0.000000 0.079994
0.408669 0.000000 0.081398
0.469522 0.000000 0.082802
0.530375 0.000198 0.084207
0.591228 0.001602 0.085611
0.652081 0.003007 0.087015
0.712934 0.004411 0.088419
0.773787 0.005815 0.089824
0.834640 0.007219 0.091228
0.895493 0.008624 0.092632
0.956346 0.010028 0.094037
0.000000 0.053241 0.076403
0.048387 0.054646 0.077807
0.109240 0.056050 0.079212
0.170093 0.057454 0.080616
0.230946 0.058859 0.082020
0.291799 0.060263 0.083425
0.352652 0.061667 0.084829
0.413505 0.063072 0.086233
0.474358 0.064476 0.087638
0.535211 0.065880 0.089042
0.596063 0.067284 0.090446
0.656916 0.068689 0.091850
0.717769 0.070093 0.093255
0.778622 0.071497 0.094659
0.839475 0.072902 0.096063
0.900328 0.074306 0.097468
0.961181 0.075710 0.098872
0.000000 0.118924 0.081238
0.053223 0.120328 0.082643
0.114076 0.121732 0.084047
0.174928 0.123137 0.085451
0.235781 0.124541 0.086856
0.296634 0.125945 0.088260
0.357487 0.127349 0.089664
0.418340 0.128754 0.091069
0.479193 0.130158 0.092473
0.540046 0.131562 0.093877
0.600899 0.132967 0.095281
0.661752 0.134371 0.096686
0.722605 0.135775 0.098090
0.783457 0.137180 0.099494
0.844310 0.138584 0.100899
0.905163 0.139988 0.102303
0.966016 0.141393 0.103707
0.000000 0.184606 0.086074
0.058058 0.186010 0.087478
0.118911 0.187414 0.088882
0.179764 0.188819 0.090287
0.240617 0.190223 0.091691
0.301470 0.191627 0.093095
0.362322 0.193032 0.094500
0.423175 0.194436 0.095904
0.484028 0.195840 0.097308
0.544881 0.197245 0.098712
0.605734 0.198649 0.100117
0.666587 0.200053 0.101521
0.727440 0.201458 0.102925
0.788293 0.202862 0.104330
0.849146 0.204266 0.105734
0.909999 0.205670 0.107138
0.970851 0.207075 0.108543
0.002040 0.250288 0.090909
0.062893 0.251692 0.092313
0.123746 0.253097 0.093718
0.184599 0.254501 0.095122
0.245452 0.255905 0.096526
0.306305 0.257310 0.097931
0.367158 0.258714 0.099335
0.428011 0.260118 0.100739
0.488864 0.261522 0.102143
0.549716 0.262927 0.103548
0.610569 0.264331 0.104952
0.671422 0.265735 0.106356
0.732275 0.267140 0.107761
0.793128 0.268544 0.109165
0.853981 0.269948 0.110569
0.914834 0.271353 0.111974
0.975687 0.272757 0.113378
0.006876 0.315970 0.095744
0.067729 0.317375 0.097149
0.128581 0.318779 0.098553
0.189434 0.320183 0.099957
0.250287 0.321587 0.101362
0.311140 0.322992 0.102766
0.371993 0.324396 0.104170
0.432846 0.325800 0.105574
0.493699 0.327205 0.106979
0.554552 0.328609 0.108383
0.615405 0.330013 0.109787
0.676258 0.331418 0.111192
0.737110 0.332822 0.112596
0.797963 0.334226 0.114000
0.858816 0.335631 0.115405
0.919669 0.337035 0.116809
0.980522 0.338439 0.118213
0.011711 0.381652 0.100580
0.072564 0.383057 0.101984
0.133417 0.384461 0.103388
0.194270 0.385865 0.104793
0.255123 0.387270 0.106197
0.315975 0.388674 0.107601
0.376828 0.390078 0.109005
0.437681 0.391483 0.110410
0.498534 0.392887 0.111814
0.559387 0.394291 0.113218
0.620240 0.395696 0.114623
0.681093 0.397100 0.116027
0.741946 0.398504 0.117431
0.802799 0.399908 0.118836
0.863652 0.401313 0.120240
0.924504 0.402717 0.121644
0.985357 0.404121 0.123049
0.016546 0.447335 0.105415
0.077399 0.448739 0.106819
0.138252 0.450143 0.108224
0.199105 0.451548 0.109628
0.259958 0.452952 0.111032
0.320811 0.454356 0.112436
0.381664 0.455761 0.113841
0.442517 0.457165 0.115245
0.503369 0.458569 0.116649
0.564222 0.459973 0.118054
0.625075 0.461378 0.119458
0.685928 0.462782 0.120862
0.746781 0.464186 0.122267
0.807634 0.465591 0.123671
0.868487 0.466995 0.125075
0.929340 0.468399 0.126480
0.990193 0.469804 0.127884
0.021382 0.513017 0.110250
0.082234 0.514421 0.111655
0.143087 0.515826 0.113059
0.203940 0.517230 0.114463
0.264793 0.518634 0.115867
0.325646 0.520038 0.117272
0.386499 0.521443 0.118676
0.447352 0.522847 0.120080
0.508205 0.524251 0.121485
0.569058 0.525656 0.122889
0.629911 0.527060 0.124293
0.690763 0.528464 0.125698
0.751616 0.529869 0.127102
0.812469 0.531273 0.128506
0.873322 0.532677 0.129911
0.934175 0.534082 0.131315
0.995028 0.535486 0.132719
0.026217 0.578699 0.115086
0.087070 0.580103 0.116490
0.147923 0.581508 0.117894
0.208776 0.582912 0.119298
0.269628 0.584316 0.120703
0.330481 0.585721 0.122107
0.391334 0.587125 0.123511
0.452187 0.588529 0.124916
0.513040 0.589934 0.126320
0.573893 0.591338 0.127724
0.634746 0.592742 0.129129
0.695599 0.594147 0.130533
0.756452 0.595551 0.131937
0.817305 0.596955 0.133342
0.878157 0.598359 0.134746
0.939010 0.599764 0.136150
0.999863 0.601168 0.137554
0.031052 0.644381 0.119921
0.091905 0.645786 0.121325
0.152758 0.647190 0.122729
0.213611 0.648594 0.124134
0.274464 0.649999 0.125538
0.335317 0.651403 0.126942
0.396170 0.652807 0.128347
0.457022 0.654212 0.129751
0.517875 0.655616 0.131155
0.578728 0.657020 0.132560
0.639581 0.658424 0.133964
0.700434 0.659829 0.135368
0.761287 0.661233 0.136773
0.822140 0.662637 0.138177
0.882993 0.664042 0.139581
0.943846 0.665446 0.140985
1.000000 0.666850 0.142390
0.035887 0.710064 0.124756
0.096740 0.711468 0.126160
0.157593 0.712872 0.127565
0.218446 0.714277 0.128969
0.279299 0.715681 0.130373
0.340152 0.717085 0.131778
0.401005 0.718489 0.133182
0.461858 0.719894 0.134586
0.522711 0.721298 0.135991
0.583564 0.722702 0.137395
0.644416 0.724107 0.138799
0.705269 0.725511 0.140203
0.766122 0.726915 0.141608
0.826975 0.728320 0.143012
0.887828 0.729724 0.144416
0.948681 0.731128 0.145821
1.000000 0.732533 0.147225
0.040723 0.775746 0.129591
0.101576 0.777150 0.130996
0.162429 0.778554 0.132400
0.223281 0.779959 0.133804
0.284134 0.781363 0.135209
0.344987 0.782767 0.136613
0.405840 0.784172 0.138017
0.466693 0.785576 0.139422
0.527546 0.786980 0.140826
0.588399 0.788385 0.142230
0.649252 0.789789 0.143634
0.710105 0.791193 0.145039
0.770958 0.792598 0.146443
0.831810 0.794002 0.147847
0.892663 0.795406 0.149252
0.953516 0.796810 0.150656
1.000000 0.798215 0.152060
0.045558 0.841428 0.134427
0.106411 0.842832 0.135831
0.167264 0.844237 0.137235
0.228117 0.845641 0.138640
0.288970 0.847045 0.140044
0.349823 0.848450 0.141448
0.410675 0.849854 0.142853
0.471528 0.851258 0.144257
0.532381 0.852663 0.145661
0.593234 0.854067 0.147065
0.654087 0.855471 0.148470
0.714940 0.856875 0.149874
0.775793 0.858280 0.151278
0.836646 0.859684 0.152683
0.897499 0.861088 0.154087
0.958352 0.862493 0.155491
1.000000 0.863897 0.156896
0.050393 0.907110 0.139262
0.111246 0.908515 0.140666
0.172099 0.909919 0.142071
0.232952 0.911323 0.143475
0.293805 0.912728 0.144879
0.354658 0.914132 0.146284
0.415511 0.915536 0.147688
0.476364 0.916940 0.149092
0.537217 0.918345 0.150496
0.598069 0.919749 0.151901
0.658922 0.921153 0.153305
0.719775 0.922558 0.154709
0.780628 0.923962 0.156114
0.841481 0.925366 0.157518
0.902334 0.926771 0.158922
0.963187 0.928175 0.160327
1.000000 0.929579 0.161731
0.055229 0.972793 0.144097
0.116082 0.974197 0.145502
0.176934 0.975601 0.146906
0.237787 0.977005 0.148310
0.298640 0.978410 0.149715
0.359493 0.979814 0.151119
0.420346 0.981218 0.152523
0.481199 0.982623 0.153927
0.542052 0.984027 0.155332
0.602905 0.985431 0.156736
0.663758 0.986836 0.158140
0.724611 0.988240 0.159545
0.785463 0.989644 0.160949
0.846316 0.991049 0.162353
0.907169 0.992453 0.163758
0.968022 0.993857 0.165162
1.000000 0.995261 0.166566
0.060064 1.000000 0.148933
0.120917 1.000000 0.150337
0.181770 1.000000 0.151741
0.242623 1.000000 0.153146
0.303476 1.000000 0.154550
0.364328 1.000000 0.155954
0.425181 1.000000 0.157358
0.486034 1.000000 0.158763
0.546887 1.000000 0.160167
0.607740 1.000000 0.161571
0.668593 1.000000 0.162976
0.729446 1.000000 0.164380
0.790299 1.000000 0.165784
0.851152 1.000000 0.167189
0.912005 1.000000 0.168593
0.972857 1.000000 0.169997
1.000000 1.000000 0.171402
0.000000 0.000000 0.138114
0.044082 0.000000 0.139519
0.104935 0.000000 0.140923
0.165787 0.000000 0.142327
0.226640 0.000000 0.143732
0.287493 0.000000 0.145136
0.348346 0.000000 0.146540
0.409199 0.000000 0.147945
0.470052 0.000000 0.149349
0.530905 0.000728 0.150753
0.591758 0.002132 0.152157
0.652611 0.003536 0.153562
0.713464 0.004940 0.154966
0.774316 0.006345 0.156370
0.835169 0.007749 0.157775
0.896022 0.009153 0.159179
0.956875 0.010558 0.160583
0.000000 0.053771 0.142950
0.048917 0.055175 0.144354
0.109770 0.056580 0.145758
0.170623 0.057984 0.147163
0.231476 0.059388 0.148567
0.292329 0.060792 0.149971
0.353181 0.062197 0.151376
0.414034 0.063601 0.152780
0.474887 0.065005 0.154184
0.535740 0.066410 0.155588
0.596593 0.067814 0.156993
0.657446 0.069218 0.158397
0.718299 0.070623 0.159801
0.779152 0.072027 0.161206
0.840005 0.073431 0.162610
0.900858 0.074836 0.164014
0.961710 0.076240 0.165419
0.000000 0.119453 0.147785
0.053752 0.120857 0.149189
0.114605 0.122262 0.150594
0.175458 0.123666 0.151998
0.236311 0.125070 0.153402
0.297164 0.126475 0.154807
0.358017 0.127879 0.156211
0.418870 0.129283 0.157615
0.479723 0.130688 0.159019
0.540575 0.132092 0.160424
0.601428 0.133496 0.161828
0.662281 0.134901 0.163232
0.723134 0.136305 0.164637
0.783987 0.137709 0.166041
0.844840 0.139113 0.167445
0.905693 0.140518 0.168850
0.966546 0.141922 0.170254
0.000000 0.185135 0.152620
0.058588 0.186540 0.154025
0.119440 0.187944 0.155429
0.180293 0.189348 0.156833
0.241146 0.190753 0.158238
0.301999 0.192157 0.159642
0.362852 0.193561 0.161046
0.423705 0.194966 0.162450
0.484558 0.196370 0.163855
0.545411 0.197774 0.165259
0.606264 0.199178 0.166663
0.667117 0.200583 0.168068
0.727969 0.201987 0.169472
0.788822 0.203391 0.170876
0.849675 0.204796 0.172281
0.910528 0.206200 0.173685
0.971381 0.207604 0.175089
0.002570 0.250818 0.157456
0.063423 0.252222 0.158860
0.124276 0.253626 0.160264
0.185129 0.255031 0.161669
0.245982 0.256435 0.163073
0.306834 0.257839 0.164477
0.367687 0.259243 0.165881
0.428540 0.260648 0.167286
0.489393 0.262052 0.168690
0.550246 0.263456 0.170094
0.611099 0.264861 0.171499
0.671952 0.266265 0.172903
0.732805 0.267669 0.174307
0.793658 0.269074 0.175712
0.854511 0.270478 0.177116
0.915363 0.271882 0.178520
0.976216 0.273287 0.179925
0.007405 0.316500 0.162291
0.068258 0.317904 0.163695
0.129111 0.319308 0.165100
0.189964 0.320713 0.166504
0.250817 0.322117 0.167908
0.311670 0.323521 0.169312
0.372523 0.324926 0.170717
0.433376 0.326330 0.172121
0.494228 0.327734 0.173525
0.555081 0.329139 0.174930
0.615934 0.330543 0.176334
0.676787 0.331947 0.177738
0.737640 0.333352 0.179143
0.798493 0.334756 0.180547
0.859346 0.336160 0.181951
0.920199 0.337564 0.183356
0.981052 0.338969 0.184760
0.012241 0.382182 0.167126
0.073093 0.383586 0.168531
0.133946 0.384991 0.169935
0.194799 0.386395 0.171339
0.255652 0.387799 0.172743
0.316505 0.389204 0.174148
0.377358 0.390608 0.175552
0.438211 0.392012 0.176956
0.499064 0.393417 0.178361
0.559917 0.394821 0.179765
0.620770 0.396225 0.181169
0.681622 0.397629 0.182574
0.742475 0.399034 0.183978
0.803328 0.400438 0.185382
0.864181 0.401842 0.186787
0.925034 0.403247 0.188191
0.985887 0.404651 0.189595
0.017076 0.447864 0.171962
0.077929 0.449269 0.173366
0.138782 0.450673 0.174770
0.199635 0.452077 0.176174
0.260487 0.453482 0.177579
0.321340 0.454886 0.178983
0.382193 0.456290 0.180387
0.443046 0.457694 0.181792
0.503899 0.459099 0.183196
0.564752 0.460503 0.184600
0.625605 0.461907 0.186005
0.686458 0.463312 0.187409
0.747311 0.464716 0.188813
0.808164 0.466120 0.190218
0.869016 0.467525 0.191622
0.929869 0.468929 0.193026
0.990722 0.470333 0.194430
0.021911 0.513547 0.176797
0.082764 0.514951 0.178201
0.143617 0.516355 0.179605
0.204470 0.517759 0.181010
0.265323 0.519164 0.182414
0.326176 0.520568 0.183818
0.387029 0.521972 0.185223
0.447881 0.523377 0.186627
0.508734 0.524781 0.188031
0.569587 0.526185 0.189436
0.630440 0.527590 0.190840
0.691293 0.528994 0.192244
0.752146 0.530398 0.193649
0.812999 0.531803 0.195053
0.873852 0.533207 0.196457
0.934705 0.534611 0.197861
0.995558 0.536015 0.199266
0.026746 0.579229 0.181632
0.087599 0.580633 0.183036
0.148452 0.582037 0.184441
0.209305 0.583442 0.185845
0.270158 0.584846 0.187249
0.331011 0.586250 0.188654
0.391864 0.587655 0.190058
0.452717 0.589059 0.191462
0.513570 0.590463 0.192867
0.574423 0.591868 0.194271
0.635275 0.593272 0.195675
0.696128 0.594676 0.197080
0.756981 0.596080 0.198484
0.817834 0.597485 0.199888
0.878687 0.598889 0.201292
0.939540 0.600293 0.202697
1.000000 0.601698 0.204101
0.031582 0.644911 0.186467
0.092435 0.646315 0.187872
0.153288 0.647720 0.189276
0.214140 0.649124 0.190680
0.274993 0.650528 0.192085
0.335846 0.651933 0.193489
0.396699 0.653337 0.194893
0.457552 0.654741 0.196298
0.518405 0.656145 0.197702
0.579258 0.657550 0.199106
0.640111 0.658954 0.200511
0.700964 0.660358 0.201915
0.761817 0.661763 0.203319
0.822669 0.663167 0.204723
0.883522 0.664571 0.206128
0.944375 0.665976 0.207532
1.000000 0.667380 0.208936
0.036417 0.710593 0.191303
0.097270 0.711998 0.192707
0.158123 0.713402 0.194111
0.218976 0.714806 0.195516
0.279829 0.716210 0.196920
0.340682 0.717615 0.198324
0.401534 0.719019 0.199729
0.462387 0.720423 0.201133
0.523240 0.721828 0.202537
0.584093 0.723232 0.203942
0.644946 0.724636 0.205346
0.705799 0.726041 0.206750
0.766652 0.727445 0.208154
0.827505 0.728849 0.209559
0.888358 0.730254 0.210963
0.949211 0.731658 0.212367
1.000000 0.733062 0.213772
0.041252 0.776275 0.196138
0.102105 0.777680 0.197542
0.162958 0.779084 0.198947
0.223811 0.780488 0.200351
0.284664 0.781893 0.201755
0.345517 0.783297 0.203160
0.406370 0.784701 0.204564
0.467223 0.786106 0.205968
0.528076 0.787510 0.207373
0.588928 0.788914 0.208777
0.649781 0.790319 0.210181
0.710634 0.791723 0.211585
0.771487 0.793127 0.212990
0.832340 0.794531 0.214394
0.893193 0.795936 0.215798
0.954046 0.797340 0.217203
1.000000 0.798744 0.218607
0.046088 0.841958 0.200973
0.106941 0.843362 0.202378
0.167793 0.844766 0.203782
0.228646 0.846171 0.205186
0.289499 0.847575 0.206591
0.350352 0.848979 0.207995
0.411205 0.850384 0.209399
0.472058 0.851788 0.210803
0.532911 0.853192 0.212208
0.593764 0.854596 0.213612
0.654617 0.856001 0.215016
0.715470 0.857405 0.216421
0.776322 0.858809 0.217825
0.837175 0.860214 0.219229
0.898028 0.861618 0.220634
0.958881 0.863022 0.222038
1.000000 0.864427 0.223442
0.050923 0.907640 0.205809
0.111776 0.909044 0.207213
0.172629 0.910449 0.208617
0.233482 0.911853 0.210022
0.294335 0.913257 0.211426
0.355187 0.914661 0.212830
0.416040 0.916066 0.214234
0.476893 0.917470 0.215639
0.537746 0.918874 0.217043
0.598599 0.920279 0.218447
0.659452 0.921683 0.219852
0.720305 0.923087 0.221256
0.781158 0.924492 0.222660
0.842011 0.925896 0.224065
0.902864 0.927300 0.225469
0.963716 0.928705 0.226873
1.000000 0.930109 0.228278
0.055758 0.973322 0.210644
0.116611 0.974726 0.212048
0.177464 0.976131 0.213453
0.238317 0.977535 0.214857
0.299170 0.978939 0.216261
0.360023 0.980344 0.217665
0.420876 0.981748 0.219070
0.481729 0.983152 0.220474
0.542581 0.984557 0.221878
0.603434 0.985961 0.223283
0.664287 0.987365 0.224687
0.725140 0.988769 0.226091
0.785993 0.990174 0.227496
0.846846 0.991578 0.228900
0.907699 0.992982 0.230304
0.968552 0.994387 0.231709
1.000000 0.995791 0.233113
0.060594 1.000000 0.215479
0.121446 1.000000 0.216884
0.182299 1.000000 0.218288
0.243152 1.000000 0.219692
0.304005 1.000000 0.221096
0.364858 1.000000 0.222501
0.425711 1.000000 0.223905
0.486564 1.000000 0.225309
0.547417 1.000000 0.226714
0.608270 1.000000 0.228118
0.669123 1.000000 0.229522
0.729975 1.000000 0.230927
0.790828 1.000000 0.232331
0.851681 1.000000 0.233735
0.912534 1.000000 0.235140
0.973387 1.000000 0.236544
1.000000 1.000000 0.237948
0.000000 0.000000 0.204148
0.044607 0.000000 0.205552
0.105460 0.000000 0.206957
0.166313 0.000000 0.208361
0.227166 0.000000 0.209765
0.288019 0.000000 0.211169
0.348872 0.000000 0.212574
0.409725 0.000000 0.213978
0.470577 0.000000 0.215382
0.531430 0.001253 0.216787
0.592283 0.002657 0.218191
0.653136 0.004062 0.219595
0.713989 0.005466 0.221000
0.774842 0.006870 0.222404
