assets/lighting/cinematic/grade-cool-product/lut.cube
TITLE "Cool Product"
# TKRS lighting-batch-001 original LUT
# Intended usage: tech product cool clean grade
# License: CC0-1.0
LUT_3D_SIZE 9
DOMAIN_MIN 0.0 0.0 0.0
DOMAIN_MAX 1.0 1.0 1.0
0.000000 0.000000 0.004135
0.103868 0.000000 0.006944
0.225574 0.000000 0.009753
0.347280 0.000000 0.012561
0.468986 0.000000 0.015370
0.590691 0.001066 0.018179
0.712397 0.003874 0.020987
0.834103 0.006683 0.023796
0.955809 0.009491 0.026604
0.000000 0.118387 0.013806
0.113539 0.121196 0.016615
0.235245 0.124004 0.019423
0.356950 0.126813 0.022232
0.478656 0.129621 0.025041
0.600362 0.132430 0.027849
0.722068 0.135239 0.030658
0.843774 0.138047 0.033466
0.965479 0.140856 0.036275
0.001504 0.249751 0.023477
0.123209 0.252560 0.026285
0.244915 0.255369 0.029094
0.366621 0.258177 0.031903
0.488327 0.260986 0.034711
0.610033 0.263794 0.037520
0.731738 0.266603 0.040328
0.853444 0.269412 0.043137
0.975150 0.272220 0.045946
0.011174 0.381116 0.033147
0.132880 0.383924 0.035956
0.254586 0.386733 0.038765
0.376292 0.389542 0.041573
0.497997 0.392350 0.044382
0.619703 0.395159 0.047190
0.741409 0.397968 0.049999
0.863115 0.400776 0.052808
0.984821 0.403585 0.055616
0.020845 0.512480 0.042818
0.142551 0.515289 0.045627
0.264256 0.518098 0.048435
0.385962 0.520906 0.051244
0.507668 0.523715 0.054052
0.629374 0.526523 0.056861
0.751080 0.529332 0.059670
0.872785 0.532141 0.062478
0.994491 0.534949 0.065287
0.030516 0.643845 0.052489
0.152221 0.646653 0.055297
0.273927 0.649462 0.058106
0.395633 0.652271 0.060914
0.517339 0.655079 0.063723
0.639045 0.657888 0.066532
0.760750 0.660696 0.069340
0.882456 0.663505 0.072149
1.000000 0.666314 0.074957
0.040186 0.775209 0.062159
0.161892 0.778018 0.064968
0.283598 0.780826 0.067776
0.405304 0.783635 0.070585
0.527009 0.786444 0.073394
0.648715 0.789252 0.076202
0.770421 0.792061 0.079011
0.892127 0.794869 0.081819
1.000000 0.797678 0.084628
0.049857 0.906574 0.071830
0.171563 0.909382 0.074638
0.293268 0.912191 0.077447
0.414974 0.914999 0.080256
0.536680 0.917808 0.083064
0.658386 0.920617 0.085873
0.780092 0.923425 0.088681
0.901797 0.926234 0.091490
1.000000 0.929043 0.094299
0.059527 1.000000 0.081500
0.181233 1.000000 0.084309
0.302939 1.000000 0.087118
0.424645 1.000000 0.089926
0.546351 1.000000 0.092735
0.668056 1.000000 0.095543
0.789762 1.000000 0.098352
0.911468 1.000000 0.101161
1.000000 1.000000 0.103969
0.000000 0.000000 0.138114
0.104935 0.000000 0.140923
0.226640 0.000000 0.143732
0.348346 0.000000 0.146540
0.470052 0.000000 0.149349
0.591758 0.002132 0.152157
0.713464 0.004940 0.154966
0.835169 0.007749 0.157775
0.956875 0.010558 0.160583
0.000000 0.119453 0.147785
0.114605 0.122262 0.150594
0.236311 0.125070 0.153402
0.358017 0.127879 0.156211
0.479723 0.130688 0.159019
0.601428 0.133496 0.161828
0.723134 0.136305 0.164637
0.844840 0.139113 0.167445
0.966546 0.141922 0.170254
0.002570 0.250818 0.157456
0.124276 0.253626 0.160264
0.245982 0.256435 0.163073
0.367687 0.259243 0.165881
0.489393 0.262052 0.168690
0.611099 0.264861 0.171499
0.732805 0.267669 0.174307
0.854511 0.270478 0.177116
0.976216 0.273287 0.179925
0.012241 0.382182 0.167126
0.133946 0.384991 0.169935
0.255652 0.387799 0.172743
0.377358 0.390608 0.175552
0.499064 0.393417 0.178361
0.620770 0.396225 0.181169
0.742475 0.399034 0.183978
0.864181 0.401842 0.186787
0.985887 0.404651 0.189595
0.021911 0.513547 0.176797
0.143617 0.516355 0.179605
0.265323 0.519164 0.182414
0.387029 0.521972 0.185223
0.508734 0.524781 0.188031
0.630440 0.527590 0.190840
0.752146 0.530398 0.193649
0.873852 0.533207 0.196457
0.995558 0.536015 0.199266
0.031582 0.644911 0.186467
0.153288 0.647720 0.189276
0.274993 0.650528 0.192085
0.396699 0.653337 0.194893
0.518405 0.656145 0.197702
0.640111 0.658954 0.200511
0.761817 0.661763 0.203319
0.883522 0.664571 0.206128
1.000000 0.667380 0.208936
0.041252 0.776275 0.196138
0.162958 0.779084 0.198947
0.284664 0.781893 0.201755
0.406370 0.784701 0.204564
0.528076 0.787510 0.207373
0.649781 0.790319 0.210181
0.771487 0.793127 0.212990
0.893193 0.795936 0.215798
1.000000 0.798744 0.218607
0.050923 0.907640 0.205809
0.172629 0.910449 0.208617
0.294335 0.913257 0.211426
0.416040 0.916066 0.214234
0.537746 0.918874 0.217043
0.659452 0.921683 0.219852
0.781158 0.924492 0.222660
0.902864 0.927300 0.225469
1.000000 0.930109 0.228278
0.060594 1.000000 0.215479
0.182299 1.000000 0.218288
0.304005 1.000000 0.221096
0.425711 1.000000 0.223905
0.547417 1.000000 0.226714
0.669123 1.000000 0.229522
0.790828 1.000000 0.232331
0.912534 1.000000 0.235140
1.000000 1.000000 0.237948
0.000000 0.000000 0.269818
0.105983 0.000000 0.272627
0.227688 0.000000 0.275435
0.349394 0.000000 0.278244
0.471100 0.000371 0.281052
0.592806 0.003180 0.283861
0.714512 0.005989 0.286670
0.836217 0.008797 0.289478
0.957923 0.011606 0.292287
0.000000 0.120501 0.279489
0.115653 0.123310 0.282297
0.237359 0.126119 0.285106
0.359065 0.128927 0.287914
0.480771 0.131736 0.290723
0.602476 0.134544 0.293532
0.724182 0.137353 0.296340
0.845888 0.140162 0.299149
0.967594 0.142970 0.301957
0.003618 0.251866 0.289159
0.125324 0.254674 0.291968
0.247030 0.257483 0.294776
0.368735 0.260292 0.297585
0.490441 0.263100 0.300394
0.612147 0.265909 0.303202
0.733853 0.268717 0.306011
0.855559 0.271526 0.308819
0.977264 0.274335 0.311628
0.013289 0.383230 0.298830
0.134994 0.386039 0.301638
0.256700 0.388847 0.304447
0.378406 0.391656 0.307256
0.500112 0.394465 0.310064
0.621818 0.397273 0.312873
0.743523 0.400082 0.315681
0.865229 0.402891 0.318490
0.986935 0.405699 0.321299
0.022959 0.514595 0.308500
0.144665 0.517403 0.311309
0.266371 0.520212 0.314118
0.388077 0.523021 0.316926
0.509782 0.525829 0.319735
0.631488 0.528638 0.322543
0.753194 0.531446 0.325352
0.874900 0.534255 0.328161
0.996606 0.537064 0.330969
0.032630 0.645959 0.318171
0.154336 0.648768 0.320980
0.276042 0.651576 0.323788
0.397747 0.654385 0.326597
0.519453 0.657194 0.329405
0.641159 0.660002 0.332214
0.762865 0.662811 0.335023
0.884571 0.665619 0.337831
1.000000 0.668428 0.340640
0.042301 0.777324 0.327842
0.164006 0.780132 0.330650
0.285712 0.782941 0.333459
0.407418 0.785749 0.336267
0.529124 0.788558 0.339076
0.650830 0.791367 0.341885
0.772535 0.794175 0.344693
0.894241 0.796984 0.347502
1.000000 0.799793 0.350310
0.051971 0.908688 0.337512
0.173677 0.911497 0.340321
0.295383 0.914305 0.343129
0.417089 0.917114 0.345938
0.538794 0.919922 0.348747
0.660500 0.922731 0.351555
0.782206 0.925540 0.354364
0.903912 0.928348 0.357172
1.000000 0.931157 0.359981
0.061642 1.000000 0.347183
0.183348 1.000000 0.349991
0.305053 1.000000 0.352800
0.426759 1.000000 0.355609
0.548465 1.000000 0.358417
0.670171 1.000000 0.361226
0.791877 1.000000 0.364034
0.913582 1.000000 0.366843
1.000000 1.000000 0.369652
0.000000 0.000000 0.400365
0.107022 0.000000 0.403174
0.228727 0.000000 0.405982
0.350433 0.000000 0.408791
0.472139 0.001410 0.411600
0.593845 0.004219 0.414408
0.715551 0.007028 0.417217
0.837256 0.009836 0.420025
0.958962 0.012645 0.422834
0.000000 0.121540 0.410036
0.116692 0.124349 0.412844
0.238398 0.127158 0.415653
0.360104 0.129966 0.418462
0.481810 0.132775 0.421270
0.603515 0.135583 0.424079
0.725221 0.138392 0.426887
0.846927 0.141201 0.429696
0.968633 0.144009 0.432505
0.004657 0.252905 0.419706
0.126363 0.255713 0.422515
0.248069 0.258522 0.425324
0.369774 0.261331 0.428132
0.491480 0.264139 0.430941
0.613186 0.266948 0.433749
0.734892 0.269756 0.436558
0.856598 0.272565 0.439367
0.978303 0.275374 0.442175
0.014328 0.384269 0.429377
0.136033 0.387078 0.432186
0.257739 0.389886 0.434994
0.379445 0.392695 0.437803
0.501151 0.395504 0.440611
0.622857 0.398312 0.443420
0.744562 0.401121 0.446229
0.866268 0.403929 0.449037
0.987974 0.406738 0.451846
0.023998 0.515634 0.439047
0.145704 0.518442 0.441856
0.267410 0.521251 0.444665
0.389116 0.524059 0.447473
0.510821 0.526868 0.450282
0.632527 0.529677 0.453091
0.754233 0.532485 0.455899
0.875939 0.535294 0.458708
0.997645 0.538103 0.461516
0.033669 0.646998 0.448718
0.155375 0.649807 0.451527
0.277080 0.652615 0.454335
0.398786 0.655424 0.457144
0.520492 0.658233 0.459953
0.642198 0.661041 0.462761
0.763904 0.663850 0.465570
0.885609 0.666658 0.468378
1.000000 0.669467 0.471187
0.043339 0.778363 0.458389
0.165045 0.781171 0.461197
0.286751 0.783980 0.464006
0.408457 0.786788 0.466815
0.530163 0.789597 0.469623
0.651868 0.792406 0.472432
0.773574 0.795214 0.475240
0.895280 0.798023 0.478049
1.000000 0.800831 0.480858
0.053010 0.909727 0.468059
0.174716 0.912536 0.470868
0.296422 0.915344 0.473677
0.418127 0.918153 0.476485
0.539833 0.920961 0.479294
0.661539 0.923770 0.482102
0.783245 0.926579 0.484911
0.904951 0.929387 0.487720
1.000000 0.932196 0.490528
0.062681 1.000000 0.477730
0.184386 1.000000 0.480539
0.306092 1.000000 0.483347
0.427798 1.000000 0.486156
0.549504 1.000000 0.488964
0.671210 1.000000 0.491773
0.792915 1.000000 0.494582
0.914621 1.000000 0.497390
1.000000 1.000000 0.500199
0.000000 0.000000 0.530126
0.108054 0.000000 0.532935
0.229760 0.000000 0.535744
0.351466 0.000000 0.538552
0.473172 0.002443 0.541361
0.594878 0.005252 0.544170
0.716583 0.008060 0.546978
0.838289 0.010869 0.549787
0.959995 0.013677 0.552595
0.000000 0.122573 0.539797
0.117725 0.125382 0.542606
0.239431 0.128190 0.545414
0.361137 0.130999 0.548223
0.482842 0.133807 0.551032
0.604548 0.136616 0.553840
0.726254 0.139425 0.556649
0.847960 0.142233 0.559457
0.969666 0.145042 0.562266
0.005690 0.253937 0.549468
0.127396 0.256746 0.552276
0.249101 0.259555 0.555085
0.370807 0.262363 0.557894
0.492513 0.265172 0.560702
0.614219 0.267980 0.563511
0.735925 0.270789 0.566319
0.857630 0.273598 0.569128
0.979336 0.276406 0.571937
0.015360 0.385302 0.559138
0.137066 0.388110 0.561947
0.258772 0.390919 0.564756
0.380478 0.393728 0.567564
0.502184 0.396536 0.570373
0.623889 0.399345 0.573181
0.745595 0.402154 0.575990
0.867301 0.404962 0.578799
0.989007 0.407771 0.581607
0.025031 0.516666 0.568809
0.146737 0.519475 0.571618
0.268443 0.522284 0.574426
0.390148 0.525092 0.577235
0.511854 0.527901 0.580043
0.633560 0.530709 0.582852
0.755266 0.533518 0.585661
0.876972 0.536327 0.588469
0.998677 0.539135 0.591278
0.034702 0.648031 0.578479
0.156407 0.650839 0.581288
0.278113 0.653648 0.584097
0.399819 0.656457 0.586905
0.521525 0.659265 0.589714
0.643231 0.662074 0.592523
0.764936 0.664882 0.595331
0.886642 0.667691 0.598140
1.000000 0.670500 0.600948
0.044372 0.779395 0.588150
0.166078 0.782204 0.590959
0.287784 0.785012 0.593767
0.409490 0.787821 0.596576
0.531195 0.790630 0.599385
0.652901 0.793438 0.602193
0.774607 0.796247 0.605002
0.896313 0.799056 0.607810
1.000000 0.801864 0.610619
0.054043 0.910760 0.597821
0.175749 0.913568 0.600629
0.297454 0.916377 0.603438
0.419160 0.919186 0.606247
0.540866 0.921994 0.609055
0.662572 0.924803 0.611864
0.784278 0.927611 0.614672
0.905983 0.930420 0.617481
1.000000 0.933229 0.620290
0.063713 1.000000 0.607491
0.185419 1.000000 0.610300
0.307125 1.000000 0.613109
0.428831 1.000000 0.615917
0.550537 1.000000 0.618726
0.672242 1.000000 0.621534
0.793948 1.000000 0.624343
0.915654 1.000000 0.627152
1.000000 1.000000 0.629960
0.000000 0.000000 0.659292
0.109082 0.000000 0.662101
0.230788 0.000000 0.664909
0.352494 0.000662 0.667718
0.474200 0.003471 0.670527
0.595905 0.006280 0.673335
0.717611 0.009088 0.676144
0.839317 0.011897 0.678952
0.961023 0.014705 0.681761
0.000000 0.123601 0.668963
0.118753 0.126410 0.671771
0.240459 0.129218 0.674580
0.362164 0.132027 0.677388
0.483870 0.134835 0.680197
0.605576 0.137644 0.683006
0.727282 0.140453 0.685814
0.848988 0.143261 0.688623
0.970693 0.146070 0.691432
0.006718 0.254965 0.678633
0.128423 0.257774 0.681442
0.250129 0.260583 0.684250
0.371835 0.263391 0.687059
0.493541 0.266200 0.689868
0.615247 0.269008 0.692676
0.736952 0.271817 0.695485
0.858658 0.274626 0.698294
0.980364 0.277434 0.701102
0.016388 0.386330 0.688304
0.138094 0.389138 0.691112
0.259800 0.391947 0.693921
0.381506 0.394756 0.696730
0.503211 0.397564 0.699538
0.624917 0.400373 0.702347
0.746623 0.403182 0.705156
0.868329 0.405990 0.707964
0.990035 0.408799 0.710773
0.026059 0.517694 0.697974
0.147765 0.520503 0.700783
0.269470 0.523311 0.703592
0.391176 0.526120 0.706400
0.512882 0.528929 0.709209
0.634588 0.531737 0.712018
0.756294 0.534546 0.714826
0.877999 0.537355 0.717635
0.999705 0.540163 0.720443
0.035729 0.649059 0.707645
0.157435 0.651867 0.710454
0.279141 0.654676 0.713262
0.400847 0.657485 0.716071
0.522553 0.660293 0.718880
0.644258 0.663102 0.721688
0.765964 0.665910 0.724497
0.887670 0.668719 0.727305
1.000000 0.671528 0.730114
0.045400 0.780423 0.717316
0.167106 0.783232 0.720124
0.288812 0.786040 0.722933
0.410517 0.788849 0.725742
0.532223 0.791658 0.728550
0.653929 0.794466 0.731359
0.775635 0.797275 0.734167
0.897341 0.800083 0.736976
1.000000 0.802892 0.739785
0.055071 0.911788 0.726986
0.176776 0.914596 0.729795
0.298482 0.917405 0.732604
0.420188 0.920213 0.735412
0.541894 0.923022 0.738221
0.663600 0.925831 0.741029
0.785305 0.928639 0.743838
0.907011 0.931448 0.746647
1.000000 0.934257 0.749455
0.064741 1.000000 0.736657
0.186447 1.000000 0.739465
0.308153 1.000000 0.742274
0.429859 1.000000 0.745083
0.551564 1.000000 0.747891
0.673270 1.000000 0.750700
0.794976 1.000000 0.753509
0.916682 1.000000 0.756317
1.000000 1.000000 0.759126
0.000000 0.000000 0.787978
0.110106 0.000000 0.790786
0.231812 0.000000 0.793595
0.353518 0.001686 0.796404
0.475224 0.004495 0.799212
0.596930 0.007304 0.802021
0.718635 0.010112 0.804829
0.840341 0.012921 0.807638
0.962047 0.015730 0.810447
0.000000 0.124625 0.797648
0.119777 0.127434 0.800457
0.241483 0.130242 0.803266
0.363189 0.133051 0.806074
0.484894 0.135860 0.808883
0.606600 0.138668 0.811691
0.728306 0.141477 0.814500
0.850012 0.144285 0.817309
0.971718 0.147094 0.820117
0.007742 0.255989 0.807319
0.129448 0.258798 0.810128
0.251153 0.261607 0.812936
0.372859 0.264415 0.815745
0.494565 0.267224 0.818553
0.616271 0.270033 0.821362
0.737977 0.272841 0.824171
0.859682 0.275650 0.826979
0.981388 0.278458 0.829788
0.017412 0.387354 0.816990
0.139118 0.390163 0.819798
0.260824 0.392971 0.822607
0.382530 0.395780 0.825415
0.504236 0.398588 0.828224
0.625941 0.401397 0.831033
0.747647 0.404206 0.833841
0.869353 0.407014 0.836650
0.991059 0.409823 0.839458
0.027083 0.518718 0.826660
0.148789 0.521527 0.829469
0.270495 0.524336 0.832277
0.392200 0.527144 0.835086
0.513906 0.529953 0.837895
0.635612 0.532761 0.840703
0.757318 0.535570 0.843512
0.879024 0.538379 0.846320
1.000000 0.541187 0.849129
0.036754 0.650083 0.836331
0.158459 0.652891 0.839139
0.280165 0.655700 0.841948
0.401871 0.658509 0.844757
0.523577 0.661317 0.847565
0.645283 0.664126 0.850374
0.766988 0.666935 0.853182
0.888694 0.669743 0.855991
1.000000 0.672552 0.858800
0.046424 0.781447 0.846001
0.168130 0.784256 0.848810
0.289836 0.787065 0.851619
0.411542 0.789873 0.854427
0.533247 0.792682 0.857236
0.654953 0.795490 0.860044
0.776659 0.798299 0.862853
0.898365 0.801108 0.865662
1.000000 0.803916 0.868470
0.056095 0.912812 0.855672
0.177801 0.915620 0.858481
0.299506 0.918429 0.861289
0.421212 0.921238 0.864098
0.542918 0.924046 0.866906
0.664624 0.926855 0.869715
0.786330 0.929663 0.872524
0.908035 0.932472 0.875332
1.000000 0.935281 0.878141
0.065765 1.000000 0.865343
0.187471 1.000000 0.868151
0.309177 1.000000 0.870960
0.430883 1.000000 0.873768
0.552589 1.000000 0.876577
0.674294 1.000000 0.879386
0.796000 1.000000 0.882194
0.917706 1.000000 0.885003
1.000000 1.000000 0.887812
0.000000 0.000000 0.916262
0.111127 0.000000 0.919070
0.232833 0.000000 0.921879
0.354539 0.002707 0.924688
0.476245 0.005516 0.927496
0.597951 0.008325 0.930305
0.719656 0.011133 0.933114
0.841362 0.013942 0.935922
0.963068 0.016750 0.938731
0.000000 0.125646 0.925932
0.120798 0.128455 0.928741
0.242504 0.131263 0.931550
0.364210 0.134072 0.934358
0.485915 0.136880 0.937167
0.607621 0.139689 0.939976
0.729327 0.142498 0.942784
0.851033 0.145306 0.945593
0.972739 0.148115 0.948401
0.008763 0.257010 0.935603
0.130469 0.259819 0.938412
0.252174 0.262628 0.941220
0.373880 0.265436 0.944029
0.495586 0.268245 0.946838
0.617292 0.271054 0.949646
0.738998 0.273862 0.952455
0.860703 0.276671 0.955263
0.982409 0.279479 0.958072
0.018433 0.388375 0.945274
0.140139 0.391183 0.948082
0.261845 0.393992 0.950891
0.383551 0.396801 0.953700
0.505257 0.399609 0.956508
0.626962 0.402418 0.959317
0.748668 0.405227 0.962125
0.870374 0.408035 0.964934
0.992080 0.410844 0.967743
0.028104 0.519739 0.954944
0.149810 0.522548 0.957753
0.271516 0.525357 0.960562
0.393221 0.528165 0.963370
0.514927 0.530974 0.966179
0.636633 0.533782 0.968987
0.758339 0.536591 0.971796
0.880045 0.539400 0.974605
1.000000 0.542208 0.977413
0.037775 0.651104 0.964615
0.159480 0.653912 0.967423
0.281186 0.656721 0.970232
0.402892 0.659530 0.973041
0.524598 0.662338 0.975849
0.646304 0.665147 0.978658
0.768009 0.667955 0.981467
0.889715 0.670764 0.984275
1.000000 0.673573 0.987084
0.047445 0.782468 0.974285
0.169151 0.785277 0.977094
0.290857 0.788085 0.979903
0.412563 0.790894 0.982711
0.534268 0.793703 0.985520
0.655974 0.796511 0.988329
0.777680 0.799320 0.991137
0.899386 0.802129 0.993946
1.000000 0.804937 0.996754
0.057116 0.913833 0.983956
0.178822 0.916641 0.986765
0.300527 0.919450 0.989573
0.422233 0.922259 0.992382
0.543939 0.925067 0.995191
0.665645 0.927876 0.997999
0.787351 0.930684 1.000000
0.909056 0.933493 1.000000
1.000000 0.936302 1.000000
0.066786 1.000000 0.993627
0.188492 1.000000 0.996435
0.310198 1.000000 0.999244
0.431904 1.000000 1.000000
0.553610 1.000000 1.000000
0.675315 1.000000 1.000000
0.797021 1.000000 1.000000
0.918727 1.000000 1.000000
1.000000 1.000000 1.000000
0.000000 0.000000 1.000000
0.112146 0.000000 1.000000
0.233851 0.000917 1.000000
0.355557 0.003726 1.000000
0.477263 0.006534 1.000000
0.598969 0.009343 1.000000
0.720675 0.012151 1.000000
0.842380 0.014960 1.000000
0.964086 0.017769 1.000000
0.000110 0.126664 1.000000
0.121816 0.129473 1.000000
0.243522 0.132281 1.000000
0.365228 0.135090 1.000000
0.486934 0.137899 1.000000
0.608639 0.140707 1.000000
0.730345 0.143516 1.000000
0.852051 0.146324 1.000000
0.973757 0.149133 1.000000
0.009781 0.258029 1.000000
0.131487 0.260837 1.000000
0.253193 0.263646 1.000000
0.374898 0.266454 1.000000
0.496604 0.269263 1.000000
0.618310 0.272072 1.000000
0.740016 0.274880 1.000000
0.861722 0.277689 1.000000
0.983427 0.280498 1.000000
0.019452 0.389393 1.000000
0.141157 0.392202 1.000000
0.262863 0.395010 1.000000
0.384569 0.397819 1.000000
0.506275 0.400628 1.000000
0.627981 0.403436 1.000000
0.749686 0.406245 1.000000
0.871392 0.409053 1.000000
0.993098 0.411862 1.000000
0.029122 0.520758 1.000000
0.150828 0.523566 1.000000
0.272534 0.526375 1.000000
0.394240 0.529183 1.000000
0.515945 0.531992 1.000000
0.637651 0.534801 1.000000
0.759357 0.537609 1.000000
0.881063 0.540418 1.000000
1.000000 0.543226 1.000000
0.038793 0.652122 1.000000
0.160499 0.654931 1.000000
0.282204 0.657739 1.000000
0.403910 0.660548 1.000000
0.525616 0.663356 1.000000
0.647322 0.666165 1.000000
0.769028 0.668974 1.000000
0.890733 0.671782 1.000000
1.000000 0.674591 1.000000
0.048463 0.783486 1.000000
0.170169 0.786295 1.000000
0.291875 0.789104 1.000000
0.413581 0.791912 1.000000
0.535287 0.794721 1.000000
0.656992 0.797529 1.000000
0.778698 0.800338 1.000000
0.900404 0.803147 1.000000
1.000000 0.805955 1.000000
0.058134 0.914851 1.000000
0.179840 0.917659 1.000000
0.301546 0.920468 1.000000
0.423251 0.923277 1.000000
0.544957 0.926085 1.000000
0.666663 0.928894 1.000000
0.788369 0.931703 1.000000
0.910075 0.934511 1.000000
1.000000 0.937320 1.000000
0.067805 1.000000 1.000000
0.189510 1.000000 1.000000
0.311216 1.000000 1.000000
0.432922 1.000000 1.000000
0.554628 1.000000 1.000000
0.676334 1.000000 1.000000
0.798039 1.000000 1.000000
0.919745 1.000000 1.000000
1.000000 1.000000 1.000000
