assets/lighting/cinematic/grade-cool-product/lut.cube
TITLE "Cool Product"
# TKRS lighting-batch-001 original LUT
# Intended usage: tech product cool clean grade
# License: CC0-1.0
LUT_3D_SIZE 5
DOMAIN_MIN 0.0 0.0 0.0
DOMAIN_MAX 1.0 1.0 1.0
0.000000 0.000000 0.004135
0.225574 0.000000 0.009753
0.468986 0.000000 0.015370
0.712397 0.003874 0.020987
0.955809 0.009491 0.026604
0.001504 0.249751 0.023477
0.244915 0.255369 0.029094
0.488327 0.260986 0.034711
0.731738 0.266603 0.040328
0.975150 0.272220 0.045946
0.020845 0.512480 0.042818
0.264256 0.518098 0.048435
0.507668 0.523715 0.054052
0.751080 0.529332 0.059670
0.994491 0.534949 0.065287
0.040186 0.775209 0.062159
0.283598 0.780826 0.067776
0.527009 0.786444 0.073394
0.770421 0.792061 0.079011
1.000000 0.797678 0.084628
0.059527 1.000000 0.081500
0.302939 1.000000 0.087118
0.546351 1.000000 0.092735
0.789762 1.000000 0.098352
1.000000 1.000000 0.103969
0.000000 0.000000 0.269818
0.227688 0.000000 0.275435
0.471100 0.000371 0.281052
0.714512 0.005989 0.286670
0.957923 0.011606 0.292287
0.003618 0.251866 0.289159
0.247030 0.257483 0.294776
0.490441 0.263100 0.300394
0.733853 0.268717 0.306011
0.977264 0.274335 0.311628
0.022959 0.514595 0.308500
0.266371 0.520212 0.314118
0.509782 0.525829 0.319735
0.753194 0.531446 0.325352
0.996606 0.537064 0.330969
0.042301 0.777324 0.327842
0.285712 0.782941 0.333459
0.529124 0.788558 0.339076
0.772535 0.794175 0.344693
1.000000 0.799793 0.350310
0.061642 1.000000 0.347183
0.305053 1.000000 0.352800
0.548465 1.000000 0.358417
0.791877 1.000000 0.364034
1.000000 1.000000 0.369652
0.000000 0.000000 0.530126
0.229760 0.000000 0.535744
0.473172 0.002443 0.541361
0.716583 0.008060 0.546978
0.959995 0.013677 0.552595
0.005690 0.253937 0.549468
0.249101 0.259555 0.555085
0.492513 0.265172 0.560702
0.735925 0.270789 0.566319
0.979336 0.276406 0.571937
0.025031 0.516666 0.568809
0.268443 0.522284 0.574426
0.511854 0.527901 0.580043
0.755266 0.533518 0.585661
0.998677 0.539135 0.591278
0.044372 0.779395 0.588150
0.287784 0.785012 0.593767
0.531195 0.790630 0.599385
0.774607 0.796247 0.605002
1.000000 0.801864 0.610619
0.063713 1.000000 0.607491
0.307125 1.000000 0.613109
0.550537 1.000000 0.618726
0.793948 1.000000 0.624343
1.000000 1.000000 0.629960
0.000000 0.000000 0.787978
0.231812 0.000000 0.793595
0.475224 0.004495 0.799212
0.718635 0.010112 0.804829
0.962047 0.015730 0.810447
0.007742 0.255989 0.807319
0.251153 0.261607 0.812936
0.494565 0.267224 0.818553
0.737977 0.272841 0.824171
0.981388 0.278458 0.829788
0.027083 0.518718 0.826660
0.270495 0.524336 0.832277
0.513906 0.529953 0.837895
0.757318 0.535570 0.843512
1.000000 0.541187 0.849129
0.046424 0.781447 0.846001
0.289836 0.787065 0.851619
0.533247 0.792682 0.857236
0.776659 0.798299 0.862853
1.000000 0.803916 0.868470
0.065765 1.000000 0.865343
0.309177 1.000000 0.870960
0.552589 1.000000 0.876577
0.796000 1.000000 0.882194
1.000000 1.000000 0.887812
0.000000 0.000000 1.000000
0.233851 0.000917 1.000000
0.477263 0.006534 1.000000
0.720675 0.012151 1.000000
0.964086 0.017769 1.000000
0.009781 0.258029 1.000000
0.253193 0.263646 1.000000
0.496604 0.269263 1.000000
0.740016 0.274880 1.000000
0.983427 0.280498 1.000000
0.029122 0.520758 1.000000
0.272534 0.526375 1.000000
0.515945 0.531992 1.000000
0.759357 0.537609 1.000000
1.000000 0.543226 1.000000
0.048463 0.783486 1.000000
0.291875 0.789104 1.000000
0.535287 0.794721 1.000000
0.778698 0.800338 1.000000
1.000000 0.805955 1.000000
0.067805 1.000000 1.000000
0.311216 1.000000 1.000000
0.554628 1.000000 1.000000
0.798039 1.000000 1.000000
1.000000 1.000000 1.000000
