assets/lighting/day-night-palettes/grade-autumn-warm/lut.cube
TITLE "Autumn Warm"
# TKRS lighting-batch-001 original LUT
# Intended usage: fall foliage warm outdoor
# License: CC0-1.0
LUT_3D_SIZE 5
DOMAIN_MIN 0.0 0.0 0.0
DOMAIN_MAX 1.0 1.0 1.0
0.000000 0.000000 0.000000
0.203922 0.000000 0.000000
0.446468 0.000000 0.000000
0.689015 0.000000 0.000000
0.931562 0.000000 0.000000
0.000000 0.161755 0.000000
0.178443 0.153994 0.000000
0.427300 0.147822 0.000000
0.688672 0.142275 0.000000
0.963629 0.136730 0.000000
0.000000 0.371148 0.000000
0.163229 0.369782 0.000000
0.433023 0.368581 0.000000
0.717193 0.367419 0.000000
1.000000 0.366216 0.000000
0.000000 0.610916 0.000000
0.147701 0.614638 0.000000
0.440379 0.618417 0.000000
0.748911 0.622191 0.000000
1.000000 0.625910 0.000000
0.000000 0.882342 0.000000
0.128564 0.891444 0.000000
0.445997 0.900563 0.000000
0.760003 0.891191 0.000000
1.000000 0.881772 0.000000
0.000000 0.000000 0.167336
0.201492 0.000000 0.159759
0.444039 0.000000 0.152182
0.686586 0.000000 0.144605
0.929311 0.000000 0.137034
0.000000 0.159436 0.143589
0.176357 0.151889 0.136078
0.427540 0.146152 0.129117
0.691059 0.140625 0.122214
0.968320 0.135053 0.115288
0.000000 0.370712 0.121287
0.161859 0.369413 0.114356
0.433737 0.368234 0.107369
0.720159 0.367067 0.100309
1.000000 0.365839 0.093163
0.000000 0.612018 0.099356
0.146053 0.615764 0.092198
0.441019 0.619548 0.084944
0.751955 0.623310 0.077586
1.000000 0.627004 0.070118
0.000000 0.885058 0.076592
0.126509 0.894170 0.069109
0.442881 0.897795 0.061365
0.756858 0.888376 0.053236
1.000000 0.878958 0.045106
0.000000 0.000000 0.370671
0.199063 0.000000 0.363094
0.441609 0.000000 0.355517
0.684156 0.000000 0.347940
0.930982 0.000000 0.340752
0.000000 0.157116 0.346925
0.174802 0.150115 0.339937
0.427893 0.144496 0.334092
0.693548 0.138970 0.328443
0.973111 0.133364 0.322870
0.000000 0.370302 0.327693
0.160472 0.369054 0.322125
0.434456 0.367888 0.316575
0.723146 0.366709 0.311014
1.000000 0.365452 0.305419
0.000000 0.613129 0.310266
0.144370 0.616894 0.304666
0.441641 0.620677 0.299016
0.754994 0.624423 0.293303
1.000000 0.628089 0.287517
0.000000 0.887778 0.292531
0.124411 0.896896 0.286735
0.439736 0.894980 0.279527
0.753713 0.885562 0.271398
1.000000 0.876143 0.263268
0.000000 0.000000 0.574007
0.196633 0.000000 0.566430
0.439180 0.000000 0.558853
0.681727 0.000000 0.551276
0.933663 0.000000 0.545067
0.000000 0.154797 0.550260
0.173354 0.148405 0.544409
0.428332 0.142846 0.539792
0.696123 0.137308 0.535466
0.977991 0.131659 0.531296
0.000000 0.369913 0.534900
0.159065 0.368702 0.530745
0.435177 0.367540 0.526673
0.726150 0.366344 0.522644
1.000000 0.365053 0.518631
0.000000 0.614249 0.522106
0.142651 0.618025 0.518093
0.442243 0.621802 0.514072
0.758026 0.625529 0.510027
1.000000 0.629164 0.505944
0.000000 0.890501 0.509482
0.122270 0.899621 0.505394
0.436591 0.892166 0.497690
0.750568 0.882747 0.489560
1.000000 0.873328 0.481431
0.000000 0.000000 0.777343
0.194204 0.000000 0.769766
0.436750 0.000000 0.762189
0.679297 0.000000 0.754612
0.936854 0.000000 0.750046
0.000000 0.152536 0.753696
0.171960 0.146728 0.749560
0.428838 0.141197 0.746251
0.698773 0.135635 0.743307
0.982950 0.129938 0.740586
0.000000 0.369539 0.742931
0.157635 0.368354 0.740234
0.435898 0.367190 0.737677
0.729168 0.365971 0.735213
1.000000 0.364642 0.732809
0.000000 0.615374 0.734888
0.140896 0.619156 0.732489
0.442824 0.622923 0.730123
0.761050 0.626627 0.727769
1.000000 0.629464 0.725071
0.000000 0.893226 0.727453
0.119470 0.898770 0.723982
0.433446 0.889351 0.715852
0.747423 0.879932 0.707722
1.000000 0.870513 0.699593
