assets/lighting/day-night-palettes/grade-autumn-warm/lut.cube
TITLE "Autumn Warm"
# TKRS lighting-batch-001 original LUT
# Intended usage: fall foliage warm outdoor
# License: CC0-1.0
LUT_3D_SIZE 9
DOMAIN_MIN 0.0 0.0 0.0
DOMAIN_MAX 1.0 1.0 1.0
0.000000 0.000000 0.000000
0.082648 0.000000 0.000000
0.203922 0.000000 0.000000
0.325195 0.000000 0.000000
0.446468 0.000000 0.000000
0.567742 0.000000 0.000000
0.689015 0.000000 0.000000
0.810288 0.000000 0.000000
0.931562 0.000000 0.000000
0.000000 0.062440 0.000000
0.069909 0.058559 0.000000
0.191183 0.054679 0.000000
0.312456 0.050798 0.000000
0.433729 0.046918 0.000000
0.555003 0.043037 0.000000
0.679045 0.039273 0.000000
0.808391 0.035623 0.000000
0.941308 0.031952 0.000000
0.000000 0.161755 0.000000
0.057170 0.157874 0.000000
0.178443 0.153994 0.000000
0.301290 0.150685 0.000000
0.427300 0.147822 0.000000
0.556365 0.145036 0.000000
0.688672 0.142275 0.000000
0.824382 0.139512 0.000000
0.963629 0.136730 0.000000
0.000000 0.262291 0.000000
0.045160 0.260249 0.000000
0.170270 0.258370 0.000000
0.298321 0.256578 0.000000
0.429540 0.254833 0.000000
0.564103 0.253111 0.000000
0.702156 0.251394 0.000000
0.843824 0.249669 0.000000
0.989216 0.247926 0.000000
0.000000 0.371148 0.000000
0.033399 0.370434 0.000000
0.163229 0.369782 0.000000
0.296390 0.369170 0.000000
0.433023 0.368581 0.000000
0.573255 0.368001 0.000000
0.717193 0.367419 0.000000
0.864937 0.366827 0.000000
1.000000 0.366216 0.000000
0.000000 0.487248 0.000000
0.020787 0.487802 0.000000
0.155823 0.488392 0.000000
0.294455 0.489005 0.000000
0.436788 0.489631 0.000000
0.582919 0.490259 0.000000
0.732937 0.490882 0.000000
0.886923 0.491492 0.000000
1.000000 0.492083 0.000000
0.000000 0.610916 0.000000
0.007103 0.612765 0.000000
0.147701 0.614638 0.000000
0.292097 0.616524 0.000000
0.440379 0.618417 0.000000
0.592625 0.620308 0.000000
0.748911 0.622191 0.000000
0.909306 0.624060 0.000000
1.000000 0.625910 0.000000
0.000000 0.742509 0.000000
0.000000 0.745689 0.000000
0.138661 0.748884 0.000000
0.289068 0.752088 0.000000
0.443515 0.755294 0.000000
0.602069 0.758495 0.000000
0.764796 0.761686 0.000000
0.931756 0.764862 0.000000
1.000000 0.761248 0.000000
0.000000 0.882342 0.000000
0.000000 0.886888 0.000000
0.128564 0.891444 0.000000
0.285194 0.896005 0.000000
0.445997 0.900563 0.000000
0.603015 0.895901 0.000000
0.760003 0.891191 0.000000
0.916991 0.886482 0.000000
1.000000 0.881772 0.000000
0.000000 0.000000 0.065668
0.081434 0.000000 0.061879
0.202707 0.000000 0.058091
0.323980 0.000000 0.054302
0.445254 0.000000 0.050514
0.566527 0.000000 0.046725
0.687800 0.000000 0.042937
0.809074 0.000000 0.039148
0.930347 0.000000 0.035360
0.000000 0.061280 0.053795
0.068694 0.057400 0.050006
0.189968 0.053519 0.046217
0.311241 0.049638 0.042429
0.432515 0.045758 0.038640
0.553788 0.041877 0.034852
0.679606 0.038182 0.031115
0.809658 0.034530 0.027388
0.943218 0.030847 0.023649
0.000000 0.160595 0.041921
0.055955 0.156715 0.038133
0.177238 0.152840 0.034345
0.300884 0.149815 0.030616
0.427404 0.146985 0.026887
0.556996 0.144210 0.023146
0.689852 0.141450 0.019387
0.826129 0.138683 0.015608
0.965961 0.135893 0.011807
0.000000 0.261656 0.030117
0.044065 0.259675 0.026387
0.169598 0.257827 0.022643
0.298118 0.256053 0.018882
0.429841 0.254317 0.015100
0.564935 0.252598 0.011296
0.703541 0.250880 0.007467
0.845781 0.249151 0.003613
0.991763 0.247400 0.000000
0.000000 0.370926 0.018377
0.032238 0.370234 0.014592
0.162546 0.369596 0.010784
0.296214 0.368992 0.006952
0.433379 0.368407 0.003094
0.574163 0.367828 0.000000
0.718673 0.367244 0.000000
0.867005 0.366647 0.000000
1.000000 0.366029 0.000000
0.000000 0.487408 0.006437
0.019530 0.487975 0.002575
0.155084 0.488574 0.000000
0.294253 0.489192 0.000000
0.437143 0.489819 0.000000
0.583848 0.490446 0.000000
0.734456 0.491065 0.000000
0.889047 0.491670 0.000000
1.000000 0.492255 0.000000
0.000000 0.611465 0.000000
0.005737 0.613323 0.000000
0.146881 0.615200 0.000000
0.291841 0.617090 0.000000
0.440701 0.618982 0.000000
0.593541 0.620872 0.000000
0.750433 0.622751 0.000000
0.911448 0.624615 0.000000
1.000000 0.626458 0.000000
0.000000 0.743457 0.000000
0.000000 0.746643 0.000000
0.137746 0.749841 0.000000
0.288737 0.753046 0.000000
0.443782 0.756251 0.000000
0.602947 0.759450 0.000000
0.766297 0.762637 0.000000
0.931909 0.764550 0.000000
1.000000 0.759840 0.000000
0.000000 0.883699 0.000000
0.000000 0.888249 0.000000
0.127542 0.892807 0.000000
0.284775 0.897367 0.000000
0.444454 0.899203 0.000000
0.601442 0.894493 0.000000
0.758430 0.889784 0.000000
0.915418 0.885074 0.000000
1.000000 0.880365 0.000000
0.000000 0.000000 0.167336
0.080219 0.000000 0.163547
0.201492 0.000000 0.159759
0.322766 0.000000 0.155970
0.444039 0.000000 0.152182
0.565312 0.000000 0.148393
0.686586 0.000000 0.144605
0.807859 0.000000 0.140816
0.929311 0.000000 0.137034
0.000000 0.060121 0.155462
0.067480 0.056240 0.151674
0.188753 0.052359 0.147885
0.310026 0.048479 0.144097
0.431300 0.044598 0.140308
0.553125 0.040747 0.136553
0.680288 0.037092 0.133045
0.810999 0.033434 0.129580
0.945185 0.029738 0.126128
0.000000 0.159436 0.143589
0.054741 0.155555 0.139800
0.176357 0.151889 0.136078
0.300521 0.148959 0.132579
0.427540 0.146152 0.129117
0.557656 0.143385 0.125665
0.691059 0.140625 0.122214
0.827903 0.137852 0.118756
0.968320 0.135053 0.115288
0.000000 0.261044 0.132114
0.042966 0.259112 0.128654
0.168928 0.257291 0.125203
0.297922 0.255531 0.121751
0.430151 0.253802 0.118292
0.565777 0.252085 0.114822
0.704938 0.250365 0.111339
0.847753 0.248630 0.107839
0.994326 0.246872 0.104322
0.000000 0.370712 0.121287
0.031069 0.370038 0.117827
0.161859 0.369413 0.114356
0.296037 0.368816 0.110871
0.433737 0.368234 0.107369
0.575076 0.367654 0.103849
0.720159 0.367067 0.100309
0.869080 0.366465 0.096747
1.000000 0.365839 0.093163
0.000000 0.487574 0.110402
0.018264 0.488151 0.106898
0.154337 0.488757 0.103376
0.294047 0.489378 0.099833
0.437496 0.490007 0.096268
0.584778 0.490632 0.092681
0.735977 0.491248 0.089069
0.891173 0.491848 0.085433
1.000000 0.492425 0.081771
0.000000 0.612018 0.099356
0.004361 0.613882 0.095789
0.146053 0.615764 0.092198
0.291578 0.617655 0.088583
0.441019 0.619548 0.084944
0.594454 0.621435 0.081278
0.751955 0.623310 0.077586
0.913590 0.625168 0.073866
1.000000 0.627004 0.070118
0.000000 0.744407 0.088097
0.000000 0.747598 0.084454
0.136821 0.750799 0.080785
0.288399 0.754004 0.077089
0.444044 0.757208 0.073366
0.603821 0.760404 0.069614
0.767795 0.763586 0.065833
0.930337 0.763142 0.061910
1.000000 0.758433 0.057845
0.000000 0.885058 0.076592
0.000000 0.889611 0.072864
0.126509 0.894170 0.069109
0.284347 0.898730 0.065324
0.442881 0.897795 0.061365
0.599870 0.893086 0.057300
0.756858 0.888376 0.053236
0.913846 0.883667 0.049171
1.000000 0.878958 0.045106
0.000000 0.000000 0.269004
0.079004 0.000000 0.265215
0.200277 0.000000 0.261427
0.321551 0.000000 0.257638
0.442824 0.000000 0.253849
0.564097 0.000000 0.250061
0.685371 0.000000 0.246272
0.806644 0.000000 0.242484
0.929942 0.000000 0.238824
0.000000 0.058961 0.257130
0.066265 0.055080 0.253342
0.187538 0.051200 0.249553
0.308812 0.047319 0.245765
0.430085 0.043438 0.241976
0.553143 0.039651 0.238378
0.681063 0.036001 0.235126
0.812403 0.032334 0.231941
0.947205 0.028624 0.228787
0.000000 0.158276 0.245257
0.053526 0.154395 0.241468
0.175560 0.150990 0.237936
0.300191 0.148113 0.234697
0.427704 0.145323 0.231517
0.558343 0.142561 0.228366
0.692292 0.139798 0.225231
0.829702 0.137019 0.222102
0.970704 0.134210 0.218974
0.000000 0.260451 0.234268
0.041862 0.258559 0.231093
0.168260 0.256760 0.227945
0.297731 0.255012 0.224811
0.430468 0.253289 0.221683
0.566630 0.251572 0.218555
0.706347 0.249849 0.215423
0.849737 0.248108 0.212283
0.996902 0.246341 0.209134
0.000000 0.370504 0.224392
0.029891 0.369847 0.221264
0.161168 0.369232 0.218136
0.295860 0.368641 0.215003
0.434096 0.368061 0.211862
0.575992 0.367480 0.208711
0.721650 0.366889 0.205547
0.871162 0.366280 0.202368
1.000000 0.365647 0.199173
0.000000 0.487742 0.214582
0.016988 0.488330 0.211440
0.153583 0.488941 0.208287
0.293836 0.489566 0.205121
0.437847 0.490194 0.201941
0.585707 0.490818 0.198743
0.737499 0.491429 0.195527
0.893302 0.492023 0.192293
1.000000 0.492592 0.189037
0.000000 0.612572 0.204696
0.002973 0.614443 0.201513
0.145216 0.616329 0.198313
0.291308 0.618221 0.195095
0.441332 0.620112 0.191857
0.595364 0.621997 0.188599
0.753475 0.623867 0.185319
0.915733 0.625720 0.182016
1.000000 0.627548 0.178689
0.000000 0.745359 0.194662
0.000000 0.748553 0.191422
0.135886 0.751757 0.188161
0.288052 0.754962 0.184878
0.444299 0.758164 0.181572
0.604690 0.761356 0.178242
0.769290 0.764534 0.174887
0.928764 0.761735 0.170991
1.000000 0.757026 0.166926
0.000000 0.886417 0.184436
0.000000 0.890973 0.181127
0.125466 0.895533 0.177794
0.283911 0.900092 0.174436
0.441309 0.896388 0.170446
0.598297 0.891678 0.166382
0.755285 0.886969 0.162317
0.912273 0.882260 0.158252
1.000000 0.877550 0.154187
0.000000 0.000000 0.370671
0.077789 0.000000 0.366883
0.199063 0.000000 0.363094
0.320336 0.000000 0.359306
0.441609 0.000000 0.355517
0.562883 0.000000 0.351729
0.684156 0.000000 0.347940
0.805429 0.000000 0.344152
0.930982 0.000000 0.340752
0.000000 0.057801 0.358798
0.065050 0.053921 0.355010
0.186324 0.050040 0.351221
0.307597 0.046159 0.347432
0.428870 0.042279 0.343644
0.553332 0.038559 0.340343
0.681913 0.034909 0.337368
0.813864 0.031230 0.334476
0.949273 0.027506 0.331632
0.000000 0.157116 0.346925
0.052311 0.153236 0.343136
0.174802 0.150115 0.339937
0.299888 0.147274 0.336976
0.427893 0.144496 0.334092
0.559053 0.141736 0.331253
0.693548 0.138970 0.328443
0.831525 0.136183 0.325651
0.973111 0.133364 0.322870
0.000000 0.259872 0.336586
0.040753 0.258014 0.333710
0.167592 0.256234 0.330875
0.297544 0.254495 0.328068
0.430793 0.252776 0.325277
0.567491 0.251058 0.322497
0.707767 0.249331 0.319722
0.851733 0.247583 0.316947
0.999492 0.245807 0.314170
0.000000 0.370302 0.327693
0.028704 0.369660 0.324904
0.160472 0.369054 0.322125
0.295680 0.368467 0.319350
0.434456 0.367888 0.316575
0.576911 0.367305 0.313798
0.723146 0.366709 0.311014
0.873250 0.366094 0.308222
1.000000 0.365452 0.305419
0.000000 0.487915 0.318978
0.015702 0.488510 0.316203
0.152823 0.489127 0.313425
0.293621 0.489754 0.310640
0.438196 0.490381 0.307847
0.586635 0.491002 0.305043
0.739023 0.491609 0.302227
0.895434 0.492195 0.299396
1.000000 0.492757 0.296550
0.000000 0.613129 0.310266
0.001573 0.615005 0.307472
0.144370 0.616894 0.304666
0.291032 0.618787 0.301848
0.441641 0.620677 0.299016
0.596271 0.622557 0.296168
0.754994 0.624423 0.293303
0.917875 0.626269 0.290419
1.000000 0.628089 0.287517
0.000000 0.746312 0.301469
0.000000 0.749510 0.298635
0.134941 0.752715 0.295785
0.287698 0.755920 0.292917
0.444547 0.759119 0.290031
0.605555 0.762308 0.287126
0.770203 0.765037 0.284137
0.927192 0.760328 0.280072
1.000000 0.755618 0.276007
0.000000 0.887778 0.292531
0.000000 0.892335 0.289643
0.124411 0.896896 0.286735
0.282748 0.899690 0.283592
0.439736 0.894980 0.279527
0.596725 0.890271 0.275463
0.753713 0.885562 0.271398
0.910701 0.880852 0.267333
1.000000 0.876143 0.263268
0.000000 0.000000 0.472339
0.076575 0.000000 0.468551
0.197848 0.000000 0.464762
0.319121 0.000000 0.460974
0.440395 0.000000 0.457185
0.561668 0.000000 0.453397
0.682941 0.000000 0.449608
0.804215 0.000000 0.445820
0.932243 0.000000 0.442830
0.000000 0.056641 0.460466
0.063835 0.052761 0.456677
0.185109 0.048880 0.452889
0.306382 0.045000 0.449100
0.427808 0.041130 0.445351
0.553629 0.037470 0.442459
0.682828 0.033813 0.439777
0.815375 0.030123 0.437191
0.951385 0.026382 0.434666
0.000000 0.155956 0.448593
0.051158 0.152209 0.444937
0.174069 0.149255 0.442092
0.299606 0.146440 0.439425
0.428103 0.143671 0.436849
0.559785 0.140911 0.434331
0.694825 0.138140 0.431853
0.833369 0.135344 0.429404
0.975540 0.132513 0.426976
0.000000 0.259306 0.439076
0.039638 0.257476 0.436509
0.166924 0.255711 0.433997
0.297361 0.253980 0.431524
0.431125 0.252263 0.429078
0.568361 0.250543 0.426651
0.709197 0.248811 0.424238
0.853741 0.247055 0.421834
1.000000 0.245269 0.419433
0.000000 0.370106 0.431195
0.027509 0.369476 0.428752
0.159771 0.368877 0.426327
0.295499 0.368294 0.423916
0.434817 0.367714 0.421512
0.577833 0.367128 0.419112
0.724646 0.366528 0.416712
0.875345 0.365905 0.414311
1.000000 0.365254 0.411905
0.000000 0.488090 0.423593
0.014405 0.488693 0.421190
0.152055 0.489314 0.418790
0.293401 0.489942 0.416391
0.438541 0.490568 0.413989
0.587563 0.491185 0.411582
0.740547 0.491786 0.409168
0.897568 0.492366 0.406745
1.000000 0.492919 0.404312
0.000000 0.613688 0.416069
0.000163 0.615569 0.413667
0.143515 0.617459 0.411259
0.290749 0.619352 0.408844
0.441944 0.621240 0.406420
0.597175 0.623117 0.403985
0.756511 0.624977 0.401538
0.920018 0.626816 0.399077
1.000000 0.628628 0.396601
0.000000 0.747267 0.408520
0.000000 0.750467 0.406094
0.133986 0.753673 0.403658
0.287335 0.756877 0.401209
0.444790 0.760074 0.398746
0.606414 0.763258 0.396268
0.768631 0.763630 0.393218
0.925619 0.758920 0.389153
1.000000 0.754211 0.385089
0.000000 0.889139 0.400880
0.000000 0.893698 0.398415
0.123346 0.898258 0.395935
0.281176 0.898282 0.392673
0.438164 0.893573 0.388609
0.595152 0.888864 0.384544
0.752140 0.884154 0.380479
0.909128 0.879445 0.376414
1.000000 0.874736 0.372349
0.000000 0.000000 0.574007
0.075360 0.000000 0.570219
0.196633 0.000000 0.566430
0.317907 0.000000 0.562642
0.439180 0.000000 0.558853
0.560453 0.000000 0.555065
0.681727 0.000000 0.551276
0.804141 0.000000 0.547680
0.933663 0.000000 0.545067
0.000000 0.055482 0.562134
0.062621 0.051601 0.558345
0.183894 0.047721 0.554557
0.305167 0.043840 0.550768
0.427471 0.040029 0.547307
0.554007 0.036379 0.544736
0.683797 0.032715 0.542359
0.816932 0.029010 0.540090
0.953538 0.025253 0.537893
0.000000 0.154797 0.550260
0.050056 0.151298 0.546944
0.173354 0.148405 0.544409
0.299343 0.145610 0.542050
0.428332 0.142846 0.539792
0.560536 0.140085 0.537603
0.696123 0.137308 0.535466
0.835234 0.134502 0.533366
0.977991 0.131659 0.531296
0.000000 0.258750 0.541742
0.038516 0.256944 0.539495
0.166256 0.255191 0.537314
0.297181 0.253466 0.535182
0.431461 0.251750 0.533087
0.569239 0.250028 0.531020
0.710636 0.248289 0.528974
0.855760 0.246525 0.526944
1.000000 0.244728 0.524925
0.000000 0.369913 0.534900
0.026305 0.369295 0.532809
0.159065 0.368702 0.530745
0.295315 0.368121 0.528701
0.435177 0.367540 0.526673
0.578757 0.366951 0.524655
0.726150 0.366344 0.522644
0.877444 0.365714 0.520637
1.000000 0.365053 0.518631
0.000000 0.488268 0.528429
0.013098 0.488877 0.526402
0.151279 0.489501 0.524385
0.293176 0.490129 0.522375
0.438884 0.490754 0.520368
0.588489 0.491367 0.518362
0.742071 0.491962 0.516354
0.899704 0.492534 0.514342
1.000000 0.493078 0.512324
0.000000 0.614249 0.522106
0.000000 0.616133 0.520099
0.142651 0.618025 0.518093
0.290459 0.619917 0.516084
0.442243 0.621802 0.514072
0.598076 0.623675 0.512053
0.758026 0.625529 0.510027
0.922159 0.627360 0.507991
1.000000 0.629164 0.505944
0.000000 0.748222 0.515815
0.000000 0.751425 0.513802
0.133021 0.754631 0.511782
0.286964 0.757833 0.509754
0.445025 0.761027 0.507717
0.607268 0.764206 0.505669
0.767059 0.762222 0.502299
0.924047 0.757513 0.498235
1.000000 0.752804 0.494170
0.000000 0.890501 0.509482
0.000000 0.895061 0.507444
0.122270 0.899621 0.505394
0.279603 0.896875 0.501755
0.436591 0.892166 0.497690
0.593580 0.887456 0.493625
0.750568 0.882747 0.489560
0.907556 0.878038 0.485495
1.000000 0.873328 0.481431
0.000000 0.000000 0.675675
0.074145 0.000000 0.671887
0.195418 0.000000 0.668098
0.316692 0.000000 0.664309
0.437965 0.000000 0.660521
0.559238 0.000000 0.656732
0.680512 0.000000 0.652944
0.804785 0.000000 0.649757
0.935207 0.000000 0.647470
0.000000 0.054322 0.663802
0.061406 0.050441 0.660013
0.182679 0.046561 0.656225
0.303953 0.042680 0.652436
0.427302 0.038937 0.649432
0.554450 0.035287 0.647182
0.684815 0.031613 0.645121
0.818530 0.027894 0.643178
0.955728 0.024119 0.641318
0.000000 0.153637 0.651928
0.048962 0.150416 0.649114
0.172652 0.147564 0.646897
0.299095 0.144782 0.644855
0.428577 0.142021 0.642924
0.561304 0.139257 0.641073
0.697439 0.136473 0.639282
0.837119 0.133657 0.637539
0.980461 0.130801 0.635832
0.000000 0.258202 0.644591
0.037389 0.256416 0.642672
0.165585 0.254674 0.640830
0.297003 0.252953 0.639046
0.431803 0.251236 0.637308
0.570124 0.249510 0.635605
0.712084 0.247765 0.633932
0.857789 0.245992 0.632280
1.000000 0.244184 0.630647
0.000000 0.369725 0.638811
0.025091 0.369115 0.637078
0.158353 0.368528 0.635380
0.295129 0.367948 0.633709
0.435538 0.367366 0.632060
0.579682 0.366772 0.630429
0.727657 0.366159 0.628810
0.879549 0.365520 0.627201
1.000000 0.364849 0.625598
0.000000 0.488448 0.633487
0.011781 0.489063 0.631841
0.150495 0.489689 0.630211
0.292946 0.490317 0.628594
0.439224 0.490938 0.626986
0.589414 0.491547 0.625383
0.743596 0.492136 0.623785
0.901842 0.492700 0.622187
1.000000 0.493234 0.620587
0.000000 0.614811 0.628378
0.000000 0.616698 0.626771
0.141778 0.618591 0.625169
0.290162 0.620481 0.623570
0.442536 0.622363 0.621972
0.598972 0.624231 0.620373
0.759539 0.626079 0.618770
0.924300 0.627902 0.617162
1.000000 0.629697 0.615547
0.000000 0.749179 0.623356
0.000000 0.752383 0.621758
0.132046 0.755588 0.620158
0.286585 0.758789 0.618555
0.445254 0.761979 0.616946
0.608117 0.765153 0.615330
0.765486 0.760815 0.611380
0.922474 0.756106 0.607316
1.000000 0.751396 0.603251
0.000000 0.891863 0.618339
0.000000 0.896424 0.616730
0.121043 0.900177 0.614900
0.278031 0.895468 0.610836
0.435019 0.890758 0.606771
0.592007 0.886049 0.602706
0.748995 0.881340 0.598641
0.905983 0.876630 0.594577
1.000000 0.871921 0.590512
0.000000 0.000000 0.777343
0.072930 0.000000 0.773554
0.194204 0.000000 0.769766
0.315477 0.000000 0.765977
0.436750 0.000000 0.762189
0.558024 0.000000 0.758400
0.679297 0.000000 0.754612
0.805652 0.000000 0.752003
0.936854 0.000000 0.750046
0.000000 0.053162 0.765470
0.060191 0.049282 0.761681
0.181465 0.045401 0.757892
0.302738 0.041520 0.754104
0.427227 0.037847 0.751724
0.554946 0.034193 0.749802
0.685876 0.030507 0.748068
0.820166 0.026772 0.746459
0.957955 0.022979 0.744942
0.000000 0.152536 0.753696
0.047872 0.149551 0.751452
0.171960 0.146728 0.749560
0.298860 0.143956 0.747846
0.428838 0.141197 0.746251
0.562089 0.138428 0.744745
0.698773 0.135635 0.743307
0.839021 0.132808 0.741924
0.982950 0.129938 0.740586
0.000000 0.257662 0.747626
0.036254 0.255892 0.746044
0.164913 0.254158 0.744548
0.296826 0.252440 0.743119
0.432149 0.250722 0.741743
0.571015 0.248991 0.740410
0.713540 0.247238 0.739113
0.859828 0.245456 0.737845
1.000000 0.243636 0.736601
0.000000 0.369539 0.742931
0.023869 0.368938 0.741562
0.157635 0.368354 0.740234
0.294940 0.367775 0.738941
0.435898 0.367190 0.737677
0.580609 0.366591 0.736435
0.729168 0.365971 0.735213
0.881659 0.365323 0.734005
1.000000 0.364642 0.732809
0.000000 0.488630 0.738770
0.010453 0.489249 0.737509
0.149704 0.489877 0.736271
0.292710 0.490503 0.735050
0.439560 0.491122 0.733844
0.590337 0.491725 0.732649
0.745121 0.492307 0.731462
0.903981 0.492863 0.730281
1.000000 0.493387 0.729103
0.000000 0.615374 0.734888
0.000000 0.617264 0.733683
0.140896 0.619156 0.732489
0.289857 0.621045 0.731304
0.442824 0.622923 0.730123
0.599866 0.624786 0.728945
0.761050 0.626627 0.727769
0.926440 0.628442 0.726591
1.000000 0.629464 0.725071
0.000000 0.750136 0.731145
0.000000 0.753341 0.729965
0.131060 0.756545 0.728788
0.286196 0.759743 0.727611
0.445476 0.762929 0.726433
0.606925 0.764117 0.724526
0.763914 0.759407 0.720462
0.920902 0.754698 0.716397
1.000000 0.749989 0.712332
0.000000 0.893226 0.727453
0.000000 0.897787 0.726275
0.119470 0.898770 0.723982
0.276458 0.894060 0.719917
0.433446 0.889351 0.715852
0.590435 0.884642 0.711787
0.747423 0.879932 0.707722
0.904411 0.875223 0.703658
1.000000 0.870513 0.699593
