assets/lighting/day-night-palettes/grade-autumn-warm/lut.cube
TITLE "Autumn Warm"
# TKRS lighting-batch-001 original LUT
# Intended usage: fall foliage warm outdoor
# License: CC0-1.0
LUT_3D_SIZE 17
DOMAIN_MIN 0.0 0.0 0.0
DOMAIN_MAX 1.0 1.0 1.0
0.000000 0.000000 0.000000
0.022012 0.000000 0.000000
0.082648 0.000000 0.000000
0.143285 0.000000 0.000000
0.203922 0.000000 0.000000
0.264558 0.000000 0.000000
0.325195 0.000000 0.000000
0.385832 0.000000 0.000000
0.446468 0.000000 0.000000
0.507105 0.000000 0.000000
0.567742 0.000000 0.000000
0.628378 0.000000 0.000000
0.689015 0.000000 0.000000
0.749652 0.000000 0.000000
0.810288 0.000000 0.000000
0.870925 0.000000 0.000000
0.931562 0.000000 0.000000
0.000000 0.012783 0.000000
0.015642 0.010842 0.000000
0.076279 0.008902 0.000000
0.136915 0.006962 0.000000
0.197552 0.005021 0.000000
0.258189 0.003081 0.000000
0.318825 0.001141 0.000000
0.379462 0.000000 0.000000
0.440099 0.000000 0.000000
0.500735 0.000000 0.000000
0.561372 0.000000 0.000000
0.622009 0.000000 0.000000
0.682646 0.000000 0.000000
0.743282 0.000000 0.000000
0.803959 0.000000 0.000000
0.867612 0.000000 0.000000
0.932576 0.000000 0.000000
0.000000 0.062440 0.000000
0.009273 0.060500 0.000000
0.069909 0.058559 0.000000
0.130546 0.056619 0.000000
0.191183 0.054679 0.000000
0.251819 0.052738 0.000000
0.312456 0.050798 0.000000
0.373093 0.048858 0.000000
0.433729 0.046918 0.000000
0.494366 0.044977 0.000000
0.555003 0.043037 0.000000
0.615879 0.041108 0.000000
0.679045 0.039273 0.000000
0.743263 0.037449 0.000000
0.808391 0.035623 0.000000
0.874407 0.033792 0.000000
0.941308 0.031952 0.000000
0.000000 0.112098 0.000000
0.002903 0.110157 0.000000
0.063540 0.108217 0.000000
0.124176 0.106277 0.000000
0.184813 0.104336 0.000000
0.245450 0.102396 0.000000
0.306086 0.100456 0.000000
0.366723 0.098515 0.000000
0.427701 0.096631 0.000000
0.490273 0.094955 0.000000
0.553714 0.093317 0.000000
0.617975 0.091694 0.000000
0.683059 0.090078 0.000000
0.748979 0.088463 0.000000
0.815750 0.086846 0.000000
0.883387 0.085223 0.000000
0.951905 0.083594 0.000000
0.000000 0.161755 0.000000
0.000000 0.159815 0.000000
0.057170 0.157874 0.000000
0.117807 0.155934 0.000000
0.178443 0.153994 0.000000
0.239378 0.152191 0.000000
0.301290 0.150685 0.000000
0.363926 0.149238 0.000000
0.427300 0.147822 0.000000
0.491438 0.146424 0.000000
0.556365 0.145036 0.000000
0.622102 0.143655 0.000000
0.688672 0.142275 0.000000
0.756093 0.140895 0.000000
0.824382 0.139512 0.000000
0.893556 0.138124 0.000000
0.963629 0.136730 0.000000
0.000000 0.211413 0.000000
0.000000 0.209472 0.000000
0.050888 0.207791 0.000000
0.112089 0.206463 0.000000
0.173893 0.205213 0.000000
0.236362 0.204006 0.000000
0.299540 0.202829 0.000000
0.363462 0.201672 0.000000
0.428157 0.200528 0.000000
0.493651 0.199393 0.000000
0.559966 0.198264 0.000000
0.627123 0.197138 0.000000
0.695140 0.196012 0.000000
0.764034 0.194884 0.000000
0.833822 0.193754 0.000000
0.904517 0.192619 0.000000
0.976135 0.191477 0.000000
0.000000 0.262291 0.000000
0.000000 0.261242 0.000000
0.045160 0.260249 0.000000
0.107364 0.259295 0.000000
0.170270 0.258370 0.000000
0.233912 0.257466 0.000000
0.298321 0.256578 0.000000
0.363522 0.255701 0.000000
0.429540 0.254833 0.000000
0.496394 0.253970 0.000000
0.564103 0.253111 0.000000
0.632685 0.252253 0.000000
0.702156 0.251394 0.000000
0.772531 0.250534 0.000000
0.843824 0.249669 0.000000
0.916048 0.248801 0.000000
0.989216 0.247926 0.000000
0.000000 0.315822 0.000000
0.000000 0.315131 0.000000
0.039365 0.314469 0.000000
0.102681 0.313829 0.000000
0.166762 0.313207 0.000000
0.231633 0.312598 0.000000
0.297317 0.312000 0.000000
0.363835 0.311410 0.000000
0.431206 0.310826 0.000000
0.499447 0.310245 0.000000
0.568574 0.309666 0.000000
0.638603 0.309087 0.000000
0.709546 0.308507 0.000000
0.781419 0.307924 0.000000
0.854232 0.307338 0.000000
0.927999 0.306748 0.000000
1.000000 0.306151 0.000000
0.000000 0.371148 0.000000
0.000000 0.370781 0.000000
0.033399 0.370434 0.000000
0.097908 0.370102 0.000000
0.163229 0.369782 0.000000
0.229384 0.369472 0.000000
0.296390 0.369170 0.000000
0.364264 0.368874 0.000000
0.433023 0.368581 0.000000
0.502682 0.368291 0.000000
0.573255 0.368001 0.000000
0.644754 0.367711 0.000000
0.717193 0.367419 0.000000
0.790583 0.367125 0.000000
0.864937 0.366827 0.000000
0.940264 0.366524 0.000000
1.000000 0.366216 0.000000
0.000000 0.428275 0.000000
0.000000 0.428227 0.000000
0.027216 0.428193 0.000000
0.092982 0.428171 0.000000
0.159599 0.428158 0.000000
0.227085 0.428153 0.000000
0.295455 0.428153 0.000000
0.364723 0.428157 0.000000
0.434905 0.428164 0.000000
0.506012 0.428172 0.000000
0.578058 0.428180 0.000000
0.651054 0.428188 0.000000
0.725012 0.428193 0.000000
0.799942 0.428196 0.000000
0.875855 0.428194 0.000000
0.952762 0.428188 0.000000
1.000000 0.428176 0.000000
0.000000 0.487248 0.000000
0.000000 0.487519 0.000000
0.020787 0.487802 0.000000
0.087863 0.488093 0.000000
0.155823 0.488392 0.000000
0.224683 0.488697 0.000000
0.294455 0.489005 0.000000
0.365152 0.489317 0.000000
0.436788 0.489631 0.000000
0.509373 0.489945 0.000000
0.582919 0.490259 0.000000
0.657437 0.490571 0.000000
0.732937 0.490882 0.000000
0.809429 0.491189 0.000000
0.886923 0.491492 0.000000
0.965428 0.491790 0.000000
1.000000 0.492083 0.000000
0.000000 0.548112 0.000000
0.000000 0.548707 0.000000
0.014088 0.549310 0.000000
0.082521 0.549920 0.000000
0.151866 0.550536 0.000000
0.222138 0.551157 0.000000
0.293347 0.551780 0.000000
0.365506 0.552406 0.000000
0.438625 0.553033 0.000000
0.512716 0.553660 0.000000
0.587788 0.554286 0.000000
0.663853 0.554911 0.000000
0.740918 0.555533 0.000000
0.818993 0.556151 0.000000
0.898088 0.556766 0.000000
0.978211 0.557376 0.000000
1.000000 0.557980 0.000000
0.000000 0.610916 0.000000
0.000000 0.611837 0.000000
0.007103 0.612765 0.000000
0.076933 0.613699 0.000000
0.147701 0.614638 0.000000
0.219419 0.615580 0.000000
0.292097 0.616524 0.000000
0.365747 0.617470 0.000000
0.440379 0.618417 0.000000
0.516001 0.619363 0.000000
0.592625 0.620308 0.000000
0.670258 0.621251 0.000000
0.748911 0.622191 0.000000
0.828590 0.623128 0.000000
0.909306 0.624060 0.000000
0.991065 0.624988 0.000000
1.000000 0.625910 0.000000
0.000000 0.675701 0.000000
0.000000 0.676953 0.000000
0.000000 0.678211 0.000000
0.071081 0.679474 0.000000
0.143306 0.680740 0.000000
0.216501 0.682009 0.000000
0.290679 0.683280 0.000000
0.365848 0.684552 0.000000
0.442017 0.685824 0.000000
0.519197 0.687095 0.000000
0.597395 0.688365 0.000000
0.676620 0.689632 0.000000
0.756880 0.690896 0.000000
0.838184 0.692157 0.000000
0.920539 0.693413 0.000000
1.000000 0.694665 0.000000
1.000000 0.695911 0.000000
0.000000 0.742509 0.000000
0.000000 0.744097 0.000000
0.000000 0.745689 0.000000
0.064949 0.747285 0.000000
0.138661 0.748884 0.000000
0.213364 0.750486 0.000000
0.289068 0.752088 0.000000
0.365782 0.753691 0.000000
0.443515 0.755294 0.000000
0.522274 0.756895 0.000000
0.602069 0.758495 0.000000
0.682907 0.760092 0.000000
0.764796 0.761686 0.000000
0.847743 0.763276 0.000000
0.931756 0.764862 0.000000
1.000000 0.763602 0.000000
1.000000 0.761248 0.000000
0.000000 0.811378 0.000000
0.000000 0.813305 0.000000
0.000000 0.815236 0.000000
0.058524 0.817171 0.000000
0.133752 0.819107 0.000000
0.209989 0.821046 0.000000
0.287246 0.822985 0.000000
0.365529 0.824924 0.000000
0.444848 0.826862 0.000000
0.525209 0.828799 0.000000
0.606622 0.830734 0.000000
0.689093 0.832666 0.000000
0.768248 0.830929 0.000000
0.846742 0.828574 0.000000
0.925236 0.826220 0.000000
1.000000 0.823865 0.000000
1.000000 0.821510 0.000000
0.000000 0.882342 0.000000
0.000000 0.884614 0.000000
0.000000 0.886888 0.000000
0.051794 0.889165 0.000000
0.128564 0.891444 0.000000
0.206361 0.893724 0.000000
0.285194 0.896005 0.000000
0.365070 0.898285 0.000000
0.445997 0.900563 0.000000
0.524520 0.898255 0.000000
0.603015 0.895901 0.000000
0.681509 0.893546 0.000000
0.760003 0.891191 0.000000
0.838497 0.888837 0.000000
0.916991 0.886482 0.000000
0.995485 0.884127 0.000000
1.000000 0.881772 0.000000
0.000000 0.000000 0.014834
0.021404 0.000000 0.012940
0.082041 0.000000 0.011045
0.142678 0.000000 0.009151
0.203314 0.000000 0.007257
0.263951 0.000000 0.005363
0.324588 0.000000 0.003468
0.385224 0.000000 0.001574
0.445861 0.000000 0.000000
0.506498 0.000000 0.000000
0.567134 0.000000 0.000000
0.627771 0.000000 0.000000
0.688408 0.000000 0.000000
0.749044 0.000000 0.000000
0.809681 0.000000 0.000000
0.870318 0.000000 0.000000
0.930954 0.000000 0.000000
0.000000 0.012203 0.008897
0.015035 0.010262 0.007003
0.075671 0.008322 0.005109
0.136308 0.006382 0.003214
0.196945 0.004441 0.001320
0.257581 0.002501 0.000000
0.318218 0.000561 0.000000
0.378855 0.000000 0.000000
0.439491 0.000000 0.000000
0.500128 0.000000 0.000000
0.560765 0.000000 0.000000
0.621401 0.000000 0.000000
0.682038 0.000000 0.000000
0.742675 0.000000 0.000000
0.804033 0.000000 0.000000
0.868095 0.000000 0.000000
0.933286 0.000000 0.000000
0.000000 0.061860 0.002961
0.008665 0.059920 0.001066
0.069302 0.057980 0.000000
0.129939 0.056039 0.000000
0.190575 0.054099 0.000000
0.251212 0.052159 0.000000
0.311849 0.050218 0.000000
0.372485 0.048278 0.000000
0.433122 0.046338 0.000000
0.493759 0.044397 0.000000
0.554395 0.042457 0.000000
0.615864 0.040557 0.000000
0.679308 0.038727 0.000000
0.743716 0.036904 0.000000
0.809015 0.035077 0.000000
0.875194 0.033243 0.000000
0.942255 0.031400 0.000000
0.000000 0.111518 0.000000
0.002296 0.109577 0.000000
0.062932 0.107637 0.000000
0.123569 0.105697 0.000000
0.184206 0.103756 0.000000
0.244842 0.101816 0.000000
0.305479 0.099876 0.000000
0.366116 0.097936 0.000000
0.427536 0.096123 0.000000
0.490305 0.094463 0.000000
0.553903 0.092831 0.000000
0.618313 0.091211 0.000000
0.683544 0.089596 0.000000
0.749610 0.087980 0.000000
0.816528 0.086362 0.000000
0.884314 0.084737 0.000000
0.952982 0.083105 0.000000
0.000000 0.161175 0.000000
0.000000 0.159235 0.000000
0.056563 0.157295 0.000000
0.117199 0.155354 0.000000
0.177836 0.153414 0.000000
0.239031 0.151731 0.000000
0.301081 0.150248 0.000000
0.363845 0.148812 0.000000
0.427347 0.147403 0.000000
0.491616 0.146008 0.000000
0.556676 0.144623 0.000000
0.622550 0.143242 0.000000
0.689258 0.141863 0.000000
0.756820 0.140482 0.000000
0.825252 0.139098 0.000000
0.894571 0.137708 0.000000
0.964792 0.136312 0.000000
0.000000 0.210833 0.000000
0.000000 0.208892 0.000000
0.050337 0.207382 0.000000
0.111629 0.206083 0.000000
0.173536 0.204848 0.000000
0.236115 0.203652 0.000000
0.299409 0.202481 0.000000
0.363451 0.201329 0.000000
0.428271 0.200188 0.000000
0.493894 0.199055 0.000000
0.560341 0.197927 0.000000
0.627633 0.196801 0.000000
0.695788 0.195675 0.000000
0.764823 0.194547 0.000000
0.834754 0.193415 0.000000
0.905595 0.192278 0.000000
0.977360 0.191135 0.000000
0.000000 0.261970 0.000000
0.000000 0.260940 0.000000
0.044613 0.259960 0.000000
0.106919 0.259016 0.000000
0.169933 0.258098 0.000000
0.233690 0.257199 0.000000
0.298219 0.256315 0.000000
0.363544 0.255441 0.000000
0.429689 0.254575 0.000000
0.496674 0.253713 0.000000
0.564517 0.252854 0.000000
0.633236 0.251996 0.000000
0.702847 0.251137 0.000000
0.773364 0.250276 0.000000
0.844801 0.249410 0.000000
0.917171 0.248540 0.000000
0.990488 0.247664 0.000000
0.000000 0.315612 0.000000
0.000000 0.314931 0.000000
0.038805 0.314276 0.000000
0.102231 0.313641 0.000000
0.166427 0.313024 0.000000
0.231418 0.312419 0.000000
0.297227 0.311823 0.000000
0.363873 0.311235 0.000000
0.431375 0.310652 0.000000
0.499749 0.310072 0.000000
0.569013 0.309493 0.000000
0.639181 0.308914 0.000000
0.710266 0.308333 0.000000
0.782282 0.307750 0.000000
0.855242 0.307162 0.000000
0.929156 0.306570 0.000000
1.000000 0.305972 0.000000
0.000000 0.371036 0.000000
0.000000 0.370676 0.000000
0.032820 0.370333 0.000000
0.097446 0.370005 0.000000
0.162888 0.369689 0.000000
0.229168 0.369381 0.000000
0.296302 0.369081 0.000000
0.364308 0.368786 0.000000
0.433201 0.368494 0.000000
0.502997 0.368204 0.000000
0.573708 0.367914 0.000000
0.645350 0.367624 0.000000
0.717932 0.367332 0.000000
0.791469 0.367036 0.000000
0.865970 0.366737 0.000000
0.941447 0.366433 0.000000
1.000000 0.366123 0.000000
0.000000 0.428259 0.000000
0.000000 0.428216 0.000000
0.026614 0.428186 0.000000
0.092503 0.428166 0.000000
0.159246 0.428156 0.000000
0.226861 0.428152 0.000000
0.295363 0.428154 0.000000
0.364766 0.428159 0.000000
0.435085 0.428166 0.000000
0.506332 0.428175 0.000000
0.578520 0.428183 0.000000
0.651660 0.428190 0.000000
0.725764 0.428194 0.000000
0.800842 0.428196 0.000000
0.876905 0.428193 0.000000
0.953963 0.428185 0.000000
1.000000 0.428172 0.000000
0.000000 0.487327 0.000000
0.000000 0.487603 0.000000
0.020160 0.487888 0.000000
0.087363 0.488182 0.000000
0.155454 0.488483 0.000000
0.224447 0.488789 0.000000
0.294354 0.489098 0.000000
0.365190 0.489411 0.000000
0.436966 0.489725 0.000000
0.509693 0.490039 0.000000
0.583384 0.490353 0.000000
0.658048 0.490664 0.000000
0.733697 0.490974 0.000000
0.810339 0.491280 0.000000
0.887985 0.491581 0.000000
0.966643 0.491878 0.000000
1.000000 0.492169 0.000000
0.000000 0.548289 0.000000
0.000000 0.548886 0.000000
0.013434 0.549491 0.000000
0.081999 0.550104 0.000000
0.151479 0.550721 0.000000
0.221886 0.551343 0.000000
0.293234 0.551967 0.000000
0.365534 0.552594 0.000000
0.438796 0.553221 0.000000
0.513032 0.553848 0.000000
0.588252 0.554473 0.000000
0.664464 0.555097 0.000000
0.741680 0.555718 0.000000
0.819908 0.556336 0.000000
0.899156 0.556949 0.000000
0.979434 0.557557 0.000000
1.000000 0.558159 0.000000
0.000000 0.611190 0.000000
0.000000 0.612113 0.000000
0.006422 0.613043 0.000000
0.076387 0.613979 0.000000
0.147292 0.614919 0.000000
0.219150 0.615862 0.000000
0.291970 0.616807 0.000000
0.365763 0.617753 0.000000
0.440540 0.618700 0.000000
0.516311 0.619646 0.000000
0.593083 0.620590 0.000000
0.670868 0.621532 0.000000
0.749672 0.622471 0.000000
0.829506 0.623407 0.000000
0.910377 0.624338 0.000000
0.992293 0.625264 0.000000
1.000000 0.626184 0.000000
0.000000 0.676075 0.000000
0.000000 0.677329 0.000000
0.000000 0.678588 0.000000
0.070509 0.679852 0.000000
0.142874 0.681119 0.000000
0.216212 0.682389 0.000000
0.290534 0.683660 0.000000
0.365849 0.684932 0.000000
0.442167 0.686204 0.000000
0.519496 0.687475 0.000000
0.597845 0.688744 0.000000
0.677223 0.690010 0.000000
0.757638 0.691273 0.000000
0.839098 0.692533 0.000000
0.921610 0.693788 0.000000
1.000000 0.695038 0.000000
1.000000 0.696282 0.000000
0.000000 0.742983 0.000000
0.000000 0.744572 0.000000
0.000000 0.746166 0.000000
0.064350 0.747763 0.000000
0.138205 0.749363 0.000000
0.213053 0.750965 0.000000
0.288904 0.752567 0.000000
0.365766 0.754170 0.000000
0.443649 0.755772 0.000000
0.522560 0.757373 0.000000
0.602509 0.758972 0.000000
0.683501 0.760569 0.000000
0.765547 0.762162 0.000000
0.848652 0.763751 0.000000
0.932695 0.765253 0.000000
1.000000 0.762899 0.000000
1.000000 0.760544 0.000000
0.000000 0.811953 0.000000
0.000000 0.813882 0.000000
0.000000 0.815814 0.000000
0.057896 0.817749 0.000000
0.133269 0.819687 0.000000
0.209654 0.821625 0.000000
0.287060 0.823564 0.000000
0.365494 0.825503 0.000000
0.444965 0.827441 0.000000
0.525481 0.829378 0.000000
0.607049 0.831312 0.000000
0.688968 0.832580 0.000000
0.767462 0.830225 0.000000
0.845956 0.827870 0.000000
0.924450 0.825516 0.000000
1.000000 0.823161 0.000000
1.000000 0.820806 0.000000
0.000000 0.883021 0.000000
0.000000 0.885293 0.000000
0.000000 0.887569 0.000000
0.051136 0.889846 0.000000
0.128054 0.892126 0.000000
0.206001 0.894406 0.000000
0.284986 0.896686 0.000000
0.365015 0.898966 0.000000
0.445240 0.899906 0.000000
0.523734 0.897552 0.000000
0.602228 0.895197 0.000000
0.680722 0.892842 0.000000
0.759216 0.890488 0.000000
0.837711 0.888133 0.000000
0.916205 0.885778 0.000000
0.994699 0.883423 0.000000
1.000000 0.881069 0.000000
0.000000 0.000000 0.065668
0.020797 0.000000 0.063774
0.081434 0.000000 0.061879
0.142070 0.000000 0.059985
0.202707 0.000000 0.058091
0.263344 0.000000 0.056197
0.323980 0.000000 0.054302
0.384617 0.000000 0.052408
0.445254 0.000000 0.050514
0.505890 0.000000 0.048619
0.566527 0.000000 0.046725
0.627164 0.000000 0.044831
0.687800 0.000000 0.042937
0.748437 0.000000 0.041042
0.809074 0.000000 0.039148
0.869710 0.000000 0.037254
0.930347 0.000000 0.035360
0.000000 0.011623 0.059731
0.014427 0.009682 0.057837
0.075064 0.007742 0.055943
0.135701 0.005802 0.054048
0.196337 0.003862 0.052154
0.256974 0.001921 0.050260
0.317611 0.000000 0.048366
0.378247 0.000000 0.046471
0.438884 0.000000 0.044577
0.499521 0.000000 0.042683
0.560157 0.000000 0.040789
0.620794 0.000000 0.038894
0.681431 0.000000 0.037000
0.742067 0.000000 0.035106
0.804270 0.000000 0.033228
0.868626 0.000000 0.031365
0.934029 0.000000 0.029502
0.000000 0.061280 0.053795
0.008058 0.059340 0.051900
0.068694 0.057400 0.050006
0.129331 0.055459 0.048112
0.189968 0.053519 0.046217
0.250604 0.051579 0.044323
0.311241 0.049638 0.042429
0.371878 0.047698 0.040535
0.432515 0.045758 0.038640
0.493151 0.043818 0.036746
0.553788 0.041877 0.034852
0.615937 0.040008 0.032978
0.679606 0.038182 0.031115
0.744193 0.036358 0.029252
0.809658 0.034530 0.027388
0.875998 0.032694 0.025520
0.943218 0.030847 0.023649
0.000000 0.110938 0.047858
0.001688 0.108998 0.045964
0.062325 0.107057 0.044069
0.122962 0.105117 0.042175
0.183598 0.103177 0.040281
0.244235 0.101236 0.038386
0.304872 0.099296 0.036492
0.365508 0.097356 0.034598
0.427419 0.095622 0.032728
0.490360 0.093973 0.030866
0.554109 0.092346 0.029003
0.618665 0.090728 0.027138
0.684041 0.089113 0.025269
0.750253 0.087497 0.023397
0.817317 0.085877 0.021521
0.885250 0.084250 0.019640
0.954068 0.082616 0.017754
0.000000 0.160595 0.041921
0.000000 0.158655 0.040027
0.055955 0.156715 0.038133
0.116592 0.154774 0.036238
0.177238 0.152840 0.034345
0.238706 0.151280 0.032478
0.300884 0.149815 0.030616
0.363773 0.148389 0.028753
0.427404 0.146985 0.026887
0.491803 0.145594 0.025019
0.556996 0.144210 0.023146
0.623005 0.142830 0.021269
0.689852 0.141450 0.019387
0.757554 0.140069 0.017501
0.826129 0.138683 0.015608
0.895593 0.137292 0.013711
0.965961 0.135893 0.011807
0.000000 0.210253 0.035984
0.000000 0.208371 0.034093
0.049789 0.206985 0.032229
0.111172 0.205709 0.030366
0.173182 0.204488 0.028503
0.235871 0.203300 0.026637
0.299281 0.202135 0.024768
0.363445 0.200987 0.022895
0.428390 0.199849 0.021017
0.494142 0.198718 0.019135
0.560721 0.197591 0.017247
0.628149 0.196465 0.015354
0.696442 0.195338 0.013456
0.765618 0.194209 0.011551
0.835691 0.193076 0.009641
0.906678 0.191937 0.007724
0.978590 0.190792 0.005801
0.000000 0.261656 0.030117
0.000000 0.260643 0.028253
0.044065 0.259675 0.026387
0.106474 0.258739 0.024517
0.169598 0.257827 0.022643
0.233470 0.256933 0.020765
0.298118 0.256053 0.018882
0.363568 0.255181 0.016994
0.429841 0.254317 0.015100
0.496957 0.253456 0.013201
0.564935 0.252598 0.011296
0.633791 0.251740 0.009385
0.703541 0.250880 0.007467
0.774200 0.250018 0.005543
0.845781 0.249151 0.003613
0.918298 0.248279 0.001676
0.991763 0.247400 0.000000
0.000000 0.315405 0.024266
0.000000 0.314732 0.022392
0.038242 0.314084 0.020513
0.101780 0.313455 0.018629
0.166093 0.312842 0.016740
0.231204 0.312240 0.014846
0.297137 0.311647 0.012946
0.363911 0.311060 0.011040
0.431544 0.310478 0.009128
0.500053 0.309898 0.007210
0.569454 0.309320 0.005285
0.639761 0.308740 0.003354
0.710988 0.308159 0.001416
0.783148 0.307574 0.000000
0.856254 0.306986 0.000000
0.930316 0.306392 0.000000
1.000000 0.305792 0.000000
0.000000 0.370926 0.018377
0.000000 0.370572 0.016487
0.032238 0.370234 0.014592
0.096982 0.369909 0.012691
0.162546 0.369596 0.010784
0.228951 0.369291 0.008871
0.296214 0.368992 0.006952
0.364351 0.368698 0.005026
0.433379 0.368407 0.003094
0.503312 0.368118 0.001156
0.574163 0.367828 0.000000
0.645946 0.367537 0.000000
0.718673 0.367244 0.000000
0.792356 0.366947 0.000000
0.867005 0.366647 0.000000
0.942632 0.366341 0.000000
1.000000 0.366029 0.000000
0.000000 0.428245 0.012436
0.000000 0.428206 0.010528
0.026010 0.428179 0.008614
0.092022 0.428162 0.006694
0.158892 0.428154 0.004768
0.226636 0.428152 0.002835
0.295270 0.428155 0.000895
0.364809 0.428161 0.000000
0.435265 0.428169 0.000000
0.506652 0.428177 0.000000
0.578982 0.428185 0.000000
0.652266 0.428191 0.000000
0.726517 0.428195 0.000000
0.801743 0.428195 0.000000
0.877956 0.428191 0.000000
0.955166 0.428182 0.000000
1.000000 0.428167 0.000000
0.000000 0.487408 0.006437
0.000000 0.487687 0.004509
0.019530 0.487975 0.002575
0.086862 0.488271 0.000635
0.155084 0.488574 0.000000
0.224209 0.488881 0.000000
0.294253 0.489192 0.000000
0.365227 0.489505 0.000000
0.437143 0.489819 0.000000
0.510013 0.490133 0.000000
0.583848 0.490446 0.000000
0.658659 0.490757 0.000000
0.734456 0.491065 0.000000
0.811249 0.491370 0.000000
0.889047 0.491670 0.000000
0.967859 0.491966 0.000000
1.000000 0.492255 0.000000
0.000000 0.548466 0.000374
0.000000 0.549066 0.000000
0.012778 0.549674 0.000000
0.081475 0.550288 0.000000
0.151089 0.550906 0.000000
0.221633 0.551529 0.000000
0.293120 0.552154 0.000000
0.365561 0.552781 0.000000
0.438967 0.553408 0.000000
0.513348 0.554035 0.000000
0.588715 0.554660 0.000000
0.665076 0.555283 0.000000
0.742442 0.555903 0.000000
0.820822 0.556519 0.000000
0.900225 0.557131 0.000000
0.980658 0.557738 0.000000
1.000000 0.558338 0.000000
0.000000 0.611465 0.000000
0.000000 0.612391 0.000000
0.005737 0.613323 0.000000
0.075838 0.614259 0.000000
0.146881 0.615200 0.000000
0.218879 0.616144 0.000000
0.291841 0.617090 0.000000
0.365778 0.618036 0.000000
0.440701 0.618982 0.000000
0.516619 0.619928 0.000000
0.593541 0.620872 0.000000
0.671476 0.621813 0.000000
0.750433 0.622751 0.000000
0.830421 0.623685 0.000000
0.911448 0.624615 0.000000
0.993521 0.625540 0.000000
1.000000 0.626458 0.000000
0.000000 0.676449 0.000000
0.000000 0.677704 0.000000
0.000000 0.678965 0.000000
0.069934 0.680230 0.000000
0.142439 0.681499 0.000000
0.215921 0.682769 0.000000
0.290387 0.684040 0.000000
0.365849 0.685312 0.000000
0.442315 0.686584 0.000000
0.519794 0.687854 0.000000
0.598294 0.689122 0.000000
0.677825 0.690388 0.000000
0.758395 0.691650 0.000000
0.840011 0.692908 0.000000
0.922681 0.694162 0.000000
1.000000 0.695410 0.000000
1.000000 0.696653 0.000000
0.000000 0.743457 0.000000
0.000000 0.745048 0.000000
0.000000 0.746643 0.000000
0.063747 0.748241 0.000000
0.137746 0.749841 0.000000
0.212739 0.751443 0.000000
0.288737 0.753046 0.000000
0.365749 0.754649 0.000000
0.443782 0.756251 0.000000
0.522846 0.757851 0.000000
0.602947 0.759450 0.000000
0.684095 0.761045 0.000000
0.766297 0.762637 0.000000
0.849560 0.764225 0.000000
0.931909 0.764550 0.000000
1.000000 0.762195 0.000000
1.000000 0.759840 0.000000
0.000000 0.812529 0.000000
0.000000 0.814459 0.000000
0.000000 0.816392 0.000000
0.057265 0.818328 0.000000
0.132784 0.820266 0.000000
0.209317 0.822205 0.000000
0.286872 0.824144 0.000000
0.365458 0.826083 0.000000
0.445082 0.828020 0.000000
0.525751 0.829956 0.000000
0.607475 0.831889 0.000000
0.688182 0.831876 0.000000
0.766676 0.829521 0.000000
0.845170 0.827167 0.000000
0.923664 0.824812 0.000000
1.000000 0.822457 0.000000
1.000000 0.820103 0.000000
0.000000 0.883699 0.000000
0.000000 0.885973 0.000000
0.000000 0.888249 0.000000
0.050475 0.890527 0.000000
0.127542 0.892807 0.000000
0.205639 0.895087 0.000000
0.284775 0.897367 0.000000
0.364957 0.899647 0.000000
0.444454 0.899203 0.000000
0.522948 0.896848 0.000000
0.601442 0.894493 0.000000
0.679936 0.892138 0.000000
0.758430 0.889784 0.000000
0.836924 0.887429 0.000000
0.915418 0.885074 0.000000
0.993912 0.882720 0.000000
1.000000 0.880365 0.000000
0.000000 0.000000 0.116502
0.020190 0.000000 0.114608
0.080826 0.000000 0.112713
0.141463 0.000000 0.110819
0.202100 0.000000 0.108925
0.262736 0.000000 0.107030
0.323373 0.000000 0.105136
0.384010 0.000000 0.103242
0.444646 0.000000 0.101348
0.505283 0.000000 0.099453
0.565920 0.000000 0.097559
0.626556 0.000000 0.095665
0.687193 0.000000 0.093771
0.747830 0.000000 0.091876
0.808466 0.000000 0.089982
