assets/lighting/cinematic/grade-sunset-amber/lut.cube
TITLE "Sunset Amber"
# TKRS lighting-batch-001 original LUT
# Intended usage: deep amber sunset grade
# License: CC0-1.0
LUT_3D_SIZE 9
DOMAIN_MIN 0.0 0.0 0.0
DOMAIN_MAX 1.0 1.0 1.0
0.000000 0.000000 0.000000
0.070019 0.000000 0.000000
0.191663 0.000000 0.000000
0.313307 0.000000 0.000000
0.434951 0.000000 0.000000
0.556595 0.000000 0.000000
0.678238 0.000000 0.000000
0.799882 0.000000 0.000000
0.921526 0.000000 0.000000
0.000000 0.038381 0.000000
0.057712 0.034019 0.000000
0.179356 0.029656 0.000000
0.301000 0.025293 0.000000
0.422644 0.020931 0.000000
0.544288 0.016568 0.000000
0.665932 0.012206 0.000000
0.793912 0.007878 0.000000
0.927936 0.003520 0.000000
0.000000 0.127162 0.000000
0.045405 0.122800 0.000000
0.167049 0.118437 0.000000
0.288693 0.114075 0.000000
0.412518 0.110031 0.000000
0.541202 0.106347 0.000000
0.673936 0.102701 0.000000
0.810887 0.099050 0.000000
0.952227 0.095370 0.000000
0.000000 0.215943 0.000000
0.033191 0.211905 0.000000
0.156936 0.208824 0.000000
0.284008 0.205912 0.000000
0.414826 0.203069 0.000000
0.549677 0.200254 0.000000
0.688780 0.197440 0.000000
0.832316 0.194613 0.000000
0.980444 0.191758 0.000000
0.000000 0.308745 0.000000
0.021592 0.306681 0.000000
0.150104 0.304706 0.000000
0.282550 0.302780 0.000000
0.419163 0.300880 0.000000
0.560136 0.298986 0.000000
0.705632 0.297085 0.000000
0.855795 0.295167 0.000000
1.000000 0.293221 0.000000
0.000000 0.407677 0.000000
0.009184 0.406686 0.000000
0.143102 0.405738 0.000000
0.281328 0.404814 0.000000
0.424028 0.403900 0.000000
0.571348 0.402983 0.000000
0.723420 0.402055 0.000000
0.880360 0.401106 0.000000
1.000000 0.400130 0.000000
0.000000 0.512058 0.000000
0.000000 0.512136 0.000000
0.135435 0.512238 0.000000
0.279779 0.512351 0.000000
0.428839 0.512466 0.000000
0.582735 0.512573 0.000000
0.741574 0.512665 0.000000
0.905459 0.512735 0.000000
1.000000 0.512777 0.000000
0.000000 0.622132 0.000000
0.000000 0.623300 0.000000
0.126857 0.624482 0.000000
0.277600 0.625668 0.000000
0.433260 0.626849 0.000000
0.593938 0.628020 0.000000
0.759728 0.629173 0.000000
0.930719 0.630302 0.000000
1.000000 0.631403 0.000000
0.000000 0.738130 0.000000
0.000000 0.740415 0.000000
0.117205 0.742707 0.000000
0.274587 0.744997 0.000000
0.437059 0.747279 0.000000
0.604708 0.749548 0.000000
0.777619 0.751797 0.000000
0.951088 0.751677 0.000000
1.000000 0.746467 0.000000
0.000000 0.000000 0.032743
0.069018 0.000000 0.027956
0.190662 0.000000 0.023170
0.312306 0.000000 0.018383
0.433950 0.000000 0.013596
0.555593 0.000000 0.008810
0.677237 0.000000 0.004023
0.798881 0.000000 0.000000
0.920525 0.000000 0.000000
0.000000 0.037404 0.019560
0.056711 0.033041 0.014773
0.178355 0.028679 0.009987
0.299999 0.024316 0.005200
0.421643 0.019954 0.000413
0.543287 0.015591 0.000000
0.665182 0.011231 0.000000
0.794974 0.006906 0.000000
0.929675 0.002536 0.000000
0.000000 0.126185 0.006377
0.044404 0.121822 0.001590
0.166048 0.117460 0.000000
0.287692 0.113097 0.000000
0.412527 0.109198 0.000000
0.541754 0.105529 0.000000
0.675021 0.101885 0.000000
0.812515 0.098228 0.000000
0.954412 0.094541 0.000000
0.000000 0.214966 0.000000
0.032260 0.211188 0.000000
0.156362 0.208162 0.000000
0.283856 0.205271 0.000000
0.415136 0.202437 0.000000
0.550478 0.199624 0.000000
0.690095 0.196809 0.000000
0.834167 0.193976 0.000000
0.982846 0.191114 0.000000
0.000000 0.308272 0.000000
0.020619 0.306232 0.000000
0.149550 0.304271 0.000000
0.282452 0.302353 0.000000
0.419549 0.300456 0.000000
0.561030 0.298561 0.000000
0.707053 0.296657 0.000000
0.857762 0.294733 0.000000
1.000000 0.292780 0.000000
0.000000 0.407450 0.000000
0.008129 0.406471 0.000000
0.142507 0.405530 0.000000
0.281219 0.404609 0.000000
0.424427 0.403695 0.000000
0.572274 0.402777 0.000000
0.724889 0.401844 0.000000
0.882388 0.400890 0.000000
1.000000 0.399907 0.000000
0.000000 0.512073 0.000000
0.000000 0.512157 0.000000
0.134774 0.512262 0.000000
0.279629 0.512377 0.000000
0.429217 0.512491 0.000000
0.583657 0.512595 0.000000
0.743055 0.512683 0.000000
0.907511 0.512747 0.000000
1.000000 0.512782 0.000000
0.000000 0.622392 0.000000
0.000000 0.623564 0.000000
0.126114 0.624747 0.000000
0.277388 0.625933 0.000000
0.433595 0.627113 0.000000
0.594833 0.628280 0.000000
0.761196 0.629428 0.000000
0.932772 0.630552 0.000000
1.000000 0.631645 0.000000
0.000000 0.738641 0.000000
0.000000 0.740928 0.000000
0.116369 0.743220 0.000000
0.274301 0.745509 0.000000
0.437335 0.747789 0.000000
0.605560 0.750053 0.000000
0.779057 0.752297 0.000000
0.949730 0.750510 0.000000
1.000000 0.745299 0.000000
0.000000 0.000000 0.120786
0.068017 0.000000 0.116000
0.189661 0.000000 0.111213
0.311305 0.000000 0.106426
0.432948 0.000000 0.101640
0.554592 0.000000 0.096853
0.676236 0.000000 0.092066
0.797880 0.000000 0.087280
0.919524 0.000000 0.082493
0.000000 0.036426 0.107603
0.055710 0.032064 0.102817
0.177354 0.027701 0.098030
0.298998 0.023339 0.093243
0.420642 0.018976 0.088457
0.542285 0.014614 0.083670
0.665416 0.010264 0.078850
0.796120 0.005932 0.073911
0.931469 0.001548 0.068964
0.000000 0.125208 0.094420
0.043403 0.120845 0.089634
0.165047 0.116483 0.084847
0.286758 0.112134 0.080057
0.412588 0.108371 0.075127
0.542340 0.104712 0.070180
0.676134 0.101067 0.065239
0.814169 0.097405 0.060312
0.956620 0.093709 0.055404
0.000000 0.213989 0.081237
0.031331 0.210490 0.076343
0.155795 0.207506 0.071396
0.283713 0.204633 0.066453
0.415457 0.201806 0.061522
0.551290 0.198994 0.056609
0.691423 0.196176 0.051718
0.836030 0.193338 0.046851
0.985262 0.190468 0.042011
0.000000 0.307806 0.067667
0.019640 0.305788 0.062733
0.148995 0.303839 0.057815
0.282355 0.301927 0.052919
0.419939 0.300032 0.048046
0.561928 0.298136 0.043199
0.708481 0.296228 0.038380
0.859735 0.294299 0.033590
1.000000 0.292338 0.028832
0.000000 0.407226 0.054121
0.007067 0.406257 0.049242
0.141908 0.405322 0.044388
0.281108 0.404404 0.039562
0.424825 0.403490 0.034765
0.573200 0.402569 0.029999
0.726360 0.401633 0.025264
0.884418 0.400672 0.020562
1.000000 0.399682 0.015894
0.000000 0.512089 0.040746
0.000000 0.512179 0.035942
0.134107 0.512288 0.031168
0.279474 0.512403 0.026426
0.429592 0.512515 0.021716
0.584577 0.512617 0.017039
0.744536 0.512699 0.012397
0.909565 0.512757 0.007790
1.000000 0.512785 0.003219
0.000000 0.622653 0.027589
0.000000 0.623829 0.022871
0.125363 0.625013 0.018186
0.277171 0.626198 0.013535
0.433925 0.627375 0.008920
0.595725 0.628539 0.004340
0.762663 0.629682 0.000000
0.934824 0.630799 0.000000
1.000000 0.631886 0.000000
0.000000 0.739153 0.014676
0.000000 0.741442 0.010051
0.115525 0.743733 0.005463
0.274007 0.746021 0.000911
0.437606 0.748298 0.000000
0.606406 0.750558 0.000000
0.780491 0.752797 0.000000
0.948373 0.749343 0.000000
1.000000 0.744132 0.000000
0.000000 0.000000 0.208830
0.067016 0.000000 0.204043
0.188660 0.000000 0.199256
0.310303 0.000000 0.194469
0.431947 0.000000 0.189683
0.553591 0.000000 0.184896
0.675235 0.000000 0.180109
0.796879 0.000000 0.175323
0.918523 0.000000 0.170536
0.000000 0.035449 0.195647
0.054709 0.031087 0.190860
0.176353 0.026724 0.186073
0.297997 0.022361 0.181286
0.419640 0.017999 0.176500
0.541284 0.013636 0.171713
0.665878 0.009296 0.166788
0.797337 0.004955 0.161647
0.933312 0.000558 0.156475
0.000000 0.124230 0.182464
0.042402 0.119868 0.177677
0.164046 0.115505 0.172890
0.286272 0.111266 0.168040
0.412691 0.107547 0.162916
0.542956 0.103896 0.157748
0.677273 0.100249 0.152568
0.815845 0.096581 0.147387
0.958849 0.092875 0.142215
0.000000 0.213023 0.169277
0.030400 0.209806 0.164182
0.155233 0.206856 0.159021
0.283578 0.203997 0.153842
0.415786 0.201176 0.148661
0.552113 0.198364 0.143486
0.692762 0.195542 0.138322
0.837904 0.192698 0.133174
0.987689 0.189820 0.128044
0.000000 0.307346 0.155116
0.018655 0.305346 0.149934
0.148437 0.303408 0.144757
0.282259 0.301502 0.139590
0.420330 0.299607 0.134438
0.562830 0.297710 0.129304
0.709913 0.295798 0.124190
0.861715 0.293862 0.119099
1.000000 0.291894 0.114032
0.000000 0.407005 0.140860
0.005996 0.406045 0.135703
0.141304 0.405115 0.130564
0.280994 0.404199 0.125445
0.425222 0.403285 0.120348
0.574127 0.402361 0.115276
0.727833 0.401420 0.110229
0.886452 0.400453 0.105210
1.000000 0.399455 0.100220
0.000000 0.512107 0.126702
0.000000 0.512202 0.121600
0.133433 0.512313 0.116521
0.279315 0.512429 0.111468
0.429964 0.512539 0.106442
0.585496 0.512637 0.101444
0.746016 0.512715 0.096476
0.911620 0.512766 0.091539
1.000000 0.512786 0.086633
0.000000 0.622915 0.112708
0.000000 0.624093 0.107675
0.124606 0.625279 0.102670
0.276948 0.626463 0.097695
0.434251 0.627638 0.092750
0.596614 0.628797 0.087837
0.764127 0.629935 0.082956
0.936875 0.631046 0.078108
1.000000 0.632124 0.073295
0.000000 0.739665 0.098916
0.000000 0.741955 0.093963
0.114673 0.744246 0.089042
0.273708 0.746532 0.084153
0.437871 0.748806 0.079297
0.607249 0.751062 0.074475
0.781922 0.753295 0.069688
0.947015 0.748175 0.065216
1.000000 0.742964 0.060748
0.000000 0.000000 0.296873
0.066015 0.000000 0.292086
0.187658 0.000000 0.287299
0.309302 0.000000 0.282513
0.430946 0.000000 0.277726
0.552590 0.000000 0.272939
0.674234 0.000000 0.268153
0.795878 0.000000 0.263366
0.917522 0.000000 0.258579
0.000000 0.034472 0.283690
0.053708 0.030109 0.278903
0.175352 0.025747 0.274116
0.296995 0.021384 0.269330
0.418639 0.017022 0.264543
0.540283 0.012659 0.259756
0.666474 0.008328 0.254643
0.798616 0.003975 0.249286
0.935200 0.000000 0.243879
0.000000 0.123253 0.270507
0.041401 0.118890 0.265720
0.163045 0.114528 0.260933
0.285891 0.110419 0.255945
0.412829 0.106727 0.250610
0.543598 0.103080 0.245211
0.678434 0.099430 0.239784
0.817543 0.095754 0.234345
0.961100 0.092039 0.228902
0.000000 0.212247 0.257235
0.029469 0.209133 0.251930
0.154675 0.206210 0.246542
0.283450 0.203363 0.241120
0.416124 0.200546 0.235683
0.552945 0.197733 0.230240
0.694111 0.194908 0.224800
0.839790 0.192056 0.219366
0.990129 0.189169 0.213944
0.000000 0.306890 0.242456
0.017663 0.304908 0.237021
0.147877 0.302979 0.231579
0.282162 0.301077 0.226137
0.420724 0.299183 0.220701
0.563736 0.297284 0.215276
0.711350 0.295367 0.209864
0.863700 0.293424 0.204469
1.000000 0.291447 0.199092
0.000000 0.406787 0.227475
0.004919 0.405835 0.222037
0.140695 0.404910 0.216609
0.280877 0.403995 0.211193
0.425619 0.403079 0.205794
0.575054 0.402152 0.200412
0.729307 0.401206 0.195051
0.888489 0.400233 0.189712
1.000000 0.399226 0.184397
0.000000 0.512127 0.212524
0.000000 0.512226 0.207120
0.132753 0.512339 0.201734
0.279151 0.512454 0.196368
0.430333 0.512562 0.191023
0.586414 0.512656 0.185702
0.747495 0.512729 0.180406
0.913675 0.512774 0.175137
1.000000 0.512786 0.169894
0.000000 0.623178 0.197685
0.000000 0.624359 0.192335
0.123841 0.625544 0.187008
0.276719 0.626727 0.181706
0.434573 0.627899 0.176430
0.597500 0.629054 0.171181
0.765589 0.630186 0.165960
0.938926 0.631290 0.160769
1.000000 0.632361 0.155609
0.000000 0.740177 0.183008
0.000000 0.742469 0.177725
0.113813 0.744759 0.172469
0.273401 0.747043 0.167241
0.438131 0.749313 0.162043
0.608087 0.751564 0.156875
0.780717 0.752219 0.151877
0.945658 0.747008 0.147408
1.000000 0.741797 0.142940
0.000000 0.000000 0.384916
0.065013 0.000000 0.380129
0.186657 0.000000 0.375343
0.308301 0.000000 0.370556
0.429945 0.000000 0.365769
0.551589 0.000000 0.360982
0.673233 0.000000 0.356196
0.794877 0.000000 0.351409
0.917898 0.000000 0.346525
0.000000 0.033494 0.371733
0.052707 0.029132 0.366946
0.174350 0.024769 0.362160
0.295994 0.020407 0.357373
0.417638 0.016044 0.352586
0.539282 0.011682 0.347799
0.667167 0.007357 0.342408
0.799948 0.002992 0.336824
0.937131 0.000000 0.331173
0.000000 0.122276 0.358550
0.040400 0.117913 0.353763
0.162044 0.113550 0.348977
0.285567 0.109583 0.343764
0.412996 0.105908 0.338205
0.544264 0.102263 0.332567
0.679617 0.098609 0.326887
0.819261 0.094926 0.321183
0.963370 0.091200 0.315465
0.000000 0.211518 0.345109
0.028534 0.208468 0.339581
0.154120 0.205568 0.333958
0.283327 0.202730 0.328286
0.416470 0.199916 0.322587
0.553786 0.197102 0.316872
0.695470 0.194271 0.311150
0.841687 0.191413 0.305428
0.992579 0.188517 0.299709
0.000000 0.306440 0.329684
0.016666 0.304472 0.323990
0.147314 0.302551 0.318278
0.282065 0.300652 0.312558
0.421119 0.298758 0.306835
0.564645 0.296856 0.301115
0.712792 0.294934 0.295402
0.865692 0.292985 0.289699
1.000000 0.290999 0.284010
0.000000 0.406570 0.313965
0.003833 0.405626 0.308242
0.140081 0.404704 0.302521
0.280758 0.403790 0.296806
0.426014 0.402873 0.291101
0.575982 0.401942 0.285408
0.730783 0.400990 0.279730
0.890528 0.400010 0.274069
1.000000 0.398995 0.268427
0.000000 0.512147 0.298211
0.000000 0.512251 0.292502
0.132067 0.512365 0.286806
0.278982 0.512479 0.281124
0.430699 0.512585 0.275459
0.587329 0.512675 0.269813
0.748974 0.512742 0.264186
0.915730 0.512780 0.258582
1.000000 0.512783 0.253002
0.000000 0.623442 0.282520
0.000000 0.624624 0.276851
0.123068 0.625810 0.271199
0.276484 0.626991 0.265568
0.434891 0.628159 0.259958
0.598382 0.629310 0.254372
0.767049 0.630436 0.248810
0.940974 0.631533 0.243274
1.000000 0.632596 0.237764
0.000000 0.740690 0.266951
0.000000 0.742982 0.261336
0.112945 0.745272 0.255743
0.273088 0.747553 0.250175
0.438385 0.749819 0.244633
0.608921 0.752065 0.239117
0.779360 0.751051 0.234069
0.944300 0.745841 0.229601
1.000000 0.740630 0.225132
0.000000 0.000000 0.472959
0.064012 0.000000 0.468172
0.185656 0.000000 0.463386
0.307300 0.000000 0.458599
0.428944 0.000000 0.453812
0.550588 0.000000 0.449026
0.672232 0.000000 0.444239
0.793876 0.000000 0.439452
0.918827 0.000000 0.434372
0.000000 0.032517 0.459776
0.051705 0.028155 0.454989
0.173349 0.023792 0.450203
0.294993 0.019429 0.445416
0.416637 0.015067 0.440629
0.538989 0.010712 0.435736
0.667936 0.006384 0.430079
0.801330 0.002007 0.424257
0.939100 0.000000 0.418356
0.000000 0.121298 0.446593
0.039399 0.116936 0.441806
0.161042 0.112573 0.437020
0.285283 0.108754 0.431492
0.413189 0.105091 0.425698
0.544952 0.101446 0.419812
0.680821 0.097787 0.413873
0.820999 0.094095 0.407899
0.965659 0.090358 0.401903
0.000000 0.210812 0.432894
0.027596 0.207810 0.427133
0.153568 0.204928 0.421266
0.283210 0.202099 0.415337
0.416822 0.199286 0.409371
0.554635 0.196470 0.403379
0.696839 0.193634 0.397372
0.843593 0.190768 0.391357
0.995041 0.187862 0.385340
0.000000 0.305994 0.416799
0.015661 0.304039 0.410840
0.146748 0.302125 0.404854
0.281968 0.300228 0.398850
0.421516 0.298333 0.392837
0.565557 0.296428 0.386819
0.714238 0.294500 0.380802
0.867689 0.292543 0.374790
1.000000 0.290549 0.368785
0.000000 0.406356 0.400328
0.002740 0.405418 0.394316
0.139461 0.404499 0.388299
0.280635 0.403585 0.382282
0.426407 0.402666 0.376268
0.576909 0.401731 0.370261
0.732260 0.400774 0.364263
0.892569 0.399786 0.358278
1.000000 0.398763 0.352308
0.000000 0.512169 0.383761
0.000000 0.512276 0.377746
0.131374 0.512391 0.371737
0.278809 0.512504 0.365737
0.431062 0.512607 0.359749
0.588243 0.512692 0.353775
0.750453 0.512753 0.347816
0.917786 0.512784 0.341876
1.000000 0.512779 0.335955
0.000000 0.623706 0.367211
0.000000 0.624890 0.361220
0.122288 0.626075 0.355242
0.276244 0.627254 0.349280
0.435203 0.628419 0.343335
0.599261 0.629564 0.337409
0.768507 0.630685 0.331504
0.943022 0.631774 0.325621
1.000000 0.632829 0.319761
0.000000 0.741204 0.350745
0.000000 0.743495 0.344795
0.112068 0.745784 0.338865
0.272768 0.748062 0.332954
0.438634 0.750324 0.327065
0.609750 0.752565 0.321200
0.778002 0.749884 0.316261
0.942943 0.744673 0.311793
1.000000 0.739462 0.307324
0.000000 0.000000 0.561002
0.063011 0.000000 0.556216
0.184655 0.000000 0.551429
0.306299 0.000000 0.546642
0.427943 0.000000 0.541856
0.549587 0.000000 0.537069
0.671231 0.000000 0.532282
0.792875 0.000000 0.527495
0.919973 0.000000 0.522127
0.000000 0.031540 0.547819
0.050704 0.027177 0.543033
0.172348 0.022815 0.538246
0.293992 0.018452 0.533459
0.415636 0.014090 0.528673
0.539103 0.009745 0.523554
0.668768 0.005408 0.517651
0.802754 0.001017 0.511583
0.941104 0.000000 0.505425
0.000000 0.120321 0.534636
0.038397 0.115958 0.529850
0.160222 0.111665 0.524952
0.285029 0.107929 0.519123
0.413404 0.104275 0.513085
0.545660 0.100629 0.506945
0.682043 0.096963 0.500741
0.822755 0.093262 0.494493
0.967966 0.089514 0.488214
0.000000 0.210122 0.520584
0.026654 0.207157 0.514582
0.153017 0.204291 0.508462
0.283097 0.201468 0.502271
0.417181 0.198656 0.496032
0.555492 0.195836 0.489760
0.698216 0.192995 0.483465
0.845509 0.190121 0.477154
0.997513 0.187205 0.470833
0.000000 0.305551 0.503799
0.014651 0.303607 0.497570
0.146179 0.301699 0.491305
0.281870 0.299804 0.485014
0.421914 0.297908 0.478707
0.566472 0.295998 0.472388
0.715689 0.294065 0.466064
0.869690 0.292100 0.459739
1.000000 0.290096 0.453416
0.000000 0.406143 0.486563
0.001639 0.405211 0.480259
0.138837 0.404294 0.473943
0.280509 0.403380 0.467620
0.426799 0.402458 0.461294
0.577837 0.401519 0.454971
0.733739 0.400555 0.448652
0.894613 0.399560 0.442340
1.000000 0.398528 0.436039
0.000000 0.512192 0.469175
0.000000 0.512301 0.462850
0.130674 0.512417 0.456525
0.278630 0.512528 0.450205
0.431421 0.512628 0.443892
0.589154 0.512708 0.437588
0.751930 0.512762 0.431295
0.919841 0.512786 0.425017
1.000000 0.512773 0.418754
0.000000 0.623971 0.451759
0.000000 0.625156 0.445443
0.121501 0.626340 0.439137
0.275997 0.627516 0.432841
0.435511 0.628677 0.426559
0.600137 0.629818 0.420292
0.769962 0.630932 0.414042
0.945068 0.632014 0.407810
1.000000 0.632251 0.401823
0.000000 0.741717 0.434388
0.000000 0.744009 0.428103
0.111183 0.746295 0.421832
0.272441 0.748570 0.415577
0.438877 0.750828 0.409341
0.610574 0.753064 0.403124
0.776645 0.748717 0.398454
0.941586 0.743506 0.393985
1.000000 0.738295 0.389516
0.000000 0.000000 0.649045
0.062010 0.000000 0.644259
0.183654 0.000000 0.639472
0.305298 0.000000 0.634685
0.426942 0.000000 0.629899
0.548586 0.000000 0.625112
0.670230 0.000000 0.620325
0.791874 0.000000 0.615539
0.921268 0.000000 0.609784
0.000000 0.030562 0.635862
0.049703 0.026200 0.631076
0.171347 0.021837 0.626289
0.292991 0.017475 0.621502
0.414635 0.013112 0.616716
0.539350 0.008777 0.611275
0.669654 0.004430 0.605121
0.804219 0.000025 0.598799
0.943142 0.000000 0.592378
0.000000 0.119344 0.622679
0.037396 0.114981 0.617893
0.159546 0.110811 0.612742
0.284799 0.107107 0.606654
0.413639 0.103458 0.600365
0.546386 0.099810 0.593964
0.683283 0.096138 0.587489
0.824528 0.092427 0.580962
0.970290 0.088667 0.574396
0.000000 0.209444 0.608176
0.025709 0.206509 0.601924
0.152467 0.203656 0.595546
0.282988 0.200838 0.589087
0.417546 0.198026 0.582571
0.556356 0.195202 0.576014
0.699601 0.192354 0.569426
0.847435 0.189471 0.562816
0.999994 0.186546 0.556190
0.000000 0.305111 0.590681
0.013633 0.303178 0.584178
0.145606 0.301274 0.577629
0.281771 0.299380 0.571048
0.422313 0.297482 0.564443
0.567389 0.295567 0.557821
0.717142 0.293628 0.551187
0.871697 0.291655 0.544547
1.000000 0.289642 0.537903
0.000000 0.405932 0.572669
0.000530 0.405005 0.566069
0.138206 0.404090 0.559450
0.280379 0.403175 0.552819
0.427189 0.402249 0.546180
0.578764 0.401305 0.539537
0.735218 0.400335 0.532894
0.896658 0.399332 0.526254
1.000000 0.398291 0.519620
0.000000 0.512215 0.554450
0.000000 0.512327 0.547813
0.129968 0.512442 0.541171
0.278447 0.512552 0.534528
0.431776 0.512647 0.527887
0.590063 0.512723 0.521251
0.753406 0.512771 0.514622
0.921897 0.512786 0.508004
1.000000 0.512764 0.501397
0.000000 0.624236 0.536161
0.000000 0.625421 0.529519
0.120706 0.626604 0.522882
0.275744 0.627778 0.516251
0.435814 0.628935 0.509630
0.601009 0.630070 0.503020
0.771414 0.631177 0.496423
0.947112 0.632252 0.489841
1.000000 0.631083 0.484016
0.000000 0.742230 0.517881
0.000000 0.744521 0.511257
0.110291 0.746806 0.504644
0.272107 0.749078 0.498044
0.439114 0.751331 0.491458
0.610346 0.752760 0.485114
0.775287 0.747549 0.480646
0.940228 0.742338 0.476177
1.000000 0.737128 0.471709
