assets/lighting/cinematic/grade-sunset-amber/lut.cube
TITLE "Sunset Amber"
# TKRS lighting-batch-001 original LUT
# Intended usage: deep amber sunset grade
# License: CC0-1.0
LUT_3D_SIZE 5
DOMAIN_MIN 0.0 0.0 0.0
DOMAIN_MAX 1.0 1.0 1.0
0.000000 0.000000 0.000000
0.191663 0.000000 0.000000
0.434951 0.000000 0.000000
0.678238 0.000000 0.000000
0.921526 0.000000 0.000000
0.000000 0.127162 0.000000
0.167049 0.118437 0.000000
0.412518 0.110031 0.000000
0.673936 0.102701 0.000000
0.952227 0.095370 0.000000
0.000000 0.308745 0.000000
0.150104 0.304706 0.000000
0.419163 0.300880 0.000000
0.705632 0.297085 0.000000
1.000000 0.293221 0.000000
0.000000 0.512058 0.000000
0.135435 0.512238 0.000000
0.428839 0.512466 0.000000
0.741574 0.512665 0.000000
1.000000 0.512777 0.000000
0.000000 0.738130 0.000000
0.117205 0.742707 0.000000
0.437059 0.747279 0.000000
0.777619 0.751797 0.000000
1.000000 0.746467 0.000000
0.000000 0.000000 0.120786
0.189661 0.000000 0.111213
0.432948 0.000000 0.101640
0.676236 0.000000 0.092066
0.919524 0.000000 0.082493
0.000000 0.125208 0.094420
0.165047 0.116483 0.084847
0.412588 0.108371 0.075127
0.676134 0.101067 0.065239
0.956620 0.093709 0.055404
0.000000 0.307806 0.067667
0.148995 0.303839 0.057815
0.419939 0.300032 0.048046
0.708481 0.296228 0.038380
1.000000 0.292338 0.028832
0.000000 0.512089 0.040746
0.134107 0.512288 0.031168
0.429592 0.512515 0.021716
0.744536 0.512699 0.012397
1.000000 0.512785 0.003219
0.000000 0.739153 0.014676
0.115525 0.743733 0.005463
0.437606 0.748298 0.000000
0.780491 0.752797 0.000000
1.000000 0.744132 0.000000
0.000000 0.000000 0.296873
0.187658 0.000000 0.287299
0.430946 0.000000 0.277726
0.674234 0.000000 0.268153
0.917522 0.000000 0.258579
0.000000 0.123253 0.270507
0.163045 0.114528 0.260933
0.412829 0.106727 0.250610
0.678434 0.099430 0.239784
0.961100 0.092039 0.228902
0.000000 0.306890 0.242456
0.147877 0.302979 0.231579
0.420724 0.299183 0.220701
0.711350 0.295367 0.209864
1.000000 0.291447 0.199092
0.000000 0.512127 0.212524
0.132753 0.512339 0.201734
0.430333 0.512562 0.191023
0.747495 0.512729 0.180406
1.000000 0.512786 0.169894
0.000000 0.740177 0.183008
0.113813 0.744759 0.172469
0.438131 0.749313 0.162043
0.780717 0.752219 0.151877
1.000000 0.741797 0.142940
0.000000 0.000000 0.472959
0.185656 0.000000 0.463386
0.428944 0.000000 0.453812
0.672232 0.000000 0.444239
0.918827 0.000000 0.434372
0.000000 0.121298 0.446593
0.161042 0.112573 0.437020
0.413189 0.105091 0.425698
0.680821 0.097787 0.413873
0.965659 0.090358 0.401903
0.000000 0.305994 0.416799
0.146748 0.302125 0.404854
0.421516 0.298333 0.392837
0.714238 0.294500 0.380802
1.000000 0.290549 0.368785
0.000000 0.512169 0.383761
0.131374 0.512391 0.371737
0.431062 0.512607 0.359749
0.750453 0.512753 0.347816
1.000000 0.512779 0.335955
0.000000 0.741204 0.350745
0.112068 0.745784 0.338865
0.438634 0.750324 0.327065
0.778002 0.749884 0.316261
1.000000 0.739462 0.307324
0.000000 0.000000 0.649045
0.183654 0.000000 0.639472
0.426942 0.000000 0.629899
0.670230 0.000000 0.620325
0.921268 0.000000 0.609784
0.000000 0.119344 0.622679
0.159546 0.110811 0.612742
0.413639 0.103458 0.600365
0.683283 0.096138 0.587489
0.970290 0.088667 0.574396
0.000000 0.305111 0.590681
0.145606 0.301274 0.577629
0.422313 0.297482 0.564443
0.717142 0.293628 0.551187
1.000000 0.289642 0.537903
0.000000 0.512215 0.554450
0.129968 0.512442 0.541171
0.431776 0.512647 0.527887
0.753406 0.512771 0.514622
1.000000 0.512764 0.501397
0.000000 0.742230 0.517881
0.110291 0.746806 0.504644
0.439114 0.751331 0.491458
0.775287 0.747549 0.480646
1.000000 0.737128 0.471709
