assets/lighting/cinematic/grade-sunset-amber/lut.cube
TITLE "Sunset Amber"
# TKRS lighting-batch-001 original LUT
# Intended usage: deep amber sunset grade
# License: CC0-1.0
LUT_3D_SIZE 17
DOMAIN_MIN 0.0 0.0 0.0
DOMAIN_MAX 1.0 1.0 1.0
0.000000 0.000000 0.000000
0.009197 0.000000 0.000000
0.070019 0.000000 0.000000
0.130841 0.000000 0.000000
0.191663 0.000000 0.000000
0.252485 0.000000 0.000000
0.313307 0.000000 0.000000
0.374129 0.000000 0.000000
0.434951 0.000000 0.000000
0.495773 0.000000 0.000000
0.556595 0.000000 0.000000
0.617417 0.000000 0.000000
0.678238 0.000000 0.000000
0.739060 0.000000 0.000000
0.799882 0.000000 0.000000
0.860704 0.000000 0.000000
0.921526 0.000000 0.000000
0.000000 0.000000 0.000000
0.003043 0.000000 0.000000
0.063865 0.000000 0.000000
0.124687 0.000000 0.000000
0.185509 0.000000 0.000000
0.246331 0.000000 0.000000
0.307153 0.000000 0.000000
0.367975 0.000000 0.000000
0.428797 0.000000 0.000000
0.489619 0.000000 0.000000
0.550441 0.000000 0.000000
0.611263 0.000000 0.000000
0.672085 0.000000 0.000000
0.732907 0.000000 0.000000
0.793729 0.000000 0.000000
0.854551 0.000000 0.000000
0.918984 0.000000 0.000000
0.000000 0.038381 0.000000
0.000000 0.036200 0.000000
0.057712 0.034019 0.000000
0.118534 0.031837 0.000000
0.179356 0.029656 0.000000
0.240178 0.027475 0.000000
0.301000 0.025293 0.000000
0.361822 0.023112 0.000000
0.422644 0.020931 0.000000
0.483466 0.018750 0.000000
0.544288 0.016568 0.000000
0.605110 0.014387 0.000000
0.665932 0.012206 0.000000
0.728736 0.010039 0.000000
0.793912 0.007878 0.000000
0.860340 0.005706 0.000000
0.927936 0.003520 0.000000
0.000000 0.082772 0.000000
0.000000 0.080590 0.000000
0.051559 0.078409 0.000000
0.112380 0.076228 0.000000
0.173202 0.074047 0.000000
0.234024 0.071865 0.000000
0.294846 0.069684 0.000000
0.355668 0.067503 0.000000
0.416490 0.065322 0.000000
0.477312 0.063140 0.000000
0.538994 0.061012 0.000000
0.602943 0.058991 0.000000
0.668054 0.056984 0.000000
0.734254 0.054978 0.000000
0.801536 0.052968 0.000000
0.869911 0.050951 0.000000
0.939392 0.048923 0.000000
0.000000 0.127162 0.000000
0.000000 0.124981 0.000000
0.045405 0.122800 0.000000
0.106227 0.120618 0.000000
0.167049 0.118437 0.000000
0.227871 0.116256 0.000000
0.288693 0.114075 0.000000
0.349723 0.111930 0.000000
0.412518 0.110031 0.000000
0.476361 0.108179 0.000000
0.541202 0.106347 0.000000
0.607053 0.104523 0.000000
0.673936 0.102701 0.000000
0.741873 0.100878 0.000000
0.810887 0.099050 0.000000
0.880998 0.097214 0.000000
0.952227 0.095370 0.000000
0.000000 0.171553 0.000000
0.000000 0.169372 0.000000
0.039252 0.167190 0.000000
0.100074 0.165009 0.000000
0.160896 0.162828 0.000000
0.222611 0.161000 0.000000
0.285244 0.159294 0.000000
0.348767 0.157628 0.000000
0.413219 0.155985 0.000000
0.478638 0.154354 0.000000
0.545055 0.152731 0.000000
0.612500 0.151111 0.000000
0.680999 0.149490 0.000000
0.750577 0.147866 0.000000
0.821256 0.146237 0.000000
0.893056 0.144602 0.000000
0.965996 0.142958 0.000000
0.000000 0.215943 0.000000
0.000000 0.213762 0.000000
0.033191 0.211905 0.000000
0.094685 0.210331 0.000000
0.156936 0.208824 0.000000
0.220025 0.207355 0.000000
0.284008 0.205912 0.000000
0.348929 0.204485 0.000000
0.414826 0.203069 0.000000
0.481733 0.201660 0.000000
0.549677 0.200254 0.000000
0.618685 0.198848 0.000000
0.688780 0.197440 0.000000
0.759983 0.196029 0.000000
0.832316 0.194613 0.000000
0.905797 0.193189 0.000000
0.980444 0.191758 0.000000
0.000000 0.261294 0.000000
0.000000 0.259936 0.000000
0.027458 0.258636 0.000000
0.090036 0.257375 0.000000
0.153487 0.256140 0.000000
0.217860 0.254925 0.000000
0.283193 0.253724 0.000000
0.349521 0.252533 0.000000
0.416874 0.251348 0.000000
0.485279 0.250166 0.000000
0.554761 0.248986 0.000000
0.625341 0.247804 0.000000
0.697040 0.246620 0.000000
0.769878 0.245432 0.000000
0.843874 0.244238 0.000000
0.919043 0.243038 0.000000
0.995403 0.241829 0.000000
0.000000 0.308745 0.000000
0.000000 0.307699 0.000000
0.021592 0.306681 0.000000
0.085373 0.305685 0.000000
0.150104 0.304706 0.000000
0.215819 0.303739 0.000000
0.282550 0.302780 0.000000
0.350323 0.301828 0.000000
0.419163 0.300880 0.000000
0.489094 0.299933 0.000000
0.560136 0.298986 0.000000
0.632309 0.298037 0.000000
0.705632 0.297085 0.000000
0.780122 0.296129 0.000000
0.855795 0.295167 0.000000
0.932667 0.294197 0.000000
1.000000 0.293221 0.000000
0.000000 0.357543 0.000000
0.000000 0.356772 0.000000
0.015514 0.356021 0.000000
0.080586 0.355284 0.000000
0.146665 0.354558 0.000000
0.213779 0.353840 0.000000
0.281954 0.353129 0.000000
0.351212 0.352421 0.000000
0.421574 0.351716 0.000000
0.493061 0.351011 0.000000
0.565692 0.350304 0.000000
0.639483 0.349596 0.000000
0.714451 0.348883 0.000000
0.790612 0.348166 0.000000
0.867982 0.347443 0.000000
0.946574 0.346713 0.000000
1.000000 0.345975 0.000000
0.000000 0.407677 0.000000
0.000000 0.407175 0.000000
0.009184 0.406686 0.000000
0.075616 0.406208 0.000000
0.143102 0.405738 0.000000
0.211665 0.405274 0.000000
0.281328 0.404814 0.000000
0.352109 0.404357 0.000000
0.424028 0.403900 0.000000
0.497102 0.403443 0.000000
0.571348 0.402983 0.000000
0.646783 0.402521 0.000000
0.723420 0.402055 0.000000
0.801274 0.401584 0.000000
0.880360 0.401106 0.000000
0.960690 0.400622 0.000000
1.000000 0.400130 0.000000
0.000000 0.459171 0.000000
0.000000 0.458937 0.000000
0.002579 0.458713 0.000000
0.070427 0.458496 0.000000
0.139370 0.458286 0.000000
0.209427 0.458080 0.000000
0.280617 0.457876 0.000000
0.352957 0.457674 0.000000
0.426465 0.457471 0.000000
0.501156 0.457268 0.000000
0.577045 0.457062 0.000000
0.654148 0.456852 0.000000
0.732477 0.456638 0.000000
0.812047 0.456418 0.000000
0.892869 0.456193 0.000000
0.974956 0.455960 0.000000
1.000000 0.455720 0.000000
0.000000 0.512058 0.000000
0.000000 0.512093 0.000000
0.000000 0.512136 0.000000
0.064992 0.512185 0.000000
0.135435 0.512238 0.000000
0.207026 0.512294 0.000000
0.279779 0.512351 0.000000
0.353712 0.512409 0.000000
0.428839 0.512466 0.000000
0.505176 0.512521 0.000000
0.582735 0.512573 0.000000
0.661530 0.512621 0.000000
0.741574 0.512665 0.000000
0.822880 0.512703 0.000000
0.905459 0.512735 0.000000
0.989322 0.512760 0.000000
1.000000 0.512777 0.000000
0.000000 0.566368 0.000000
0.000000 0.566675 0.000000
0.000000 0.566988 0.000000
0.059287 0.567306 0.000000
0.131272 0.567626 0.000000
0.204432 0.567948 0.000000
0.278783 0.568271 0.000000
0.354339 0.568594 0.000000
0.431115 0.568915 0.000000
0.509123 0.569234 0.000000
0.588377 0.569549 0.000000
0.668888 0.569861 0.000000
0.750670 0.570167 0.000000
0.833732 0.570468 0.000000
0.918087 0.570762 0.000000
1.000000 0.571049 0.000000
1.000000 0.571329 0.000000
0.000000 0.622132 0.000000
0.000000 0.622714 0.000000
0.000000 0.623300 0.000000
0.053296 0.623890 0.000000
0.126857 0.624482 0.000000
0.201620 0.625075 0.000000
0.277600 0.625668 0.000000
0.354809 0.626259 0.000000
0.433260 0.626849 0.000000
0.512966 0.627436 0.000000
0.593938 0.628020 0.000000
0.676188 0.628599 0.000000
0.759728 0.629173 0.000000
0.844568 0.629741 0.000000
0.930719 0.630302 0.000000
1.000000 0.630857 0.000000
1.000000 0.631403 0.000000
0.000000 0.679377 0.000000
0.000000 0.680237 0.000000
0.000000 0.681100 0.000000
0.047002 0.681966 0.000000
0.122173 0.682833 0.000000
0.198571 0.683701 0.000000
0.276208 0.684567 0.000000
0.355096 0.685433 0.000000
0.435249 0.686295 0.000000
0.516676 0.687155 0.000000
0.599390 0.688011 0.000000
0.683401 0.688862 0.000000
0.768720 0.689708 0.000000
0.855357 0.690547 0.000000
0.943322 0.691381 0.000000
1.000000 0.692206 0.000000
1.000000 0.693025 0.000000
0.000000 0.738130 0.000000
0.000000 0.739271 0.000000
0.000000 0.740415 0.000000
0.040394 0.741561 0.000000
0.117205 0.742707 0.000000
0.195266 0.743852 0.000000
0.274587 0.744997 0.000000
0.355181 0.746139 0.000000
0.437059 0.747279 0.000000
0.520231 0.748416 0.000000
0.604708 0.749548 0.000000
0.690501 0.750675 0.000000
0.777619 0.751797 0.000000
0.866072 0.752912 0.000000
0.951088 0.751677 0.000000
1.000000 0.749072 0.000000
1.000000 0.746467 0.000000
0.000000 0.000000 0.000000
0.008696 0.000000 0.000000
0.069518 0.000000 0.000000
0.130340 0.000000 0.000000
0.191162 0.000000 0.000000
0.251984 0.000000 0.000000
0.312806 0.000000 0.000000
0.373628 0.000000 0.000000
0.434450 0.000000 0.000000
0.495272 0.000000 0.000000
0.556094 0.000000 0.000000
0.616916 0.000000 0.000000
0.677738 0.000000 0.000000
0.738560 0.000000 0.000000
0.799382 0.000000 0.000000
0.860204 0.000000 0.000000
0.921026 0.000000 0.000000
0.000000 0.000000 0.000000
0.002543 0.000000 0.000000
0.063365 0.000000 0.000000
0.124187 0.000000 0.000000
0.185009 0.000000 0.000000
0.245831 0.000000 0.000000
0.306653 0.000000 0.000000
0.367475 0.000000 0.000000
0.428297 0.000000 0.000000
0.489119 0.000000 0.000000
0.549941 0.000000 0.000000
0.610763 0.000000 0.000000
0.671584 0.000000 0.000000
0.732406 0.000000 0.000000
0.793228 0.000000 0.000000
0.854439 0.000000 0.000000
0.919548 0.000000 0.000000
0.000000 0.037892 0.000000
0.000000 0.035711 0.000000
0.057211 0.033530 0.000000
0.118033 0.031349 0.000000
0.178855 0.029167 0.000000
0.239677 0.026986 0.000000
0.300499 0.024805 0.000000
0.361321 0.022624 0.000000
0.422143 0.020442 0.000000
0.482965 0.018261 0.000000
0.543787 0.016080 0.000000
0.604609 0.013898 0.000000
0.665431 0.011717 0.000000
0.729037 0.009556 0.000000
0.794431 0.007392 0.000000
0.861038 0.005217 0.000000
0.928798 0.003028 0.000000
0.000000 0.082283 0.000000
0.000000 0.080102 0.000000
0.051058 0.077920 0.000000
0.111880 0.075739 0.000000
0.172702 0.073558 0.000000
0.233524 0.071377 0.000000
0.294346 0.069195 0.000000
0.355168 0.067014 0.000000
0.415990 0.064833 0.000000
0.476812 0.062652 0.000000
0.539044 0.060557 0.000000
0.603195 0.058541 0.000000
0.668467 0.056535 0.000000
0.734817 0.054529 0.000000
0.802246 0.052517 0.000000
0.870766 0.050497 0.000000
0.940392 0.048467 0.000000
0.000000 0.126674 0.000000
0.000000 0.124492 0.000000
0.044905 0.122311 0.000000
0.105726 0.120130 0.000000
0.166548 0.117949 0.000000
0.227370 0.115767 0.000000
0.288192 0.113586 0.000000
0.349539 0.111496 0.000000
0.412515 0.109613 0.000000
0.476498 0.107768 0.000000
0.541474 0.105938 0.000000
0.607458 0.104115 0.000000
0.674475 0.102293 0.000000
0.742547 0.100469 0.000000
0.811698 0.098639 0.000000
0.881948 0.096802 0.000000
0.953317 0.094956 0.000000
0.000000 0.171064 0.000000
0.000000 0.168883 0.000000
0.038751 0.166702 0.000000
0.099573 0.164520 0.000000
0.160477 0.162385 0.000000
0.222367 0.160613 0.000000
0.285116 0.158918 0.000000
0.348755 0.157258 0.000000
0.413326 0.155619 0.000000
0.478866 0.153990 0.000000
0.545408 0.152368 0.000000
0.612980 0.150748 0.000000
0.681609 0.149127 0.000000
0.751319 0.147502 0.000000
0.822133 0.145872 0.000000
0.894070 0.144234 0.000000
0.967149 0.142588 0.000000
0.000000 0.215455 0.000000
0.000000 0.213273 0.000000
0.032725 0.211544 0.000000
0.094302 0.209989 0.000000
0.156648 0.208492 0.000000
0.219840 0.207030 0.000000
0.283931 0.205591 0.000000
0.348965 0.204167 0.000000
0.414980 0.202753 0.000000
0.482008 0.201345 0.000000
0.550076 0.199939 0.000000
0.619211 0.198533 0.000000
0.689436 0.197125 0.000000
0.760772 0.195712 0.000000
0.833240 0.194295 0.000000
0.906858 0.192870 0.000000
0.981643 0.191436 0.000000
0.000000 0.260983 0.000000
0.000000 0.259641 0.000000
0.026988 0.258351 0.000000
0.089659 0.257096 0.000000
0.153212 0.255867 0.000000
0.217691 0.254655 0.000000
0.283137 0.253457 0.000000
0.349581 0.252267 0.000000
0.417054 0.251083 0.000000
0.485581 0.249902 0.000000
0.555189 0.248721 0.000000
0.625897 0.247539 0.000000
0.697728 0.246354 0.000000
0.770700 0.245165 0.000000
0.844831 0.243970 0.000000
0.920139 0.242768 0.000000
0.996638 0.241557 0.000000
0.000000 0.308508 0.000000
0.000000 0.307468 0.000000
0.021106 0.306456 0.000000
0.084989 0.305464 0.000000
0.149827 0.304488 0.000000
0.215655 0.303523 0.000000
0.282501 0.302567 0.000000
0.350393 0.301616 0.000000
0.419356 0.300668 0.000000
0.489412 0.299721 0.000000
0.560582 0.298774 0.000000
0.632886 0.297825 0.000000
0.706342 0.296872 0.000000
0.780967 0.295914 0.000000
0.856777 0.294950 0.000000
0.933789 0.293979 0.000000
1.000000 0.293001 0.000000
0.000000 0.357368 0.000000
0.000000 0.356603 0.000000
0.015009 0.355854 0.000000
0.080189 0.355120 0.000000
0.146380 0.354396 0.000000
0.213611 0.353680 0.000000
0.281905 0.352970 0.000000
0.351285 0.352263 0.000000
0.421773 0.351558 0.000000
0.493388 0.350853 0.000000
0.566149 0.350146 0.000000
0.640073 0.349436 0.000000
0.715176 0.348723 0.000000
0.791474 0.348004 0.000000
0.868983 0.347280 0.000000
0.947715 0.346548 0.000000
1.000000 0.345808 0.000000
0.000000 0.407563 0.000000
0.000000 0.407064 0.000000
0.008658 0.406578 0.000000
0.075203 0.406102 0.000000
0.142805 0.405634 0.000000
0.211489 0.405171 0.000000
0.281274 0.404712 0.000000
0.352180 0.404254 0.000000
0.424227 0.403798 0.000000
0.497432 0.403340 0.000000
0.571811 0.402880 0.000000
0.647380 0.402417 0.000000
0.724154 0.401950 0.000000
0.802147 0.401477 0.000000
0.881373 0.400998 0.000000
0.961846 0.400512 0.000000
1.000000 0.400018 0.000000
0.000000 0.459118 0.000000
0.000000 0.458886 0.000000
0.002029 0.458664 0.000000
0.069995 0.458449 0.000000
0.139058 0.458240 0.000000
0.209238 0.458034 0.000000
0.280554 0.457831 0.000000
0.353022 0.457629 0.000000
0.426661 0.457426 0.000000
0.501485 0.457222 0.000000
0.577509 0.457015 0.000000
0.654748 0.456804 0.000000
0.733216 0.456589 0.000000
0.812926 0.456368 0.000000
0.893891 0.456141 0.000000
0.976122 0.455907 0.000000
1.000000 0.455665 0.000000
0.000000 0.512065 0.000000
0.000000 0.512102 0.000000
0.000000 0.512146 0.000000
0.064538 0.512196 0.000000
0.135106 0.512250 0.000000
0.206822 0.512306 0.000000
0.279705 0.512364 0.000000
0.353768 0.512422 0.000000
0.429029 0.512478 0.000000
0.505500 0.512533 0.000000
0.583196 0.512584 0.000000
0.662130 0.512632 0.000000
0.742315 0.512674 0.000000
0.823762 0.512711 0.000000
0.906485 0.512741 0.000000
0.990494 0.512764 0.000000
1.000000 0.512779 0.000000
0.000000 0.566436 0.000000
0.000000 0.566745 0.000000
0.000000 0.567059 0.000000
0.058811 0.567377 0.000000
0.130922 0.567698 0.000000
0.204211 0.568021 0.000000
0.278694 0.568344 0.000000
0.354383 0.568666 0.000000
0.431294 0.568987 0.000000
0.509440 0.569305 0.000000
0.588832 0.569620 0.000000
0.669485 0.569930 0.000000
0.751408 0.570235 0.000000
0.834615 0.570534 0.000000
0.919115 0.570827 0.000000
1.000000 0.571113 0.000000
1.000000 0.571390 0.000000
0.000000 0.622262 0.000000
0.000000 0.622845 0.000000
0.000000 0.623432 0.000000
0.052795 0.624022 0.000000
0.126486 0.624615 0.000000
0.201381 0.625208 0.000000
0.277495 0.625800 0.000000
0.354839 0.626392 0.000000
0.433428 0.626981 0.000000
0.513273 0.627567 0.000000
0.594386 0.628150 0.000000
0.676779 0.628728 0.000000
0.760463 0.629300 0.000000
0.845448 0.629867 0.000000
0.931745 0.630427 0.000000
1.000000 0.630980 0.000000
1.000000 0.631524 0.000000
0.000000 0.679569 0.000000
0.000000 0.680430 0.000000
0.000000 0.681294 0.000000
0.046477 0.682160 0.000000
0.121780 0.683027 0.000000
0.198312 0.683895 0.000000
0.276085 0.684761 0.000000
0.355111 0.685626 0.000000
0.435403 0.686488 0.000000
0.516971 0.687347 0.000000
0.599828 0.688202 0.000000
0.683983 0.689052 0.000000
0.769448 0.689896 0.000000
0.856232 0.690735 0.000000
0.944345 0.691566 0.000000
1.000000 0.692390 0.000000
1.000000 0.692861 0.000000
0.000000 0.738385 0.000000
0.000000 0.739527 0.000000
0.000000 0.740672 0.000000
0.039842 0.741817 0.000000
0.116788 0.742963 0.000000
0.194985 0.744109 0.000000
0.274445 0.745253 0.000000
0.355178 0.746395 0.000000
0.437197 0.747534 0.000000
0.520513 0.748670 0.000000
0.605135 0.749801 0.000000
0.691073 0.750927 0.000000
0.778338 0.752047 0.000000
0.866940 0.753161 0.000000
0.950409 0.751094 0.000000
1.000000 0.748488 0.000000
1.000000 0.745883 0.000000
0.000000 0.000000 0.032743
0.008196 0.000000 0.030350
0.069018 0.000000 0.027956
0.129840 0.000000 0.025563
0.190662 0.000000 0.023170
0.251484 0.000000 0.020776
0.312306 0.000000 0.018383
0.373128 0.000000 0.015990
0.433950 0.000000 0.013596
0.494772 0.000000 0.011203
0.555593 0.000000 0.008810
0.616415 0.000000 0.006416
0.677237 0.000000 0.004023
0.738059 0.000000 0.001630
0.798881 0.000000 0.000000
0.859703 0.000000 0.000000
0.920525 0.000000 0.000000
0.000000 0.000000 0.026152
0.002042 0.000000 0.023758
0.062864 0.000000 0.021365
0.123686 0.000000 0.018972
0.184508 0.000000 0.016578
0.245330 0.000000 0.014185
0.306152 0.000000 0.011792
0.366974 0.000000 0.009398
0.427796 0.000000 0.007005
0.488618 0.000000 0.004612
0.549440 0.000000 0.002218
0.610262 0.000000 0.000000
0.671084 0.000000 0.000000
0.731906 0.000000 0.000000
0.792728 0.000000 0.000000
0.854692 0.000000 0.000000
0.920154 0.000000 0.000000
0.000000 0.037404 0.019560
0.000000 0.035223 0.017167
0.056711 0.033041 0.014773
0.117533 0.030860 0.012380
0.178355 0.028679 0.009987
0.239177 0.026497 0.007593
0.299999 0.024316 0.005200
0.360821 0.022135 0.002807
0.421643 0.019954 0.000413
0.482465 0.017772 0.000000
0.543287 0.015591 0.000000
0.604109 0.013410 0.000000
0.665182 0.011231 0.000000
0.729378 0.009072 0.000000
0.794974 0.006906 0.000000
0.861753 0.004728 0.000000
0.929675 0.002536 0.000000
0.000000 0.081794 0.012969
0.000000 0.079613 0.010575
0.050557 0.077432 0.008182
0.111379 0.075251 0.005789
0.172201 0.073069 0.003395
0.233023 0.070888 0.001002
0.293845 0.068707 0.000000
0.354667 0.066525 0.000000
0.415489 0.064344 0.000000
0.476311 0.062163 0.000000
0.539133 0.060104 0.000000
0.603467 0.058091 0.000000
0.668895 0.056086 0.000000
0.735393 0.054079 0.000000
0.802967 0.052065 0.000000
0.871631 0.050044 0.000000
0.941401 0.048011 0.000000
0.000000 0.126185 0.006377
0.000000 0.124004 0.003984
0.044404 0.121822 0.001590
0.105226 0.119641 0.000000
0.166048 0.117460 0.000000
0.226870 0.115279 0.000000
0.287692 0.113097 0.000000
0.349392 0.111069 0.000000
0.412527 0.109198 0.000000
0.476647 0.107357 0.000000
0.541754 0.105529 0.000000
0.607871 0.103707 0.000000
0.675021 0.101885 0.000000
0.743228 0.100059 0.000000
0.812515 0.098228 0.000000
0.882903 0.096389 0.000000
0.954412 0.094541 0.000000
0.000000 0.170576 0.000000
0.000000 0.168394 0.000000
0.038251 0.166213 0.000000
0.099072 0.164032 0.000000
0.160120 0.161975 0.000000
0.222132 0.160229 0.000000
0.284994 0.158544 0.000000
0.348748 0.156890 0.000000
0.413438 0.155253 0.000000
0.479099 0.153627 0.000000
0.545765 0.152005 0.000000
0.613465 0.150385 0.000000
0.682224 0.148763 0.000000
0.752066 0.147137 0.000000
0.823014 0.145506 0.000000
0.895088 0.143866 0.000000
0.968306 0.142218 0.000000
0.000000 0.214966 0.000000
0.000000 0.212835 0.000000
0.032260 0.211188 0.000000
0.093920 0.209649 0.000000
0.156362 0.208162 0.000000
0.219656 0.206706 0.000000
0.283856 0.205271 0.000000
0.349004 0.203850 0.000000
0.415136 0.202437 0.000000
0.482285 0.201030 0.000000
0.550478 0.199624 0.000000
0.619740 0.198218 0.000000
0.690095 0.196809 0.000000
0.761564 0.195395 0.000000
0.834167 0.193976 0.000000
0.907922 0.192549 0.000000
0.982846 0.191114 0.000000
0.000000 0.260676 0.000000
0.000000 0.259348 0.000000
0.026516 0.258067 0.000000
0.089282 0.256819 0.000000
0.152937 0.255594 0.000000
0.217524 0.254386 0.000000
0.283081 0.253190 0.000000
0.349641 0.252001 0.000000
0.417234 0.250818 0.000000
0.485885 0.249637 0.000000
0.555619 0.248457 0.000000
0.626456 0.247274 0.000000
0.698418 0.246088 0.000000
0.771524 0.244898 0.000000
0.845791 0.243701 0.000000
0.921237 0.242497 0.000000
0.997876 0.241285 0.000000
0.000000 0.308272 0.000000
0.000000 0.307240 0.000000
0.020619 0.306232 0.000000
0.084605 0.305245 0.000000
0.149550 0.304271 0.000000
0.215490 0.303308 0.000000
0.282452 0.302353 0.000000
0.350464 0.301403 0.000000
0.419549 0.300456 0.000000
0.489731 0.299509 0.000000
0.561030 0.298561 0.000000
0.633464 0.297611 0.000000
0.707053 0.296657 0.000000
0.781814 0.295698 0.000000
0.857762 0.294733 0.000000
0.934912 0.293761 0.000000
1.000000 0.292780 0.000000
0.000000 0.357195 0.000000
0.000000 0.356434 0.000000
0.014502 0.355689 0.000000
0.079791 0.354957 0.000000
0.146095 0.354235 0.000000
0.213442 0.353521 0.000000
0.281856 0.352811 0.000000
0.351359 0.352105 0.000000
0.421972 0.351400 0.000000
0.493715 0.350695 0.000000
0.566607 0.349987 0.000000
0.640663 0.349277 0.000000
0.715902 0.348562 0.000000
0.792337 0.347843 0.000000
0.869984 0.347116 0.000000
0.948858 0.346383 0.000000
1.000000 0.345641 0.000000
0.000000 0.407450 0.000000
0.000000 0.406954 0.000000
0.008129 0.406471 0.000000
0.074788 0.405997 0.000000
0.142507 0.405530 0.000000
0.211311 0.405068 0.000000
0.281219 0.404609 0.000000
0.352252 0.404152 0.000000
0.424427 0.403695 0.000000
0.497762 0.403237 0.000000
0.572274 0.402777 0.000000
0.647978 0.402313 0.000000
0.724889 0.401844 0.000000
0.803021 0.401370 0.000000
0.882388 0.400890 0.000000
0.963002 0.400402 0.000000
1.000000 0.399907 0.000000
0.000000 0.459065 0.000000
0.000000 0.458835 0.000000
0.001476 0.458615 0.000000
0.069561 0.458402 0.000000
0.138745 0.458193 0.000000
0.209048 0.457988 0.000000
0.280490 0.457786 0.000000
0.353087 0.457583 0.000000
0.426856 0.457380 0.000000
0.501813 0.457176 0.000000
0.577973 0.456968 0.000000
0.655349 0.456757 0.000000
0.733956 0.456540 0.000000
0.813806 0.456318 0.000000
0.894913 0.456090 0.000000
0.977288 0.455854 0.000000
1.000000 0.455610 0.000000
0.000000 0.512073 0.000000
0.000000 0.512111 0.000000
0.000000 0.512157 0.000000
0.064082 0.512208 0.000000
0.134774 0.512262 0.000000
0.206618 0.512319 0.000000
0.279629 0.512377 0.000000
0.353824 0.512435 0.000000
0.429217 0.512491 0.000000
0.505824 0.512545 0.000000
0.583657 0.512595 0.000000
0.662730 0.512642 0.000000
0.743055 0.512683 0.000000
0.824645 0.512718 0.000000
0.907511 0.512747 0.000000
0.991666 0.512768 0.000000
1.000000 0.512782 0.000000
0.000000 0.566505 0.000000
0.000000 0.566815 0.000000
0.000000 0.567130 0.000000
0.058332 0.567449 0.000000
0.130571 0.567770 0.000000
0.203990 0.568093 0.000000
0.278604 0.568416 0.000000
0.354427 0.568738 0.000000
0.431473 0.569058 0.000000
0.509756 0.569376 0.000000
0.589288 0.569690 0.000000
0.670081 0.569999 0.000000
0.752147 0.570303 0.000000
0.835497 0.570601 0.000000
0.920143 0.570892 0.000000
1.000000 0.571176 0.000000
1.000000 0.571451 0.000000
0.000000 0.622392 0.000000
0.000000 0.622976 0.000000
0.000000 0.623564 0.000000
0.052293 0.624155 0.000000
0.126114 0.624747 0.000000
0.201141 0.625340 0.000000
0.277388 0.625933 0.000000
0.354868 0.626524 0.000000
0.433595 0.627113 0.000000
0.513579 0.627698 0.000000
0.594833 0.628280 0.000000
0.677369 0.628857 0.000000
0.761196 0.629428 0.000000
0.846327 0.629993 0.000000
0.932772 0.630552 0.000000
1.000000 0.631102 0.000000
1.000000 0.631645 0.000000
0.000000 0.679762 0.000000
0.000000 0.680623 0.000000
0.000000 0.681488 0.000000
0.045949 0.682354 0.000000
0.121385 0.683222 0.000000
0.198051 0.684089 0.000000
0.275960 0.684955 0.000000
0.355125 0.685819 0.000000
0.435556 0.686681 0.000000
0.517266 0.687539 0.000000
0.600265 0.688393 0.000000
0.684565 0.689242 0.000000
0.770175 0.690085 0.000000
0.857106 0.690922 0.000000
0.945368 0.691752 0.000000
1.000000 0.692574 0.000000
1.000000 0.692277 0.000000
0.000000 0.738641 0.000000
0.000000 0.739784 0.000000
0.000000 0.740928 0.000000
0.039288 0.742074 0.000000
0.116369 0.743220 0.000000
0.194703 0.744365 0.000000
0.274301 0.745509 0.000000
0.355174 0.746651 0.000000
0.437335 0.747789 0.000000
0.520793 0.748923 0.000000
0.605560 0.750053 0.000000
0.691644 0.751178 0.000000
0.779057 0.752297 0.000000
0.867260 0.753115 0.000000
0.949730 0.750510 0.000000
1.000000 0.747905 0.000000
1.000000 0.745299 0.000000
0.000000 0.000000 0.076765
0.007695 0.000000 0.074371
0.068517 0.000000 0.071978
0.129339 0.000000 0.069585
0.190161 0.000000 0.067191
0.250983 0.000000 0.064798
0.311805 0.000000 0.062405
0.372627 0.000000 0.060011
0.433449 0.000000 0.057618
0.494271 0.000000 0.055225
0.555093 0.000000 0.052831
0.615915 0.000000 0.050438
0.676737 0.000000 0.048045
0.737559 0.000000 0.045651
0.798381 0.000000 0.043258
