assets/lighting/cinematic/grade-emergency-blue/lut.cube
TITLE "Emergency Blue Wash"
# TKRS lighting-batch-001 original LUT
# Intended usage: police / beacon blue wash
# License: CC0-1.0
LUT_3D_SIZE 5
DOMAIN_MIN 0.0 0.0 0.0
DOMAIN_MAX 1.0 1.0 1.0
0.000000 0.000000 0.000000
0.157517 0.000000 0.000000
0.362969 0.000000 0.000000
0.568421 0.000000 0.000000
0.773873 0.000000 0.000000
0.000000 0.151005 0.000000
0.137805 0.144846 0.000000
0.346108 0.140148 0.000000
0.560171 0.136039 0.000000
0.780533 0.131974 0.000000
0.000000 0.363960 0.000000
0.122859 0.363964 0.000000
0.341598 0.364147 0.000000
0.567077 0.364408 0.000000
0.799673 0.364681 0.000000
0.000000 0.608606 0.000000
0.107733 0.613668 0.000000
0.338052 0.618825 0.000000
0.575825 0.624027 0.000000
0.821309 0.629233 0.000000
0.000000 0.886724 0.000000
0.090725 0.894653 0.000000
0.327670 0.887296 0.000000
0.564614 0.879939 0.000000
0.801558 0.872583 0.000000
0.000000 0.000000 0.210863
0.155527 0.000000 0.203207
0.360979 0.000000 0.195551
0.566431 0.000000 0.187895
0.771883 0.000000 0.180239
0.000000 0.148913 0.185107
0.136015 0.143021 0.177651
0.345486 0.138737 0.171402
0.560679 0.134661 0.165308
0.782258 0.130583 0.159212
0.000000 0.363933 0.163093
0.121386 0.364012 0.156980
0.341239 0.364231 0.150788
0.567919 0.364502 0.144487
0.801785 0.364767 0.138052
0.000000 0.610311 0.142160
0.106123 0.615411 0.135673
0.337670 0.620589 0.129029
0.576730 0.625796 0.122217
0.821998 0.629537 0.115051
0.000000 0.890259 0.119692
0.088430 0.892155 0.111937
0.325375 0.884798 0.103383
0.562319 0.877441 0.094828
0.799263 0.870084 0.086274
0.000000 0.000000 0.484356
0.153537 0.000000 0.476700
0.358989 0.000000 0.469044
0.564441 0.000000 0.461388
0.770865 0.000000 0.454171
0.000000 0.146822 0.458601
0.134462 0.141512 0.452589
0.344927 0.137345 0.448939
0.561247 0.133281 0.445743
0.784044 0.129181 0.442762
0.000000 0.363937 0.444640
0.119904 0.364076 0.441707
0.340885 0.364321 0.438854
0.568775 0.364595 0.436023
0.803918 0.364846 0.433175
0.000000 0.612031 0.434990
0.104495 0.617164 0.432127
0.337281 0.622356 0.429206
0.577635 0.627564 0.426204
0.819703 0.627038 0.420630
0.000000 0.893805 0.425087
0.086135 0.889656 0.417516
0.323080 0.882299 0.408961
0.560024 0.874943 0.400407
0.796968 0.867586 0.391853
0.000000 0.000000 0.757850
0.151547 0.000000 0.750193
0.356999 0.000000 0.742537
0.562451 0.000000 0.734881
0.771365 0.000000 0.729734
0.000000 0.144730 0.732094
0.132959 0.140069 0.729165
0.344418 0.135963 0.728381
0.561867 0.131897 0.728254
0.785884 0.127768 0.728517
0.000000 0.363966 0.728313
0.118412 0.364152 0.728680
0.340534 0.364414 0.729263
0.569643 0.364686 0.729987
0.806070 0.364919 0.730798
0.000000 0.613764 0.730275
0.102848 0.618923 0.731107
0.336881 0.624125 0.731972
0.578538 0.629330 0.732839
0.817408 0.624540 0.726209
0.000000 0.894515 0.731649
0.083840 0.887158 0.723095
0.320784 0.879801 0.714540
0.557729 0.872444 0.705986
0.794673 0.865087 0.697432
0.000000 0.000000 1.000000
0.149557 0.000000 1.000000
0.355009 0.000000 1.000000
0.560461 0.000000 1.000000
0.772226 0.000000 1.000000
0.000000 0.142934 1.000000
0.131480 0.138660 1.000000
0.343946 0.134584 1.000000
0.562531 0.130505 1.000000
0.787772 0.126341 1.000000
0.000000 0.364015 1.000000
0.116908 0.364236 1.000000
0.340183 0.364508 1.000000
0.570522 0.364771 1.000000
0.808239 0.364982 1.000000
0.000000 0.615508 1.000000
0.101183 0.620687 1.000000
0.336472 0.625894 1.000000
0.578168 0.629398 1.000000
0.815113 0.622041 1.000000
0.000000 0.892016 1.000000
0.081545 0.884659 1.000000
0.318489 0.877303 1.000000
0.555434 0.869946 1.000000
0.792378 0.862589 1.000000
