assets/lighting/cinematic/grade-emergency-blue/lut.cube
TITLE "Emergency Blue Wash"
# TKRS lighting-batch-001 original LUT
# Intended usage: police / beacon blue wash
# License: CC0-1.0
LUT_3D_SIZE 17
DOMAIN_MIN 0.0 0.0 0.0
DOMAIN_MAX 1.0 1.0 1.0
0.000000 0.000000 0.000000
0.003428 0.000000 0.000000
0.054791 0.000000 0.000000
0.106154 0.000000 0.000000
0.157517 0.000000 0.000000
0.208880 0.000000 0.000000
0.260243 0.000000 0.000000
0.311606 0.000000 0.000000
0.362969 0.000000 0.000000
0.414332 0.000000 0.000000
0.465695 0.000000 0.000000
0.517058 0.000000 0.000000
0.568421 0.000000 0.000000
0.619784 0.000000 0.000000
0.671147 0.000000 0.000000
0.722510 0.000000 0.000000
0.773873 0.000000 0.000000
0.000000 0.000000 0.000000
0.000000 0.000000 0.000000
0.049863 0.000000 0.000000
0.101226 0.000000 0.000000
0.152589 0.000000 0.000000
0.203952 0.000000 0.000000
0.255315 0.000000 0.000000
0.306678 0.000000 0.000000
0.358041 0.000000 0.000000
0.409404 0.000000 0.000000
0.460767 0.000000 0.000000
0.512130 0.000000 0.000000
0.563493 0.000000 0.000000
0.614856 0.000000 0.000000
0.666219 0.000000 0.000000
0.717986 0.000000 0.000000
0.771042 0.000000 0.000000
0.000000 0.050311 0.000000
0.000000 0.048771 0.000000
0.044935 0.047231 0.000000
0.096298 0.045691 0.000000
0.147661 0.044151 0.000000
0.199024 0.042612 0.000000
0.250387 0.041072 0.000000
0.301750 0.039532 0.000000
0.353113 0.037992 0.000000
0.404476 0.036452 0.000000
0.455839 0.034913 0.000000
0.507202 0.033373 0.000000
0.559284 0.031885 0.000000
0.612136 0.030432 0.000000
0.665428 0.028982 0.000000
0.719137 0.027528 0.000000
0.773259 0.026068 0.000000
0.000000 0.100658 0.000000
0.000000 0.099118 0.000000
0.040007 0.097578 0.000000
0.091370 0.096038 0.000000
0.142733 0.094499 0.000000
0.194096 0.092959 0.000000
0.245459 0.091419 0.000000
0.296822 0.089879 0.000000
0.348224 0.088352 0.000000
0.400383 0.087030 0.000000
0.452963 0.085752 0.000000
0.505925 0.084492 0.000000
0.559269 0.083241 0.000000
0.612999 0.081993 0.000000
0.667123 0.080746 0.000000
0.721648 0.079496 0.000000
0.776582 0.078243 0.000000
0.000000 0.151005 0.000000
0.000000 0.149465 0.000000
0.035079 0.147925 0.000000
0.086442 0.146386 0.000000
0.137805 0.144846 0.000000
0.189307 0.143440 0.000000
0.241240 0.142297 0.000000
0.293504 0.141208 0.000000
0.346108 0.140148 0.000000
0.399066 0.139107 0.000000
0.452388 0.138078 0.000000
0.506087 0.137056 0.000000
0.560171 0.136039 0.000000
0.614650 0.135024 0.000000
0.669531 0.134010 0.000000
0.724823 0.132993 0.000000
0.780533 0.131974 0.000000
0.000000 0.201352 0.000000
0.000000 0.199812 0.000000
0.030195 0.198646 0.000000
0.081828 0.197694 0.000000
0.133742 0.196805 0.000000
0.185965 0.195954 0.000000
0.238519 0.195130 0.000000
0.291419 0.194326 0.000000
0.344679 0.193535 0.000000
0.398311 0.192755 0.000000
0.452325 0.191982 0.000000
0.506731 0.191214 0.000000
0.561537 0.190450 0.000000
0.616751 0.189686 0.000000
0.672381 0.188923 0.000000
0.728433 0.188158 0.000000
0.784914 0.187391 0.000000
0.000000 0.253230 0.000000
0.000000 0.252549 0.000000
0.025486 0.251915 0.000000
0.077620 0.251314 0.000000
0.130084 0.250739 0.000000
0.182894 0.250184 0.000000
0.236063 0.249645 0.000000
0.289603 0.249119 0.000000
0.343524 0.248602 0.000000
0.397836 0.248092 0.000000
0.452547 0.247588 0.000000
0.507666 0.247087 0.000000
0.563199 0.246589 0.000000
0.619154 0.246092 0.000000
0.675537 0.245595 0.000000
0.732354 0.245096 0.000000
0.789611 0.244596 0.000000
0.000000 0.307662 0.000000
0.000000 0.307322 0.000000
0.020725 0.307007 0.000000
0.073421 0.306713 0.000000
0.126478 0.306436 0.000000
0.179906 0.306173 0.000000
0.233717 0.305922 0.000000
0.287918 0.305680 0.000000
0.342519 0.305445 0.000000
0.397527 0.305216 0.000000
0.452950 0.304991 0.000000
0.508794 0.304770 0.000000
0.565066 0.304550 0.000000
0.621772 0.304331 0.000000
0.678918 0.304112 0.000000
0.736508 0.303891 0.000000
0.794549 0.303669 0.000000
0.000000 0.363960 0.000000
0.000000 0.363937 0.000000
0.015873 0.363931 0.000000
0.069174 0.363941 0.000000
0.122859 0.363964 0.000000
0.176936 0.363998 0.000000
0.231413 0.364041 0.000000
0.286298 0.364091 0.000000
0.341598 0.364147 0.000000
0.397320 0.364208 0.000000
0.453469 0.364273 0.000000
0.510053 0.364340 0.000000
0.567077 0.364408 0.000000
0.624545 0.364478 0.000000
0.682464 0.364547 0.000000
0.740839 0.364615 0.000000
0.799673 0.364681 0.000000
0.000000 0.422152 0.000000
0.000000 0.422442 0.000000
0.010913 0.422747 0.000000
0.064853 0.423064 0.000000
0.119195 0.423392 0.000000
0.173945 0.423728 0.000000
0.229111 0.424072 0.000000
0.284700 0.424423 0.000000
0.340718 0.424778 0.000000
0.397170 0.425137 0.000000
0.454062 0.425500 0.000000
0.511399 0.425865 0.000000
0.569188 0.426230 0.000000
0.627431 0.426597 0.000000
0.686135 0.426963 0.000000
0.745304 0.427328 0.000000
0.804941 0.427691 0.000000
0.000000 0.482288 0.000000
0.000000 0.482895 0.000000
0.005833 0.483514 0.000000
0.060439 0.484143 0.000000
0.115462 0.484781 0.000000
0.170909 0.485427 0.000000
0.226785 0.486079 0.000000
0.283096 0.486737 0.000000
0.339848 0.487399 0.000000
0.397046 0.488064 0.000000
0.454695 0.488733 0.000000
0.512800 0.489403 0.000000
0.571366 0.490074 0.000000
0.630396 0.490745 0.000000
0.689896 0.491416 0.000000
0.749870 0.492086 0.000000
0.810320 0.492755 0.000000
0.000000 0.544423 0.000000
0.000000 0.545351 0.000000
0.000624 0.546289 0.000000
0.055919 0.547235 0.000000
0.111646 0.548190 0.000000
0.167808 0.549151 0.000000
0.224412 0.550118 0.000000
0.281463 0.551089 0.000000
0.338966 0.552065 0.000000
0.396925 0.553043 0.000000
0.455345 0.554024 0.000000
0.514230 0.555007 0.000000
0.573585 0.555990 0.000000
0.633414 0.556974 0.000000
0.693721 0.557957 0.000000
0.754510 0.558939 0.000000
0.815784 0.559920 0.000000
0.000000 0.608606 0.000000
0.000000 0.609859 0.000000
0.000000 0.611122 0.000000
0.051284 0.612391 0.000000
0.107733 0.613668 0.000000
0.164629 0.614950 0.000000
0.221978 0.616238 0.000000
0.279784 0.617530 0.000000
0.338052 0.618825 0.000000
0.396786 0.620123 0.000000
0.455990 0.621423 0.000000
0.515668 0.622725 0.000000
0.575825 0.624027 0.000000
0.636463 0.625329 0.000000
0.697588 0.626632 0.000000
0.759202 0.627933 0.000000
0.821309 0.629233 0.000000
0.000000 0.674886 0.000000
0.000000 0.676469 0.000000
0.000000 0.678060 0.000000
0.046524 0.679658 0.000000
0.103713 0.681263 0.000000
0.161360 0.682872 0.000000
0.219469 0.684486 0.000000
0.278045 0.686104 0.000000
0.337091 0.687725 0.000000
0.396613 0.689348 0.000000
0.456614 0.690974 0.000000
0.517097 0.692600 0.000000
0.578066 0.694228 0.000000
0.639525 0.695855 0.000000
0.700137 0.695850 0.000000
0.759373 0.694011 0.000000
0.818609 0.692172 0.000000
0.000000 0.743305 0.000000
0.000000 0.745223 0.000000
0.000000 0.747149 0.000000
0.041633 0.749080 0.000000
0.099578 0.751017 0.000000
0.157990 0.752959 0.000000
0.216874 0.754905 0.000000
0.276233 0.756854 0.000000
0.336072 0.758806 0.000000
0.396394 0.760761 0.000000
0.457202 0.762717 0.000000
0.516745 0.761505 0.000000
0.575981 0.759666 0.000000
0.635217 0.757826 0.000000
0.694453 0.755987 0.000000
0.753689 0.754148 0.000000
0.812926 0.752309 0.000000
0.000000 0.813905 0.000000
0.000000 0.816163 0.000000
0.000000 0.818427 0.000000
0.036604 0.820696 0.000000
0.095320 0.822971 0.000000
0.154511 0.825250 0.000000
0.214183 0.827533 0.000000
0.274117 0.828998 0.000000
0.333353 0.827159 0.000000
0.392589 0.825320 0.000000
0.451825 0.823481 0.000000
0.511061 0.821642 0.000000
0.570298 0.819802 0.000000
0.629534 0.817963 0.000000
0.688770 0.816124 0.000000
0.748006 0.814285 0.000000
0.807242 0.812446 0.000000
0.000000 0.886724 0.000000
0.000000 0.889325 0.000000
0.000000 0.891933 0.000000
0.031433 0.894545 0.000000
0.090725 0.894653 0.000000
0.149961 0.892814 0.000000
0.209197 0.890975 0.000000
0.268434 0.889135 0.000000
0.327670 0.887296 0.000000
0.386906 0.885457 0.000000
0.446142 0.883618 0.000000
0.505378 0.881779 0.000000
0.564614 0.879939 0.000000
0.623850 0.878100 0.000000
0.683086 0.876261 0.000000
0.742322 0.874422 0.000000
0.801558 0.872583 0.000000
0.000000 0.000000 0.005743
0.002931 0.000000 0.003829
0.054294 0.000000 0.001915
0.105657 0.000000 0.000001
0.157020 0.000000 0.000000
0.208383 0.000000 0.000000
0.259746 0.000000 0.000000
0.311109 0.000000 0.000000
0.362472 0.000000 0.000000
0.413834 0.000000 0.000000
0.465197 0.000000 0.000000
0.516560 0.000000 0.000000
0.567923 0.000000 0.000000
0.619286 0.000000 0.000000
0.670649 0.000000 0.000000
0.722012 0.000000 0.000000
0.773375 0.000000 0.000000
0.000000 0.000000 0.000000
0.000000 0.000000 0.000000
0.049366 0.000000 0.000000
0.100729 0.000000 0.000000
0.152092 0.000000 0.000000
0.203455 0.000000 0.000000
0.254817 0.000000 0.000000
0.306180 0.000000 0.000000
0.357543 0.000000 0.000000
0.408906 0.000000 0.000000
0.460269 0.000000 0.000000
0.511632 0.000000 0.000000
0.562995 0.000000 0.000000
0.614358 0.000000 0.000000
0.665721 0.000000 0.000000
0.717970 0.000000 0.000000
0.771182 0.000000 0.000000
0.000000 0.049788 0.000000
0.000000 0.048248 0.000000
0.044438 0.046708 0.000000
0.095800 0.045168 0.000000
0.147163 0.043628 0.000000
0.198526 0.042089 0.000000
0.249889 0.040549 0.000000
0.301252 0.039009 0.000000
0.352615 0.037469 0.000000
0.403978 0.035930 0.000000
0.455341 0.034390 0.000000
0.506744 0.032853 0.000000
0.559202 0.031391 0.000000
0.612166 0.029940 0.000000
0.665552 0.028488 0.000000
0.719349 0.027033 0.000000
0.773556 0.025570 0.000000
0.000000 0.100135 0.000000
0.000000 0.098595 0.000000
0.039509 0.097055 0.000000
0.090872 0.095515 0.000000
0.142235 0.093976 0.000000
0.193598 0.092436 0.000000
0.244961 0.090896 0.000000
0.296324 0.089356 0.000000
0.347927 0.087893 0.000000
0.400203 0.086593 0.000000
0.452868 0.085323 0.000000
0.505910 0.084067 0.000000
0.559331 0.082817 0.000000
0.613138 0.081570 0.000000
0.667340 0.080322 0.000000
0.721944 0.079071 0.000000
0.776956 0.077817 0.000000
0.000000 0.150482 0.000000
0.000000 0.148942 0.000000
0.034581 0.147402 0.000000
0.085944 0.145863 0.000000
0.137307 0.144323 0.000000
0.188940 0.143042 0.000000
0.240943 0.141923 0.000000
0.293274 0.140845 0.000000
0.345945 0.139793 0.000000
0.398972 0.138756 0.000000
0.452364 0.137730 0.000000
0.506134 0.136711 0.000000
0.560292 0.135695 0.000000
0.614844 0.134680 0.000000
0.669802 0.133665 0.000000
0.725170 0.132647 0.000000
0.780958 0.131627 0.000000
0.000000 0.200829 0.000000
0.000000 0.199343 0.000000
0.029720 0.198313 0.000000
0.081399 0.197387 0.000000
0.133367 0.196513 0.000000
0.185648 0.195672 0.000000
0.238263 0.194855 0.000000
0.291227 0.194056 0.000000
0.344553 0.193269 0.000000
0.398253 0.192492 0.000000
0.452337 0.191721 0.000000
0.506814 0.190954 0.000000
0.561693 0.190190 0.000000
0.616982 0.189427 0.000000
0.672687 0.188664 0.000000
0.728816 0.187898 0.000000
0.785375 0.187130 0.000000
0.000000 0.252992 0.000000
0.000000 0.252329 0.000000
0.025009 0.251708 0.000000
0.077197 0.251116 0.000000
0.129719 0.250549 0.000000
0.182590 0.250000 0.000000
0.235822 0.249465 0.000000
0.289428 0.248942 0.000000
0.343417 0.248428 0.000000
0.397799 0.247920 0.000000
0.452581 0.247417 0.000000
0.507772 0.246918 0.000000
0.563380 0.246420 0.000000
0.619410 0.245923 0.000000
0.675869 0.245426 0.000000
0.732764 0.244927 0.000000
0.790100 0.244425 0.000000
0.000000 0.307543 0.000000
0.000000 0.307212 0.000000
0.020239 0.306905 0.000000
0.072995 0.306617 0.000000
0.126114 0.306346 0.000000
0.179606 0.306087 0.000000
0.233483 0.305839 0.000000
0.287752 0.305599 0.000000
0.342423 0.305367 0.000000
0.397502 0.305139 0.000000
0.452998 0.304916 0.000000
0.508916 0.304695 0.000000
0.565263 0.304476 0.000000
0.622046 0.304257 0.000000
0.679269 0.304037 0.000000
0.736938 0.303816 0.000000
0.795059 0.303593 0.000000
0.000000 0.363950 0.000000
0.000000 0.363933 0.000000
0.015377 0.363933 0.000000
0.068742 0.363948 0.000000
0.122492 0.363974 0.000000
0.176635 0.364011 0.000000
0.231181 0.364057 0.000000
0.286136 0.364109 0.000000
0.341508 0.364167 0.000000
0.397302 0.364230 0.000000
0.453526 0.364295 0.000000
0.510186 0.364363 0.000000
0.567286 0.364432 0.000000
0.624832 0.364501 0.000000
0.682830 0.364570 0.000000
0.741284 0.364637 0.000000
0.800199 0.364703 0.000000
0.000000 0.422249 0.000000
0.000000 0.422544 0.000000
0.010406 0.422853 0.000000
0.064412 0.423174 0.000000
0.118821 0.423505 0.000000
0.173641 0.423844 0.000000
0.228878 0.424191 0.000000
0.284539 0.424543 0.000000
0.340630 0.424900 0.000000
0.397157 0.425260 0.000000
0.454124 0.425624 0.000000
0.511539 0.425989 0.000000
0.569405 0.426355 0.000000
0.627727 0.426721 0.000000
0.686511 0.427087 0.000000
0.745760 0.427451 0.000000
0.805480 0.427814 0.000000
0.000000 0.482493 0.000000
0.000000 0.483104 0.000000
0.005313 0.483727 0.000000
0.059988 0.484359 0.000000
0.115081 0.485000 0.000000
0.170599 0.485648 0.000000
0.226548 0.486302 0.000000
0.282933 0.486961 0.000000
0.339760 0.487625 0.000000
0.397034 0.488291 0.000000
0.454761 0.488960 0.000000
0.512944 0.489630 0.000000
0.571588 0.490302 0.000000
0.630699 0.490973 0.000000
0.690280 0.491644 0.000000
0.750335 0.492313 0.000000
0.810868 0.492981 0.000000
0.000000 0.544737 0.000000
0.000000 0.545668 0.000000
0.000090 0.546609 0.000000
0.055457 0.547559 0.000000
0.111255 0.548516 0.000000
0.167491 0.549479 0.000000
0.224170 0.550447 0.000000
0.281296 0.551420 0.000000
0.338875 0.552397 0.000000
0.396912 0.553376 0.000000
0.455410 0.554358 0.000000
0.514375 0.555341 0.000000
0.573811 0.556324 0.000000
0.633721 0.557308 0.000000
0.694110 0.558291 0.000000
0.754981 0.559273 0.000000
0.816339 0.560253 0.000000
0.000000 0.609031 0.000000
0.000000 0.610287 0.000000
0.000000 0.611552 0.000000
0.050809 0.612824 0.000000
0.107332 0.614103 0.000000
0.164303 0.615387 0.000000
0.221728 0.616676 0.000000
0.279612 0.617969 0.000000
0.337957 0.619266 0.000000
0.396770 0.620564 0.000000
0.456054 0.621865 0.000000
0.515813 0.623167 0.000000
0.576051 0.624469 0.000000
0.636772 0.625772 0.000000
0.697980 0.627074 0.000000
0.759677 0.628374 0.000000
0.821869 0.629674 0.000000
0.000000 0.675423 0.000000
0.000000 0.677009 0.000000
0.000000 0.678602 0.000000
0.046036 0.680203 0.000000
0.103301 0.681809 0.000000
0.161024 0.683420 0.000000
0.219211 0.685035 0.000000
0.277865 0.686654 0.000000
0.336991 0.688276 0.000000
0.396593 0.689900 0.000000
0.456675 0.691526 0.000000
0.517240 0.693153 0.000000
0.578292 0.694780 0.000000
0.639834 0.696408 0.000000
0.699563 0.695226 0.000000
0.758799 0.693387 0.000000
0.818035 0.691547 0.000000
0.000000 0.743956 0.000000
0.000000 0.745876 0.000000
0.000000 0.747804 0.000000
0.041132 0.749737 0.000000
0.099153 0.751676 0.000000
0.157644 0.753619 0.000000
0.216607 0.755566 0.000000
0.276046 0.757517 0.000000
0.335965 0.759470 0.000000
0.396368 0.761425 0.000000
0.456935 0.762719 0.000000
0.516171 0.760880 0.000000
0.575407 0.759041 0.000000
0.634643 0.757202 0.000000
0.693880 0.755363 0.000000
0.753116 0.753523 0.000000
0.812352 0.751684 0.000000
0.000000 0.814671 0.000000
0.000000 0.816931 0.000000
0.000000 0.819197 0.000000
0.036089 0.821468 0.000000
0.094883 0.823745 0.000000
0.154154 0.826025 0.000000
0.213906 0.828309 0.000000
0.273543 0.828374 0.000000
0.332779 0.826535 0.000000
0.392016 0.824695 0.000000
0.451252 0.822856 0.000000
0.510488 0.821017 0.000000
0.569724 0.819178 0.000000
0.628960 0.817339 0.000000
0.688196 0.815499 0.000000
0.747432 0.813660 0.000000
0.806668 0.811821 0.000000
0.000000 0.887607 0.000000
0.000000 0.890210 0.000000
0.000000 0.892819 0.000000
0.030903 0.895433 0.000000
0.090151 0.894028 0.000000
0.149388 0.892189 0.000000
0.208624 0.890350 0.000000
0.267860 0.888511 0.000000
0.327096 0.886672 0.000000
0.386332 0.884832 0.000000
0.445568 0.882993 0.000000
0.504804 0.881154 0.000000
0.564040 0.879315 0.000000
0.623276 0.877476 0.000000
0.682512 0.875636 0.000000
0.741749 0.873797 0.000000
0.800985 0.871958 0.000000
0.000000 0.000000 0.074117
0.002433 0.000000 0.072203
0.053796 0.000000 0.070289
0.105159 0.000000 0.068375
0.156522 0.000000 0.066461
0.207885 0.000000 0.064546
0.259248 0.000000 0.062632
0.310611 0.000000 0.060718
0.361974 0.000000 0.058804
0.413337 0.000000 0.056890
0.464700 0.000000 0.054976
0.516063 0.000000 0.053062
0.567426 0.000000 0.051148
0.618789 0.000000 0.049234
0.670152 0.000000 0.047320
0.721515 0.000000 0.045406
0.772878 0.000000 0.043492
0.000000 0.000000 0.067678
0.000000 0.000000 0.065764
0.048868 0.000000 0.063850
0.100231 0.000000 0.061936
0.151594 0.000000 0.060022
0.202957 0.000000 0.058108
0.254320 0.000000 0.056193
0.305683 0.000000 0.054279
0.357046 0.000000 0.052365
0.408409 0.000000 0.050451
0.459772 0.000000 0.048537
0.511135 0.000000 0.046623
0.562498 0.000000 0.044709
0.613861 0.000000 0.042795
0.665255 0.000000 0.040883
0.718005 0.000000 0.039026
0.771348 0.000000 0.037179
0.000000 0.049265 0.061239
0.000000 0.047725 0.059325
0.043940 0.046185 0.057411
0.095303 0.044645 0.055497
0.146666 0.043106 0.053583
0.198029 0.041566 0.051669
0.249392 0.040026 0.049755
0.300755 0.038486 0.047840
0.352118 0.036946 0.045926
0.403481 0.035407 0.044012
0.454844 0.033867 0.042098
0.506533 0.032353 0.040204
0.559148 0.030898 0.038353
0.612212 0.029447 0.036506
0.665688 0.027995 0.034657
0.719572 0.026537 0.032805
0.773864 0.025072 0.030947
0.000000 0.099612 0.054800
0.000000 0.098072 0.052886
0.039012 0.096532 0.050972
0.090375 0.094993 0.049058
0.141738 0.093453 0.047144
0.193101 0.091913 0.045230
0.244464 0.090373 0.043316
0.295827 0.088833 0.041401
0.347668 0.087446 0.039529
0.400039 0.086159 0.037681
0.452784 0.084895 0.035833
0.505903 0.083642 0.033984
0.559400 0.082393 0.032129
0.613285 0.081146 0.030269
0.667564 0.079898 0.028402
0.722246 0.078646 0.026527
0.777337 0.077389 0.024645
0.000000 0.149959 0.048361
0.000000 0.148419 0.046447
0.034084 0.146879 0.044533
0.085447 0.145340 0.042619
0.136834 0.143832 0.040710
0.188585 0.142655 0.038856
0.240653 0.141553 0.037008
0.293049 0.140486 0.035160
0.345788 0.139440 0.033309
0.398882 0.138407 0.031453
0.452345 0.137383 0.029590
0.506186 0.136365 0.027720
0.560416 0.135350 0.025843
0.615044 0.134335 0.023957
0.670076 0.133319 0.022062
0.725522 0.132301 0.020158
0.781387 0.131279 0.018245
0.000000 0.200306 0.041922
0.000000 0.198973 0.040033
0.029245 0.197991 0.038183
0.080972 0.197085 0.036336
0.132994 0.196224 0.034487
0.185333 0.195392 0.032634
0.238009 0.194582 0.030775
0.291037 0.193787 0.028910
0.344429 0.193004 0.027038
0.398197 0.192229 0.025157
0.452351 0.191460 0.023268
0.506900 0.190695 0.021370
0.561852 0.189931 0.019463
0.617215 0.189168 0.017546
0.672996 0.188404 0.015618
0.729202 0.187638 0.013680
0.785840 0.186868 0.011732
0.000000 0.252762 0.035663
0.000000 0.252114 0.033813
0.024531 0.251504 0.031958
0.076774 0.250921 0.030097
0.129355 0.250361 0.028230
0.182287 0.249817 0.026354
0.235583 0.249286 0.024471
0.289255 0.248767 0.022578
0.343312 0.248255 0.020677
0.397763 0.247749 0.018766
0.452616 0.247248 0.016845
0.507881 0.246749 0.014914
0.563562 0.246251 0.012972
0.619668 0.245754 0.011020
0.676204 0.245256 0.009056
0.733176 0.244757 0.007081
0.790591 0.244254 0.005095
0.000000 0.307428 0.029418
0.000000 0.307106 0.027548
0.019753 0.306805 0.025670
0.072568 0.306523 0.023783
0.125749 0.306256 0.021887
0.179307 0.306002 0.019982
0.233250 0.305757 0.018068
0.287587 0.305520 0.016143
0.342328 0.305289 0.014208
0.397479 0.305063 0.012262
0.453047 0.304841 0.010306
0.509039 0.304620 0.008338
0.565462 0.304401 0.006359
0.622321 0.304182 0.004369
0.679622 0.303962 0.002366
0.737370 0.303741 0.000352
0.795570 0.303517 0.000000
0.000000 0.363942 0.023094
0.000000 0.363931 0.021195
0.014881 0.363937 0.019287
0.068309 0.363956 0.017368
0.122124 0.363986 0.015440
0.176335 0.364026 0.013501
0.230949 0.364074 0.011551
0.285975 0.364129 0.009591
0.341418 0.364188 0.007619
0.397286 0.364252 0.005636
0.453584 0.364318 0.003641
0.510319 0.364386 0.001634
0.567496 0.364455 0.000000
0.625120 0.364525 0.000000
0.683197 0.364593 0.000000
0.741731 0.364660 0.000000
0.800726 0.364724 0.000000
0.000000 0.422347 0.016667
0.000000 0.422648 0.014735
0.009898 0.422961 0.012793
0.063970 0.423286 0.010839
0.118447 0.423619 0.008874
0.173336 0.423961 0.006898
0.228644 0.424310 0.004911
0.284378 0.424664 0.002912
0.340542 0.425022 0.000901
0.397144 0.425383 0.000000
0.454187 0.425747 0.000000
0.511679 0.426113 0.000000
0.569623 0.426479 0.000000
0.628024 0.426845 0.000000
0.686888 0.427211 0.000000
0.746218 0.427575 0.000000
0.806019 0.427937 0.000000
0.000000 0.482699 0.010125
0.000000 0.483314 0.008156
0.004792 0.483940 0.006176
0.059536 0.484576 0.004184
0.114699 0.485219 0.002181
0.170288 0.485870 0.000166
0.226310 0.486526 0.000000
0.282769 0.487186 0.000000
0.339672 0.487851 0.000000
0.397022 0.488518 0.000000
0.454826 0.489187 0.000000
0.513087 0.489858 0.000000
0.571811 0.490530 0.000000
0.631002 0.491201 0.000000
0.690664 0.491871 0.000000
0.750801 0.492540 0.000000
0.811417 0.493208 0.000000
0.000000 0.545052 0.003456
0.000000 0.545987 0.001449
0.000000 0.546931 0.000000
0.054993 0.547883 0.000000
0.110864 0.548842 0.000000
0.167173 0.549807 0.000000
0.223926 0.550777 0.000000
0.281128 0.551752 0.000000
0.338784 0.552729 0.000000
0.396899 0.553709 0.000000
0.455476 0.554691 0.000000
0.514520 0.555674 0.000000
0.574036 0.556658 0.000000
0.634028 0.557642 0.000000
0.694499 0.558624 0.000000
0.755454 0.559606 0.000000
0.816895 0.560585 0.000000
0.000000 0.609456 0.000000
0.000000 0.610716 0.000000
0.000000 0.611983 0.000000
0.050333 0.613258 0.000000
0.106930 0.614538 0.000000
0.163977 0.615825 0.000000
0.221478 0.617115 0.000000
0.279438 0.618409 0.000000
0.337862 0.619706 0.000000
0.396754 0.621006 0.000000
0.456118 0.622307 0.000000
0.515958 0.623609 0.000000
0.576277 0.624912 0.000000
0.637081 0.626214 0.000000
0.698372 0.627515 0.000000
0.760154 0.628816 0.000000
0.822430 0.630114 0.000000
0.000000 0.675960 0.000000
0.000000 0.677549 0.000000
0.000000 0.679145 0.000000
0.045547 0.680747 0.000000
0.102887 0.682355 0.000000
0.160688 0.683968 0.000000
0.218952 0.685585 0.000000
0.277685 0.687205 0.000000
0.336891 0.688827 0.000000
0.396573 0.690452 0.000000
0.456736 0.692078 0.000000
0.517383 0.693706 0.000000
0.578517 0.695333 0.000000
0.639753 0.696440 0.000000
0.698989 0.694601 0.000000
0.758225 0.692762 0.000000
0.817462 0.690923 0.000000
0.000000 0.744607 0.000000
0.000000 0.746530 0.000000
0.000000 0.748460 0.000000
0.040629 0.750395 0.000000
0.098728 0.752335 0.000000
0.157297 0.754280 0.000000
0.216338 0.756228 0.000000
0.275857 0.758180 0.000000
0.335858 0.760134 0.000000
0.396342 0.762089 0.000000
0.456361 0.762095 0.000000
0.515598 0.760256 0.000000
0.574834 0.758416 0.000000
0.634070 0.756577 0.000000
0.693306 0.754738 0.000000
0.752542 0.752899 0.000000
0.811778 0.751060 0.000000
0.000000 0.815438 0.000000
0.000000 0.817700 0.000000
0.000000 0.819968 0.000000
0.035572 0.822241 0.000000
0.094445 0.824519 0.000000
0.153795 0.826800 0.000000
0.213628 0.829086 0.000000
0.272970 0.827749 0.000000
0.332206 0.825910 0.000000
0.391442 0.824071 0.000000
0.450678 0.822232 0.000000
0.509914 0.820392 0.000000
0.569150 0.818553 0.000000
0.628386 0.816714 0.000000
0.687622 0.814875 0.000000
0.746858 0.813036 0.000000
0.806094 0.811196 0.000000
0.000000 0.888490 0.000000
0.000000 0.891096 0.000000
0.000000 0.893706 0.000000
0.030342 0.895243 0.000000
0.089578 0.893404 0.000000
0.148814 0.891565 0.000000
0.208050 0.889725 0.000000
0.267286 0.887886 0.000000
0.326522 0.886047 0.000000
0.385758 0.884208 0.000000
0.444994 0.882369 0.000000
0.504230 0.880529 0.000000
0.563466 0.878690 0.000000
0.622703 0.876851 0.000000
0.681939 0.875012 0.000000
0.741175 0.873173 0.000000
0.800411 0.871333 0.000000
0.000000 0.000000 0.142490
0.001936 0.000000 0.140576
0.053299 0.000000 0.138662
0.104662 0.000000 0.136748
0.156025 0.000000 0.134834
0.207388 0.000000 0.132920
0.258751 0.000000 0.131006
0.310114 0.000000 0.129092
0.361477 0.000000 0.127178
0.412839 0.000000 0.125264
0.464202 0.000000 0.123350
0.515565 0.000000 0.121436
0.566928 0.000000 0.119521
0.618291 0.000000 0.117607
