assets/lighting/cinematic/grade-emergency-blue/lut.cube
TITLE "Emergency Blue Wash"
# TKRS lighting-batch-001 original LUT
# Intended usage: police / beacon blue wash
# License: CC0-1.0
LUT_3D_SIZE 9
DOMAIN_MIN 0.0 0.0 0.0
DOMAIN_MAX 1.0 1.0 1.0
0.000000 0.000000 0.000000
0.054791 0.000000 0.000000
0.157517 0.000000 0.000000
0.260243 0.000000 0.000000
0.362969 0.000000 0.000000
0.465695 0.000000 0.000000
0.568421 0.000000 0.000000
0.671147 0.000000 0.000000
0.773873 0.000000 0.000000
0.000000 0.050311 0.000000
0.044935 0.047231 0.000000
0.147661 0.044151 0.000000
0.250387 0.041072 0.000000
0.353113 0.037992 0.000000
0.455839 0.034913 0.000000
0.559284 0.031885 0.000000
0.665428 0.028982 0.000000
0.773259 0.026068 0.000000
0.000000 0.151005 0.000000
0.035079 0.147925 0.000000
0.137805 0.144846 0.000000
0.241240 0.142297 0.000000
0.346108 0.140148 0.000000
0.452388 0.138078 0.000000
0.560171 0.136039 0.000000
0.669531 0.134010 0.000000
0.780533 0.131974 0.000000
0.000000 0.253230 0.000000
0.025486 0.251915 0.000000
0.130084 0.250739 0.000000
0.236063 0.249645 0.000000
0.343524 0.248602 0.000000
0.452547 0.247588 0.000000
0.563199 0.246589 0.000000
0.675537 0.245595 0.000000
0.789611 0.244596 0.000000
0.000000 0.363960 0.000000
0.015873 0.363931 0.000000
0.122859 0.363964 0.000000
0.231413 0.364041 0.000000
0.341598 0.364147 0.000000
0.453469 0.364273 0.000000
0.567077 0.364408 0.000000
0.682464 0.364547 0.000000
0.799673 0.364681 0.000000
0.000000 0.482288 0.000000
0.005833 0.483514 0.000000
0.115462 0.484781 0.000000
0.226785 0.486079 0.000000
0.339848 0.487399 0.000000
0.454695 0.488733 0.000000
0.571366 0.490074 0.000000
0.689896 0.491416 0.000000
0.810320 0.492755 0.000000
0.000000 0.608606 0.000000
0.000000 0.611122 0.000000
0.107733 0.613668 0.000000
0.221978 0.616238 0.000000
0.338052 0.618825 0.000000
0.455990 0.621423 0.000000
0.575825 0.624027 0.000000
0.697588 0.626632 0.000000
0.821309 0.629233 0.000000
0.000000 0.743305 0.000000
0.000000 0.747149 0.000000
0.099578 0.751017 0.000000
0.216874 0.754905 0.000000
0.336072 0.758806 0.000000
0.457202 0.762717 0.000000
0.575981 0.759666 0.000000
0.694453 0.755987 0.000000
0.812926 0.752309 0.000000
0.000000 0.886724 0.000000
0.000000 0.891933 0.000000
0.090725 0.894653 0.000000
0.209197 0.890975 0.000000
0.327670 0.887296 0.000000
0.446142 0.883618 0.000000
0.564614 0.879939 0.000000
0.683086 0.876261 0.000000
0.801558 0.872583 0.000000
0.000000 0.000000 0.074117
0.053796 0.000000 0.070289
0.156522 0.000000 0.066461
0.259248 0.000000 0.062632
0.361974 0.000000 0.058804
0.464700 0.000000 0.054976
0.567426 0.000000 0.051148
0.670152 0.000000 0.047320
0.772878 0.000000 0.043492
0.000000 0.049265 0.061239
0.043940 0.046185 0.057411
0.146666 0.043106 0.053583
0.249392 0.040026 0.049755
0.352118 0.036946 0.045926
0.454844 0.033867 0.042098
0.559148 0.030898 0.038353
0.665688 0.027995 0.034657
0.773864 0.025072 0.030947
0.000000 0.149959 0.048361
0.034084 0.146879 0.044533
0.136834 0.143832 0.040710
0.240653 0.141553 0.037008
0.345788 0.139440 0.033309
0.452345 0.137383 0.029590
0.560416 0.135350 0.025843
0.670076 0.133319 0.022062
0.781387 0.131279 0.018245
0.000000 0.252762 0.035663
0.024531 0.251504 0.031958
0.129355 0.250361 0.028230
0.235583 0.249286 0.024471
0.343312 0.248255 0.020677
0.452616 0.247248 0.016845
0.563562 0.246251 0.012972
0.676204 0.245256 0.009056
0.790591 0.244254 0.005095
0.000000 0.363942 0.023094
0.014881 0.363937 0.019287
0.122124 0.363986 0.015440
0.230949 0.364074 0.011551
0.341418 0.364188 0.007619
0.453584 0.364318 0.003641
0.567496 0.364455 0.000000
0.683197 0.364593 0.000000
0.800726 0.364724 0.000000
0.000000 0.482699 0.010125
0.004792 0.483940 0.006176
0.114699 0.485219 0.002181
0.226310 0.486526 0.000000
0.339672 0.487851 0.000000
0.454826 0.489187 0.000000
0.571811 0.490530 0.000000
0.690664 0.491871 0.000000
0.811417 0.493208 0.000000
0.000000 0.609456 0.000000
0.000000 0.611983 0.000000
0.106930 0.614538 0.000000
0.221478 0.617115 0.000000
0.337862 0.619706 0.000000
0.456118 0.622307 0.000000
0.576277 0.624912 0.000000
0.698372 0.627515 0.000000
0.822430 0.630114 0.000000
0.000000 0.744607 0.000000
0.000000 0.748460 0.000000
0.098728 0.752335 0.000000
0.216338 0.756228 0.000000
0.335858 0.760134 0.000000
0.456361 0.762095 0.000000
0.574834 0.758416 0.000000
0.693306 0.754738 0.000000
0.811778 0.751060 0.000000
0.000000 0.888490 0.000000
0.000000 0.893706 0.000000
0.089578 0.893404 0.000000
0.208050 0.889725 0.000000
0.326522 0.886047 0.000000
0.444994 0.882369 0.000000
0.563466 0.878690 0.000000
0.681939 0.875012 0.000000
0.800411 0.871333 0.000000
0.000000 0.000000 0.210863
0.052801 0.000000 0.207035
0.155527 0.000000 0.203207
0.258253 0.000000 0.199379
0.360979 0.000000 0.195551
0.463705 0.000000 0.191723
0.566431 0.000000 0.187895
0.669157 0.000000 0.184067
0.771883 0.000000 0.180239
0.000000 0.048219 0.197985
0.042945 0.045139 0.194157
0.145671 0.042060 0.190329
0.248397 0.038980 0.186501
0.351123 0.035901 0.182673
0.453896 0.032825 0.178859
0.559100 0.029913 0.175625
0.665997 0.027005 0.172519
0.774506 0.024072 0.169458
0.000000 0.148913 0.185107
0.033089 0.145834 0.181279
0.136015 0.143021 0.177651
0.240090 0.140825 0.174486
0.345486 0.138737 0.171402
0.452319 0.136691 0.168349
0.560679 0.134661 0.165308
0.670638 0.132628 0.162265
0.782258 0.130583 0.159212
0.000000 0.252317 0.173358
0.023572 0.251106 0.170288
0.128626 0.249990 0.167241
0.235107 0.248932 0.164200
0.343104 0.247911 0.161155
0.452692 0.246909 0.158097
0.563932 0.245914 0.155021
0.676879 0.244917 0.151923
0.791580 0.243911 0.148798
0.000000 0.363933 0.163093
0.013884 0.363948 0.160043
0.121386 0.364012 0.156980
0.230485 0.364110 0.153896
0.341239 0.364231 0.150788
0.453702 0.364364 0.147653
0.567919 0.364502 0.144487
0.683934 0.364638 0.141287
0.801785 0.364767 0.138052
0.000000 0.483116 0.152768
0.003746 0.484371 0.149650
0.113932 0.485660 0.146504
0.225833 0.486974 0.143326
0.339495 0.488304 0.140114
0.454957 0.489643 0.136865
0.572258 0.490986 0.133578
0.691434 0.492326 0.130251
0.812518 0.493659 0.126882
0.000000 0.610311 0.142160
0.000000 0.612848 0.138935
0.106123 0.615411 0.135673
0.220975 0.617994 0.132371
0.337670 0.620589 0.129029
0.456245 0.623191 0.125645
0.576730 0.625796 0.122217
0.699157 0.628399 0.118743
0.821998 0.629537 0.115051
0.000000 0.745913 0.131160
0.000000 0.749774 0.127802
0.097873 0.753656 0.124402
0.215799 0.757554 0.120957
0.335640 0.761462 0.117467
0.455214 0.760846 0.113494
0.573686 0.757167 0.109217
0.692158 0.753489 0.104940
0.810631 0.749810 0.100662
0.000000 0.890259 0.119692
0.000000 0.895483 0.116185
0.088430 0.892155 0.111937
0.206902 0.888476 0.107660
0.325375 0.884798 0.103383
0.443847 0.881119 0.099105
0.562319 0.877441 0.094828
0.680791 0.873763 0.090551
0.799263 0.870084 0.086274
0.000000 0.000000 0.347610
0.051806 0.000000 0.343782
0.154532 0.000000 0.339954
0.257258 0.000000 0.336126
0.359984 0.000000 0.332297
0.462710 0.000000 0.328469
0.565436 0.000000 0.324641
0.668162 0.000000 0.320813
0.770919 0.000000 0.316995
0.000000 0.047173 0.334732
0.041950 0.044093 0.330904
0.144676 0.041014 0.327076
0.247402 0.037934 0.323248
0.350128 0.034855 0.319420
0.453473 0.031830 0.315922
0.559113 0.028927 0.313281
0.666345 0.026013 0.310814
0.775180 0.023068 0.308434
0.000000 0.147867 0.321854
0.032094 0.144788 0.318026
0.135230 0.142255 0.314929
0.239545 0.140109 0.312369
0.345200 0.138039 0.309940
0.452308 0.136001 0.307583
0.560956 0.133971 0.305271
0.671214 0.131935 0.302985
0.783143 0.129883 0.300715
0.000000 0.251892 0.311474
0.022611 0.250718 0.309075
0.127899 0.249625 0.306737
0.234634 0.248582 0.304436
0.342902 0.247569 0.302158
0.452774 0.246570 0.299891
0.564310 0.245576 0.297626
0.677562 0.244577 0.295359
0.792577 0.243566 0.293082
0.000000 0.363931 0.303605
0.012883 0.363965 0.301332
0.120647 0.364042 0.299066
0.230021 0.364149 0.296801
0.341062 0.364275 0.294531
0.453822 0.364411 0.292250
0.568346 0.364549 0.289954
0.684675 0.364683 0.287639
0.802849 0.364807 0.285303
0.000000 0.483538 0.295976
0.002694 0.484806 0.293702
0.113162 0.486104 0.291416
0.225354 0.487424 0.289114
0.339316 0.488758 0.286791
0.455088 0.490099 0.284446
0.572707 0.491441 0.282075
0.692207 0.492780 0.279677
0.813621 0.494110 0.277247
0.000000 0.611169 0.288271
0.000000 0.613716 0.285940
0.105311 0.616287 0.283586
0.220468 0.618874 0.281205
0.337477 0.621472 0.278796
0.456371 0.624076 0.276355
0.577183 0.626680 0.273881
0.699942 0.629281 0.271372
0.820850 0.628287 0.267841
0.000000 0.747221 0.280332
0.000000 0.751090 0.277911
0.097014 0.754978 0.275458
0.215256 0.758880 0.272972
0.335420 0.762791 0.270450
0.454066 0.759596 0.266284
0.572539 0.755918 0.262006
0.691011 0.752240 0.257729
0.809483 0.748561 0.253452
0.000000 0.892031 0.272058
0.000000 0.894584 0.269004
0.087283 0.890905 0.264726
0.205755 0.887227 0.260449
0.324227 0.883549 0.256172
0.442699 0.879870 0.251895
0.561171 0.876192 0.247618
0.679644 0.872513 0.243340
0.798116 0.868835 0.239063
0.000000 0.000000 0.484356
0.050811 0.000000 0.480528
0.153537 0.000000 0.476700
0.256263 0.000000 0.472872
0.358989 0.000000 0.469044
0.461715 0.000000 0.465216
0.564441 0.000000 0.461388
0.667167 0.000000 0.457560
0.770865 0.000000 0.454171
0.000000 0.046127 0.471478
0.040955 0.043048 0.467650
0.143681 0.039968 0.463822
0.246407 0.036888 0.459994
0.349133 0.033809 0.456166
0.453179 0.030843 0.453350
0.559174 0.027940 0.451351
0.666729 0.025017 0.449558
0.775885 0.022059 0.447890
0.000000 0.146822 0.458601
0.031106 0.143785 0.454854
0.134462 0.141512 0.452589
0.239014 0.139400 0.450680
0.344927 0.137345 0.448939
0.452311 0.135312 0.447304
0.561247 0.133281 0.445743
0.671805 0.131241 0.444234
0.784044 0.129181 0.442762
0.000000 0.251481 0.450031
0.021647 0.250340 0.448334
0.127171 0.249267 0.446729
0.234163 0.248236 0.445188
0.342704 0.247229 0.443694
0.452862 0.246233 0.442233
0.564694 0.245238 0.440794
0.678253 0.244235 0.439370
0.793583 0.243219 0.437954
0.000000 0.363937 0.444640
0.011877 0.363987 0.443159
0.119904 0.364076 0.441707
0.229555 0.364191 0.440275
0.340885 0.364321 0.438854
0.453944 0.364458 0.437439
0.568775 0.364595 0.436023
0.685421 0.364727 0.434603
0.803918 0.364846 0.433175
0.000000 0.483964 0.439756
0.001636 0.485244 0.438338
0.112387 0.486550 0.436923
0.224873 0.487876 0.435507
0.339137 0.489213 0.434084
0.455220 0.490555 0.432652
0.573156 0.491897 0.431205
0.692981 0.493233 0.429743
0.814727 0.494559 0.428261
0.000000 0.612031 0.434990
0.000000 0.614587 0.433564
0.104495 0.617164 0.432127
0.219958 0.619755 0.430675
0.337281 0.622356 0.429206
0.456496 0.624961 0.427716
0.577635 0.627564 0.426204
0.700728 0.630163 0.424667
0.819703 0.627038 0.420630
0.000000 0.748532 0.430142
0.000000 0.752408 0.428666
0.096149 0.756302 0.427168
0.214709 0.760207 0.425647
0.334447 0.762026 0.423350
0.452919 0.758347 0.419073
0.571391 0.754669 0.414796
0.689863 0.750990 0.410519
0.808335 0.747312 0.406241
0.000000 0.893805 0.425087
0.000000 0.893335 0.421793
0.086135 0.889656 0.417516
0.204607 0.885978 0.413239
0.323080 0.882299 0.408961
0.441552 0.878621 0.404684
0.560024 0.874943 0.400407
0.678496 0.871264 0.396130
0.796968 0.867586 0.391853
0.000000 0.000000 0.621103
0.049816 0.000000 0.617275
0.152542 0.000000 0.613447
0.255268 0.000000 0.609619
0.357994 0.000000 0.605791
0.460720 0.000000 0.601963
0.563446 0.000000 0.598134
0.666172 0.000000 0.594306
0.771054 0.000000 0.591746
0.000000 0.045081 0.608225
0.039960 0.042002 0.604397
0.142686 0.038922 0.600569
0.245412 0.035843 0.596741
0.348193 0.032770 0.592984
0.452954 0.029858 0.591175
0.559274 0.026950 0.589856
0.667143 0.024017 0.588770
0.776617 0.021045 0.587836
0.000000 0.145776 0.595347
0.030150 0.142977 0.592223
0.133706 0.140785 0.590660
0.238495 0.138698 0.589439
0.344667 0.136653 0.588415
0.452326 0.134623 0.587525
0.561551 0.132590 0.586734
0.672409 0.130544 0.586018
0.784957 0.128476 0.585360
0.000000 0.251084 0.589048
0.020679 0.249969 0.588078
0.126443 0.248913 0.587227
0.233695 0.247892 0.586466
0.342510 0.246890 0.585773
0.452954 0.245895 0.585132
0.565085 0.244898 0.584532
0.678951 0.243892 0.583964
0.794597 0.242869 0.583418
0.000000 0.363949 0.586206
0.010866 0.364014 0.585534
0.119160 0.364113 0.584910
0.229090 0.364233 0.584322
0.340709 0.364367 0.583763
0.454068 0.364505 0.583224
0.569208 0.364641 0.582699
0.686170 0.364769 0.582183
0.804992 0.364884 0.581671
0.000000 0.484395 0.584116
0.000574 0.485685 0.583564
0.111609 0.486999 0.583031
0.224390 0.488329 0.582511
0.338957 0.489668 0.581997
0.455351 0.491011 0.581485
0.573607 0.492351 0.580972
0.693758 0.493684 0.580454
0.815836 0.495006 0.579927
0.000000 0.612896 0.582323
0.000000 0.615460 0.581810
0.103674 0.618042 0.581299
0.219445 0.620638 0.580784
0.337082 0.623240 0.580263
0.456619 0.625845 0.579732
0.578087 0.628448 0.579189
0.700083 0.629467 0.577697
0.818555 0.625789 0.573420
0.000000 0.749847 0.580595
0.000000 0.753729 0.580071
0.095279 0.757627 0.579536
0.214157 0.761535 0.578987
0.333299 0.760776 0.576140
0.451771 0.757098 0.571862
0.570244 0.753420 0.567585
0.688716 0.749741 0.563308
0.807188 0.746063 0.559031
0.000000 0.895581 0.578784
0.000000 0.892085 0.574582
0.084988 0.888407 0.570305
0.203460 0.884729 0.566028
0.321932 0.881050 0.561751
0.440404 0.877372 0.557474
0.558876 0.873693 0.553196
0.677349 0.870015 0.548919
0.795821 0.866337 0.544642
0.000000 0.000000 0.757850
0.048821 0.000000 0.754021
0.151547 0.000000 0.750193
0.254273 0.000000 0.746365
0.356999 0.000000 0.742537
0.459725 0.000000 0.738709
0.562451 0.000000 0.734881
0.665236 0.000000 0.731102
0.771365 0.000000 0.729734
0.000000 0.044036 0.744972
0.038965 0.040956 0.741144
0.141691 0.037876 0.737315
0.244417 0.034797 0.733487
0.347645 0.031775 0.730468
0.452777 0.028872 0.729422
0.559407 0.025958 0.728816
0.667585 0.023012 0.728462
0.777373 0.020026 0.728286
0.000000 0.144730 0.732094
0.029200 0.142213 0.730012
0.132959 0.140069 0.729165
0.237986 0.138001 0.728663
0.344418 0.135963 0.728381
0.452353 0.133933 0.728257
0.561867 0.131897 0.728254
0.673026 0.129845 0.728347
0.785884 0.127768 0.728517
0.000000 0.250697 0.728539
0.019707 0.249605 0.728319
0.125715 0.248563 0.728243
0.233228 0.247550 0.728278
0.342319 0.246552 0.728401
0.453052 0.245557 0.728595
0.565481 0.244558 0.728846
0.679655 0.243547 0.729145
0.795619 0.242517 0.729481
0.000000 0.363966 0.728313
0.009850 0.364044 0.728464
0.118412 0.364152 0.728680
0.228622 0.364278 0.728950
0.340534 0.364414 0.729263
0.454193 0.364552 0.729611
0.569643 0.364686 0.729987
0.686924 0.364810 0.730385
0.806070 0.364919 0.730798
0.000000 0.484830 0.729059
0.000000 0.486129 0.729386
0.110827 0.487449 0.729745
0.223903 0.488783 0.730130
0.338776 0.490124 0.730534
0.455482 0.491466 0.730952
0.574058 0.492805 0.731380
0.694536 0.494135 0.731813
0.816947 0.495452 0.732248
0.000000 0.613764 0.730275
0.000000 0.616335 0.730684
0.102848 0.618923 0.731107
0.218928 0.621521 0.731537
0.336881 0.624125 0.731972
0.456741 0.626729 0.732407
0.578538 0.629330 0.732839
0.698935 0.628218 0.730486
0.817408 0.624540 0.726209
0.000000 0.751163 0.731695
0.000000 0.755051 0.732130
0.094403 0.758953 0.732564
0.213601 0.762864 0.732995
0.332152 0.759527 0.728929
0.450624 0.755849 0.724652
0.569096 0.752170 0.720375
0.687568 0.748492 0.716098
0.806040 0.744814 0.711820
0.000000 0.894515 0.731649
0.000000 0.890836 0.727372
0.083840 0.887158 0.723095
0.202312 0.883479 0.718818
0.320784 0.879801 0.714540
0.439257 0.876123 0.710263
0.557729 0.872444 0.705986
0.676201 0.868766 0.701709
0.794673 0.865087 0.697432
0.000000 0.000000 0.894596
0.047826 0.000000 0.890768
0.150552 0.000000 0.886940
0.253278 0.000000 0.883112
0.356004 0.000000 0.879284
0.458730 0.000000 0.875456
0.561456 0.000000 0.871628
0.665074 0.000000 0.868692
0.771762 0.000000 0.868157
0.000000 0.042990 0.881718
0.037970 0.039910 0.877890
0.140696 0.036831 0.874062
0.243422 0.033751 0.870234
0.347191 0.030789 0.868404
0.452637 0.027885 0.868113
0.559569 0.024961 0.868245
0.668052 0.022003 0.868649
0.778153 0.019002 0.869250
0.000000 0.143738 0.869036
0.028250 0.141472 0.868232
0.132217 0.139361 0.868123
0.237484 0.137307 0.868365
0.344178 0.135274 0.868847
0.452390 0.133243 0.869509
0.562194 0.131202 0.870311
0.673654 0.129142 0.871228
0.786822 0.127056 0.872239
0.000000 0.250319 0.868517
0.018731 0.249247 0.869070
0.124986 0.248217 0.869786
0.232762 0.247210 0.870633
0.342131 0.246214 0.871586
0.453153 0.245219 0.872627
0.565882 0.244216 0.873742
0.680366 0.243200 0.874919
0.796647 0.242163 0.876147
0.000000 0.363989 0.870969
0.008829 0.364078 0.871956
0.117661 0.364193 0.873025
0.228154 0.364323 0.874164
0.340359 0.364461 0.875361
0.454320 0.364598 0.876606
0.570081 0.364729 0.877892
0.687680 0.364849 0.879211
0.807153 0.364952 0.880559
0.000000 0.485268 0.874594
0.000000 0.486575 0.875809
0.110041 0.487901 0.877070
0.223415 0.489238 0.878369
0.338593 0.490580 0.879699
0.455613 0.491922 0.881055
0.574510 0.493258 0.882432
0.695315 0.494584 0.883825
0.818061 0.495896 0.885230
0.000000 0.614635 0.878850
0.000000 0.617212 0.880190
0.102018 0.619804 0.881554
0.218407 0.622405 0.882938
0.336678 0.625010 0.884335
0.456862 0.627613 0.885743
0.578989 0.630212 0.887158
0.697788 0.626969 0.883276
0.816260 0.623291 0.878999
0.000000 0.752482 0.883445
0.000000 0.756375 0.884847
0.093523 0.760281 0.886257
0.212532 0.761956 0.885996
0.331004 0.758278 0.881719
0.449476 0.754600 0.877441
0.567949 0.750921 0.873164
0.686421 0.747243 0.868887
0.804893 0.743564 0.864610
0.000000 0.893265 0.884439
0.000000 0.889587 0.880161
0.082693 0.885909 0.875884
0.201165 0.882230 0.871607
0.319637 0.878552 0.867330
0.438109 0.874873 0.863053
0.556581 0.871195 0.858775
0.675054 0.867517 0.854498
0.793526 0.863838 0.850221
0.000000 0.000000 1.000000
0.046831 0.000000 1.000000
0.149557 0.000000 1.000000
0.252283 0.000000 1.000000
0.355009 0.000000 1.000000
0.457735 0.000000 1.000000
0.560461 0.000000 1.000000
0.665107 0.000000 1.000000
0.772226 0.000000 1.000000
0.000000 0.041944 1.000000
0.036975 0.038864 1.000000
0.139701 0.035785 1.000000
0.242479 0.032714 1.000000
0.346787 0.029803 1.000000
0.452528 0.026895 1.000000
0.559755 0.023961 1.000000
0.668542 0.020989 1.000000
0.778953 0.017972 1.000000
0.000000 0.142934 1.000000
0.027301 0.140745 1.000000
0.131480 0.138660 1.000000
0.236990 0.136615 1.000000
0.343946 0.134584 1.000000
0.452436 0.132552 1.000000
0.562531 0.130505 1.000000
0.674292 0.128437 1.000000
0.787772 0.126341 1.000000
0.000000 0.249949 1.000000
0.017752 0.248893 1.000000
0.124255 0.247873 1.000000
0.232297 0.246871 1.000000
0.341945 0.245876 1.000000
0.453259 0.244880 1.000000
0.566289 0.243873 1.000000
0.681083 0.242850 1.000000
0.797682 0.241805 1.000000
0.000000 0.364015 1.000000
0.007803 0.364115 1.000000
0.116908 0.364236 1.000000
0.227685 0.364370 1.000000
0.340183 0.364508 1.000000
0.454448 0.364643 1.000000
0.570522 0.364771 1.000000
0.688440 0.364886 1.000000
0.808239 0.364982 1.000000
0.000000 0.485709 1.000000
0.000000 0.487024 1.000000
0.109251 0.488354 1.000000
0.222923 0.489693 1.000000
0.338408 0.491036 1.000000
0.455743 0.492376 1.000000
0.574962 0.493709 1.000000
0.696096 0.495031 1.000000
0.819177 0.496337 1.000000
0.000000 0.615508 1.000000
0.000000 0.618091 1.000000
0.101183 0.620687 1.000000
0.217883 0.623289 1.000000
0.336472 0.625894 1.000000
0.456981 0.628497 1.000000
0.578168 0.629398 1.000000
0.696640 0.625720 1.000000
0.815113 0.622041 1.000000
0.000000 0.753802 1.000000
0.000000 0.757700 1.000000
0.092637 0.761609 1.000000
0.211384 0.760707 1.000000
0.329857 0.757029 1.000000
0.448329 0.753350 1.000000
0.566801 0.749672 1.000000
0.685273 0.745994 1.000000
0.803745 0.742315 1.000000
0.000000 0.892016 1.000000
0.000000 0.888338 1.000000
0.081545 0.884659 1.000000
0.200017 0.880981 1.000000
0.318489 0.877303 1.000000
0.436962 0.873624 1.000000
0.555434 0.869946 1.000000
0.673906 0.866267 1.000000
0.792378 0.862589 1.000000
