assets/lighting/cinematic/grade-sunrise-peach/lut.cube
TITLE "Sunrise Peach"
# TKRS lighting-batch-001 original LUT
# Intended usage: early sunrise peach-pink highlights
# License: CC0-1.0
LUT_3D_SIZE 17
DOMAIN_MIN 0.0 0.0 0.0
DOMAIN_MAX 1.0 1.0 1.0
0.000000 0.000000 0.000000
0.025578 0.000000 0.000000
0.081356 0.000000 0.000000
0.137134 0.000000 0.000000
0.192911 0.000000 0.000000
0.248689 0.000000 0.000000
0.304467 0.000000 0.000000
0.360245 0.000000 0.000000
0.416023 0.000000 0.000000
0.471801 0.000000 0.000000
0.527578 0.000000 0.000000
0.583356 0.000000 0.000000
0.639134 0.000000 0.000000
0.694912 0.000000 0.000000
0.750690 0.000000 0.000000
0.806468 0.000000 0.000000
0.862246 0.000000 0.000000
0.000000 0.017521 0.000000
0.021618 0.016220 0.000000
0.077395 0.014920 0.000000
0.133173 0.013620 0.000000
0.188951 0.012320 0.000000
0.244729 0.011020 0.000000
0.300507 0.009720 0.000000
0.356285 0.008419 0.000000
0.412063 0.007119 0.000000
0.467840 0.005819 0.000000
0.523618 0.004519 0.000000
0.579396 0.003219 0.000000
0.635174 0.001919 0.000000
0.690952 0.000619 0.000000
0.747434 0.000000 0.000000
0.806633 0.000000 0.000000
0.866961 0.000000 0.000000
0.000000 0.065241 0.000000
0.017657 0.063941 0.000000
0.073435 0.062641 0.000000
0.129213 0.061341 0.000000
0.184991 0.060041 0.000000
0.240769 0.058740 0.000000
0.296547 0.057440 0.000000
0.352324 0.056140 0.000000
0.408102 0.054840 0.000000
0.463880 0.053540 0.000000
0.519658 0.052240 0.000000
0.576073 0.050972 0.000000
0.634595 0.049791 0.000000
0.694101 0.048625 0.000000
0.754501 0.047464 0.000000
0.815777 0.046303 0.000000
0.877933 0.045140 0.000000
0.000000 0.112962 0.000000
0.013697 0.111662 0.000000
0.069475 0.110361 0.000000
0.125253 0.109061 0.000000
0.181031 0.107761 0.000000
0.236809 0.106461 0.000000
0.292586 0.105161 0.000000
0.348364 0.103861 0.000000
0.404658 0.102635 0.000000
0.462483 0.101583 0.000000
0.521159 0.100565 0.000000
0.580649 0.099565 0.000000
0.640959 0.098575 0.000000
0.702100 0.097592 0.000000
0.764087 0.096612 0.000000
0.826936 0.095634 0.000000
0.890662 0.094655 0.000000
0.000000 0.160682 0.000000
0.009737 0.159382 0.000000
0.065515 0.158082 0.000000
0.121293 0.156782 0.000000
0.177070 0.155482 0.000000
0.233185 0.154309 0.000000
0.290298 0.153387 0.000000
0.348135 0.152520 0.000000
0.406710 0.151682 0.000000
0.466047 0.150864 0.000000
0.526170 0.150061 0.000000
0.587100 0.149267 0.000000
0.648858 0.148481 0.000000
0.711462 0.147699 0.000000
0.774929 0.146921 0.000000
0.839276 0.146144 0.000000
0.904516 0.145368 0.000000
0.000000 0.208403 0.000000
0.005777 0.207103 0.000000
0.061654 0.205993 0.000000
0.118038 0.205205 0.000000
0.175028 0.204488 0.000000
0.232681 0.203814 0.000000
0.291042 0.203169 0.000000
0.350142 0.202546 0.000000
0.410012 0.201939 0.000000
0.470675 0.201346 0.000000
0.532155 0.200762 0.000000
0.594472 0.200186 0.000000
0.657643 0.199616 0.000000
0.721685 0.199050 0.000000
0.786615 0.198487 0.000000
0.852446 0.197926 0.000000
0.919192 0.197366 0.000000
0.000000 0.257036 0.000000
0.001837 0.256472 0.000000
0.058564 0.255962 0.000000
0.115942 0.255491 0.000000
0.174017 0.255048 0.000000
0.232823 0.254629 0.000000
0.292389 0.254229 0.000000
0.352743 0.253843 0.000000
0.413906 0.253470 0.000000
0.475899 0.253107 0.000000
0.538741 0.252752 0.000000
0.602449 0.252404 0.000000
0.667039 0.252061 0.000000
0.732526 0.251722 0.000000
0.798923 0.251386 0.000000
0.866245 0.251052 0.000000
0.934502 0.250720 0.000000
0.000000 0.307828 0.000000
0.000000 0.307568 0.000000
0.055532 0.307337 0.000000
0.113999 0.307130 0.000000
0.173223 0.306943 0.000000
0.233231 0.306773 0.000000
0.294044 0.306617 0.000000
0.355683 0.306474 0.000000
0.418168 0.306340 0.000000
0.481515 0.306216 0.000000
0.545741 0.306098 0.000000
0.610860 0.305987 0.000000
0.676886 0.305880 0.000000
0.743833 0.305778 0.000000
0.811714 0.305678 0.000000
0.880539 0.305580 0.000000
0.950321 0.305484 0.000000
0.000000 0.360049 0.000000
0.000000 0.360061 0.000000
0.052447 0.360095 0.000000
0.112077 0.360147 0.000000
0.172513 0.360215 0.000000
0.233772 0.360297 0.000000
0.295875 0.360391 0.000000
0.358837 0.360495 0.000000
0.422676 0.360608 0.000000
0.487406 0.360729 0.000000
0.553041 0.360857 0.000000
0.619594 0.360990 0.000000
0.687078 0.361128 0.000000
0.755505 0.361269 0.000000
0.824886 0.361414 0.000000
0.895232 0.361560 0.000000
0.966554 0.361709 0.000000
0.000000 0.413695 0.000000
0.000000 0.413976 0.000000
0.049261 0.414273 0.000000
0.110117 0.414586 0.000000
0.171815 0.414912 0.000000
0.234372 0.415250 0.000000
0.297804 0.415599 0.000000
0.362125 0.415957 0.000000
0.427350 0.416324 0.000000
0.493492 0.416697 0.000000
0.560562 0.417076 0.000000
0.628574 0.417461 0.000000
0.697538 0.417850 0.000000
0.767465 0.418243 0.000000
0.838366 0.418639 0.000000
0.910251 0.419037 0.000000
0.983129 0.419437 0.000000
0.000000 0.468801 0.000000
0.000000 0.469350 0.000000
0.045947 0.469913 0.000000
0.108080 0.470490 0.000000
0.171086 0.471079 0.000000
0.234981 0.471679 0.000000
0.299779 0.472288 0.000000
0.365492 0.472905 0.000000
0.432133 0.473530 0.000000
0.499714 0.474162 0.000000
0.568246 0.474800 0.000000
0.637740 0.475442 0.000000
0.708207 0.476089 0.000000
0.779655 0.476739 0.000000
0.852096 0.477393 0.000000
0.925537 0.478049 0.000000
0.999989 0.478707 0.000000
0.000000 0.525402 0.000000
0.000000 0.526222 0.000000
0.042487 0.527055 0.000000
0.105940 0.527901 0.000000
0.170294 0.528756 0.000000
0.235564 0.529622 0.000000
0.301761 0.530497 0.000000
0.368897 0.531379 0.000000
0.436983 0.532269 0.000000
0.506030 0.533164 0.000000
0.576048 0.534066 0.000000
0.647047 0.534972 0.000000
0.719038 0.535882 0.000000
0.792028 0.536796 0.000000
0.866027 0.537713 0.000000
0.941043 0.538632 0.000000
1.000000 0.539554 0.000000
0.000000 0.583535 0.000000
0.000000 0.584630 0.000000
0.038866 0.585736 0.000000
0.103677 0.586854 0.000000
0.169416 0.587981 0.000000
0.236093 0.589118 0.000000
0.303719 0.590262 0.000000
0.372306 0.591415 0.000000
0.441864 0.592574 0.000000
0.512402 0.593739 0.000000
0.583930 0.594909 0.000000
0.656457 0.596084 0.000000
0.729992 0.597263 0.000000
0.804544 0.598446 0.000000
0.880121 0.599632 0.000000
0.956730 0.600820 0.000000
1.000000 0.602011 0.000000
0.000000 0.643233 0.000000
0.000000 0.644606 0.000000
0.035071 0.645990 0.000000
0.101276 0.647384 0.000000
0.168431 0.648787 0.000000
0.236546 0.650199 0.000000
0.305630 0.651619 0.000000
0.375695 0.653046 0.000000
0.446750 0.654479 0.000000
0.518802 0.655918 0.000000
0.591863 0.657362 0.000000
0.665939 0.658811 0.000000
0.741039 0.660264 0.000000
0.817171 0.661720 0.000000
0.894344 0.663180 0.000000
0.972564 0.664642 0.000000
1.000000 0.666107 0.000000
0.000000 0.704528 0.000000
0.000000 0.706183 0.000000
0.031092 0.707848 0.000000
0.098723 0.709522 0.000000
0.167324 0.711206 0.000000
0.236904 0.712898 0.000000
0.307474 0.714597 0.000000
0.379042 0.716302 0.000000
0.451616 0.718015 0.000000
0.525206 0.719732 0.000000
0.599820 0.721455 0.000000
0.675465 0.723182 0.000000
0.752150 0.724914 0.000000
0.829882 0.726648 0.000000
0.908668 0.728386 0.000000
0.988515 0.730127 0.000000
1.000000 0.731512 0.000000
0.000000 0.767449 0.000000
0.000000 0.769390 0.000000
0.026921 0.771340 0.000000
0.096006 0.773299 0.000000
0.166081 0.775267 0.000000
0.237153 0.777242 0.000000
0.309232 0.779225 0.000000
0.382326 0.781214 0.000000
0.456444 0.783209 0.000000
0.531592 0.785210 0.000000
0.607780 0.787215 0.000000
0.685014 0.789225 0.000000
0.763302 0.791239 0.000000
0.841733 0.792705 0.000000
0.915611 0.791164 0.000000
0.989489 0.789623 0.000000
1.000000 0.788081 0.000000
0.000000 0.832026 0.000000
0.000000 0.834255 0.000000
0.022549 0.836494 0.000000
0.093117 0.838742 0.000000
0.164690 0.840997 0.000000
0.237279 0.843261 0.000000
0.310891 0.845530 0.000000
0.385533 0.847807 0.000000
0.461215 0.850089 0.000000
0.537942 0.852376 0.000000
0.614854 0.853898 0.000000
0.688732 0.852357 0.000000
0.762610 0.850816 0.000000
0.836488 0.849275 0.000000
0.910366 0.847733 0.000000
0.984244 0.846192 0.000000
1.000000 0.844651 0.000000
0.000000 0.000000 0.018863
0.025211 0.000000 0.017413
0.080988 0.000000 0.015962
0.136766 0.000000 0.014511
0.192544 0.000000 0.013060
0.248322 0.000000 0.011609
0.304100 0.000000 0.010158
0.359878 0.000000 0.008708
0.415656 0.000000 0.007257
0.471433 0.000000 0.005806
0.527211 0.000000 0.004355
0.582989 0.000000 0.002904
0.638767 0.000000 0.001453
0.694545 0.000000 0.000003
0.750323 0.000000 0.000000
0.806100 0.000000 0.000000
0.861878 0.000000 0.000000
0.000000 0.017153 0.014444
0.021250 0.015853 0.012993
0.077028 0.014553 0.011543
0.132806 0.013253 0.010092
0.188584 0.011953 0.008641
0.244362 0.010653 0.007190
0.300140 0.009352 0.005739
0.355917 0.008052 0.004288
0.411695 0.006752 0.002838
0.467473 0.005452 0.001387
0.523251 0.004152 0.000000
0.579029 0.002852 0.000000
0.634807 0.001551 0.000000
0.690585 0.000251 0.000000
0.747862 0.000000 0.000000
0.807343 0.000000 0.000000
0.867871 0.000000 0.000000
0.000000 0.064874 0.010025
0.017290 0.063574 0.008574
0.073068 0.062274 0.007123
0.128846 0.060973 0.005673
0.184624 0.059673 0.004222
0.240402 0.058373 0.002771
0.296179 0.057073 0.001320
0.351957 0.055773 0.000000
0.407735 0.054473 0.000000
0.463513 0.053173 0.000000
0.519291 0.051872 0.000000
0.576331 0.050636 0.000000
0.635079 0.049461 0.000000
0.694759 0.048297 0.000000
0.755317 0.047136 0.000000
0.816747 0.045975 0.000000
0.879053 0.044812 0.000000
0.000000 0.112594 0.005606
0.013330 0.111294 0.004155
0.069108 0.109994 0.002704
0.124886 0.108694 0.001253
0.180663 0.107394 0.000000
0.236441 0.106094 0.000000
0.292219 0.104794 0.000000
0.347997 0.103493 0.000000
0.404737 0.102332 0.000000
0.462740 0.101293 0.000000
0.521563 0.100281 0.000000
0.581194 0.099285 0.000000
0.641642 0.098297 0.000000
0.702922 0.097315 0.000000
0.765048 0.096336 0.000000
0.828038 0.095357 0.000000
0.891905 0.094378 0.000000
0.000000 0.160315 0.001187
0.009370 0.159015 0.000000
0.065148 0.157715 0.000000
0.120925 0.156415 0.000000
0.176703 0.155114 0.000000
0.233079 0.154040 0.000000
0.290323 0.153138 0.000000
0.348283 0.152280 0.000000
0.406981 0.151449 0.000000
0.466442 0.150636 0.000000
0.526692 0.149836 0.000000
0.587751 0.149044 0.000000
0.649641 0.148260 0.000000
0.712378 0.147479 0.000000
0.775981 0.146701 0.000000
0.840466 0.145925 0.000000
0.905846 0.145148 0.000000
0.000000 0.208036 0.000000
0.005409 0.206735 0.000000
0.061356 0.205760 0.000000
0.117829 0.204997 0.000000
0.174918 0.204294 0.000000
0.232677 0.203629 0.000000
0.291148 0.202991 0.000000
0.350364 0.202373 0.000000
0.410353 0.201771 0.000000
0.471139 0.201180 0.000000
0.532745 0.200599 0.000000
0.595189 0.200024 0.000000
0.658491 0.199456 0.000000
0.722667 0.198891 0.000000
0.787732 0.198329 0.000000
0.853701 0.197768 0.000000
0.920587 0.197208 0.000000
0.000000 0.256869 0.000000
0.001468 0.256323 0.000000
0.058283 0.255825 0.000000
0.115759 0.255363 0.000000
0.173937 0.254928 0.000000
0.232852 0.254514 0.000000
0.292532 0.254118 0.000000
0.353004 0.253737 0.000000
0.414288 0.253367 0.000000
0.476406 0.253006 0.000000
0.539375 0.252653 0.000000
0.603213 0.252307 0.000000
0.667935 0.251965 0.000000
0.733556 0.251627 0.000000
0.800091 0.251292 0.000000
0.867551 0.250958 0.000000
0.935949 0.250626 0.000000
0.000000 0.307751 0.000000
0.000000 0.307500 0.000000
0.055250 0.307276 0.000000
0.113821 0.307075 0.000000
0.173155 0.306893 0.000000
0.233277 0.306728 0.000000
0.294208 0.306576 0.000000
0.355968 0.306435 0.000000
0.418577 0.306304 0.000000
0.482051 0.306182 0.000000
0.546407 0.306066 0.000000
0.611657 0.305956 0.000000
0.677818 0.305851 0.000000
0.744902 0.305749 0.000000
0.812920 0.305650 0.000000
0.881886 0.305553 0.000000
0.951810 0.305457 0.000000
0.000000 0.360050 0.000000
0.000000 0.360068 0.000000
0.052156 0.360108 0.000000
0.111898 0.360164 0.000000
0.172448 0.360237 0.000000
0.233826 0.360322 0.000000
0.296050 0.360419 0.000000
0.359138 0.360526 0.000000
0.423104 0.360642 0.000000
0.487963 0.360765 0.000000
0.553730 0.360894 0.000000
0.620418 0.361028 0.000000
0.688038 0.361167 0.000000
0.756603 0.361310 0.000000
0.826124 0.361455 0.000000
0.896612 0.361602 0.000000
0.968077 0.361751 0.000000
0.000000 0.413773 0.000000
0.000000 0.414058 0.000000
0.048959 0.414360 0.000000
0.109932 0.414677 0.000000
0.171749 0.415007 0.000000
0.234429 0.415348 0.000000
0.297986 0.415699 0.000000
0.362435 0.416060 0.000000
0.427790 0.416428 0.000000
0.494064 0.416803 0.000000
0.561269 0.417184 0.000000
0.629417 0.417570 0.000000
0.698519 0.417961 0.000000
0.768587 0.418354 0.000000
0.839630 0.418751 0.000000
0.911658 0.419150 0.000000
0.984681 0.419550 0.000000
0.000000 0.468955 0.000000
0.000000 0.469508 0.000000
0.045633 0.470075 0.000000
0.107886 0.470655 0.000000
0.171016 0.471247 0.000000
0.235037 0.471850 0.000000
0.299963 0.472461 0.000000
0.365807 0.473081 0.000000
0.432581 0.473708 0.000000
0.500297 0.474342 0.000000
0.568965 0.474981 0.000000
0.638598 0.475624 0.000000
0.709205 0.476272 0.000000
0.780796 0.476924 0.000000
0.853380 0.477578 0.000000
0.926966 0.478234 0.000000
1.000000 0.478893 0.000000
0.000000 0.525633 0.000000
0.000000 0.526456 0.000000
0.042159 0.527293 0.000000
0.105736 0.528141 0.000000
0.170217 0.529000 0.000000
0.235616 0.529868 0.000000
0.301944 0.530745 0.000000
0.369213 0.531630 0.000000
0.437434 0.532521 0.000000
0.506619 0.533418 0.000000
0.576776 0.534321 0.000000
0.647916 0.535228 0.000000
0.720049 0.536140 0.000000
0.793183 0.537055 0.000000
0.867327 0.537972 0.000000
0.942491 0.538892 0.000000
1.000000 0.539814 0.000000
0.000000 0.583843 0.000000
0.000000 0.584941 0.000000
0.038521 0.586051 0.000000
0.103461 0.587171 0.000000
0.169329 0.588301 0.000000
0.236138 0.589440 0.000000
0.303899 0.590587 0.000000
0.372622 0.591741 0.000000
0.442317 0.592902 0.000000
0.512995 0.594069 0.000000
0.584664 0.595240 0.000000
0.657334 0.596417 0.000000
0.731013 0.597597 0.000000
0.805711 0.598781 0.000000
0.881435 0.599967 0.000000
0.958193 0.601156 0.000000
1.000000 0.602347 0.000000
0.000000 0.643619 0.000000
0.000000 0.644995 0.000000
0.034710 0.646382 0.000000
0.101046 0.647779 0.000000
0.168333 0.649185 0.000000
0.236583 0.650599 0.000000
0.305805 0.652021 0.000000
0.376008 0.653450 0.000000
0.447202 0.654885 0.000000
0.519397 0.656325 0.000000
0.592600 0.657771 0.000000
0.666821 0.659221 0.000000
0.742067 0.660675 0.000000
0.818347 0.662132 0.000000
0.895668 0.663593 0.000000
0.974038 0.665056 0.000000
1.000000 0.666521 0.000000
0.000000 0.704994 0.000000
0.000000 0.706652 0.000000
0.030713 0.708320 0.000000
0.098478 0.709997 0.000000
0.167214 0.711683 0.000000
0.236932 0.713377 0.000000
0.307641 0.715078 0.000000
0.379349 0.716785 0.000000
0.452066 0.718499 0.000000
0.525799 0.720218 0.000000
0.600558 0.721942 0.000000
0.676350 0.723671 0.000000
0.753183 0.725403 0.000000
0.831063 0.727139 0.000000
0.910000 0.728878 0.000000
0.989999 0.730619 0.000000
1.000000 0.731077 0.000000
0.000000 0.767996 0.000000
0.000000 0.769940 0.000000
0.026524 0.771892 0.000000
0.095746 0.773854 0.000000
0.165958 0.775824 0.000000
0.237170 0.777802 0.000000
0.309390 0.779786 0.000000
0.382627 0.781777 0.000000
0.456889 0.783774 0.000000
0.532183 0.785776 0.000000
0.608517 0.787782 0.000000
0.685900 0.789794 0.000000
0.764337 0.791809 0.000000
0.841247 0.792270 0.000000
0.915125 0.790729 0.000000
0.989003 0.789187 0.000000
1.000000 0.787646 0.000000
0.000000 0.832655 0.000000
0.000000 0.834887 0.000000
0.022134 0.837128 0.000000
0.092840 0.839378 0.000000
0.164554 0.841636 0.000000
0.237284 0.843901 0.000000
0.311039 0.846173 0.000000
0.385826 0.848451 0.000000
0.461654 0.850735 0.000000
0.538529 0.853023 0.000000
0.614368 0.853463 0.000000
0.688246 0.851922 0.000000
0.762124 0.850381 0.000000
0.836002 0.848839 0.000000
0.909879 0.847298 0.000000
0.983757 0.845757 0.000000
1.000000 0.844216 0.000000
0.000000 0.000000 0.071427
0.024843 0.000000 0.069976
0.080621 0.000000 0.068525
0.136399 0.000000 0.067074
0.192177 0.000000 0.065624
0.247955 0.000000 0.064173
0.303733 0.000000 0.062722
0.359510 0.000000 0.061271
0.415288 0.000000 0.059820
0.471066 0.000000 0.058369
0.526844 0.000000 0.056919
0.582622 0.000000 0.055468
0.638400 0.000000 0.054017
0.694178 0.000000 0.052566
0.749955 0.000000 0.051115
0.805733 0.000000 0.049664
0.861511 0.000000 0.048214
0.000000 0.016786 0.067008
0.020883 0.015486 0.065557
0.076661 0.014186 0.064106
0.132439 0.012886 0.062655
0.188217 0.011586 0.061204
0.243995 0.010285 0.059754
0.299772 0.008985 0.058303
0.355550 0.007685 0.056852
0.411328 0.006385 0.055401
0.467106 0.005085 0.053950
0.522884 0.003785 0.052499
0.578662 0.002484 0.051049
0.634439 0.001184 0.049598
0.690217 0.000000 0.048147
0.748371 0.000000 0.046696
0.808091 0.000000 0.045245
0.868808 0.000000 0.043794
0.000000 0.064507 0.062589
0.016923 0.063207 0.061138
0.072701 0.061906 0.059687
0.128479 0.060606 0.058236
0.184256 0.059306 0.056785
0.240034 0.058006 0.055334
0.295812 0.056706 0.053884
0.351590 0.055406 0.052433
0.407368 0.054105 0.050982
0.463146 0.052805 0.049531
0.518924 0.051505 0.048080
0.576646 0.050302 0.046629
0.635593 0.049131 0.045179
0.695438 0.047969 0.043728
0.756151 0.046808 0.042277
0.817732 0.045646 0.040826
0.880187 0.044482 0.039375
0.000000 0.112227 0.058169
0.012963 0.110927 0.056719
0.068741 0.109627 0.055268
0.124518 0.108327 0.053817
0.180296 0.107027 0.052366
0.236074 0.105726 0.050915
0.291852 0.104426 0.049464
0.347630 0.103126 0.048014
0.404854 0.102035 0.046563
0.463016 0.101005 0.045112
0.521982 0.099999 0.043661
0.581751 0.099005 0.042210
0.642337 0.098019 0.040759
0.703754 0.097038 0.039309
0.766020 0.096059 0.037858
0.829149 0.095081 0.036407
0.893158 0.094101 0.034956
0.000000 0.159948 0.053750
0.009002 0.158648 0.052299
0.064780 0.157348 0.050849
0.120558 0.156047 0.049398
0.176344 0.154751 0.047947
0.232993 0.153779 0.046496
0.290361 0.152893 0.045045
0.348441 0.152043 0.043594
0.407260 0.151218 0.042144
0.466846 0.150409 0.040693
0.527222 0.149611 0.039242
0.588410 0.148822 0.037791
0.650431 0.148039 0.036340
0.713302 0.147259 0.034889
0.777041 0.146482 0.033439
0.841663 0.145705 0.031988
0.907183 0.144929 0.030537
0.000000 0.207668 0.049331
0.005043 0.206386 0.047880
0.061063 0.205536 0.046429
0.117625 0.204794 0.044979
0.174813 0.204103 0.043528
0.232677 0.203447 0.042077
0.291259 0.202815 0.040626
0.350590 0.202202 0.039175
0.410698 0.201603 0.037724
0.471607 0.201015 0.036274
0.533338 0.200436 0.034823
0.595912 0.199863 0.033372
0.659345 0.199296 0.031921
0.723654 0.198732 0.030470
0.788855 0.198170 0.029019
0.854962 0.197610 0.027568
0.921988 0.197050 0.026118
0.000000 0.256709 0.044912
0.001098 0.256178 0.043461
0.058003 0.255692 0.042010
0.115576 0.255238 0.040559
0.173859 0.254809 0.039108
0.232883 0.254401 0.037658
0.292678 0.254009 0.036207
0.353267 0.253631 0.034756
0.414673 0.253264 0.033305
0.476915 0.252906 0.031854
0.540012 0.252555 0.030403
0.603980 0.252210 0.028953
0.668835 0.251869 0.027502
0.734591 0.251532 0.026051
0.801262 0.251197 0.024600
0.868861 0.250864 0.023149
0.937401 0.250532 0.021698
0.000000 0.307677 0.040493
0.000000 0.307434 0.039042
0.054966 0.307217 0.037591
0.113643 0.307022 0.036140
0.173088 0.306845 0.034689
0.233324 0.306683 0.033238
0.294373 0.306535 0.031788
0.356255 0.306397 0.030337
0.418988 0.306269 0.028886
0.482590 0.306149 0.027435
0.547075 0.306035 0.025984
0.612458 0.305926 0.024533
0.678753 0.305822 0.023083
0.745973 0.305721 0.021632
0.814130 0.305622 0.020181
0.883236 0.305526 0.018730
0.953302 0.305430 0.017279
0.000000 0.360053 0.036073
0.000000 0.360077 0.034623
0.051864 0.360122 0.033172
0.111718 0.360183 0.031721
0.172384 0.360260 0.030270
0.233881 0.360348 0.028819
0.296227 0.360448 0.027368
0.359439 0.360558 0.025918
0.423532 0.360676 0.024467
0.488522 0.360801 0.023016
0.554421 0.360931 0.021565
0.621243 0.361067 0.020114
0.689000 0.361207 0.018663
0.757703 0.361350 0.017213
0.827365 0.361496 0.015762
0.897995 0.361644 0.014311
0.969604 0.361793 0.012860
0.000000 0.413851 0.031654
0.000000 0.414142 0.030203
0.048656 0.414448 0.028753
0.109746 0.414769 0.027302
0.171683 0.415102 0.025851
0.234485 0.415446 0.024400
0.298168 0.415800 0.022949
0.362745 0.416163 0.021498
0.428230 0.416534 0.020048
0.494637 0.416910 0.018597
0.561977 0.417293 0.017146
0.630261 0.417680 0.015695
0.699502 0.418072 0.014244
0.769710 0.418466 0.012793
0.840895 0.418863 0.011343
0.913067 0.419262 0.009892
0.986235 0.419663 0.008441
0.000000 0.469109 0.027235
0.000000 0.469666 0.025784
0.045317 0.470238 0.024333
0.107691 0.470822 0.022883
0.170945 0.471417 0.021432
0.235092 0.472022 0.019981
0.300147 0.472636 0.018530
0.366122 0.473258 0.017079
0.433029 0.473887 0.015628
0.500880 0.474522 0.014178
0.569686 0.475162 0.012727
0.639457 0.475807 0.011276
0.710204 0.476456 0.009825
0.781937 0.477108 0.008374
0.854665 0.477763 0.006923
0.928397 0.478420 0.005473
1.000000 0.479079 0.004022
0.000000 0.525864 0.022816
0.000000 0.526691 0.021365
0.041828 0.527531 0.019914
0.105530 0.528383 0.018463
0.170139 0.529244 0.017013
0.235667 0.530115 0.015562
0.302127 0.530994 0.014111
0.369529 0.531881 0.012660
0.437886 0.532774 0.011209
0.507208 0.533673 0.009758
0.577505 0.534577 0.008308
0.648786 0.535485 0.006857
0.721061 0.536398 0.005406
0.794339 0.537314 0.003955
0.868629 0.538232 0.002504
0.943940 0.539153 0.001053
1.000000 0.540075 0.000000
0.000000 0.584152 0.018397
0.000000 0.585253 0.016946
0.038176 0.586366 0.015495
0.103243 0.587489 0.014044
0.169242 0.588622 0.012593
0.236183 0.589763 0.011143
0.304078 0.590912 0.009692
0.372937 0.592069 0.008241
0.442771 0.593231 0.006790
0.513588 0.594399 0.005339
0.585398 0.595572 0.003888
0.658211 0.596750 0.002437
0.732035 0.597931 0.000987
0.806878 0.599115 0.000000
0.882750 0.600303 0.000000
0.959656 0.601492 0.000000
1.000000 0.602684 0.000000
0.000000 0.644007 0.013977
0.000000 0.645386 0.012527
0.034347 0.646776 0.011076
0.100814 0.648175 0.009625
0.168235 0.649584 0.008174
0.236620 0.651000 0.006723
0.305978 0.652424 0.005272
0.376320 0.653854 0.003822
0.447654 0.655291 0.002371
0.519991 0.656733 0.000920
0.593337 0.658180 0.000000
0.667703 0.659631 0.000000
0.743095 0.661086 0.000000
0.819523 0.662545 0.000000
0.896993 0.664006 0.000000
0.975514 0.665469 0.000000
1.000000 0.666935 0.000000
0.000000 0.705461 0.009558
0.000000 0.707122 0.008107
0.030333 0.708793 0.006657
0.098232 0.710472 0.005206
0.167104 0.712161 0.003755
0.236959 0.713856 0.002304
0.307807 0.715559 0.000853
0.379656 0.717269 0.000000
0.452515 0.718984 0.000000
0.526392 0.720705 0.000000
0.601297 0.722430 0.000000
0.677235 0.724160 0.000000
0.754216 0.725893 0.000000
0.832246 0.727630 0.000000
0.911333 0.729369 0.000000
0.991484 0.731111 0.000000
1.000000 0.730641 0.000000
0.000000 0.768544 0.005139
0.000000 0.770490 0.003688
0.026125 0.772446 0.002237
0.095484 0.774410 0.000787
0.165834 0.776382 0.000000
0.237186 0.778361 0.000000
0.309548 0.780348 0.000000
0.382927 0.782340 0.000000
0.457333 0.784338 0.000000
0.532773 0.786342 0.000000
0.609255 0.788350 0.000000
0.686785 0.790362 0.000000
0.765373 0.792378 0.000000
0.840760 0.791835 0.000000
0.914638 0.790293 0.000000
0.988516 0.788752 0.000000
1.000000 0.787211 0.000000
0.000000 0.833284 0.000720
0.000000 0.835519 0.000000
0.021716 0.837763 0.000000
0.092561 0.840015 0.000000
0.164415 0.842275 0.000000
0.237288 0.844542 0.000000
0.311186 0.846816 0.000000
0.386118 0.849095 0.000000
0.462092 0.851380 0.000000
0.539114 0.853671 0.000000
0.613881 0.853028 0.000000
0.687759 0.851486 0.000000
0.761637 0.849945 0.000000
0.835515 0.848404 0.000000
0.909393 0.846863 0.000000
0.983271 0.845321 0.000000
1.000000 0.843780 0.000000
0.000000 0.000000 0.123990
0.024476 0.000000 0.122540
0.080254 0.000000 0.121089
0.136032 0.000000 0.119638
0.191810 0.000000 0.118187
0.247588 0.000000 0.116736
0.303365 0.000000 0.115285
0.359143 0.000000 0.113835
0.414921 0.000000 0.112384
0.470699 0.000000 0.110933
0.526477 0.000000 0.109482
0.582255 0.000000 0.108031
0.638032 0.000000 0.106580
0.693810 0.000000 0.105130
