assets/lighting/cinematic/grade-sunrise-peach/lut.cube
TITLE "Sunrise Peach"
# TKRS lighting-batch-001 original LUT
# Intended usage: early sunrise peach-pink highlights
# License: CC0-1.0
LUT_3D_SIZE 9
DOMAIN_MIN 0.0 0.0 0.0
DOMAIN_MAX 1.0 1.0 1.0
0.000000 0.000000 0.000000
0.081356 0.000000 0.000000
0.192911 0.000000 0.000000
0.304467 0.000000 0.000000
0.416023 0.000000 0.000000
0.527578 0.000000 0.000000
0.639134 0.000000 0.000000
0.750690 0.000000 0.000000
0.862246 0.000000 0.000000
0.000000 0.065241 0.000000
0.073435 0.062641 0.000000
0.184991 0.060041 0.000000
0.296547 0.057440 0.000000
0.408102 0.054840 0.000000
0.519658 0.052240 0.000000
0.634595 0.049791 0.000000
0.754501 0.047464 0.000000
0.877933 0.045140 0.000000
0.000000 0.160682 0.000000
0.065515 0.158082 0.000000
0.177070 0.155482 0.000000
0.290298 0.153387 0.000000
0.406710 0.151682 0.000000
0.526170 0.150061 0.000000
0.648858 0.148481 0.000000
0.774929 0.146921 0.000000
0.904516 0.145368 0.000000
0.000000 0.257036 0.000000
0.058564 0.255962 0.000000
0.174017 0.255048 0.000000
0.292389 0.254229 0.000000
0.413906 0.253470 0.000000
0.538741 0.252752 0.000000
0.667039 0.252061 0.000000
0.798923 0.251386 0.000000
0.934502 0.250720 0.000000
0.000000 0.360049 0.000000
0.052447 0.360095 0.000000
0.172513 0.360215 0.000000
0.295875 0.360391 0.000000
0.422676 0.360608 0.000000
0.553041 0.360857 0.000000
0.687078 0.361128 0.000000
0.824886 0.361414 0.000000
0.966554 0.361709 0.000000
0.000000 0.468801 0.000000
0.045947 0.469913 0.000000
0.171086 0.471079 0.000000
0.299779 0.472288 0.000000
0.432133 0.473530 0.000000
0.568246 0.474800 0.000000
0.708207 0.476089 0.000000
0.852096 0.477393 0.000000
0.999989 0.478707 0.000000
0.000000 0.583535 0.000000
0.038866 0.585736 0.000000
0.169416 0.587981 0.000000
0.303719 0.590262 0.000000
0.441864 0.592574 0.000000
0.583930 0.594909 0.000000
0.729992 0.597263 0.000000
0.880121 0.599632 0.000000
1.000000 0.602011 0.000000
0.000000 0.704528 0.000000
0.031092 0.707848 0.000000
0.167324 0.711206 0.000000
0.307474 0.714597 0.000000
0.451616 0.718015 0.000000
0.599820 0.721455 0.000000
0.752150 0.724914 0.000000
0.908668 0.728386 0.000000
1.000000 0.731512 0.000000
0.000000 0.832026 0.000000
0.022549 0.836494 0.000000
0.164690 0.840997 0.000000
0.310891 0.845530 0.000000
0.461215 0.850089 0.000000
0.614854 0.853898 0.000000
0.762610 0.850816 0.000000
0.910366 0.847733 0.000000
1.000000 0.844651 0.000000
0.000000 0.000000 0.071427
0.080621 0.000000 0.068525
0.192177 0.000000 0.065624
0.303733 0.000000 0.062722
0.415288 0.000000 0.059820
0.526844 0.000000 0.056919
0.638400 0.000000 0.054017
0.749955 0.000000 0.051115
0.861511 0.000000 0.048214
0.000000 0.064507 0.062589
0.072701 0.061906 0.059687
0.184256 0.059306 0.056785
0.295812 0.056706 0.053884
0.407368 0.054105 0.050982
0.518924 0.051505 0.048080
0.635593 0.049131 0.045179
0.756151 0.046808 0.042277
0.880187 0.044482 0.039375
0.000000 0.159948 0.053750
0.064780 0.157348 0.050849
0.176344 0.154751 0.047947
0.290361 0.152893 0.045045
0.407260 0.151218 0.042144
0.527222 0.149611 0.039242
0.650431 0.148039 0.036340
0.777041 0.146482 0.033439
0.907183 0.144929 0.030537
0.000000 0.256709 0.044912
0.058003 0.255692 0.042010
0.173859 0.254809 0.039108
0.292678 0.254009 0.036207
0.414673 0.253264 0.033305
0.540012 0.252555 0.030403
0.668835 0.251869 0.027502
0.801262 0.251197 0.024600
0.937401 0.250532 0.021698
0.000000 0.360053 0.036073
0.051864 0.360122 0.033172
0.172384 0.360260 0.030270
0.296227 0.360448 0.027368
0.423532 0.360676 0.024467
0.554421 0.360931 0.021565
0.689000 0.361207 0.018663
0.827365 0.361496 0.015762
0.969604 0.361793 0.012860
0.000000 0.469109 0.027235
0.045317 0.470238 0.024333
0.170945 0.471417 0.021432
0.300147 0.472636 0.018530
0.433029 0.473887 0.015628
0.569686 0.475162 0.012727
0.710204 0.476456 0.009825
0.854665 0.477763 0.006923
1.000000 0.479079 0.004022
0.000000 0.584152 0.018397
0.038176 0.586366 0.015495
0.169242 0.588622 0.012593
0.304078 0.590912 0.009692
0.442771 0.593231 0.006790
0.585398 0.595572 0.003888
0.732035 0.597931 0.000987
0.882750 0.600303 0.000000
1.000000 0.602684 0.000000
0.000000 0.705461 0.009558
0.030333 0.708793 0.006657
0.167104 0.712161 0.003755
0.307807 0.715559 0.000853
0.452515 0.718984 0.000000
0.601297 0.722430 0.000000
0.754216 0.725893 0.000000
0.911333 0.729369 0.000000
1.000000 0.730641 0.000000
0.000000 0.833284 0.000720
0.021716 0.837763 0.000000
0.164415 0.842275 0.000000
0.311186 0.846816 0.000000
0.462092 0.851380 0.000000
0.613881 0.853028 0.000000
0.761637 0.849945 0.000000
0.909393 0.846863 0.000000
1.000000 0.843780 0.000000
0.000000 0.000000 0.176554
0.079887 0.000000 0.173652
0.191442 0.000000 0.170751
0.302998 0.000000 0.167849
0.414554 0.000000 0.164947
0.526110 0.000000 0.162046
0.637665 0.000000 0.159144
0.749221 0.000000 0.156242
0.861849 0.000000 0.153341
0.000000 0.063772 0.167716
0.071966 0.061172 0.164814
0.183522 0.058572 0.161912
0.295078 0.055971 0.159011
0.406633 0.053371 0.156109
0.519014 0.050817 0.153207
0.636693 0.048474 0.150306
0.757868 0.046152 0.147404
0.882495 0.043823 0.144502
0.000000 0.159213 0.158877
0.064046 0.156613 0.155976
0.175944 0.154184 0.153074
0.290466 0.152409 0.150172
0.407843 0.150759 0.147271
0.528303 0.149165 0.144369
0.652031 0.147598 0.141467
0.779179 0.146043 0.138566
0.909876 0.144490 0.135664
0.000000 0.256403 0.150039
0.057442 0.255432 0.147137
0.173707 0.254576 0.144235
0.292976 0.253794 0.141334
0.415452 0.253060 0.138432
0.541296 0.252359 0.135530
0.670645 0.251678 0.132629
0.803617 0.251009 0.129727
0.940316 0.250344 0.126825
0.000000 0.360064 0.141200
0.051278 0.360155 0.138299
0.172255 0.360308 0.135397
0.296582 0.360509 0.132495
0.424394 0.360745 0.129594
0.555808 0.361008 0.126692
0.690930 0.361288 0.123790
0.829854 0.361579 0.120889
0.972665 0.361877 0.117987
0.000000 0.469422 0.132362
0.044682 0.470566 0.129460
0.170801 0.471757 0.126559
0.300515 0.472986 0.123657
0.433926 0.474245 0.120755
0.571129 0.475526 0.117854
0.712207 0.476824 0.114952
0.857242 0.478134 0.112050
1.000000 0.479451 0.109149
0.000000 0.584773 0.123524
0.037479 0.586999 0.120622
0.169064 0.589266 0.117720
0.304435 0.591565 0.114819
0.443677 0.593890 0.111917
0.586868 0.596237 0.109015
0.734080 0.598600 0.106114
0.885383 0.600975 0.103212
1.000000 0.603357 0.100310
0.000000 0.706398 0.114685
0.029568 0.709740 0.111784
0.166879 0.713118 0.108882
0.308137 0.716524 0.105980
0.453412 0.719956 0.103079
0.602773 0.723407 0.100177
0.756283 0.726874 0.097275
0.914001 0.730353 0.094374
1.000000 0.729771 0.091472
0.000000 0.834546 0.105847
0.020876 0.839034 0.102945
0.164135 0.843555 0.100044
0.311478 0.848103 0.097142
0.462967 0.852674 0.094240
0.612909 0.852157 0.091339
0.760664 0.849075 0.088437
0.908420 0.845992 0.085535
1.000000 0.842910 0.082634
0.000000 0.000000 0.281681
0.079152 0.000000 0.278779
0.190708 0.000000 0.275878
0.302264 0.000000 0.272976
0.413819 0.000000 0.270074
0.525375 0.000000 0.267173
0.636931 0.000000 0.264271
0.748486 0.000000 0.261369
0.863094 0.000000 0.258468
0.000000 0.063038 0.272843
0.071232 0.060437 0.269941
0.182788 0.057837 0.267039
0.294343 0.055237 0.264138
0.405899 0.052637 0.261236
0.519502 0.050149 0.258334
0.637874 0.047818 0.255433
0.759642 0.045496 0.252531
0.884850 0.043162 0.249629
0.000000 0.158479 0.264004
0.063311 0.155879 0.261103
0.175631 0.153661 0.258201
0.290605 0.151935 0.255299
0.408453 0.150305 0.252398
0.529411 0.148720 0.249496
0.653658 0.147158 0.246594
0.781343 0.145605 0.243693
0.912594 0.144050 0.240791
0.000000 0.256113 0.255166
0.056880 0.255181 0.252264
0.173560 0.254349 0.249362
0.293282 0.253583 0.246461
0.416241 0.252860 0.243559
0.542593 0.252165 0.240657
0.672470 0.251489 0.237756
0.805987 0.250821 0.234854
0.943247 0.250156 0.231952
0.000000 0.360082 0.246327
0.050688 0.360192 0.243426
0.172126 0.360361 0.240524
0.296940 0.360573 0.237622
0.425260 0.360817 0.234721
0.557202 0.361085 0.231819
0.692869 0.361369 0.228917
0.832352 0.361663 0.226016
0.975737 0.361962 0.223114
0.000000 0.469740 0.237489
0.044042 0.470898 0.234587
0.170655 0.472101 0.231686
0.300883 0.473339 0.228784
0.434825 0.474604 0.225882
0.572575 0.475891 0.222981
0.714215 0.477193 0.220079
0.859824 0.478506 0.217177
1.000000 0.479824 0.214276
0.000000 0.585397 0.228651
0.036776 0.587636 0.225749
0.168882 0.589912 0.222847
0.304790 0.592219 0.219946
0.444583 0.594551 0.217044
0.588339 0.596903 0.214142
0.736129 0.599269 0.211241
0.888020 0.601647 0.208339
1.000000 0.604031 0.205437
0.000000 0.707338 0.219812
0.028795 0.710691 0.216911
0.166650 0.714077 0.214009
0.308464 0.717491 0.211107
0.454308 0.720928 0.208206
0.604249 0.724385 0.205304
0.758351 0.727855 0.202402
0.916671 0.731338 0.199501
1.000000 0.728900 0.196599
0.000000 0.835810 0.210974
0.020028 0.840308 0.208072
0.163849 0.844837 0.205171
0.311765 0.849392 0.202269
0.463839 0.853968 0.199367
0.611936 0.851286 0.196466
0.759692 0.848204 0.193564
0.907447 0.845121 0.190662
1.000000 0.842039 0.187761
0.000000 0.000000 0.386808
0.078418 0.000000 0.383906
0.189974 0.000000 0.381005
0.301529 0.000000 0.378103
0.413085 0.000000 0.375201
0.524641 0.000000 0.372300
0.636196 0.000000 0.369398
0.747752 0.000000 0.366496
0.864596 0.000000 0.363595
0.000000 0.062303 0.377970
0.070497 0.059703 0.375068
0.182053 0.057103 0.372166
0.293609 0.054502 0.369265
0.405164 0.051902 0.366363
0.520130 0.049488 0.363461
0.639124 0.047162 0.360560
0.761468 0.044838 0.357658
0.887251 0.042500 0.354756
0.000000 0.157744 0.369131
0.062577 0.155144 0.366230
0.175360 0.153158 0.363328
0.290771 0.151468 0.360426
0.409089 0.149854 0.357525
0.530543 0.148277 0.354623
0.655308 0.146719 0.351721
0.783531 0.145166 0.348820
0.915336 0.143610 0.345918
0.000000 0.255836 0.360293
0.056318 0.254938 0.357391
0.173417 0.254127 0.354489
0.293596 0.253375 0.351588
0.417040 0.252661 0.348686
0.543901 0.251973 0.345784
0.674307 0.251299 0.342883
0.808371 0.250633 0.339981
0.946194 0.249968 0.337079
0.000000 0.360106 0.351454
0.050094 0.360235 0.348553
0.171997 0.360417 0.345651
0.297300 0.360639 0.342749
0.426131 0.360891 0.339848
0.558603 0.361164 0.336946
0.694816 0.361451 0.334044
0.834860 0.361747 0.331143
0.978820 0.362046 0.328241
0.000000 0.470062 0.342616
0.043396 0.471234 0.339714
0.170506 0.472447 0.336813
0.301250 0.473694 0.333911
0.435726 0.474966 0.331009
0.574025 0.476258 0.328108
0.716228 0.477563 0.325206
0.862413 0.478878 0.322304
1.000000 0.480197 0.319403
0.000000 0.586025 0.333778
0.036068 0.588275 0.330876
0.168696 0.590561 0.327974
0.305143 0.592876 0.325073
0.445489 0.595214 0.322171
0.589811 0.597570 0.319269
0.738180 0.599940 0.316368
0.890661 0.602320 0.313466
1.000000 0.604706 0.310564
0.000000 0.708281 0.324939
0.028016 0.711644 0.322038
0.166415 0.715039 0.319136
0.308787 0.718460 0.316234
0.455202 0.721903 0.313333
0.605726 0.725364 0.310431
0.760420 0.728838 0.307529
0.916965 0.731112 0.304628
1.000000 0.728029 0.301726
0.000000 0.837077 0.316101
0.019173 0.841584 0.313199
0.163558 0.846121 0.310298
0.312049 0.850682 0.307396
0.463207 0.853498 0.304494
0.610963 0.850416 0.301593
0.758719 0.847333 0.298691
0.906475 0.844251 0.295789
1.000000 0.841168 0.292888
0.000000 0.000000 0.491935
0.077683 0.000000 0.489033
0.189239 0.000000 0.486132
0.300795 0.000000 0.483230
0.412350 0.000000 0.480328
0.523906 0.000000 0.477427
0.635462 0.000000 0.474525
0.747192 0.000000 0.471623
0.866268 0.000000 0.468722
0.000000 0.061569 0.483097
0.069763 0.058969 0.480195
0.181319 0.056368 0.477293
0.292874 0.053768 0.474392
0.404636 0.051183 0.471490
0.520854 0.048829 0.468588
0.640432 0.046507 0.465687
0.763341 0.044180 0.462785
0.889693 0.041836 0.459883
0.000000 0.157010 0.474258
0.061893 0.154481 0.471357
0.175117 0.152669 0.468455
0.290961 0.151007 0.465553
0.409748 0.149406 0.462652
0.531697 0.147836 0.459750
0.656981 0.146280 0.456848
0.785742 0.144727 0.453946
0.918102 0.143168 0.451045
0.000000 0.255571 0.465420
0.055754 0.254701 0.462518
0.173277 0.253910 0.459616
0.293917 0.253170 0.456715
0.417849 0.252465 0.453813
0.545221 0.251781 0.450911
0.676157 0.251111 0.448010
0.810770 0.250446 0.445108
0.949156 0.249779 0.442206
0.000000 0.360136 0.456581
0.049496 0.360281 0.453680
0.171866 0.360476 0.450778
0.297661 0.360707 0.447876
0.427006 0.360966 0.444975
0.560009 0.361244 0.442073
0.696770 0.361534 0.439171
0.837377 0.361832 0.436270
0.981913 0.362131 0.433368
0.000000 0.470388 0.447743
0.042744 0.471573 0.444841
0.170355 0.472796 0.441940
0.301617 0.474051 0.439038
0.436629 0.475329 0.436136
0.575478 0.476625 0.433235
0.718245 0.477934 0.430333
0.865008 0.479250 0.427431
1.000000 0.480570 0.424530
0.000000 0.586657 0.438905
0.035353 0.588918 0.436003
0.168506 0.591212 0.433101
0.305494 0.593534 0.430200
0.446395 0.595877 0.427298
0.591285 0.598238 0.424396
0.740233 0.600611 0.421495
0.893306 0.602993 0.418593
1.000000 0.605380 0.415691
0.000000 0.709228 0.430066
0.027231 0.712600 0.427165
0.166176 0.716003 0.424263
0.309107 0.719430 0.421361
0.456094 0.722879 0.418460
0.607201 0.726344 0.415558
0.762490 0.729821 0.412656
0.915993 0.730241 0.409755
1.000000 0.727159 0.406853
0.000000 0.838347 0.421228
0.018311 0.842863 0.418326
0.163260 0.847407 0.415425
0.312328 0.851975 0.412523
0.462234 0.852628 0.409621
0.609990 0.849545 0.406720
0.757746 0.846463 0.403818
0.905502 0.843380 0.400916
1.000000 0.840298 0.398015
0.000000 0.000000 0.597062
0.076949 0.000000 0.594160
0.188505 0.000000 0.591259
0.300060 0.000000 0.588357
0.411616 0.000000 0.585455
0.523172 0.000000 0.582554
0.634727 0.000000 0.579652
0.747966 0.000000 0.576750
0.868071 0.000000 0.573849
0.000000 0.060834 0.588224
0.069029 0.058234 0.585322
0.180584 0.055634 0.582420
0.292140 0.053033 0.579519
0.404759 0.050509 0.576617
0.521652 0.048172 0.573715
0.641791 0.045850 0.570814
0.765257 0.043520 0.567912
0.892175 0.041169 0.565010
0.000000 0.156276 0.579385
0.061293 0.153941 0.576484
0.174895 0.152190 0.573582
0.291172 0.150550 0.570680
0.410427 0.148960 0.567779
0.532872 0.147396 0.564877
0.658675 0.145842 0.561975
0.787974 0.144288 0.559073
0.920889 0.142726 0.556172
0.000000 0.255315 0.570547
0.055188 0.254471 0.567645
0.173141 0.253697 0.564743
0.294243 0.252968 0.561842
0.418666 0.252270 0.558940
0.546551 0.251591 0.556038
0.678020 0.250923 0.553137
0.813181 0.250258 0.550235
0.952132 0.249590 0.547333
0.000000 0.360171 0.561708
0.048894 0.360332 0.558807
0.171735 0.360538 0.555905
0.298025 0.360778 0.553003
0.427885 0.361043 0.550102
0.561421 0.361325 0.547200
0.698731 0.361618 0.544298
0.839903 0.361916 0.541397
0.985016 0.362215 0.538495
0.000000 0.470718 0.552870
0.042087 0.471915 0.549968
0.170200 0.473148 0.547067
0.301983 0.474410 0.544165
0.437532 0.475694 0.541263
0.576933 0.476994 0.538362
0.720267 0.478305 0.535460
0.867608 0.479623 0.532558
1.000000 0.480943 0.529657
0.000000 0.587291 0.544032
0.034631 0.589562 0.541130
0.168312 0.591865 0.538228
0.305842 0.594194 0.535327
0.447300 0.596543 0.532425
0.592759 0.598907 0.529523
0.742289 0.601283 0.526622
0.895954 0.603667 0.523720
1.000000 0.606055 0.520818
0.000000 0.710177 0.535193
0.026438 0.713558 0.532292
0.165932 0.716968 0.529390
0.309424 0.720402 0.526488
0.456985 0.723856 0.523587
0.608676 0.727325 0.520685
0.764561 0.730805 0.517783
0.915020 0.729371 0.514882
1.000000 0.726288 0.511980
0.000000 0.839619 0.526355
0.017442 0.844144 0.523453
0.162958 0.848695 0.520552
0.312603 0.853268 0.517650
0.461261 0.851757 0.514748
0.609017 0.848674 0.511847
0.756773 0.845592 0.508945
0.904529 0.842510 0.506043
1.000000 0.839427 0.503142
0.000000 0.000000 0.702189
0.076215 0.000000 0.699287
0.187770 0.000000 0.696386
0.299326 0.000000 0.693484
0.410882 0.000000 0.690582
0.522437 0.000000 0.687681
0.633993 0.000000 0.684779
0.749065 0.000000 0.681877
0.869980 0.000000 0.678976
0.000000 0.060100 0.693351
0.068294 0.057500 0.690449
0.179850 0.054899 0.687547
0.291405 0.052299 0.684646
0.405033 0.049845 0.681744
0.522511 0.047517 0.678842
0.643196 0.045194 0.675941
0.767213 0.042858 0.673039
0.894692 0.040501 0.670137
0.000000 0.155541 0.684512
0.060710 0.153428 0.681611
0.174690 0.151720 0.678709
0.291400 0.150097 0.675807
0.411124 0.148517 0.672905
0.534067 0.146956 0.670004
0.660390 0.145403 0.667102
0.790227 0.143848 0.664200
0.923698 0.142283 0.661299
0.000000 0.255068 0.675674
0.054621 0.254247 0.672772
0.173007 0.253487 0.669870
0.294576 0.252768 0.666969
0.419491 0.252077 0.664067
0.547890 0.251402 0.661165
0.679893 0.250735 0.658264
0.815605 0.250070 0.655362
0.955122 0.249401 0.652460
0.000000 0.360211 0.666835
0.048287 0.360386 0.663934
0.171602 0.360603 0.661032
0.298390 0.360851 0.658130
0.428767 0.361121 0.655229
0.562839 0.361407 0.652327
0.700700 0.361702 0.649425
0.842437 0.362001 0.646524
0.988129 0.362299 0.643622
0.000000 0.471052 0.657997
0.041425 0.472260 0.655095
0.170042 0.473502 0.652194
0.302348 0.474770 0.649292
0.438436 0.476059 0.646390
0.578391 0.477363 0.643489
0.722293 0.478676 0.640587
0.870214 0.479995 0.637685
1.000000 0.481316 0.634784
0.000000 0.587929 0.649159
0.033904 0.590210 0.646257
0.168114 0.592521 0.643355
0.306188 0.594855 0.640454
0.448204 0.597209 0.637552
0.594234 0.599577 0.634650
0.744347 0.601956 0.631749
0.898606 0.604341 0.628847
1.000000 0.606729 0.625945
0.000000 0.711129 0.640320
0.025638 0.714519 0.637419
0.165682 0.717936 0.634517
0.309738 0.721376 0.631615
0.457873 0.724834 0.628714
0.610151 0.728307 0.625812
0.766291 0.731583 0.622910
0.914047 0.728500 0.620009
1.000000 0.725418 0.617107
0.000000 0.840894 0.631482
0.016565 0.845427 0.628580
0.162649 0.849984 0.625679
0.312533 0.853969 0.622777
0.460289 0.850886 0.619875
0.608045 0.847804 0.616974
0.755800 0.844721 0.614072
0.903556 0.841639 0.611170
1.000000 0.838556 0.608268
0.000000 0.000000 0.807316
0.075480 0.000000 0.804414
0.187036 0.000000 0.801513
0.298591 0.000000 0.798611
0.410147 0.000000 0.795709
0.521703 0.000000 0.792808
0.633259 0.000000 0.789906
0.750343 0.000000 0.787004
0.871980 0.000000 0.784103
0.000000 0.059366 0.798478
0.067560 0.056765 0.795576
0.179115 0.054165 0.792674
0.290671 0.051565 0.789773
0.405397 0.049185 0.786871
0.523420 0.046861 0.783969
0.644643 0.044536 0.781068
0.769206 0.042195 0.778166
0.897245 0.039830 0.775264
0.000000 0.154807 0.789639
0.060137 0.152932 0.786738
0.174498 0.151255 0.783836
0.291643 0.149648 0.780934
0.411839 0.148074 0.778032
0.535280 0.146517 0.775131
0.662123 0.144964 0.772229
0.792500 0.143407 0.769327
0.926527 0.141839 0.766426
0.000000 0.254828 0.780801
0.054050 0.254027 0.777899
0.172874 0.253280 0.774997
0.294913 0.252571 0.772096
0.420323 0.251885 0.769194
0.549240 0.251213 0.766292
0.681778 0.250547 0.763391
0.818042 0.249881 0.760489
0.958125 0.249211 0.757587
0.000000 0.360256 0.771962
0.047675 0.360444 0.769061
0.171468 0.360670 0.766159
0.298756 0.360925 0.763257
0.429653 0.361201 0.760356
0.564261 0.361490 0.757454
0.702675 0.361786 0.754552
0.844979 0.362085 0.751651
0.991251 0.362382 0.748749
0.000000 0.471389 0.763124
0.040757 0.472607 0.760222
0.169882 0.473858 0.757321
0.302713 0.475133 0.754419
0.439341 0.476426 0.751517
0.579852 0.477733 0.748616
0.724323 0.479049 0.745714
0.872825 0.480368 0.742812
1.000000 0.481689 0.739911
0.000000 0.588570 0.754286
0.033170 0.590860 0.751384
0.167911 0.593178 0.748482
0.306532 0.595518 0.745581
0.449107 0.597877 0.742679
0.595710 0.600248 0.739777
0.746406 0.602629 0.736876
0.901261 0.605016 0.733974
1.000000 0.607404 0.731072
0.000000 0.712083 0.745447
0.024832 0.715481 0.742546
0.165427 0.718906 0.739644
0.310048 0.722351 0.736742
0.458759 0.725814 0.733841
0.611625 0.729290 0.730939
0.765318 0.730712 0.728037
0.913074 0.727629 0.725136
1.000000 0.724547 0.722234
0.000000 0.842171 0.736609
0.015681 0.846712 0.733707
0.162334 0.851276 0.730806
0.311560 0.853098 0.727904
0.459316 0.850016 0.725002
0.607072 0.846933 0.722101
0.754828 0.843851 0.719199
0.902584 0.840768 0.716297
1.000000 0.837686 0.713395
