assets/lighting/cinematic/grade-sunrise-peach/lut.cube
TITLE "Sunrise Peach"
# TKRS lighting-batch-001 original LUT
# Intended usage: early sunrise peach-pink highlights
# License: CC0-1.0
LUT_3D_SIZE 5
DOMAIN_MIN 0.0 0.0 0.0
DOMAIN_MAX 1.0 1.0 1.0
0.000000 0.000000 0.000000
0.192911 0.000000 0.000000
0.416023 0.000000 0.000000
0.639134 0.000000 0.000000
0.862246 0.000000 0.000000
0.000000 0.160682 0.000000
0.177070 0.155482 0.000000
0.406710 0.151682 0.000000
0.648858 0.148481 0.000000
0.904516 0.145368 0.000000
0.000000 0.360049 0.000000
0.172513 0.360215 0.000000
0.422676 0.360608 0.000000
0.687078 0.361128 0.000000
0.966554 0.361709 0.000000
0.000000 0.583535 0.000000
0.169416 0.587981 0.000000
0.441864 0.592574 0.000000
0.729992 0.597263 0.000000
1.000000 0.602011 0.000000
0.000000 0.832026 0.000000
0.164690 0.840997 0.000000
0.461215 0.850089 0.000000
0.762610 0.850816 0.000000
1.000000 0.844651 0.000000
0.000000 0.000000 0.176554
0.191442 0.000000 0.170751
0.414554 0.000000 0.164947
0.637665 0.000000 0.159144
0.861849 0.000000 0.153341
0.000000 0.159213 0.158877
0.175944 0.154184 0.153074
0.407843 0.150759 0.147271
0.652031 0.147598 0.141467
0.909876 0.144490 0.135664
0.000000 0.360064 0.141200
0.172255 0.360308 0.135397
0.424394 0.360745 0.129594
0.690930 0.361288 0.123790
0.972665 0.361877 0.117987
0.000000 0.584773 0.123524
0.169064 0.589266 0.117720
0.443677 0.593890 0.111917
0.734080 0.598600 0.106114
1.000000 0.603357 0.100310
0.000000 0.834546 0.105847
0.164135 0.843555 0.100044
0.462967 0.852674 0.094240
0.760664 0.849075 0.088437
1.000000 0.842910 0.082634
0.000000 0.000000 0.386808
0.189974 0.000000 0.381005
0.413085 0.000000 0.375201
0.636196 0.000000 0.369398
0.864596 0.000000 0.363595
0.000000 0.157744 0.369131
0.175360 0.153158 0.363328
0.409089 0.149854 0.357525
0.655308 0.146719 0.351721
0.915336 0.143610 0.345918
0.000000 0.360106 0.351454
0.171997 0.360417 0.345651
0.426131 0.360891 0.339848
0.694816 0.361451 0.334044
0.978820 0.362046 0.328241
0.000000 0.586025 0.333778
0.168696 0.590561 0.327974
0.445489 0.595214 0.322171
0.738180 0.599940 0.316368
1.000000 0.604706 0.310564
0.000000 0.837077 0.316101
0.163558 0.846121 0.310298
0.463207 0.853498 0.304494
0.758719 0.847333 0.298691
1.000000 0.841168 0.292888
0.000000 0.000000 0.597062
0.188505 0.000000 0.591259
0.411616 0.000000 0.585455
0.634727 0.000000 0.579652
0.868071 0.000000 0.573849
0.000000 0.156276 0.579385
0.174895 0.152190 0.573582
0.410427 0.148960 0.567779
0.658675 0.145842 0.561975
0.920889 0.142726 0.556172
0.000000 0.360171 0.561708
0.171735 0.360538 0.555905
0.427885 0.361043 0.550102
0.698731 0.361618 0.544298
0.985016 0.362215 0.538495
0.000000 0.587291 0.544032
0.168312 0.591865 0.538228
0.447300 0.596543 0.532425
0.742289 0.601283 0.526622
1.000000 0.606055 0.520818
0.000000 0.839619 0.526355
0.162958 0.848695 0.520552
0.461261 0.851757 0.514748
0.756773 0.845592 0.508945
1.000000 0.839427 0.503142
0.000000 0.000000 0.807316
0.187036 0.000000 0.801513
0.410147 0.000000 0.795709
0.633259 0.000000 0.789906
0.871980 0.000000 0.784103
0.000000 0.154807 0.789639
0.174498 0.151255 0.783836
0.411839 0.148074 0.778032
0.662123 0.144964 0.772229
0.926527 0.141839 0.766426
0.000000 0.360256 0.771962
0.171468 0.360670 0.766159
0.429653 0.361201 0.760356
0.702675 0.361786 0.754552
0.991251 0.362382 0.748749
0.000000 0.588570 0.754286
0.167911 0.593178 0.748482
0.449107 0.597877 0.742679
0.746406 0.602629 0.736876
1.000000 0.607404 0.731072
0.000000 0.842171 0.736609
0.162334 0.851276 0.730806
0.459316 0.850016 0.725002
0.754828 0.843851 0.719199
1.000000 0.837686 0.713395
