assets/lighting/day-night-palettes/grade-led-warm-white/lut.cube
TITLE "LED Warm White 2700K"
# TKRS lighting-batch-001 original LUT
# Intended usage: residential warm LED
# License: CC0-1.0
LUT_3D_SIZE 17
DOMAIN_MIN 0.0 0.0 0.0
DOMAIN_MAX 1.0 1.0 1.0
0.000000 0.000000 0.000000
0.048071 0.000000 0.000000
0.116142 0.000000 0.000000
0.184213 0.000000 0.000000
0.252283 0.000000 0.000000
0.320354 0.000000 0.000000
0.388425 0.000000 0.000000
0.456496 0.000000 0.000000
0.524567 0.000000 0.000000
0.592638 0.000000 0.000000
0.660709 0.000000 0.000000
0.728779 0.000000 0.000000
0.796850 0.000000 0.000000
0.864921 0.000000 0.000000
0.932992 0.000000 0.000000
1.000000 0.000000 0.000000
1.000000 0.000000 0.000000
0.000000 0.037016 0.000000
0.045665 0.036187 0.000000
0.113736 0.035358 0.000000
0.181807 0.034529 0.000000
0.249878 0.033700 0.000000
0.317949 0.032871 0.000000
0.386020 0.032042 0.000000
0.454090 0.031212 0.000000
0.522161 0.030383 0.000000
0.590232 0.029554 0.000000
0.658303 0.028725 0.000000
0.726374 0.027896 0.000000
0.794445 0.027067 0.000000
0.862516 0.026238 0.000000
0.930586 0.025408 0.000000
0.998657 0.024579 0.000000
1.000000 0.023750 0.000000
0.000000 0.094033 0.000000
0.043260 0.093204 0.000000
0.111331 0.092374 0.000000
0.179401 0.091545 0.000000
0.247472 0.090716 0.000000
0.315543 0.089887 0.000000
0.383614 0.089058 0.000000
0.451685 0.088229 0.000000
0.519756 0.087400 0.000000
0.587827 0.086570 0.000000
0.655897 0.085741 0.000000
0.723968 0.084912 0.000000
0.792039 0.084083 0.000000
0.860110 0.083254 0.000000
0.928181 0.082425 0.000000
0.996252 0.081596 0.000000
1.000000 0.080766 0.000000
0.000000 0.151049 0.000000
0.040854 0.150220 0.000000
0.108925 0.149391 0.000000
0.176996 0.148562 0.000000
0.245067 0.147733 0.000000
0.313138 0.146903 0.000000
0.381208 0.146074 0.000000
0.449279 0.145245 0.000000
0.517350 0.144416 0.000000
0.585421 0.143587 0.000000
0.653492 0.142758 0.000000
0.721563 0.141929 0.000000
0.789634 0.141099 0.000000
0.857704 0.140270 0.000000
0.925775 0.139441 0.000000
0.993846 0.138612 0.000000
1.000000 0.137783 0.000000
0.000000 0.208065 0.000000
0.038449 0.207236 0.000000
0.106519 0.206407 0.000000
0.174590 0.205578 0.000000
0.242661 0.204749 0.000000
0.310732 0.203920 0.000000
0.378803 0.203091 0.000000
0.446874 0.202261 0.000000
0.514945 0.201432 0.000000
0.583015 0.200603 0.000000
0.651086 0.199774 0.000000
0.719157 0.198945 0.000000
0.787228 0.198116 0.000000
0.855299 0.197287 0.000000
0.923370 0.196457 0.000000
0.991441 0.195628 0.000000
1.000000 0.194799 0.000000
0.000000 0.265082 0.000000
0.036043 0.264253 0.000000
0.104114 0.263424 0.000000
0.172185 0.262594 0.000000
0.240256 0.261765 0.000000
0.308326 0.260936 0.000000
0.376397 0.260107 0.000000
0.444468 0.259278 0.000000
0.512539 0.258449 0.000000
0.580610 0.257620 0.000000
0.648681 0.256790 0.000000
0.716752 0.255961 0.000000
0.784822 0.255132 0.000000
0.852893 0.254303 0.000000
0.920964 0.253474 0.000000
0.989035 0.252645 0.000000
1.000000 0.251816 0.000000
0.000000 0.322098 0.000000
0.033637 0.321269 0.000000
0.101708 0.320440 0.000000
0.169779 0.319611 0.000000
0.237850 0.318782 0.000000
0.305921 0.317952 0.000000
0.373992 0.317123 0.000000
0.442063 0.316294 0.000000
0.510133 0.315465 0.000000
0.578204 0.314636 0.000000
0.646275 0.313807 0.000000
0.714346 0.312978 0.000000
0.782417 0.312148 0.000000
0.850488 0.311319 0.000000
0.918559 0.310490 0.000000
0.986629 0.309661 0.000000
1.000000 0.308832 0.000000
0.000000 0.379114 0.000000
0.031232 0.378285 0.000000
0.099303 0.377456 0.000000
0.167374 0.376627 0.000000
0.235444 0.375798 0.000000
0.303515 0.374969 0.000000
0.371586 0.374140 0.000000
0.439657 0.373311 0.000000
0.507728 0.372481 0.000000
0.575799 0.371652 0.000000
0.643870 0.370823 0.000000
0.711940 0.369994 0.000000
0.780011 0.369165 0.000000
0.848082 0.368336 0.000000
0.916153 0.367507 0.000000
0.984224 0.366677 0.000000
1.000000 0.365848 0.000000
0.000000 0.436131 0.000000
0.028826 0.435302 0.000000
0.096897 0.434473 0.000000
0.164968 0.433643 0.000000
0.233039 0.432814 0.000000
0.301110 0.431985 0.000000
0.369181 0.431156 0.000000
0.437251 0.430327 0.000000
0.505322 0.429498 0.000000
0.573393 0.428669 0.000000
0.641464 0.427839 0.000000
0.709535 0.427010 0.000000
0.777606 0.426181 0.000000
0.845677 0.425352 0.000000
0.913747 0.424523 0.000000
0.981818 0.423694 0.000000
1.000000 0.422865 0.000000
0.000000 0.493147 0.000000
0.026421 0.492318 0.000000
0.094492 0.491489 0.000000
0.162562 0.490660 0.000000
0.230633 0.489831 0.000000
0.298704 0.489002 0.000000
0.366775 0.488172 0.000000
0.434846 0.487343 0.000000
0.502917 0.486514 0.000000
0.570988 0.485685 0.000000
0.639058 0.484856 0.000000
0.707129 0.484027 0.000000
0.775200 0.483198 0.000000
0.843271 0.482368 0.000000
0.911342 0.481539 0.000000
0.979413 0.480710 0.000000
1.000000 0.479881 0.000000
0.000000 0.550164 0.000000
0.024015 0.549334 0.000000
0.092086 0.548505 0.000000
0.160157 0.547676 0.000000
0.228228 0.546847 0.000000
0.296299 0.546018 0.000000
0.364369 0.545189 0.000000
0.432440 0.544360 0.000000
0.500511 0.543530 0.000000
0.568582 0.542701 0.000000
0.636653 0.541872 0.000000
0.704724 0.541043 0.000000
0.772795 0.540214 0.000000
0.840865 0.539385 0.000000
0.908936 0.538556 0.000000
0.977007 0.537726 0.000000
1.000000 0.536897 0.000000
0.000000 0.607180 0.000000
0.021609 0.606351 0.000000
0.089680 0.605522 0.000000
0.157751 0.604693 0.000000
0.225822 0.603863 0.000000
0.293893 0.603034 0.000000
0.361964 0.602205 0.000000
0.430035 0.601376 0.000000
0.498106 0.600547 0.000000
0.566176 0.599718 0.000000
0.634247 0.598889 0.000000
0.702318 0.598059 0.000000
0.770389 0.597230 0.000000
0.838460 0.596401 0.000000
0.906531 0.595572 0.000000
0.974602 0.594743 0.000000
1.000000 0.593914 0.000000
0.000000 0.664196 0.000000
0.019204 0.663367 0.000000
0.087275 0.662538 0.000000
0.155346 0.661709 0.000000
0.223416 0.660880 0.000000
0.291487 0.660051 0.000000
0.359558 0.659221 0.000000
0.427629 0.658392 0.000000
0.495700 0.657563 0.000000
0.563771 0.656734 0.000000
0.631842 0.655905 0.000000
0.699913 0.655076 0.000000
0.767983 0.654247 0.000000
0.836054 0.653417 0.000000
0.904125 0.652588 0.000000
0.972196 0.651759 0.000000
1.000000 0.650930 0.000000
0.000000 0.721213 0.000000
0.016798 0.720384 0.000000
0.084869 0.719554 0.000000
0.152940 0.718725 0.000000
0.221011 0.717896 0.000000
0.289082 0.717067 0.000000
0.357153 0.716238 0.000000
0.425223 0.715409 0.000000
0.493294 0.714580 0.000000
0.561365 0.713750 0.000000
0.629436 0.712921 0.000000
0.697507 0.712092 0.000000
0.765578 0.711263 0.000000
0.833649 0.710434 0.000000
0.901720 0.709605 0.000000
0.969790 0.708776 0.000000
1.000000 0.707946 0.000000
0.000000 0.778229 0.000000
0.014393 0.777400 0.000000
0.082464 0.776571 0.000000
0.150534 0.775742 0.000000
0.218605 0.774912 0.000000
0.286676 0.774083 0.000000
0.354747 0.773254 0.000000
0.422818 0.772425 0.000000
0.490889 0.771596 0.000000
0.558960 0.770767 0.000000
0.627030 0.769938 0.000000
0.695101 0.769108 0.000000
0.763172 0.768279 0.000000
0.831243 0.767450 0.000000
0.899314 0.766621 0.000000
0.967385 0.765792 0.000000
1.000000 0.764963 0.000000
0.000000 0.835245 0.000000
0.011987 0.834416 0.000000
0.080058 0.833587 0.000000
0.148129 0.832758 0.000000
0.216200 0.831929 0.000000
0.284271 0.831100 0.000000
0.352341 0.830271 0.000000
0.420412 0.829441 0.000000
0.488483 0.828612 0.000000
0.556554 0.827783 0.000000
0.624625 0.826954 0.000000
0.692696 0.826125 0.000000
0.760767 0.825296 0.000000
0.828837 0.824467 0.000000
0.896908 0.823637 0.000000
0.964979 0.822808 0.000000
1.000000 0.821979 0.000000
0.000000 0.892262 0.000000
0.009582 0.891433 0.000000
0.077652 0.890603 0.000000
0.145723 0.889774 0.000000
0.213794 0.888945 0.000000
0.281865 0.888116 0.000000
0.349936 0.887287 0.000000
0.418007 0.886458 0.000000
0.486078 0.885629 0.000000
0.554148 0.884799 0.000000
0.622219 0.883970 0.000000
0.690290 0.883141 0.000000
0.758361 0.882312 0.000000
0.826432 0.881483 0.000000
0.894503 0.880654 0.000000
0.962574 0.879825 0.000000
1.000000 0.878995 0.000000
0.000000 0.000000 0.030766
0.047863 0.000000 0.029937
0.115933 0.000000 0.029107
0.184004 0.000000 0.028278
0.252075 0.000000 0.027449
0.320146 0.000000 0.026620
0.388217 0.000000 0.025791
0.456288 0.000000 0.024962
0.524359 0.000000 0.024133
0.592429 0.000000 0.023303
0.660500 0.000000 0.022474
0.728571 0.000000 0.021645
0.796642 0.000000 0.020816
0.864713 0.000000 0.019987
0.932784 0.000000 0.019158
1.000000 0.000000 0.018329
1.000000 0.000000 0.017499
0.000000 0.036808 0.028360
0.045457 0.035979 0.027531
0.113528 0.035150 0.026702
0.181599 0.034321 0.025873
0.249670 0.033491 0.025044
0.317740 0.032662 0.024214
0.385811 0.031833 0.023385
0.453882 0.031004 0.022556
0.521953 0.030175 0.021727
0.590024 0.029346 0.020898
0.658095 0.028517 0.020069
0.726166 0.027687 0.019240
0.794236 0.026858 0.018410
0.862307 0.026029 0.017581
0.930378 0.025200 0.016752
0.998449 0.024371 0.015923
1.000000 0.023542 0.015094
0.000000 0.093824 0.025954
0.043051 0.092995 0.025125
0.111122 0.092166 0.024296
0.179193 0.091337 0.023467
0.247264 0.090508 0.022638
0.315335 0.089679 0.021809
0.383406 0.088850 0.020980
0.451477 0.088020 0.020151
0.519547 0.087191 0.019321
0.587618 0.086362 0.018492
0.655689 0.085533 0.017663
0.723760 0.084704 0.016834
0.791831 0.083875 0.016005
0.859902 0.083046 0.015176
0.927973 0.082216 0.014347
0.996043 0.081387 0.013517
1.000000 0.080558 0.012688
0.000000 0.150841 0.023549
0.040646 0.150012 0.022720
0.108717 0.149182 0.021891
0.176788 0.148353 0.021061
0.244858 0.147524 0.020232
0.312929 0.146695 0.019403
0.381000 0.145866 0.018574
0.449071 0.145037 0.017745
0.517142 0.144208 0.016916
0.585213 0.143378 0.016087
0.653284 0.142549 0.015258
0.721354 0.141720 0.014428
0.789425 0.140891 0.013599
0.857496 0.140062 0.012770
0.925567 0.139233 0.011941
0.993638 0.138404 0.011112
1.000000 0.137575 0.010283
0.000000 0.207857 0.021143
0.038240 0.207028 0.020314
0.106311 0.206199 0.019485
0.174382 0.205370 0.018656
0.242453 0.204541 0.017827
0.310524 0.203711 0.016998
0.378595 0.202882 0.016168
0.446665 0.202053 0.015339
0.514736 0.201224 0.014510
0.582807 0.200395 0.013681
0.650878 0.199566 0.012852
0.718949 0.198737 0.012023
0.787020 0.197907 0.011194
0.855091 0.197078 0.010365
0.923161 0.196249 0.009535
0.991232 0.195420 0.008706
1.000000 0.194591 0.007877
0.000000 0.264873 0.018738
0.035835 0.264044 0.017909
0.103906 0.263215 0.017079
0.171976 0.262386 0.016250
0.240047 0.261557 0.015421
0.308118 0.260728 0.014592
0.376189 0.259899 0.013763
0.444260 0.259069 0.012934
0.512331 0.258240 0.012105
0.580402 0.257411 0.011275
0.648472 0.256582 0.010446
0.716543 0.255753 0.009617
0.784614 0.254924 0.008788
0.852685 0.254095 0.007959
0.920756 0.253266 0.007130
0.988827 0.252436 0.006301
1.000000 0.251607 0.005472
0.000000 0.321890 0.016332
0.033429 0.321061 0.015503
0.101500 0.320232 0.014674
0.169571 0.319402 0.013845
0.237642 0.318573 0.013016
0.305713 0.317744 0.012186
0.373783 0.316915 0.011357
0.441854 0.316086 0.010528
0.509925 0.315257 0.009699
0.577996 0.314428 0.008870
0.646067 0.313598 0.008041
0.714138 0.312769 0.007212
0.782209 0.311940 0.006382
0.850279 0.311111 0.005553
0.918350 0.310282 0.004724
0.986421 0.309453 0.003895
1.000000 0.308624 0.003066
0.000000 0.378906 0.013927
0.031023 0.378077 0.013097
0.099094 0.377248 0.012268
0.167165 0.376419 0.011439
0.235236 0.375590 0.010610
0.303307 0.374760 0.009781
0.371378 0.373931 0.008952
0.439449 0.373102 0.008123
0.507520 0.372273 0.007293
0.575590 0.371444 0.006464
0.643661 0.370615 0.005635
0.711732 0.369786 0.004806
0.779803 0.368956 0.003977
0.847874 0.368127 0.003148
0.915945 0.367298 0.002319
0.984016 0.366469 0.001489
1.000000 0.365640 0.000660
0.000000 0.435923 0.011521
0.028618 0.435093 0.010692
0.096689 0.434264 0.009863
0.164760 0.433435 0.009034
0.232830 0.432606 0.008204
0.300901 0.431777 0.007375
0.368972 0.430948 0.006546
0.437043 0.430119 0.005717
0.505114 0.429289 0.004888
0.573185 0.428460 0.004059
0.641256 0.427631 0.003230
0.709327 0.426802 0.002400
0.777397 0.425973 0.001571
0.845468 0.425144 0.000742
0.913539 0.424315 0.000000
0.981610 0.423485 0.000000
1.000000 0.422656 0.000000
0.000000 0.492939 0.009115
0.026212 0.492110 0.008286
0.094283 0.491281 0.007457
0.162354 0.490451 0.006628
0.230425 0.489622 0.005799
0.298496 0.488793 0.004970
0.366567 0.487964 0.004141
0.434637 0.487135 0.003311
0.502708 0.486306 0.002482
0.570779 0.485477 0.001653
0.638850 0.484647 0.000824
0.706921 0.483818 0.000000
0.774992 0.482989 0.000000
0.843063 0.482160 0.000000
0.911134 0.481331 0.000000
0.979204 0.480502 0.000000
1.000000 0.479673 0.000000
0.000000 0.549955 0.006710
0.023807 0.549126 0.005881
0.091878 0.548297 0.005052
0.159948 0.547468 0.004222
0.228019 0.546639 0.003393
0.296090 0.545810 0.002564
0.364161 0.544980 0.001735
0.432232 0.544151 0.000906
0.500303 0.543322 0.000077
0.568374 0.542493 0.000000
0.636444 0.541664 0.000000
0.704515 0.540835 0.000000
0.772586 0.540006 0.000000
0.840657 0.539176 0.000000
0.908728 0.538347 0.000000
0.976799 0.537518 0.000000
1.000000 0.536689 0.000000
0.000000 0.606972 0.004304
0.021401 0.606142 0.003475
0.089472 0.605313 0.002646
0.157543 0.604484 0.001817
0.225614 0.603655 0.000988
0.293685 0.602826 0.000159
0.361755 0.601997 0.000000
0.429826 0.601168 0.000000
0.497897 0.600338 0.000000
0.565968 0.599509 0.000000
0.634039 0.598680 0.000000
0.702110 0.597851 0.000000
0.770181 0.597022 0.000000
0.838251 0.596193 0.000000
0.906322 0.595364 0.000000
0.974393 0.594535 0.000000
1.000000 0.593705 0.000000
0.000000 0.663988 0.001899
0.018996 0.663159 0.001070
0.087066 0.662330 0.000240
0.155137 0.661501 0.000000
0.223208 0.660671 0.000000
0.291279 0.659842 0.000000
0.359350 0.659013 0.000000
0.427421 0.658184 0.000000
0.495492 0.657355 0.000000
0.563562 0.656526 0.000000
0.631633 0.655697 0.000000
0.699704 0.654867 0.000000
0.767775 0.654038 0.000000
0.835846 0.653209 0.000000
0.903917 0.652380 0.000000
0.971988 0.651551 0.000000
1.000000 0.650722 0.000000
0.000000 0.721004 0.000000
0.016590 0.720175 0.000000
0.084661 0.719346 0.000000
0.152732 0.718517 0.000000
0.220803 0.717688 0.000000
0.288873 0.716859 0.000000
0.356944 0.716029 0.000000
0.425015 0.715200 0.000000
0.493086 0.714371 0.000000
0.561157 0.713542 0.000000
0.629228 0.712713 0.000000
0.697299 0.711884 0.000000
0.765369 0.711055 0.000000
0.833440 0.710226 0.000000
0.901511 0.709396 0.000000
0.969582 0.708567 0.000000
1.000000 0.707738 0.000000
0.000000 0.778021 0.000000
0.014184 0.777192 0.000000
0.082255 0.776362 0.000000
0.150326 0.775533 0.000000
0.218397 0.774704 0.000000
0.286468 0.773875 0.000000
0.354539 0.773046 0.000000
0.422610 0.772217 0.000000
0.490680 0.771388 0.000000
0.558751 0.770558 0.000000
0.626822 0.769729 0.000000
0.694893 0.768900 0.000000
0.762964 0.768071 0.000000
0.831035 0.767242 0.000000
0.899106 0.766413 0.000000
0.967176 0.765584 0.000000
1.000000 0.764754 0.000000
0.000000 0.835037 0.000000
0.011779 0.834208 0.000000
0.079850 0.833379 0.000000
0.147921 0.832550 0.000000
0.215991 0.831720 0.000000
0.284062 0.830891 0.000000
0.352133 0.830062 0.000000
0.420204 0.829233 0.000000
0.488275 0.828404 0.000000
0.556346 0.827575 0.000000
0.624417 0.826746 0.000000
0.692487 0.825916 0.000000
0.760558 0.825087 0.000000
0.828629 0.824258 0.000000
0.896700 0.823429 0.000000
0.964771 0.822600 0.000000
1.000000 0.821771 0.000000
0.000000 0.892053 0.000000
0.009373 0.891224 0.000000
0.077444 0.890395 0.000000
0.145515 0.889566 0.000000
0.213586 0.888737 0.000000
0.281657 0.887908 0.000000
0.349728 0.887079 0.000000
0.417798 0.886249 0.000000
0.485869 0.885420 0.000000
0.553940 0.884591 0.000000
0.622011 0.883762 0.000000
0.690082 0.882933 0.000000
0.758153 0.882104 0.000000
0.826224 0.881275 0.000000
0.894294 0.880445 0.000000
0.962365 0.879616 0.000000
1.000000 0.878787 0.000000
0.000000 0.000000 0.081531
0.047654 0.000000 0.080702
0.115725 0.000000 0.079873
0.183796 0.000000 0.079044
0.251867 0.000000 0.078215
0.319938 0.000000 0.077386
0.388009 0.000000 0.076556
0.456079 0.000000 0.075727
0.524150 0.000000 0.074898
0.592221 0.000000 0.074069
0.660292 0.000000 0.073240
0.728363 0.000000 0.072411
0.796434 0.000000 0.071582
0.864505 0.000000 0.070752
0.932575 0.000000 0.069923
1.000000 0.000000 0.069094
1.000000 0.000000 0.068265
0.000000 0.036600 0.079126
0.045249 0.035771 0.078297
0.113320 0.034941 0.077467
0.181390 0.034112 0.076638
0.249461 0.033283 0.075809
0.317532 0.032454 0.074980
0.385603 0.031625 0.074151
0.453674 0.030796 0.073322
0.521745 0.029967 0.072493
0.589816 0.029137 0.071663
0.657886 0.028308 0.070834
0.725957 0.027479 0.070005
0.794028 0.026650 0.069176
0.862099 0.025821 0.068347
0.930170 0.024992 0.067518
0.998241 0.024163 0.066689
1.000000 0.023333 0.065859
0.000000 0.093616 0.076720
0.042843 0.092787 0.075891
0.110914 0.091958 0.075062
0.178985 0.091129 0.074233
0.247056 0.090300 0.073404
0.315127 0.089470 0.072574
0.383197 0.088641 0.071745
0.451268 0.087812 0.070916
0.519339 0.086983 0.070087
0.587410 0.086154 0.069258
0.655481 0.085325 0.068429
0.723552 0.084496 0.067600
0.791623 0.083666 0.066770
0.859693 0.082837 0.065941
0.927764 0.082008 0.065112
0.995835 0.081179 0.064283
1.000000 0.080350 0.063454
0.000000 0.150632 0.074315
0.040437 0.149803 0.073485
0.108508 0.148974 0.072656
0.176579 0.148145 0.071827
0.244650 0.147316 0.070998
0.312721 0.146487 0.070169
0.380792 0.145658 0.069340
0.448863 0.144828 0.068511
0.516934 0.143999 0.067681
0.585004 0.143170 0.066852
0.653075 0.142341 0.066023
0.721146 0.141512 0.065194
0.789217 0.140683 0.064365
0.857288 0.139854 0.063536
0.925359 0.139024 0.062707
0.993430 0.138195 0.061877
1.000000 0.137366 0.061048
0.000000 0.207649 0.071909
0.038032 0.206820 0.071080
0.106103 0.205991 0.070251
0.174174 0.205161 0.069422
0.242244 0.204332 0.068592
0.310315 0.203503 0.067763
0.378386 0.202674 0.066934
0.446457 0.201845 0.066105
0.514528 0.201016 0.065276
0.582599 0.200187 0.064447
0.650670 0.199357 0.063618
0.718741 0.198528 0.062788
0.786811 0.197699 0.061959
0.854882 0.196870 0.061130
0.922953 0.196041 0.060301
0.991024 0.195212 0.059472
1.000000 0.194383 0.058643
0.000000 0.264665 0.069503
0.035626 0.263836 0.068674
0.103697 0.263007 0.067845
0.171768 0.262178 0.067016
0.239839 0.261349 0.066187
0.307910 0.260519 0.065358
0.375981 0.259690 0.064529
0.444051 0.258861 0.063699
0.512122 0.258032 0.062870
0.580193 0.257203 0.062041
0.648264 0.256374 0.061212
0.716335 0.255545 0.060383
0.784406 0.254715 0.059554
0.852477 0.253886 0.058725
0.920548 0.253057 0.057895
0.988618 0.252228 0.057066
1.000000 0.251399 0.056237
0.000000 0.321682 0.067098
0.033221 0.320852 0.066269
0.101292 0.320023 0.065440
0.169362 0.319194 0.064610
0.237433 0.318365 0.063781
0.305504 0.317536 0.062952
0.373575 0.316707 0.062123
0.441646 0.315878 0.061294
0.509717 0.315048 0.060465
0.577788 0.314219 0.059636
0.645858 0.313390 0.058806
0.713929 0.312561 0.057977
0.782000 0.311732 0.057148
0.850071 0.310903 0.056319
0.918142 0.310074 0.055490
0.986213 0.309244 0.054661
1.000000 0.308415 0.053832
0.000000 0.378698 0.064692
0.030815 0.377869 0.063863
0.098886 0.377040 0.063034
0.166957 0.376210 0.062205
0.235028 0.375381 0.061376
0.303099 0.374552 0.060547
0.371169 0.373723 0.059717
0.439240 0.372894 0.058888
0.507311 0.372065 0.058059
0.575382 0.371236 0.057230
0.643453 0.370406 0.056401
0.711524 0.369577 0.055572
0.779595 0.368748 0.054743
0.847665 0.367919 0.053913
0.915736 0.367090 0.053084
0.983807 0.366261 0.052255
1.000000 0.365432 0.051426
0.000000 0.435714 0.062287
0.028410 0.434885 0.061458
0.096480 0.434056 0.060628
0.164551 0.433227 0.059799
0.232622 0.432398 0.058970
0.300693 0.431569 0.058141
0.368764 0.430739 0.057312
0.436835 0.429910 0.056483
0.504906 0.429081 0.055654
0.572976 0.428252 0.054824
0.641047 0.427423 0.053995
0.709118 0.426594 0.053166
0.777189 0.425765 0.052337
0.845260 0.424935 0.051508
0.913331 0.424106 0.050679
0.981402 0.423277 0.049850
1.000000 0.422448 0.049020
0.000000 0.492731 0.059881
0.026004 0.491901 0.059052
0.094075 0.491072 0.058223
0.162146 0.490243 0.057394
0.230217 0.489414 0.056565
0.298287 0.488585 0.055735
0.366358 0.487756 0.054906
0.434429 0.486927 0.054077
0.502500 0.486097 0.053248
0.570571 0.485268 0.052419
0.638642 0.484439 0.051590
0.706713 0.483610 0.050761
0.774783 0.482781 0.049931
0.842854 0.481952 0.049102
0.910925 0.481123 0.048273
0.978996 0.480293 0.047444
1.000000 0.479464 0.046615
0.000000 0.549747 0.057475
0.023598 0.548918 0.056646
0.091669 0.548089 0.055817
0.159740 0.547260 0.054988
0.227811 0.546430 0.054159
0.295882 0.545601 0.053330
0.363953 0.544772 0.052501
0.432024 0.543943 0.051672
0.500094 0.543114 0.050842
0.568165 0.542285 0.050013
0.636236 0.541456 0.049184
0.704307 0.540626 0.048355
0.772378 0.539797 0.047526
0.840449 0.538968 0.046697
0.908520 0.538139 0.045868
0.976590 0.537310 0.045038
1.000000 0.536481 0.044209
0.000000 0.606763 0.055070
0.021193 0.605934 0.054241
0.089264 0.605105 0.053412
0.157335 0.604276 0.052582
0.225405 0.603447 0.051753
0.293476 0.602618 0.050924
0.361547 0.601788 0.050095
0.429618 0.600959 0.049266
0.497689 0.600130 0.048437
0.565760 0.599301 0.047608
0.633831 0.598472 0.046779
0.701901 0.597643 0.045949
0.769972 0.596814 0.045120
0.838043 0.595984 0.044291
0.906114 0.595155 0.043462
0.974185 0.594326 0.042633
1.000000 0.593497 0.041804
0.000000 0.663780 0.052664
0.018787 0.662951 0.051835
0.086858 0.662121 0.051006
0.154929 0.661292 0.050177
0.223000 0.660463 0.049348
0.291071 0.659634 0.048519
0.359142 0.658805 0.047690
0.427212 0.657976 0.046860
0.495283 0.657147 0.046031
0.563354 0.656317 0.045202
0.631425 0.655488 0.044373
0.699496 0.654659 0.043544
0.767567 0.653830 0.042715
0.835638 0.653001 0.041886
0.903708 0.652172 0.041056
0.971779 0.651343 0.040227
1.000000 0.650513 0.039398
0.000000 0.720796 0.050259
0.016382 0.719967 0.049430
0.084453 0.719138 0.048600
0.152523 0.718309 0.047771
0.220594 0.717479 0.046942
0.288665 0.716650 0.046113
0.356736 0.715821 0.045284
0.424807 0.714992 0.044455
0.492878 0.714163 0.043626
0.560949 0.713334 0.042797
0.629019 0.712505 0.041967
0.697090 0.711675 0.041138
0.765161 0.710846 0.040309
0.833232 0.710017 0.039480
0.901303 0.709188 0.038651
0.969374 0.708359 0.037822
1.000000 0.707530 0.036993
0.000000 0.777812 0.047853
0.013976 0.776983 0.047024
0.082047 0.776154 0.046195
0.150118 0.775325 0.045366
0.218189 0.774496 0.044537
0.286260 0.773667 0.043707
0.354330 0.772838 0.042878
0.422401 0.772008 0.042049
0.490472 0.771179 0.041220
0.558543 0.770350 0.040391
0.626614 0.769521 0.039562
0.694685 0.768692 0.038733
0.762756 0.767863 0.037904
0.830826 0.767034 0.037074
0.898897 0.766204 0.036245
0.966968 0.765375 0.035416
1.000000 0.764546 0.034587
0.000000 0.834829 0.045448
0.011571 0.834000 0.044618
0.079641 0.833170 0.043789
0.147712 0.832341 0.042960
0.215783 0.831512 0.042131
0.283854 0.830683 0.041302
0.351925 0.829854 0.040473
0.419996 0.829025 0.039644
0.488067 0.828196 0.038814
0.556137 0.827366 0.037985
0.624208 0.826537 0.037156
0.692279 0.825708 0.036327
0.760350 0.824879 0.035498
0.828421 0.824050 0.034669
0.896492 0.823221 0.033840
0.964563 0.822392 0.033011
1.000000 0.821562 0.032181
0.000000 0.891845 0.043042
0.009165 0.891016 0.042213
0.077236 0.890187 0.041384
0.145307 0.889358 0.040555
0.213378 0.888529 0.039725
0.281448 0.887699 0.038896
0.349519 0.886870 0.038067
0.417590 0.886041 0.037238
0.485661 0.885212 0.036409
0.553732 0.884383 0.035580
0.621803 0.883554 0.034751
0.689874 0.882725 0.033921
0.757944 0.881895 0.033092
0.826015 0.881066 0.032263
0.894086 0.880237 0.031434
0.962157 0.879408 0.030605
1.000000 0.878579 0.029776
0.000000 0.000000 0.132297
0.047446 0.000000 0.131468
0.115517 0.000000 0.130639
0.183588 0.000000 0.129810
0.251658 0.000000 0.128980
0.319729 0.000000 0.128151
0.387800 0.000000 0.127322
0.455871 0.000000 0.126493
0.523942 0.000000 0.125664
0.592013 0.000000 0.124835
0.660084 0.000000 0.124006
0.728154 0.000000 0.123176
0.796225 0.000000 0.122347
0.864296 0.000000 0.121518
