assets/lighting/day-night-palettes/grade-led-warm-white/lut.cube
TITLE "LED Warm White 2700K"
# TKRS lighting-batch-001 original LUT
# Intended usage: residential warm LED
# License: CC0-1.0
LUT_3D_SIZE 5
DOMAIN_MIN 0.0 0.0 0.0
DOMAIN_MAX 1.0 1.0 1.0
0.000000 0.000000 0.000000
0.252283 0.000000 0.000000
0.524567 0.000000 0.000000
0.796850 0.000000 0.000000
1.000000 0.000000 0.000000
0.000000 0.208065 0.000000
0.242661 0.204749 0.000000
0.514945 0.201432 0.000000
0.787228 0.198116 0.000000
1.000000 0.194799 0.000000
0.000000 0.436131 0.000000
0.233039 0.432814 0.000000
0.505322 0.429498 0.000000
0.777606 0.426181 0.000000
1.000000 0.422865 0.000000
0.000000 0.664196 0.000000
0.223416 0.660880 0.000000
0.495700 0.657563 0.000000
0.767983 0.654247 0.000000
1.000000 0.650930 0.000000
0.000000 0.892262 0.000000
0.213794 0.888945 0.000000
0.486078 0.885629 0.000000
0.758361 0.882312 0.000000
1.000000 0.878995 0.000000
0.000000 0.000000 0.183063
0.251450 0.000000 0.179746
0.523734 0.000000 0.176429
0.796017 0.000000 0.173113
1.000000 0.000000 0.169796
0.000000 0.207232 0.173440
0.241828 0.203916 0.170124
0.514111 0.200599 0.166807
0.786395 0.197282 0.163491
1.000000 0.193966 0.160174
0.000000 0.435298 0.163818
0.232206 0.431981 0.160501
0.504489 0.428664 0.157185
0.776772 0.425348 0.153868
1.000000 0.422031 0.150552
0.000000 0.663363 0.154196
0.222583 0.660046 0.150879
0.494867 0.656730 0.147563
0.767150 0.653413 0.144246
1.000000 0.650097 0.140929
0.000000 0.891428 0.144573
0.212961 0.888112 0.141257
0.485244 0.884795 0.137940
0.757528 0.881479 0.134624
1.000000 0.878162 0.131307
0.000000 0.000000 0.386125
0.250617 0.000000 0.382809
0.522900 0.000000 0.379492
0.795184 0.000000 0.376175
1.000000 0.000000 0.372859
0.000000 0.206399 0.376503
0.240995 0.203082 0.373186
0.513278 0.199766 0.369870
0.785561 0.196449 0.366553
1.000000 0.193133 0.363237
0.000000 0.434464 0.366881
0.231372 0.431148 0.363564
0.503656 0.427831 0.360247
0.775939 0.424515 0.356931
1.000000 0.421198 0.353614
0.000000 0.662530 0.357258
0.221750 0.659213 0.353942
0.494033 0.655897 0.350625
0.766317 0.652580 0.347309
1.000000 0.649263 0.343992
0.000000 0.890595 0.347636
0.212128 0.887279 0.344319
0.484411 0.883962 0.341003
0.756694 0.880645 0.337686
1.000000 0.877329 0.334370
0.000000 0.000000 0.589188
0.249784 0.000000 0.585871
0.522067 0.000000 0.582555
0.794350 0.000000 0.579238
1.000000 0.000000 0.575922
0.000000 0.205566 0.579565
0.240161 0.202249 0.576249
0.512445 0.198932 0.572932
0.784728 0.195616 0.569616
1.000000 0.192299 0.566299
0.000000 0.433631 0.569943
0.230539 0.430314 0.566627
0.502822 0.426998 0.563310
0.775106 0.423681 0.559993
1.000000 0.420365 0.556677
0.000000 0.661696 0.560321
0.220917 0.658380 0.557004
0.493200 0.655063 0.553688
0.765484 0.651747 0.550371
1.000000 0.648430 0.547055
0.000000 0.889762 0.550698
0.211294 0.886445 0.547382
0.483578 0.883129 0.544065
0.755861 0.879812 0.540749
1.000000 0.876496 0.537432
0.000000 0.000000 0.792250
0.248950 0.000000 0.788934
0.521234 0.000000 0.785617
0.793517 0.000000 0.782301
1.000000 0.000000 0.778984
0.000000 0.204732 0.782628
0.239328 0.201416 0.779311
0.511611 0.198099 0.775995
0.783895 0.194783 0.772678
1.000000 0.191466 0.769362
0.000000 0.432798 0.773006
0.229706 0.429481 0.769689
0.501989 0.426165 0.766373
0.774273 0.422848 0.763056
1.000000 0.419531 0.759739
0.000000 0.660863 0.763383
0.220083 0.657547 0.760067
0.492367 0.654230 0.756750
0.764650 0.650913 0.753434
1.000000 0.647597 0.750117
0.000000 0.888929 0.753761
0.210461 0.885612 0.750445
0.482744 0.882295 0.747128
0.755028 0.878979 0.743811
1.000000 0.875662 0.740495
