assets/lighting/day-night-palettes/grade-led-warm-white/lut.cube
TITLE "LED Warm White 2700K"
# TKRS lighting-batch-001 original LUT
# Intended usage: residential warm LED
# License: CC0-1.0
LUT_3D_SIZE 9
DOMAIN_MIN 0.0 0.0 0.0
DOMAIN_MAX 1.0 1.0 1.0
0.000000 0.000000 0.000000
0.116142 0.000000 0.000000
0.252283 0.000000 0.000000
0.388425 0.000000 0.000000
0.524567 0.000000 0.000000
0.660709 0.000000 0.000000
0.796850 0.000000 0.000000
0.932992 0.000000 0.000000
1.000000 0.000000 0.000000
0.000000 0.094033 0.000000
0.111331 0.092374 0.000000
0.247472 0.090716 0.000000
0.383614 0.089058 0.000000
0.519756 0.087400 0.000000
0.655897 0.085741 0.000000
0.792039 0.084083 0.000000
0.928181 0.082425 0.000000
1.000000 0.080766 0.000000
0.000000 0.208065 0.000000
0.106519 0.206407 0.000000
0.242661 0.204749 0.000000
0.378803 0.203091 0.000000
0.514945 0.201432 0.000000
0.651086 0.199774 0.000000
0.787228 0.198116 0.000000
0.923370 0.196457 0.000000
1.000000 0.194799 0.000000
0.000000 0.322098 0.000000
0.101708 0.320440 0.000000
0.237850 0.318782 0.000000
0.373992 0.317123 0.000000
0.510133 0.315465 0.000000
0.646275 0.313807 0.000000
0.782417 0.312148 0.000000
0.918559 0.310490 0.000000
1.000000 0.308832 0.000000
0.000000 0.436131 0.000000
0.096897 0.434473 0.000000
0.233039 0.432814 0.000000
0.369181 0.431156 0.000000
0.505322 0.429498 0.000000
0.641464 0.427839 0.000000
0.777606 0.426181 0.000000
0.913747 0.424523 0.000000
1.000000 0.422865 0.000000
0.000000 0.550164 0.000000
0.092086 0.548505 0.000000
0.228228 0.546847 0.000000
0.364369 0.545189 0.000000
0.500511 0.543530 0.000000
0.636653 0.541872 0.000000
0.772795 0.540214 0.000000
0.908936 0.538556 0.000000
1.000000 0.536897 0.000000
0.000000 0.664196 0.000000
0.087275 0.662538 0.000000
0.223416 0.660880 0.000000
0.359558 0.659221 0.000000
0.495700 0.657563 0.000000
0.631842 0.655905 0.000000
0.767983 0.654247 0.000000
0.904125 0.652588 0.000000
1.000000 0.650930 0.000000
0.000000 0.778229 0.000000
0.082464 0.776571 0.000000
0.218605 0.774912 0.000000
0.354747 0.773254 0.000000
0.490889 0.771596 0.000000
0.627030 0.769938 0.000000
0.763172 0.768279 0.000000
0.899314 0.766621 0.000000
1.000000 0.764963 0.000000
0.000000 0.892262 0.000000
0.077652 0.890603 0.000000
0.213794 0.888945 0.000000
0.349936 0.887287 0.000000
0.486078 0.885629 0.000000
0.622219 0.883970 0.000000
0.758361 0.882312 0.000000
0.894503 0.880654 0.000000
1.000000 0.878995 0.000000
0.000000 0.000000 0.081531
0.115725 0.000000 0.079873
0.251867 0.000000 0.078215
0.388009 0.000000 0.076556
0.524150 0.000000 0.074898
0.660292 0.000000 0.073240
0.796434 0.000000 0.071582
0.932575 0.000000 0.069923
1.000000 0.000000 0.068265
0.000000 0.093616 0.076720
0.110914 0.091958 0.075062
0.247056 0.090300 0.073404
0.383197 0.088641 0.071745
0.519339 0.086983 0.070087
0.655481 0.085325 0.068429
0.791623 0.083666 0.066770
0.927764 0.082008 0.065112
1.000000 0.080350 0.063454
0.000000 0.207649 0.071909
0.106103 0.205991 0.070251
0.242244 0.204332 0.068592
0.378386 0.202674 0.066934
0.514528 0.201016 0.065276
0.650670 0.199357 0.063618
0.786811 0.197699 0.061959
0.922953 0.196041 0.060301
1.000000 0.194383 0.058643
0.000000 0.321682 0.067098
0.101292 0.320023 0.065440
0.237433 0.318365 0.063781
0.373575 0.316707 0.062123
0.509717 0.315048 0.060465
0.645858 0.313390 0.058806
0.782000 0.311732 0.057148
0.918142 0.310074 0.055490
1.000000 0.308415 0.053832
0.000000 0.435714 0.062287
0.096480 0.434056 0.060628
0.232622 0.432398 0.058970
0.368764 0.430739 0.057312
0.504906 0.429081 0.055654
0.641047 0.427423 0.053995
0.777189 0.425765 0.052337
0.913331 0.424106 0.050679
1.000000 0.422448 0.049020
0.000000 0.549747 0.057475
0.091669 0.548089 0.055817
0.227811 0.546430 0.054159
0.363953 0.544772 0.052501
0.500094 0.543114 0.050842
0.636236 0.541456 0.049184
0.772378 0.539797 0.047526
0.908520 0.538139 0.045868
1.000000 0.536481 0.044209
0.000000 0.663780 0.052664
0.086858 0.662121 0.051006
0.223000 0.660463 0.049348
0.359142 0.658805 0.047690
0.495283 0.657147 0.046031
0.631425 0.655488 0.044373
0.767567 0.653830 0.042715
0.903708 0.652172 0.041056
1.000000 0.650513 0.039398
0.000000 0.777812 0.047853
0.082047 0.776154 0.046195
0.218189 0.774496 0.044537
0.354330 0.772838 0.042878
0.490472 0.771179 0.041220
0.626614 0.769521 0.039562
0.762756 0.767863 0.037904
0.898897 0.766204 0.036245
1.000000 0.764546 0.034587
0.000000 0.891845 0.043042
0.077236 0.890187 0.041384
0.213378 0.888529 0.039725
0.349519 0.886870 0.038067
0.485661 0.885212 0.036409
0.621803 0.883554 0.034751
0.757944 0.881895 0.033092
0.894086 0.880237 0.031434
1.000000 0.878579 0.029776
0.000000 0.000000 0.183063
0.115308 0.000000 0.181404
0.251450 0.000000 0.179746
0.387592 0.000000 0.178088
0.523734 0.000000 0.176429
0.659875 0.000000 0.174771
0.796017 0.000000 0.173113
0.932159 0.000000 0.171455
1.000000 0.000000 0.169796
0.000000 0.093199 0.178251
0.110497 0.091541 0.176593
0.246639 0.089883 0.174935
0.382781 0.088225 0.173277
0.518922 0.086566 0.171618
0.655064 0.084908 0.169960
0.791206 0.083250 0.168302
0.927348 0.081591 0.166643
1.000000 0.079933 0.164985
0.000000 0.207232 0.173440
0.105686 0.205574 0.171782
0.241828 0.203916 0.170124
0.377970 0.202257 0.168465
0.514111 0.200599 0.166807
0.650253 0.198941 0.165149
0.786395 0.197282 0.163491
0.922536 0.195624 0.161832
1.000000 0.193966 0.160174
0.000000 0.321265 0.168629
0.100875 0.319607 0.166971
0.237017 0.317948 0.165313
0.373158 0.316290 0.163654
0.509300 0.314632 0.161996
0.645442 0.312973 0.160338
0.781584 0.311315 0.158679
0.917725 0.309657 0.157021
1.000000 0.307999 0.155363
0.000000 0.435298 0.163818
0.096064 0.433639 0.162160
0.232206 0.431981 0.160501
0.368347 0.430323 0.158843
0.504489 0.428664 0.157185
0.640631 0.427006 0.155527
0.776772 0.425348 0.153868
0.912914 0.423690 0.152210
1.000000 0.422031 0.150552
0.000000 0.549330 0.159007
0.091253 0.547672 0.157349
0.227394 0.546014 0.155690
0.363536 0.544355 0.154032
0.499678 0.542697 0.152374
0.635820 0.541039 0.150715
0.771961 0.539381 0.149057
0.908103 0.537722 0.147399
1.000000 0.536064 0.145741
0.000000 0.663363 0.154196
0.086441 0.661705 0.152537
0.222583 0.660046 0.150879
0.358725 0.658388 0.149221
0.494867 0.656730 0.147563
0.631008 0.655072 0.145904
0.767150 0.653413 0.144246
0.903292 0.651755 0.142588
1.000000 0.650097 0.140929
0.000000 0.777396 0.149384
0.081630 0.775737 0.147726
0.217772 0.774079 0.146068
0.353914 0.772421 0.144410
0.490055 0.770763 0.142751
0.626197 0.769104 0.141093
0.762339 0.767446 0.139435
0.898481 0.765788 0.137777
1.000000 0.764129 0.136118
0.000000 0.891428 0.144573
0.076819 0.889770 0.142915
0.212961 0.888112 0.141257
0.349103 0.886454 0.139598
0.485244 0.884795 0.137940
0.621386 0.883137 0.136282
0.757528 0.881479 0.134624
0.893669 0.879820 0.132965
1.000000 0.878162 0.131307
0.000000 0.000000 0.284594
0.114892 0.000000 0.282936
0.251034 0.000000 0.281277
0.387175 0.000000 0.279619
0.523317 0.000000 0.277961
0.659459 0.000000 0.276302
0.795600 0.000000 0.274644
0.931742 0.000000 0.272986
1.000000 0.000000 0.271328
0.000000 0.092783 0.279783
0.110081 0.091125 0.278124
0.246222 0.089466 0.276466
0.382364 0.087808 0.274808
0.518506 0.086150 0.273150
0.654648 0.084491 0.271491
0.790789 0.082833 0.269833
0.926931 0.081175 0.268175
1.000000 0.079517 0.266516
0.000000 0.206816 0.274972
0.105269 0.205157 0.273313
0.241411 0.203499 0.271655
0.377553 0.201841 0.269997
0.513695 0.200182 0.268338
0.649836 0.198524 0.266680
0.785978 0.196866 0.265022
0.922120 0.195208 0.263364
1.000000 0.193549 0.261705
0.000000 0.320848 0.270160
0.100458 0.319190 0.268502
0.236600 0.317532 0.266844
0.372742 0.315873 0.265186
0.508883 0.314215 0.263527
0.645025 0.312557 0.261869
0.781167 0.310899 0.260211
0.917309 0.309240 0.258552
1.000000 0.307582 0.256894
0.000000 0.434881 0.265349
0.095647 0.433223 0.263691
0.231789 0.431564 0.262033
0.367931 0.429906 0.260374
0.504072 0.428248 0.258716
0.640214 0.426590 0.257058
0.776356 0.424931 0.255400
0.912497 0.423273 0.253741
1.000000 0.421615 0.252083
0.000000 0.548914 0.260538
0.090836 0.547255 0.258880
0.226978 0.545597 0.257222
0.363119 0.543939 0.255563
0.499261 0.542281 0.253905
0.635403 0.540622 0.252247
0.771545 0.538964 0.250588
0.907686 0.537306 0.248930
1.000000 0.535647 0.247272
0.000000 0.662946 0.255727
0.086025 0.661288 0.254069
0.222167 0.659630 0.252410
0.358308 0.657972 0.250752
0.494450 0.656313 0.249094
0.630592 0.654655 0.247436
0.766733 0.652997 0.245777
0.902875 0.651338 0.244119
1.000000 0.649680 0.242461
0.000000 0.776979 0.250916
0.081214 0.775321 0.249257
0.217355 0.773663 0.247599
0.353497 0.772004 0.245941
0.489639 0.770346 0.244283
0.625781 0.768688 0.242624
0.761922 0.767029 0.240966
0.898064 0.765371 0.239308
1.000000 0.763713 0.237650
0.000000 0.891012 0.246105
0.076403 0.889354 0.244446
0.212544 0.887695 0.242788
0.348686 0.886037 0.241130
0.484828 0.884379 0.239471
0.620969 0.882720 0.237813
0.757111 0.881062 0.236155
0.893253 0.879404 0.234497
1.000000 0.877746 0.232838
0.000000 0.000000 0.386125
0.114475 0.000000 0.384467
0.250617 0.000000 0.382809
0.386759 0.000000 0.381150
0.522900 0.000000 0.379492
0.659042 0.000000 0.377834
0.795184 0.000000 0.376175
0.931325 0.000000 0.374517
1.000000 0.000000 0.372859
0.000000 0.092366 0.381314
0.109664 0.090708 0.379656
0.245806 0.089050 0.377997
0.381947 0.087391 0.376339
0.518089 0.085733 0.374681
0.654231 0.084075 0.373023
0.790373 0.082416 0.371364
0.926514 0.080758 0.369706
1.000000 0.079100 0.368048
0.000000 0.206399 0.376503
0.104853 0.204741 0.374845
0.240995 0.203082 0.373186
0.377136 0.201424 0.371528
0.513278 0.199766 0.369870
0.649420 0.198107 0.368211
0.785561 0.196449 0.366553
0.921703 0.194791 0.364895
1.000000 0.193133 0.363237
0.000000 0.320432 0.371692
0.100042 0.318773 0.370033
0.236183 0.317115 0.368375
0.372325 0.315457 0.366717
0.508467 0.313798 0.365059
0.644609 0.312140 0.363400
0.780750 0.310482 0.361742
0.916892 0.308824 0.360084
1.000000 0.307165 0.358425
0.000000 0.434464 0.366881
0.095231 0.432806 0.365222
0.231372 0.431148 0.363564
0.367514 0.429489 0.361906
0.503656 0.427831 0.360247
0.639797 0.426173 0.358589
0.775939 0.424515 0.356931
0.912081 0.422856 0.355273
1.000000 0.421198 0.353614
0.000000 0.548497 0.362069
0.090419 0.546839 0.360411
0.226561 0.545180 0.358753
0.362703 0.543522 0.357095
0.498845 0.541864 0.355436
0.634986 0.540206 0.353778
0.771128 0.538547 0.352120
0.907270 0.536889 0.350461
1.000000 0.535231 0.348803
0.000000 0.662530 0.357258
0.085608 0.660871 0.355600
0.221750 0.659213 0.353942
0.357892 0.657555 0.352283
0.494033 0.655897 0.350625
0.630175 0.654238 0.348967
0.766317 0.652580 0.347309
0.902459 0.650922 0.345650
1.000000 0.649263 0.343992
0.000000 0.776562 0.352447
0.080797 0.774904 0.350789
0.216939 0.773246 0.349131
0.353080 0.771588 0.347472
0.489222 0.769929 0.345814
0.625364 0.768271 0.344156
0.761506 0.766613 0.342497
0.897647 0.764954 0.340839
1.000000 0.763296 0.339181
0.000000 0.890595 0.347636
0.075986 0.888937 0.345978
0.212128 0.887279 0.344319
0.348269 0.885620 0.342661
0.484411 0.883962 0.341003
0.620553 0.882304 0.339345
0.756694 0.880645 0.337686
0.892836 0.878987 0.336028
1.000000 0.877329 0.334370
0.000000 0.000000 0.487656
0.114059 0.000000 0.485998
0.250200 0.000000 0.484340
0.386342 0.000000 0.482682
0.522484 0.000000 0.481023
0.658625 0.000000 0.479365
0.794767 0.000000 0.477707
0.930909 0.000000 0.476049
1.000000 0.000000 0.474390
0.000000 0.091950 0.482845
0.109247 0.090291 0.481187
0.245389 0.088633 0.479529
0.381531 0.086975 0.477870
0.517673 0.085316 0.476212
0.653814 0.083658 0.474554
0.789956 0.082000 0.472896
0.926098 0.080342 0.471237
1.000000 0.078683 0.469579
0.000000 0.205982 0.478034
0.104436 0.204324 0.476376
0.240578 0.202666 0.474718
0.376720 0.201007 0.473059
0.512861 0.199349 0.471401
0.649003 0.197691 0.469743
0.785145 0.196033 0.468084
0.921287 0.194374 0.466426
1.000000 0.192716 0.464768
0.000000 0.320015 0.473223
0.099625 0.318357 0.471565
0.235767 0.316698 0.469906
0.371908 0.315040 0.468248
0.508050 0.313382 0.466590
0.644192 0.311724 0.464932
0.780334 0.310065 0.463273
0.916475 0.308407 0.461615
1.000000 0.306749 0.459957
0.000000 0.434048 0.468412
0.094814 0.432389 0.466754
0.230956 0.430731 0.465095
0.367097 0.429073 0.463437
0.503239 0.427415 0.461779
0.639381 0.425756 0.460120
0.775522 0.424098 0.458462
0.911664 0.422440 0.456804
1.000000 0.420781 0.455146
0.000000 0.548080 0.463601
0.090003 0.546422 0.461942
0.226144 0.544764 0.460284
0.362286 0.543106 0.458626
0.498428 0.541447 0.456968
0.634570 0.539789 0.455309
0.770711 0.538131 0.453651
0.906853 0.536472 0.451993
1.000000 0.534814 0.450334
0.000000 0.662113 0.458790
0.085192 0.660455 0.457131
0.221333 0.658797 0.455473
0.357475 0.657138 0.453815
0.493617 0.655480 0.452156
0.629758 0.653822 0.450498
0.765900 0.652163 0.448840
0.902042 0.650505 0.447182
1.000000 0.648847 0.445523
0.000000 0.776146 0.453978
0.080380 0.774488 0.452320
0.216522 0.772829 0.450662
0.352664 0.771171 0.449004
0.488806 0.769513 0.447345
0.624947 0.767854 0.445687
0.761089 0.766196 0.444029
0.897231 0.764538 0.442370
1.000000 0.762880 0.440712
0.000000 0.890179 0.449167
0.075569 0.888520 0.447509
0.211711 0.886862 0.445851
0.347853 0.885204 0.444192
0.483994 0.883545 0.442534
0.620136 0.881887 0.440876
0.756278 0.880229 0.439218
0.892420 0.878571 0.437559
1.000000 0.876912 0.435901
0.000000 0.000000 0.589188
0.113642 0.000000 0.587529
0.249784 0.000000 0.585871
0.385925 0.000000 0.584213
0.522067 0.000000 0.582555
0.658209 0.000000 0.580896
0.794350 0.000000 0.579238
0.930492 0.000000 0.577580
1.000000 0.000000 0.575922
0.000000 0.091533 0.584377
0.108831 0.089875 0.582718
0.244972 0.088216 0.581060
0.381114 0.086558 0.579402
0.517256 0.084900 0.577743
0.653398 0.083241 0.576085
0.789539 0.081583 0.574427
0.925681 0.079925 0.572769
1.000000 0.078267 0.571110
0.000000 0.205566 0.579565
0.104020 0.203907 0.577907
0.240161 0.202249 0.576249
0.376303 0.200591 0.574591
0.512445 0.198932 0.572932
0.648586 0.197274 0.571274
0.784728 0.195616 0.569616
0.920870 0.193958 0.567957
1.000000 0.192299 0.566299
0.000000 0.319598 0.574754
0.099208 0.317940 0.573096
0.235350 0.316282 0.571438
0.371492 0.314623 0.569779
0.507634 0.312965 0.568121
0.643775 0.311307 0.566463
0.779917 0.309649 0.564805
0.916059 0.307990 0.563146
1.000000 0.306332 0.561488
0.000000 0.433631 0.569943
0.094397 0.431973 0.568285
0.230539 0.430314 0.566627
0.366681 0.428656 0.564968
0.502822 0.426998 0.563310
0.638964 0.425340 0.561652
0.775106 0.423681 0.559993
0.911248 0.422023 0.558335
1.000000 0.420365 0.556677
0.000000 0.547664 0.565132
0.089586 0.546005 0.563474
0.225728 0.544347 0.561815
0.361870 0.542689 0.560157
0.498011 0.541031 0.558499
0.634153 0.539372 0.556841
0.770295 0.537714 0.555182
0.906436 0.536056 0.553524
1.000000 0.534397 0.551866
0.000000 0.661696 0.560321
0.084775 0.660038 0.558663
0.220917 0.658380 0.557004
0.357058 0.656722 0.555346
0.493200 0.655063 0.553688
0.629342 0.653405 0.552029
0.765484 0.651747 0.550371
0.901625 0.650088 0.548713
1.000000 0.648430 0.547055
0.000000 0.775729 0.555510
0.079964 0.774071 0.553851
0.216105 0.772413 0.552193
0.352247 0.770754 0.550535
0.488389 0.769096 0.548877
0.624531 0.767438 0.547218
0.760672 0.765779 0.545560
0.896814 0.764121 0.543902
1.000000 0.762463 0.542243
0.000000 0.889762 0.550698
0.075153 0.888104 0.549040
0.211294 0.886445 0.547382
0.347436 0.884787 0.545724
0.483578 0.883129 0.544065
0.619719 0.881470 0.542407
0.755861 0.879812 0.540749
0.892003 0.878154 0.539091
1.000000 0.876496 0.537432
0.000000 0.000000 0.690719
0.113225 0.000000 0.689061
0.249367 0.000000 0.687402
0.385509 0.000000 0.685744
0.521650 0.000000 0.684086
0.657792 0.000000 0.682428
0.793934 0.000000 0.680769
0.930076 0.000000 0.679111
1.000000 0.000000 0.677453
0.000000 0.091116 0.685908
0.108414 0.089458 0.684250
0.244556 0.087800 0.682591
0.380698 0.086141 0.680933
0.516839 0.084483 0.679275
0.652981 0.082825 0.677616
0.789123 0.081167 0.675958
0.925264 0.079508 0.674300
1.000000 0.077850 0.672642
0.000000 0.205149 0.681097
0.103603 0.203491 0.679438
0.239745 0.201832 0.677780
0.375886 0.200174 0.676122
0.512028 0.198516 0.674464
0.648170 0.196858 0.672805
0.784312 0.195199 0.671147
0.920453 0.193541 0.669489
1.000000 0.191883 0.667830
0.000000 0.319182 0.676286
0.098792 0.317523 0.674627
0.234933 0.315865 0.672969
0.371075 0.314207 0.671311
0.507217 0.312549 0.669652
0.643359 0.310890 0.667994
0.779500 0.309232 0.666336
0.915642 0.307574 0.664678
1.000000 0.305915 0.663019
0.000000 0.433214 0.671474
0.093981 0.431556 0.669816
0.230122 0.429898 0.668158
0.366264 0.428240 0.666500
0.502406 0.426581 0.664841
0.638547 0.424923 0.663183
0.774689 0.423265 0.661525
0.910831 0.421606 0.659866
1.000000 0.419948 0.658208
0.000000 0.547247 0.666663
0.089169 0.545589 0.665005
0.225311 0.543931 0.663347
0.361453 0.542272 0.661688
0.497595 0.540614 0.660030
0.633736 0.538956 0.658372
0.769878 0.537297 0.656714
0.906020 0.535639 0.655055
1.000000 0.533981 0.653397
0.000000 0.661280 0.661852
0.084358 0.659622 0.660194
0.220500 0.657963 0.658536
0.356642 0.656305 0.656877
0.492783 0.654647 0.655219
0.628925 0.652988 0.653561
0.765067 0.651330 0.651902
0.901209 0.649672 0.650244
1.000000 0.648014 0.648586
0.000000 0.775313 0.657041
0.079547 0.773654 0.655383
0.215689 0.771996 0.653724
0.351831 0.770338 0.652066
0.487972 0.768679 0.650408
0.624114 0.767021 0.648750
0.760256 0.765363 0.647091
0.896397 0.763705 0.645433
1.000000 0.762046 0.643775
0.000000 0.889345 0.652230
0.074736 0.887687 0.650571
0.210878 0.886029 0.648913
0.347019 0.884370 0.647255
0.483161 0.882712 0.645597
0.619303 0.881054 0.643938
0.755445 0.879396 0.642280
0.891586 0.877737 0.640622
1.000000 0.876079 0.638964
0.000000 0.000000 0.792250
0.112809 0.000000 0.790592
0.248950 0.000000 0.788934
0.385092 0.000000 0.787276
0.521234 0.000000 0.785617
0.657375 0.000000 0.783959
0.793517 0.000000 0.782301
0.929659 0.000000 0.780642
1.000000 0.000000 0.778984
0.000000 0.090700 0.787439
0.107997 0.089041 0.785781
0.244139 0.087383 0.784123
0.380281 0.085725 0.782464
0.516423 0.084066 0.780806
0.652564 0.082408 0.779148
0.788706 0.080750 0.777490
0.924848 0.079092 0.775831
1.000000 0.077433 0.774173
0.000000 0.204732 0.782628
0.103186 0.203074 0.780970
0.239328 0.201416 0.779311
0.375470 0.199757 0.777653
0.511611 0.198099 0.775995
0.647753 0.196441 0.774337
0.783895 0.194783 0.772678
0.920037 0.193124 0.771020
1.000000 0.191466 0.769362
0.000000 0.318765 0.777817
0.098375 0.317107 0.776159
0.234517 0.315448 0.774500
0.370659 0.313790 0.772842
0.506800 0.312132 0.771184
0.642942 0.310474 0.769525
0.779084 0.308815 0.767867
0.915225 0.307157 0.766209
1.000000 0.305499 0.764551
0.000000 0.432798 0.773006
0.093564 0.431139 0.771347
0.229706 0.429481 0.769689
0.365847 0.427823 0.768031
0.501989 0.426165 0.766373
0.638131 0.424506 0.764714
0.774273 0.422848 0.763056
0.910414 0.421190 0.761398
1.000000 0.419531 0.759739
0.000000 0.546830 0.768195
0.088753 0.545172 0.766536
0.224895 0.543514 0.764878
0.361036 0.541856 0.763220
0.497178 0.540197 0.761561
0.633320 0.538539 0.759903
0.769461 0.536881 0.758245
0.905603 0.535222 0.756587
1.000000 0.533564 0.754928
0.000000 0.660863 0.763383
0.083942 0.659205 0.761725
0.220083 0.657547 0.760067
0.356225 0.655888 0.758409
0.492367 0.654230 0.756750
0.628509 0.652572 0.755092
0.764650 0.650913 0.753434
0.900792 0.649255 0.751775
1.000000 0.647597 0.750117
0.000000 0.774896 0.758572
0.079130 0.773238 0.756914
0.215272 0.771579 0.755256
0.351414 0.769921 0.753597
0.487556 0.768263 0.751939
0.623697 0.766604 0.750281
0.759839 0.764946 0.748623
0.895981 0.763288 0.746964
1.000000 0.761630 0.745306
0.000000 0.888929 0.753761
0.074319 0.887270 0.752103
0.210461 0.885612 0.750445
0.346603 0.883954 0.748786
0.482744 0.882295 0.747128
0.618886 0.880637 0.745470
0.755028 0.878979 0.743811
0.891170 0.877321 0.742153
1.000000 0.875662 0.740495
