assets/lighting/cinematic/grade-moonlight-deep-blue/lut.cube
TITLE "Deep Blue Moonlight"
# TKRS lighting-batch-001 original LUT
# Intended usage: stylized night, strong blue lift in shadows
# License: CC0-1.0
LUT_3D_SIZE 17
DOMAIN_MIN 0.0 0.0 0.0
DOMAIN_MAX 1.0 1.0 1.0
0.000000 0.000000 0.000000
0.000000 0.000000 0.000000
0.000000 0.000000 0.000000
0.024232 0.000000 0.000000
0.054174 0.000000 0.000000
0.084117 0.000000 0.000000
0.114059 0.000000 0.000000
0.144002 0.000000 0.000000
0.173944 0.000000 0.000000
0.203887 0.000000 0.000000
0.233829 0.000000 0.000000
0.263772 0.000000 0.000000
0.293714 0.000000 0.000000
0.323657 0.000000 0.000000
0.353599 0.000000 0.000000
0.383542 0.000000 0.000000
0.413484 0.000000 0.000000
0.000000 0.000000 0.000000
0.000000 0.000000 0.000000
0.003145 0.000000 0.000000
0.033088 0.000000 0.000000
0.063030 0.000000 0.000000
0.092973 0.000000 0.000000
0.122915 0.000000 0.000000
0.152858 0.000000 0.000000
0.182800 0.000000 0.000000
0.212743 0.000000 0.000000
0.242685 0.000000 0.000000
0.272628 0.000000 0.000000
0.302570 0.002268 0.000000
0.332513 0.004896 0.000000
0.362455 0.007524 0.000000
0.392398 0.010152 0.000000
0.422340 0.012781 0.000000
0.000000 0.010409 0.000000
0.000000 0.013037 0.000000
0.012001 0.015665 0.000000
0.041944 0.018293 0.000000
0.071886 0.020921 0.000000
0.101829 0.023549 0.000000
0.131771 0.026177 0.000000
0.161714 0.028806 0.000000
0.191656 0.031434 0.000000
0.221599 0.034062 0.000000
0.251541 0.036690 0.000000
0.281484 0.039318 0.000000
0.311426 0.041946 0.000000
0.341369 0.044574 0.000000
0.371311 0.047202 0.000000
0.401254 0.049831 0.000000
0.432482 0.052620 0.000000
0.000000 0.050087 0.000000
0.000000 0.052715 0.000000
0.020858 0.055343 0.000000
0.050800 0.057971 0.000000
0.080743 0.060599 0.000000
0.110685 0.063227 0.000000
0.140628 0.065855 0.000000
0.170570 0.068484 0.000000
0.200513 0.071112 0.000000
0.230455 0.073740 0.000000
0.260398 0.076368 0.000000
0.290340 0.078996 0.000000
0.320691 0.081732 0.000000
0.352060 0.084707 0.000000
0.383911 0.087762 0.000000
0.416204 0.090879 0.000000
0.448929 0.094052 0.001405
0.000000 0.089765 0.000000
0.000000 0.092393 0.000000
0.029714 0.095021 0.000000
0.059656 0.097649 0.000000
0.089599 0.100277 0.000000
0.119541 0.102905 0.000000
0.149484 0.105534 0.000000
0.179426 0.108162 0.000000
0.209369 0.110790 0.000000
0.240105 0.113806 0.000000
0.271321 0.116964 0.000000
0.302942 0.120206 0.000000
0.334966 0.123516 0.000000
0.367397 0.126889 0.003351
0.400242 0.130320 0.006945
0.433508 0.133808 0.010541
0.467202 0.137351 0.014139
0.000000 0.129443 0.000000
0.008627 0.132071 0.000000
0.038570 0.134699 0.000000
0.068512 0.137327 0.000000
0.098455 0.139955 0.000000
0.128599 0.142814 0.000000
0.159228 0.146051 0.000000
0.190213 0.149402 0.000000
0.221562 0.152840 0.000000
0.253287 0.156351 0.001706
0.285399 0.159931 0.005299
0.317909 0.163574 0.008893
0.350826 0.167279 0.012491
0.384160 0.171043 0.016090
0.417918 0.174866 0.019693
0.452110 0.178745 0.023299
0.486741 0.182681 0.026907
0.000000 0.169121 0.000000
0.017486 0.171774 0.000000
0.047599 0.175035 0.000000
0.077993 0.178477 0.000000
0.108700 0.182030 0.000000
0.139745 0.185672 0.000062
0.171146 0.189392 0.003653
0.202919 0.193185 0.007246
0.235076 0.197046 0.010842
0.267629 0.200973 0.014441
0.300589 0.204963 0.018043
0.333964 0.209015 0.021647
0.367764 0.213128 0.025254
0.401996 0.217301 0.028864
0.436668 0.221533 0.032476
0.471786 0.225823 0.036092
0.507357 0.230172 0.039711
0.000000 0.211094 0.000000
0.026754 0.214855 0.000000
0.057469 0.218708 0.002007
0.088526 0.222644 0.005600
0.119941 0.226656 0.009195
0.151731 0.230740 0.012792
0.183906 0.234893 0.016393
0.216479 0.239114 0.019995
0.249460 0.243400 0.023601
0.282857 0.247750 0.027210
0.316680 0.252163 0.030821
0.350935 0.256639 0.034436
0.385631 0.261175 0.038053
0.420775 0.265773 0.041674
0.456372 0.270431 0.045297
0.492429 0.275149 0.048924
0.528952 0.279926 0.052554
0.005410 0.256111 0.007548
0.036453 0.260347 0.011144
0.067860 0.264660 0.014743
0.099645 0.269044 0.018345
0.131819 0.273500 0.021949
0.164394 0.278024 0.025556
0.197379 0.282615 0.029167
0.230784 0.287272 0.032780
0.264615 0.291994 0.036396
0.298881 0.296780 0.040015
0.333588 0.301629 0.043637
0.368745 0.306542 0.047263
0.404356 0.311517 0.050891
0.440429 0.316553 0.054523
0.476968 0.321652 0.058158
0.513979 0.326812 0.061797
0.551468 0.332033 0.065438
0.014835 0.303430 0.020298
0.046601 0.308124 0.023904
0.078760 0.312889 0.027512
0.111324 0.317724 0.031124
0.144300 0.322629 0.034739
0.177699 0.327600 0.038357
0.211527 0.332639 0.041978
0.245791 0.337743 0.045601
0.280500 0.342913 0.049229
0.315659 0.348147 0.052859
0.351274 0.353446 0.056493
0.387352 0.358809 0.060130
0.423899 0.364235 0.063770
0.460918 0.369724 0.067413
0.498416 0.375276 0.071061
0.536398 0.380891 0.074711
0.574868 0.386569 0.078365
0.024682 0.353082 0.033083
0.057223 0.358237 0.036699
0.090180 0.363461 0.040319
0.123563 0.368755 0.043941
0.157377 0.374117 0.047567
0.191631 0.379547 0.051196
0.226331 0.385043 0.054828
0.261483 0.390606 0.058463
0.297094 0.396235 0.062102
0.333169 0.401930 0.065744
0.369714 0.407689 0.069390
0.406734 0.413514 0.073038
0.444233 0.419403 0.076691
0.482218 0.425356 0.080347
0.520692 0.431374 0.084006
0.559660 0.437456 0.087669
0.599126 0.443601 0.091335
0.034982 0.405131 0.045906
0.068340 0.410753 0.049533
0.102132 0.416445 0.053164
0.136367 0.422206 0.056798
0.171050 0.428036 0.060435
0.206188 0.433933 0.064075
0.241787 0.439899 0.067719
0.277851 0.445931 0.071367
0.314387 0.452030 0.075017
0.351400 0.458195 0.078672
0.388894 0.464426 0.082329
0.426874 0.470724 0.085991
0.465345 0.477087 0.089655
0.504311 0.483515 0.093324
0.543777 0.490009 0.096996
0.583747 0.496568 0.100671
0.624224 0.503192 0.104351
0.045762 0.459638 0.058768
0.079970 0.465737 0.062407
0.114629 0.471905 0.066050
0.149745 0.478143 0.069695
0.185324 0.484450 0.073345
0.221371 0.490825 0.076997
0.257892 0.497269 0.080653
0.294891 0.503780 0.084313
0.332373 0.510359 0.087976
0.370342 0.517005 0.091643
0.408804 0.523719 0.095313
0.447763 0.530499 0.098987
0.487223 0.537346 0.102665
0.527187 0.544259 0.106346
0.567661 0.551239 0.110031
0.608647 0.558285 0.113720
0.650149 0.565397 0.117412
0.057041 0.516666 0.071673
0.092129 0.523249 0.075324
0.127682 0.529903 0.078978
0.163706 0.536627 0.082636
0.200205 0.543420 0.086298
0.237184 0.550282 0.089963
0.274648 0.557213 0.093632
0.312601 0.564213 0.097304
0.351049 0.571281 0.100980
0.389994 0.578417 0.104659
0.429442 0.585622 0.108343
0.469396 0.592894 0.112030
0.509860 0.600234 0.115720
0.550838 0.607641 0.119415
0.592334 0.615116 0.123113
0.634351 0.622658 0.126815
0.676892 0.630267 0.130521
0.068838 0.576269 0.084620
0.104832 0.583346 0.088284
0.141304 0.590493 0.091951
0.178258 0.597711 0.095621
0.215698 0.604999 0.099296
0.253630 0.612357 0.102974
0.292057 0.619785 0.106655
0.330985 0.627282 0.110340
0.370415 0.634848 0.114029
0.410354 0.642483 0.117722
0.450804 0.650188 0.121419
0.491769 0.657960 0.125119
0.533253 0.665802 0.128823
0.575259 0.673712 0.132531
0.617791 0.681690 0.136243
0.660852 0.689737 0.139958
0.702242 0.695618 0.143644
0.081168 0.638502 0.097612
0.118091 0.646080 0.101288
0.155503 0.653729 0.104968
0.193409 0.661449 0.108652
0.231811 0.669241 0.112339
0.270715 0.677102 0.116030
0.310124 0.685035 0.119725
0.350042 0.693037 0.123423
0.390473 0.701109 0.127126
0.431421 0.709252 0.130832
0.472889 0.717464 0.134542
0.514880 0.725745 0.138256
0.557326 0.733999 0.141972
0.596448 0.737457 0.145622
0.635570 0.740916 0.149272
0.674692 0.744374 0.152923
0.713813 0.747833 0.156573
0.094045 0.703412 0.110650
0.131919 0.711499 0.114339
0.170292 0.719658 0.118032
0.209168 0.727888 0.121729
0.248551 0.736191 0.125429
0.288444 0.744564 0.129134
0.328852 0.753009 0.132842
0.369778 0.761524 0.136554
0.411225 0.770110 0.140270
0.451531 0.775838 0.143950
0.490653 0.779297 0.147600
0.529775 0.782756 0.151251
0.568897 0.786214 0.154901
0.608019 0.789673 0.158551
0.647141 0.793131 0.162201
0.686263 0.796590 0.165851
0.725385 0.800048 0.169502
0.000000 0.000000 0.000000
0.000000 0.000000 0.000000
0.000000 0.000000 0.000000
0.025227 0.000000 0.000000
0.055170 0.000000 0.000000
0.085112 0.000000 0.000000
0.115055 0.000000 0.000000
0.144997 0.000000 0.000000
0.174940 0.000000 0.000000
0.204882 0.000000 0.000000
0.234825 0.000000 0.000000
0.264767 0.000000 0.000000
0.294710 0.000000 0.000000
0.324652 0.000000 0.000116
0.354595 0.000000 0.003702
0.384537 0.000000 0.007288
0.414480 0.000000 0.010874
0.000000 0.000000 0.000000
0.000000 0.000000 0.000000
0.004141 0.000000 0.000000
0.034083 0.000000 0.000000
0.064026 0.000000 0.000000
0.093968 0.000000 0.000000
0.123911 0.000000 0.000000
0.153853 0.000000 0.000000
0.183796 0.000000 0.000000
0.213738 0.000000 0.000000
0.243681 0.000000 0.002059
0.273623 0.000686 0.005645
0.303566 0.003315 0.009232
0.333508 0.005943 0.012818
0.363451 0.008571 0.016404
0.393393 0.011199 0.019991
0.423336 0.013827 0.023577
0.000000 0.011455 0.000000
0.000000 0.014083 0.000000
0.012997 0.016711 0.000000
0.042939 0.019339 0.000000
0.072882 0.021968 0.000000
0.102824 0.024596 0.000000
0.132767 0.027224 0.000416
0.162709 0.029852 0.004003
0.192652 0.032480 0.007589
0.222594 0.035108 0.011175
0.252537 0.037736 0.014762
0.282479 0.040365 0.018348
0.312422 0.042993 0.021934
0.342364 0.045621 0.025520
0.372307 0.048249 0.029107
0.402571 0.050919 0.032695
0.434189 0.053760 0.036289
0.000000 0.051133 0.000000
0.000000 0.053761 0.000000
0.021853 0.056389 0.000000
0.051796 0.059018 0.002360
0.081738 0.061646 0.005946
0.111681 0.064274 0.009532
0.141623 0.066902 0.013119
0.171566 0.069530 0.016705
0.201508 0.072158 0.020291
0.231451 0.074786 0.023878
0.261393 0.077414 0.027464
0.291336 0.080043 0.031050
0.322161 0.082905 0.034642
0.353685 0.085916 0.038238
0.385661 0.088996 0.041838
0.418070 0.092136 0.045440
0.450910 0.095331 0.049045
0.000000 0.090811 0.004303
0.000767 0.093439 0.007890
0.030709 0.096068 0.011476
0.060652 0.098696 0.015062
0.090594 0.101324 0.018649
0.120537 0.103952 0.022235
0.150479 0.106580 0.025821
0.180422 0.109208 0.029408
0.210590 0.111960 0.032996
0.241504 0.115052 0.036591
0.272833 0.118246 0.040189
0.304559 0.121516 0.043790
0.336686 0.124852 0.047394
0.369221 0.128248 0.051000
0.402169 0.131702 0.054610
0.435540 0.135212 0.058223
0.469340 0.138777 0.061839
0.000000 0.130489 0.017006
0.009623 0.133118 0.020592
0.039565 0.135746 0.024179
0.069508 0.138374 0.027765
0.099450 0.141002 0.031351
0.129791 0.144086 0.034944
0.160515 0.147374 0.038540
0.191591 0.150762 0.042140
0.223032 0.154230 0.045742
0.254850 0.157769 0.049348
0.287057 0.161374 0.052956
0.319664 0.165042 0.056568
0.352680 0.168771 0.060182
0.386115 0.172559 0.063800
0.419976 0.176404 0.067421
0.454271 0.180306 0.071045
0.489008 0.184264 0.074672
0.000000 0.170168 0.029708
0.018504 0.173038 0.033297
0.048680 0.176390 0.036892
0.079145 0.179880 0.040491
0.109929 0.183470 0.044092
0.141056 0.187144 0.047696
0.172543 0.190894 0.051303
0.204404 0.194714 0.054913
0.236652 0.198602 0.058526
0.269299 0.202554 0.062142
0.302355 0.206569 0.065762
0.335829 0.210646 0.069384
0.369728 0.214783 0.073010
0.404062 0.218979 0.076639
0.438837 0.223234 0.080271
0.474060 0.227548 0.083906
0.509737 0.231919 0.087545
0.000000 0.212580 0.042442
0.027823 0.216379 0.046045
0.058612 0.220266 0.049651
0.089747 0.224232 0.053259
0.121246 0.228273 0.056871
0.153121 0.232386 0.060486
0.185386 0.236566 0.064104
0.218051 0.240813 0.067725
0.251126 0.245125 0.071349
0.284620 0.249500 0.074976
0.318541 0.253938 0.078607
0.352897 0.258438 0.082241
0.387695 0.262999 0.085878
0.422942 0.267620 0.089518
0.458644 0.272302 0.093162
0.494807 0.277044 0.096810
0.531438 0.281845 0.100460
0.006450 0.257789 0.055216
0.037571 0.262056 0.058830
0.069060 0.266397 0.062446
0.100930 0.270810 0.066066
0.133193 0.275293 0.069688
0.165858 0.279844 0.073314
0.198937 0.284461 0.076943
0.232436 0.289144 0.080576
0.266365 0.293892 0.084211
0.300730 0.298703 0.087850
0.335539 0.303578 0.091493
0.370798 0.308515 0.095138
0.406513 0.313515 0.098788
0.442691 0.318576 0.102440
0.479337 0.323699 0.106097
0.516457 0.328884 0.109756
0.554055 0.334129 0.113420
0.015920 0.305290 0.068028
0.047771 0.310013 0.071653
0.080018 0.314806 0.075280
0.112672 0.319669 0.078911
0.145741 0.324600 0.082545
0.179234 0.329599 0.086183
0.213158 0.334663 0.089824
0.247521 0.339794 0.093468
0.282330 0.344989 0.097116
0.317591 0.350250 0.100767
0.353310 0.355574 0.104421
0.389493 0.360962 0.108079
0.426145 0.366413 0.111741
0.463273 0.371927 0.115406
0.500880 0.377505 0.119075
0.538971 0.383144 0.122748
0.577552 0.388847 0.126424
0.025817 0.355126 0.080880
0.058447 0.360309 0.084516
0.091497 0.365561 0.088156
0.124974 0.370882 0.091798
0.158884 0.376271 0.095444
0.193236 0.381727 0.099094
0.228036 0.387250 0.102747
0.263290 0.392840 0.106403
0.299004 0.398495 0.110063
0.335183 0.404215 0.113727
0.371834 0.410001 0.117394
0.408960 0.415851 0.121065
0.446568 0.421766 0.124739
0.484662 0.427745 0.128417
0.523247 0.433788 0.132099
0.562326 0.439895 0.135784
0.601906 0.446066 0.139474
0.036170 0.407361 0.093774
0.069621 0.413011 0.097422
0.103510 0.418731 0.101073
0.137842 0.424519 0.104728
0.172625 0.430376 0.108387
0.207864 0.436301 0.112048
0.243565 0.442292 0.115714
0.279733 0.448351 0.119383
0.316374 0.454477 0.123056
0.353494 0.460668 0.126732
0.391096 0.466926 0.130412
0.429185 0.473250 0.134096
0.467766 0.479639 0.137783
0.506844 0.486093 0.141474
0.546422 0.492613 0.145169
0.586506 0.499198 0.148868
0.627097 0.505847 0.152571
0.047004 0.462058 0.106710
0.081310 0.468185 0.110371
0.116068 0.474381 0.114034
0.151286 0.480646 0.117702
0.186967 0.486981 0.121373
0.223118 0.493383 0.125048
0.259743 0.499854 0.128726
0.296848 0.506392 0.132408
0.334438 0.512998 0.136094
0.372516 0.519670 0.139783
0.411088 0.526410 0.143476
0.450158 0.533217 0.147173
0.489730 0.540090 0.150874
0.529808 0.547030 0.154579
0.570395 0.554036 0.158287
0.611496 0.561109 0.161999
0.653115 0.568247 0.165715
0.058341 0.519279 0.119691
0.093530 0.525890 0.123364
0.129185 0.532572 0.127041
0.165312 0.539323 0.130721
0.201916 0.546144 0.134405
0.239001 0.553034 0.138093
0.276572 0.559992 0.141784
0.314634 0.567019 0.145479
0.353192 0.574115 0.149178
0.392248 0.581278 0.152881
0.431807 0.588509 0.156588
0.471874 0.595809 0.160298
0.512452 0.603175 0.164013
0.553545 0.610609 0.167731
0.595157 0.618111 0.171453
0.637290 0.625680 0.175179
0.679949 0.633316 0.178909
0.070197 0.579079 0.132717
0.106295 0.586184 0.136403
0.142871 0.593359 0.140093
0.179931 0.600605 0.143786
0.217479 0.607921 0.147484
0.255519 0.615307 0.151185
0.294056 0.622762 0.154890
0.333093 0.630286 0.158598
0.372636 0.637880 0.162311
0.412687 0.645543 0.166027
0.453251 0.653274 0.169748
0.494330 0.661075 0.173472
0.535930 0.668943 0.177200
0.578053 0.676880 0.180932
0.620702 0.684886 0.184668
0.663881 0.692960 0.188408
0.703543 0.696995 0.192070
0.082588 0.641511 0.145790
0.119617 0.649117 0.149489
0.157136 0.656795 0.153192
0.195150 0.664543 0.156899
0.233662 0.672363 0.160610
0.272676 0.680252 0.164324
0.312196 0.688213 0.168043
0.352227 0.696243 0.171765
0.392772 0.704343 0.175492
0.433834 0.712513 0.179222
0.475417 0.720753 0.182956
0.517524 0.729062 0.186695
0.558626 0.735376 0.190398
0.597748 0.738834 0.194048
0.636870 0.742293 0.197698
0.675992 0.745752 0.201349
0.715114 0.749210 0.204999
0.095527 0.706623 0.158910
0.133509 0.714739 0.162622
0.171992 0.722927 0.166339
0.210978 0.731186 0.170060
0.250472 0.739516 0.173784
0.290478 0.747918 0.177513
0.330999 0.756391 0.181245
0.372039 0.764935 0.184982
0.413601 0.773549 0.188722
0.452832 0.777216 0.192376
0.491954 0.780674 0.196026
0.531076 0.784133 0.199677
0.570198 0.787591 0.203327
0.609320 0.791050 0.206977
0.648442 0.794508 0.210627
0.687564 0.797967 0.214277
0.726686 0.801425 0.217927
0.000000 0.000000 0.001072
0.000000 0.000000 0.004658
0.000000 0.000000 0.008245
0.026223 0.000000 0.011831
0.056165 0.000000 0.015417
0.086108 0.000000 0.019004
0.116050 0.000000 0.022590
0.145993 0.000000 0.026176
0.175935 0.000000 0.029762
0.205878 0.000000 0.033349
0.235820 0.000000 0.036935
0.265763 0.000000 0.040521
0.295705 0.000000 0.044108
0.325648 0.000000 0.047694
0.355590 0.000000 0.051280
0.385533 0.000000 0.054867
0.415475 0.000000 0.058453
0.000000 0.000000 0.013774
0.000000 0.000000 0.017361
0.005136 0.000000 0.020947
0.035079 0.000000 0.024533
0.065021 0.000000 0.028120
0.094964 0.000000 0.031706
0.124906 0.000000 0.035292
0.154849 0.000000 0.038879
0.184791 0.000000 0.042465
0.214734 0.000000 0.046051
0.244676 0.000000 0.049637
0.274619 0.001733 0.053224
0.304561 0.004361 0.056810
0.334504 0.006989 0.060396
0.364446 0.009617 0.063983
0.394389 0.012245 0.067569
0.424331 0.014874 0.071155
0.000000 0.012502 0.026477
0.000000 0.015130 0.030063
0.013993 0.017758 0.033650
0.043935 0.020386 0.037236
0.073878 0.023014 0.040822
0.103820 0.025642 0.044408
0.133763 0.028270 0.047995
0.163705 0.030898 0.051581
0.193648 0.033527 0.055167
0.223590 0.036155 0.058754
0.253533 0.038783 0.062340
0.283475 0.041411 0.065926
0.313418 0.044039 0.069513
0.343360 0.046667 0.073099
0.373303 0.049295 0.076685
0.404130 0.052041 0.080282
0.435945 0.054910 0.083889
0.000000 0.052180 0.039179
0.000000 0.054808 0.042766
0.022849 0.057436 0.046352
0.052791 0.060064 0.049938
0.082734 0.062692 0.053525
0.112676 0.065320 0.057111
0.142619 0.067948 0.060697
0.172561 0.070577 0.064283
0.202504 0.073205 0.067870
0.232446 0.075833 0.071456
0.262389 0.078461 0.075042
0.292511 0.081140 0.078631
0.323681 0.084094 0.082236
0.355341 0.087135 0.085845
0.387437 0.090240 0.089459
0.419960 0.093402 0.093077
0.452911 0.096617 0.096698
0.000000 0.091858 0.051882
0.001762 0.094486 0.055468
0.031705 0.097114 0.059054
0.061647 0.099742 0.062641
0.091590 0.102370 0.066227
0.121532 0.104998 0.069813
0.151475 0.107627 0.073400
0.181417 0.110255 0.076986
0.211891 0.113175 0.080584
0.242930 0.116314 0.084192
0.274365 0.119540 0.087803
0.306195 0.122837 0.091419
0.338424 0.126197 0.095039
0.371061 0.129617 0.098662
0.404113 0.133093 0.102289
0.437588 0.136625 0.105919
0.471494 0.140211 0.109553
0.000000 0.131536 0.064584
0.010619 0.134164 0.068171
0.040561 0.136792 0.071757
0.070504 0.139420 0.075343
0.100534 0.142177 0.078934
0.131004 0.145381 0.082538
0.161818 0.148712 0.086148
0.192983 0.152133 0.089763
0.224515 0.155631 0.093380
0.256426 0.159197 0.097002
0.288729 0.162827 0.100627
0.321433 0.166520 0.104256
0.354548 0.170272 0.107888
0.388083 0.174083 0.111523
0.422046 0.177951 0.115162
0.456445 0.181875 0.118805
0.491287 0.185856 0.122451
0.000000 0.171214 0.077287
0.019530 0.174351 0.080886
0.049769 0.177766 0.084494
0.080306 0.181299 0.088107
0.111168 0.184924 0.091723
0.142377 0.188628 0.095343
0.173949 0.192407 0.098966
0.205899 0.196254 0.102593
0.238239 0.200168 0.106224
0.270980 0.204146 0.109858
0.304132 0.208185 0.113495
0.337704 0.212286 0.117136
0.371704 0.216447 0.120780
0.406139 0.220666 0.124429
0.441018 0.224945 0.128080
0.476346 0.229282 0.131735
0.512130 0.233676 0.135394
0.000000 0.214081 0.090066
0.028897 0.217917 0.093684
0.059761 0.221836 0.097306
0.090976 0.225833 0.100931
0.122559 0.229902 0.104560
0.154521 0.234042 0.108193
0.186875 0.238249 0.111828
0.219632 0.242522 0.115468
0.252802 0.246859 0.119111
0.286392 0.251260 0.122757
0.320412 0.255722 0.126407
0.354868 0.260247 0.130061
0.389769 0.264832 0.133718
0.425119 0.269478 0.137378
0.460927 0.274183 0.141043
0.497197 0.278949 0.144711
0.533936 0.283774 0.148383
0.007494 0.259479 0.102897
0.038694 0.263775 0.106528
0.070266 0.268146 0.110162
0.102222 0.272587 0.113800
0.134574 0.277097 0.117442
0.167331 0.281675 0.121086
0.200502 0.286318 0.124735
0.234098 0.291027 0.128387
0.268124 0.295800 0.132042
0.302588 0.300637 0.135701
0.337498 0.305536 0.139364
0.372860 0.310499 0.143030
0.408680 0.315523 0.146700
0.444964 0.320609 0.150374
0.481717 0.325756 0.154051
0.518945 0.330965 0.157732
0.556653 0.336235 0.161417
0.017011 0.307162 0.115773
0.048947 0.311913 0.119416
0.081282 0.316734 0.123063
0.114027 0.321624 0.126713
0.147189 0.326583 0.130367
0.180777 0.331608 0.134025
0.214798 0.336699 0.137686
0.249260 0.341855 0.141350
0.284170 0.347076 0.145019
0.319533 0.352362 0.148691
0.355355 0.357712 0.152366
0.391643 0.363125 0.156046
0.428402 0.368601 0.159729
0.465637 0.374141 0.163416
0.503353 0.379743 0.167107
0.541555 0.385408 0.170801
0.580248 0.391135 0.174499
0.026957 0.357181 0.128693
0.059678 0.362392 0.132349
0.092821 0.367671 0.136008
0.126392 0.373020 0.139671
0.160399 0.378436 0.143338
0.194850 0.383919 0.147008
0.229749 0.389468 0.150682
0.265105 0.395084 0.154360
0.300922 0.400765 0.158041
0.337206 0.406511 0.161727
0.373962 0.412323 0.165416
0.411196 0.418199 0.169108
0.448913 0.424139 0.172805
0.487117 0.430144 0.176505
0.525812 0.436212 0.180209
0.565004 0.442345 0.183917
0.604696 0.448541 0.187629
0.037363 0.409602 0.141658
0.070909 0.415280 0.145327
0.104894 0.421028 0.148999
0.139325 0.426843 0.152675
0.174207 0.432727 0.156355
0.209547 0.438678 0.160038
0.245351 0.444697 0.163725
0.281624 0.450782 0.167416
0.318371 0.456934 0.171111
0.355597 0.463152 0.174810
0.393307 0.469436 0.178512
0.431506 0.475786 0.182218
0.470198 0.482201 0.185929
0.509387 0.488681 0.189643
0.549078 0.495227 0.193361
0.589275 0.501838 0.197083
0.629981 0.508513 0.200808
0.048253 0.464489 0.154669
0.082657 0.470644 0.158350
0.117515 0.476868 0.162036
0.152833 0.483160 0.165725
0.188617 0.489522 0.169418
0.224872 0.495951 0.173115
0.261602 0.502449 0.176816
0.298814 0.509014 0.180520
0.336512 0.515647 0.184229
0.374699 0.522346 0.187941
0.413381 0.529113 0.191657
0.452563 0.535946 0.195377
0.492247 0.542846 0.199101
0.532438 0.549812 0.202829
0.573140 0.556844 0.206561
0.614356 0.563943 0.210297
0.656091 0.571108 0.214037
0.059648 0.521903 0.167726
0.094937 0.528542 0.171421
0.130695 0.535252 0.175120
0.166926 0.542031 0.178823
0.203635 0.548879 0.182530
0.240826 0.555796 0.186240
0.278505 0.562782 0.189954
0.316676 0.569836 0.193673
0.355343 0.576959 0.197395
0.394510 0.584149 0.201121
0.434182 0.591408 0.204851
0.474362 0.598734 0.208585
0.515054 0.606127 0.212323
0.556262 0.613588 0.216066
0.597990 0.621117 0.219812
0.640240 0.628712 0.223562
0.683017 0.636375 0.227316
0.071563 0.581899 0.180831
0.107764 0.589032 0.184540
0.144446 0.596236 0.188253
0.181612 0.603510 0.191969
0.219267 0.610853 0.195689
0.257416 0.618267 0.199414
0.296062 0.625750 0.203142
0.335211 0.633302 0.206874
0.374865 0.640923 0.210611
0.415029 0.648613 0.214351
0.455706 0.656372 0.218095
0.496901 0.664200 0.221844
0.538616 0.672096 0.225596
0.580856 0.680060 0.229352
0.623623 0.688093 0.233113
0.665722 0.694913 0.236846
0.704844 0.698372 0.240496
0.084015 0.644531 0.193985
0.121150 0.652166 0.197707
0.158777 0.659872 0.201434
0.196899 0.667648 0.205164
0.235520 0.675496 0.208899
0.274645 0.683414 0.212637
0.314277 0.691402 0.216380
0.354421 0.699460 0.220126
0.395079 0.707588 0.223877
0.436255 0.715786 0.227631
0.477954 0.724053 0.231390
0.520178 0.732390 0.235153
0.559927 0.736753 0.238824
0.599049 0.740212 0.242474
0.638171 0.743670 0.246124
0.677293 0.747129 0.249774
0.716415 0.750587 0.253425
0.097017 0.709846 0.207188
0.135107 0.717991 0.210924
0.173699 0.726207 0.214665
0.212796 0.734494 0.218409
0.252401 0.742853 0.222158
0.292520 0.751283 0.225911
0.333154 0.759784 0.229668
0.374309 0.768356 0.233428
0.415011 0.775134 0.237152
0.454133 0.778593 0.240802
0.493255 0.782051 0.244452
0.532377 0.785510 0.248102
0.571499 0.788968 0.251753
0.610620 0.792427 0.255403
0.649742 0.795885 0.259053
0.688864 0.799344 0.262703
0.727986 0.802803 0.266353
0.000000 0.000000 0.048650
0.000000 0.000000 0.052237
0.000000 0.000000 0.055823
0.027218 0.000000 0.059409
0.057161 0.000000 0.062996
0.087103 0.000000 0.066582
0.117046 0.000000 0.070168
0.146988 0.000000 0.073755
0.176931 0.000000 0.077341
0.206873 0.000000 0.080927
0.236816 0.000000 0.084513
0.266758 0.000000 0.088100
0.296701 0.000000 0.091686
0.326643 0.000000 0.095272
