assets/lighting/cinematic/grade-moonlight-deep-blue/lut.cube
TITLE "Deep Blue Moonlight"
# TKRS lighting-batch-001 original LUT
# Intended usage: stylized night, strong blue lift in shadows
# License: CC0-1.0
LUT_3D_SIZE 9
DOMAIN_MIN 0.0 0.0 0.0
DOMAIN_MAX 1.0 1.0 1.0
0.000000 0.000000 0.000000
0.000000 0.000000 0.000000
0.054174 0.000000 0.000000
0.114059 0.000000 0.000000
0.173944 0.000000 0.000000
0.233829 0.000000 0.000000
0.293714 0.000000 0.000000
0.353599 0.000000 0.000000
0.413484 0.000000 0.000000
0.000000 0.010409 0.000000
0.012001 0.015665 0.000000
0.071886 0.020921 0.000000
0.131771 0.026177 0.000000
0.191656 0.031434 0.000000
0.251541 0.036690 0.000000
0.311426 0.041946 0.000000
0.371311 0.047202 0.000000
0.432482 0.052620 0.000000
0.000000 0.089765 0.000000
0.029714 0.095021 0.000000
0.089599 0.100277 0.000000
0.149484 0.105534 0.000000
0.209369 0.110790 0.000000
0.271321 0.116964 0.000000
0.334966 0.123516 0.000000
0.400242 0.130320 0.006945
0.467202 0.137351 0.014139
0.000000 0.169121 0.000000
0.047599 0.175035 0.000000
0.108700 0.182030 0.000000
0.171146 0.189392 0.003653
0.235076 0.197046 0.010842
0.300589 0.204963 0.018043
0.367764 0.213128 0.025254
0.436668 0.221533 0.032476
0.507357 0.230172 0.039711
0.005410 0.256111 0.007548
0.067860 0.264660 0.014743
0.131819 0.273500 0.021949
0.197379 0.282615 0.029167
0.264615 0.291994 0.036396
0.333588 0.301629 0.043637
0.404356 0.311517 0.050891
0.476968 0.321652 0.058158
0.551468 0.332033 0.065438
0.024682 0.353082 0.033083
0.090180 0.363461 0.040319
0.157377 0.374117 0.047567
0.226331 0.385043 0.054828
0.297094 0.396235 0.062102
0.369714 0.407689 0.069390
0.444233 0.419403 0.076691
0.520692 0.431374 0.084006
0.599126 0.443601 0.091335
0.045762 0.459638 0.058768
0.114629 0.471905 0.066050
0.185324 0.484450 0.073345
0.257892 0.497269 0.080653
0.332373 0.510359 0.087976
0.408804 0.523719 0.095313
0.487223 0.537346 0.102665
0.567661 0.551239 0.110031
0.650149 0.565397 0.117412
0.068838 0.576269 0.084620
0.141304 0.590493 0.091951
0.215698 0.604999 0.099296
0.292057 0.619785 0.106655
0.370415 0.634848 0.114029
0.450804 0.650188 0.121419
0.533253 0.665802 0.128823
0.617791 0.681690 0.136243
0.702242 0.695618 0.143644
0.094045 0.703412 0.110650
0.170292 0.719658 0.118032
0.248551 0.736191 0.125429
0.328852 0.753009 0.132842
0.411225 0.770110 0.140270
0.490653 0.779297 0.147600
0.568897 0.786214 0.154901
0.647141 0.793131 0.162201
0.725385 0.800048 0.169502
0.000000 0.000000 0.001072
0.000000 0.000000 0.008245
0.056165 0.000000 0.015417
0.116050 0.000000 0.022590
0.175935 0.000000 0.029762
0.235820 0.000000 0.036935
0.295705 0.000000 0.044108
0.355590 0.000000 0.051280
0.415475 0.000000 0.058453
0.000000 0.012502 0.026477
0.013993 0.017758 0.033650
0.073878 0.023014 0.040822
0.133763 0.028270 0.047995
0.193648 0.033527 0.055167
0.253533 0.038783 0.062340
0.313418 0.044039 0.069513
0.373303 0.049295 0.076685
0.435945 0.054910 0.083889
0.000000 0.091858 0.051882
0.031705 0.097114 0.059054
0.091590 0.102370 0.066227
0.151475 0.107627 0.073400
0.211891 0.113175 0.080584
0.274365 0.119540 0.087803
0.338424 0.126197 0.095039
0.404113 0.133093 0.102289
0.471494 0.140211 0.109553
0.000000 0.171214 0.077287
0.049769 0.177766 0.084494
0.111168 0.184924 0.091723
0.173949 0.192407 0.098966
0.238239 0.200168 0.106224
0.304132 0.208185 0.113495
0.371704 0.216447 0.120780
0.441018 0.224945 0.128080
0.512130 0.233676 0.135394
0.007494 0.259479 0.102897
0.070266 0.268146 0.110162
0.134574 0.277097 0.117442
0.200502 0.286318 0.124735
0.268124 0.295800 0.132042
0.337498 0.305536 0.139364
0.408680 0.315523 0.146700
0.481717 0.325756 0.154051
0.556653 0.336235 0.161417
0.026957 0.357181 0.128693
0.092821 0.367671 0.136008
0.160399 0.378436 0.143338
0.229749 0.389468 0.150682
0.300922 0.400765 0.158041
0.373962 0.412323 0.165416
0.448913 0.424139 0.172805
0.525812 0.436212 0.180209
0.604696 0.448541 0.187629
0.048253 0.464489 0.154669
0.117515 0.476868 0.162036
0.188617 0.489522 0.169418
0.261602 0.502449 0.176816
0.336512 0.515647 0.184229
0.413381 0.529113 0.191657
0.492247 0.542846 0.199101
0.573140 0.556844 0.206561
0.656091 0.571108 0.214037
0.071563 0.581899 0.180831
0.144446 0.596236 0.188253
0.219267 0.610853 0.195689
0.296062 0.625750 0.203142
0.374865 0.640923 0.210611
0.455706 0.656372 0.218095
0.538616 0.672096 0.225596
0.623623 0.688093 0.233113
0.704844 0.698372 0.240496
0.097017 0.709846 0.207188
0.173699 0.726207 0.214665
0.252401 0.742853 0.222158
0.333154 0.759784 0.229668
0.415011 0.775134 0.237152
0.493255 0.782051 0.244452
0.571499 0.788968 0.251753
0.649742 0.795885 0.259053
0.727986 0.802803 0.266353
0.000000 0.000000 0.096229
0.000000 0.000000 0.103401
0.058157 0.000000 0.110574
0.118042 0.000000 0.117747
0.177927 0.000000 0.124919
0.237812 0.000000 0.132092
0.297697 0.000000 0.139264
0.357582 0.000000 0.146437
0.417467 0.000000 0.153610
0.000000 0.014595 0.121634
0.015984 0.019851 0.128806
0.075869 0.025107 0.135979
0.135754 0.030363 0.143152
0.195639 0.035620 0.150324
0.255524 0.040876 0.157497
0.315409 0.046132 0.164669
0.375839 0.051465 0.171856
0.439571 0.057234 0.179119
0.000000 0.093951 0.147039
0.033696 0.099207 0.154211
0.093581 0.104463 0.161384
0.153466 0.109720 0.168556
0.214595 0.115667 0.175789
0.277487 0.122160 0.183067
0.341949 0.128916 0.190367
0.408047 0.135902 0.197685
0.475846 0.143106 0.205021
0.000000 0.173675 0.172464
0.051969 0.180572 0.179730
0.113672 0.187868 0.187021
0.176791 0.195466 0.194331
0.241444 0.203331 0.201659
0.307720 0.211446 0.209004
0.375689 0.219802 0.216366
0.445415 0.228394 0.223745
0.516951 0.237217 0.231139
0.009599 0.262895 0.198300
0.072698 0.271677 0.205638
0.137358 0.280737 0.212992
0.203659 0.290063 0.220363
0.271669 0.299647 0.227750
0.341447 0.309483 0.235154
0.413045 0.319568 0.242574
0.486509 0.329899 0.250010
0.561883 0.340475 0.257463
0.029256 0.361325 0.224364
0.095488 0.371925 0.231760
0.163452 0.382797 0.239173
0.233201 0.393935 0.246602
0.304785 0.405336 0.254047
0.378248 0.416997 0.261509
0.453632 0.428916 0.268988
0.530973 0.441091 0.276483
0.610309 0.453521 0.283994
0.050771 0.469385 0.250635
0.120429 0.481873 0.258089
0.191940 0.494637 0.265560
0.265346 0.507672 0.273047
0.340686 0.520977 0.280551
0.417995 0.534549 0.288072
0.497309 0.548388 0.295610
0.578658 0.562492 0.303164
0.662074 0.576861 0.310735
0.074315 0.587574 0.277112
0.147617 0.602023 0.284625
0.222867 0.616752 0.292155
0.300100 0.631759 0.299702
0.379350 0.647042 0.307265
0.460646 0.662600 0.314846
0.544018 0.678433 0.322444
0.629202 0.694209 0.330047
0.707446 0.701126 0.337348
0.100017 0.716327 0.303798
0.177136 0.732801 0.311371
0.256284 0.749561 0.318961
0.337490 0.766605 0.326568
0.417612 0.777889 0.334004
0.495856 0.784806 0.341304
0.574100 0.791723 0.348604
0.652344 0.798640 0.355905
0.730588 0.805557 0.363205
0.000000 0.000000 0.191386
0.000263 0.000000 0.198558
0.060148 0.000000 0.205731
0.120033 0.000000 0.212903
0.179918 0.000000 0.220076
0.239803 0.000000 0.227249
0.299688 0.000000 0.234421
0.359573 0.000000 0.241594
0.419458 0.000000 0.248766
0.000000 0.016688 0.216791
0.017975 0.021944 0.223963
0.077860 0.027200 0.231136
0.137745 0.032456 0.238308
0.197630 0.037713 0.245481
0.257515 0.042969 0.252654
0.317400 0.048225 0.259826
0.379014 0.053734 0.267070
0.443322 0.059589 0.274395
0.000000 0.096044 0.242195
0.035687 0.101300 0.249368
0.095572 0.106556 0.256541
0.155620 0.111933 0.263729
0.217391 0.118217 0.271036
0.280676 0.124821 0.278378
0.345534 0.131671 0.285746
0.412039 0.138744 0.293137
0.480257 0.146033 0.300547
0.000000 0.176359 0.267683
0.054197 0.183437 0.275011
0.116210 0.190860 0.282368
0.179672 0.198566 0.289749
0.244690 0.206533 0.297150
0.311350 0.214745 0.304571
0.379719 0.223195 0.312012
0.449859 0.231880 0.319471
0.521820 0.240794 0.326948
0.011723 0.266357 0.293757
0.075156 0.275252 0.301170
0.140173 0.284419 0.308601
0.206849 0.293849 0.316052
0.275251 0.303533 0.323521
0.345435 0.313469 0.331008
0.417450 0.323653 0.338513
0.491344 0.334081 0.346036
0.567156 0.344754 0.353577
0.031578 0.365513 0.320097
0.098183 0.376222 0.327576
0.166534 0.387200 0.335073
0.236685 0.398443 0.342588
0.308682 0.409948 0.350120
0.382571 0.421712 0.357671
0.458389 0.433733 0.365240
0.536175 0.446010 0.372826
0.615964 0.458541 0.380430
0.053314 0.474325 0.346668
0.123372 0.486923 0.354210
0.195295 0.499795 0.361770
0.269123 0.512937 0.369349
0.344894 0.526349 0.376945
0.422646 0.540028 0.384559
0.502409 0.553973 0.392190
0.584217 0.568182 0.399840
0.668099 0.582655 0.407508
0.077095 0.593294 0.373463
0.150818 0.607854 0.381069
0.226498 0.622694 0.388692
0.304172 0.637811 0.396334
0.383869 0.653204 0.403993
0.465621 0.668872 0.411671
0.549457 0.684813 0.419367
0.631803 0.696963 0.426899
0.710047 0.703881 0.434199
0.103046 0.722852 0.400483
0.180604 0.739441 0.408152
0.260199 0.756314 0.415839
0.341860 0.773471 0.423545
0.420214 0.780643 0.430855
0.498458 0.787560 0.438156
0.576702 0.794477 0.445456
0.654946 0.801394 0.452756
0.733190 0.808311 0.460057
0.000000 0.000000 0.286542
0.002254 0.000000 0.293715
0.062139 0.000000 0.300888
0.122024 0.000000 0.308060
0.181909 0.000000 0.315233
0.241794 0.000000 0.322405
0.301679 0.000000 0.329578
0.361564 0.000000 0.336751
0.421449 0.000000 0.343923
0.000000 0.018781 0.311947
0.019966 0.024037 0.319120
0.079851 0.029293 0.326293
0.139736 0.034549 0.333465
0.199621 0.039806 0.340638
0.259506 0.045062 0.347810
0.319451 0.050328 0.354987
0.382368 0.056041 0.362327
0.447175 0.061975 0.369720
0.000000 0.098137 0.337352
0.037679 0.103393 0.344525
0.097564 0.108649 0.351697
0.158091 0.114384 0.358955
0.220259 0.120815 0.366329
0.283926 0.127521 0.373740
0.349177 0.134461 0.381179
0.416088 0.141621 0.388644
0.484724 0.148995 0.396131
0.000000 0.179129 0.362946
0.056452 0.186356 0.370341
0.118780 0.193896 0.377768
0.182589 0.201708 0.385222
0.247976 0.209774 0.392699
0.315022 0.218082 0.400198
0.383794 0.226626 0.407718
0.454348 0.235402 0.415259
0.526736 0.244408 0.422820
0.013868 0.269866 0.389271
0.077640 0.278870 0.396760
0.143017 0.288143 0.404271
0.210073 0.297675 0.411802
0.278869 0.307460 0.419354
0.349460 0.317495 0.426926
0.421896 0.327776 0.434518
0.496220 0.338302 0.442128
0.572474 0.349071 0.449759
0.033924 0.369745 0.415893
0.100905 0.380561 0.423455
0.169647 0.391645 0.431038
0.240202 0.402993 0.438640
0.312615 0.414601 0.446261
0.386930 0.426468 0.453902
0.463186 0.438591 0.461561
0.541418 0.450969 0.469240
0.621660 0.463602 0.476938
0.055883 0.479308 0.442768
0.126343 0.492016 0.450400
0.198680 0.504996 0.458050
0.272932 0.518246 0.465720
0.349138 0.531764 0.473409
0.427332 0.545549 0.481117
0.507548 0.559599 0.488844
0.589815 0.573914 0.496590
0.674164 0.588492 0.504355
0.079902 0.599058 0.469885
0.154048 0.613730 0.477584
0.230162 0.628680 0.485303
0.308276 0.643907 0.493040
0.388424 0.659410 0.500796
0.470634 0.675187 0.508571
0.554934 0.691237 0.516365
0.634405 0.699718 0.523751
0.712649 0.706635 0.531051
0.106104 0.729423 0.497241
0.184103 0.746125 0.505007
0.264146 0.763112 0.512793
0.344572 0.776480 0.520407
0.422816 0.783397 0.527707
0.501060 0.790314 0.535007
0.579304 0.797231 0.542308
0.657548 0.804148 0.549608
0.735791 0.811065 0.556908
0.000000 0.000000 0.381699
0.004245 0.000000 0.388872
0.064130 0.000000 0.396044
0.124015 0.000000 0.403217
0.183900 0.000000 0.410390
0.243785 0.000000 0.417562
0.303670 0.000000 0.424735
0.363555 0.000000 0.431907
0.423440 0.000000 0.439080
0.000000 0.020874 0.407104
0.021958 0.026130 0.414277
0.081843 0.031386 0.421449
0.141728 0.036642 0.428622
0.201613 0.041899 0.435795
0.261498 0.047155 0.442967
0.322318 0.052568 0.450216
0.385846 0.058381 0.457631
0.451119 0.064389 0.465095
0.000000 0.100230 0.432509
0.039670 0.105486 0.439682
0.099555 0.110742 0.446854
0.160651 0.116906 0.454227
0.223187 0.123455 0.461671
0.287232 0.130257 0.469154
0.352876 0.137286 0.476667
0.420192 0.144532 0.484208
0.489246 0.151989 0.491774
0.000000 0.181965 0.458256
0.058732 0.189324 0.465722
0.121383 0.196976 0.473222
0.185542 0.204890 0.480751
0.251301 0.213053 0.488306
0.318736 0.221456 0.495885
0.387912 0.230093 0.503487
0.458883 0.238960 0.511111
0.531700 0.248057 0.518757
0.016035 0.273418 0.484842
0.080150 0.282531 0.492410
0.145892 0.291908 0.500002
0.213330 0.301541 0.507616
0.282523 0.311426 0.515252
0.353524 0.321559 0.522910
0.426382 0.331938 0.530589
0.501139 0.342561 0.538289
0.577835 0.353426 0.546009
0.036295 0.374019 0.511752
0.103655 0.384943 0.519400
0.172790 0.396133 0.527069
0.243752 0.407584 0.534759
0.316583 0.419296 0.542470
0.391327 0.431265 0.550202
0.468021 0.443489 0.557954
0.546700 0.455969 0.565726
0.627399 0.468702 0.573518
0.058478 0.484335 0.538936
0.129343 0.497152 0.546658
0.202096 0.510239 0.554400
0.276775 0.523596 0.562163
0.353417 0.537221 0.569946
0.432056 0.551112 0.577749
0.512725 0.565267 0.585572
0.595453 0.579687 0.593414
0.680271 0.594370 0.601277
0.082737 0.604867 0.566378
0.157308 0.619650 0.574172
0.233856 0.634711 0.581986
0.312414 0.650047 0.589820
0.393013 0.665659 0.597673
0.475682 0.681545 0.605547
0.558763 0.695555 0.613302
0.637007 0.702472 0.620602
0.715251 0.709389 0.627903
0.109190 0.736040 0.594073
0.187632 0.752855 0.601938
0.268126 0.769954 0.609822
0.347174 0.779234 0.617258
0.425417 0.786151 0.624559
0.503661 0.793069 0.631859
0.581905 0.799986 0.639159
0.660149 0.806903 0.646460
0.738393 0.813820 0.653760
0.000000 0.000000 0.476856
0.006236 0.000000 0.484029
0.066121 0.000000 0.491201
0.126006 0.000000 0.498374
0.185891 0.000000 0.505546
0.245776 0.000000 0.512719
0.305661 0.000000 0.519892
0.365546 0.000000 0.527064
0.425431 0.000000 0.534237
0.000000 0.022967 0.502261
0.023949 0.028223 0.509434
0.083834 0.033479 0.516606
0.143719 0.038735 0.523779
0.203604 0.043992 0.530951
0.263489 0.049248 0.538124
0.325406 0.054857 0.545496
0.389425 0.060751 0.552986
0.455144 0.066831 0.560522
0.000000 0.102323 0.527666
0.041661 0.107579 0.534838
0.101794 0.113120 0.542088
0.163274 0.119481 0.549548
0.226169 0.126136 0.557065
0.290591 0.133030 0.564622
0.356626 0.140146 0.572212
0.424349 0.147476 0.579831
0.493821 0.155017 0.587478
0.000000 0.184857 0.553616
0.061038 0.192338 0.561156
0.124018 0.200097 0.568732
0.188531 0.208112 0.576338
0.254665 0.216371 0.583972
0.322491 0.224867 0.591633
0.392073 0.233596 0.599318
0.463462 0.242555 0.607028
0.536709 0.251743 0.614760
0.018222 0.277015 0.580472
0.082687 0.286234 0.588121
0.148797 0.295713 0.595795
0.216620 0.305447 0.603493
0.286212 0.315431 0.611215
0.357626 0.325663 0.618961
0.430907 0.336139 0.626728
0.506099 0.346858 0.634518
0.583239 0.357820 0.642330
0.038689 0.378337 0.607675
0.106432 0.389367 0.615410
0.175964 0.400661 0.623167
0.247334 0.412217 0.630947
0.320586 0.424031 0.638749
0.395761 0.436102 0.646572
0.472895 0.448428 0.654417
0.552024 0.461009 0.662283
0.633180 0.473843 0.670170
0.061099 0.489406 0.635172
0.132372 0.502331 0.642986
0.205543 0.515526 0.650821
0.280650 0.528990 0.658677
0.357730 0.542720 0.666555
0.436816 0.556717 0.674453
0.517940 0.570977 0.682373
0.601131 0.585502 0.690313
0.686418 0.600290 0.698275
0.085599 0.610720 0.662944
0.160598 0.625614 0.670833
0.237583 0.640785 0.678743
0.316586 0.656231 0.686674
0.397638 0.671952 0.694625
0.480768 0.687947 0.702598
0.561365 0.698309 0.710154
0.639609 0.705226 0.717454
0.717852 0.712143 0.724754
0.112306 0.742701 0.690980
0.191191 0.759630 0.698943
0.271531 0.775072 0.706810
0.349775 0.781989 0.714110
0.428019 0.788906 0.721410
0.506263 0.795823 0.728711
0.584507 0.802740 0.736011
0.662751 0.809657 0.743311
0.740995 0.816574 0.750612
0.000000 0.000000 0.572013
0.008228 0.000000 0.579185
0.068113 0.000000 0.586358
0.127998 0.000000 0.593531
0.187883 0.000000 0.600703
0.247768 0.000000 0.607876
0.307653 0.000000 0.615048
0.367538 0.000000 0.622221
0.427423 0.000000 0.629394
0.000000 0.025059 0.597418
0.025940 0.030316 0.604590
0.085825 0.035572 0.611763
0.145710 0.040828 0.618935
0.205595 0.046085 0.626108
0.265849 0.051414 0.633332
0.328621 0.057181 0.640826
0.393090 0.063151 0.648392
0.459244 0.069302 0.656004
0.000000 0.104416 0.622823
0.043652 0.109672 0.629995
0.104133 0.115609 0.637381
0.165949 0.122100 0.644919
0.229202 0.128853 0.652512
0.293999 0.135837 0.660146
0.360427 0.143039 0.667815
0.428557 0.150454 0.675514
0.498449 0.158077 0.683243
0.001511 0.187800 0.649029
0.063370 0.195396 0.656645
0.126683 0.203258 0.664298
0.191555 0.211371 0.671984
0.258066 0.219726 0.679699
0.326287 0.228315 0.687443
0.396276 0.237136 0.695213
0.468086 0.246186 0.703009
0.541764 0.255465 0.710830
0.020432 0.280654 0.676162
0.085250 0.289977 0.683893
0.151732 0.299559 0.691651
0.219943 0.309393 0.699435
0.289937 0.319476 0.707244
0.361766 0.329805 0.715078
0.435473 0.340378 0.722935
0.511100 0.351194 0.730816
0.588686 0.362252 0.738720
0.041108 0.382697 0.703664
0.109237 0.393833 0.711487
0.179168 0.405231 0.719333
0.250950 0.416890 0.727203
0.324624 0.428807 0.735097
0.400231 0.440979 0.743013
0.477807 0.453407 0.750952
0.557387 0.466089 0.758913
0.639002 0.479024 0.766896
0.063747 0.494520 0.731478
0.135429 0.507553 0.739384
0.209021 0.520855 0.747312
0.284559 0.534425 0.755263
0.362079 0.548262 0.763236
0.441613 0.562363 0.771232
0.523193 0.576729 0.779249
0.606848 0.591359 0.787288
0.692606 0.606252 0.795348
0.088490 0.616617 0.759581
0.163918 0.631621 0.767567
0.241341 0.646902 0.775574
0.320791 0.662458 0.783603
0.402298 0.678288 0.791653
0.485722 0.694147 0.799705
0.563966 0.701064 0.807005
0.642210 0.707981 0.814306
0.720454 0.714898 0.821606
0.115451 0.749408 0.787963
0.194782 0.766450 0.796025
0.274133 0.777826 0.803661
0.352377 0.784743 0.810962
0.430621 0.791660 0.818262
0.508865 0.798577 0.825562
0.587109 0.805494 0.832863
0.665353 0.812411 0.840163
0.743597 0.819328 0.847463
0.000000 0.000000 0.667170
0.010219 0.000000 0.674342
0.070104 0.000000 0.681515
0.129989 0.000000 0.688687
0.189874 0.000000 0.695860
0.249759 0.000000 0.703033
0.309644 0.000000 0.710205
0.369529 0.000000 0.717378
0.429612 0.000000 0.724570
0.000000 0.027152 0.692575
0.027931 0.032409 0.699747
0.087816 0.037665 0.706920
0.147701 0.042921 0.714092
0.207586 0.048177 0.721265
0.268676 0.053682 0.728628
0.331932 0.059536 0.736207
0.396832 0.065579 0.743852
0.463413 0.071801 0.751542
0.000000 0.106509 0.717979
0.045688 0.111878 0.725193
0.106524 0.118158 0.732726
0.168672 0.124760 0.740344
0.232281 0.131608 0.748014
0.297456 0.138679 0.755727
0.364277 0.145966 0.763476
0.432815 0.153464 0.771258
0.503127 0.161171 0.779071
0.003560 0.190791 0.744495
0.065728 0.198496 0.752189
0.129380 0.206459 0.759922
0.194613 0.214669 0.767690
0.261505 0.223118 0.775489
0.330122 0.231800 0.783317
0.400521 0.240712 0.791173
0.472753 0.249854 0.799056
0.546864 0.259223 0.806966
0.022664 0.284335 0.771912
0.087839 0.293762 0.779727
0.154697 0.303445 0.787571
0.223299 0.313378 0.795442
0.293698 0.323559 0.803340
0.365943 0.333986 0.811263
0.440078 0.344656 0.819211
0.516143 0.355569 0.827184
0.594175 0.366723 0.835181
0.043553 0.387099 0.799719
0.112070 0.398340 0.807630
0.182403 0.409843 0.815567
0.254598 0.421604 0.823529
0.328697 0.433623 0.831515
0.404739 0.445898 0.839525
0.482758 0.458427 0.847558
0.562790 0.471209 0.855615
0.644865 0.484245 0.863695
0.066421 0.499677 0.827854
0.138516 0.512817 0.835853
0.212530 0.526226 0.843876
0.288501 0.539903 0.851922
0.366462 0.553845 0.859991
0.446446 0.568052 0.868084
0.528484 0.582523 0.876199
0.612605 0.597258 0.884337
0.698835 0.612255 0.892498
0.091408 0.622558 0.856292
0.167268 0.637673 0.864374
0.245131 0.653063 0.872479
0.325029 0.668729 0.880607
0.406993 0.684668 0.888757
0.488324 0.696901 0.896557
0.566568 0.703818 0.903857
0.644812 0.710735 0.911157
0.723056 0.717652 0.918458
0.118625 0.756160 0.885021
0.198403 0.773314 0.893183
0.276735 0.780580 0.900513
0.354979 0.787497 0.907813
0.433223 0.794414 0.915114
0.511466 0.801331 0.922414
0.589710 0.808249 0.929714
0.667954 0.815166 0.937015
0.746198 0.822083 0.944315
