assets/lighting/cinematic/grade-moonlight-deep-blue/lut.cube
TITLE "Deep Blue Moonlight"
# TKRS lighting-batch-001 original LUT
# Intended usage: stylized night, strong blue lift in shadows
# License: CC0-1.0
LUT_3D_SIZE 5
DOMAIN_MIN 0.0 0.0 0.0
DOMAIN_MAX 1.0 1.0 1.0
0.000000 0.000000 0.000000
0.054174 0.000000 0.000000
0.173944 0.000000 0.000000
0.293714 0.000000 0.000000
0.413484 0.000000 0.000000
0.000000 0.089765 0.000000
0.089599 0.100277 0.000000
0.209369 0.110790 0.000000
0.334966 0.123516 0.000000
0.467202 0.137351 0.014139
0.005410 0.256111 0.007548
0.131819 0.273500 0.021949
0.264615 0.291994 0.036396
0.404356 0.311517 0.050891
0.551468 0.332033 0.065438
0.045762 0.459638 0.058768
0.185324 0.484450 0.073345
0.332373 0.510359 0.087976
0.487223 0.537346 0.102665
0.650149 0.565397 0.117412
0.094045 0.703412 0.110650
0.248551 0.736191 0.125429
0.411225 0.770110 0.140270
0.568897 0.786214 0.154901
0.725385 0.800048 0.169502
0.000000 0.000000 0.096229
0.058157 0.000000 0.110574
0.177927 0.000000 0.124919
0.297697 0.000000 0.139264
0.417467 0.000000 0.153610
0.000000 0.093951 0.147039
0.093581 0.104463 0.161384
0.214595 0.115667 0.175789
0.341949 0.128916 0.190367
0.475846 0.143106 0.205021
0.009599 0.262895 0.198300
0.137358 0.280737 0.212992
0.271669 0.299647 0.227750
0.413045 0.319568 0.242574
0.561883 0.340475 0.257463
0.050771 0.469385 0.250635
0.191940 0.494637 0.265560
0.340686 0.520977 0.280551
0.497309 0.548388 0.295610
0.662074 0.576861 0.310735
0.100017 0.716327 0.303798
0.256284 0.749561 0.318961
0.417612 0.777889 0.334004
0.574100 0.791723 0.348604
0.730588 0.805557 0.363205
0.000000 0.000000 0.286542
0.062139 0.000000 0.300888
0.181909 0.000000 0.315233
0.301679 0.000000 0.329578
0.421449 0.000000 0.343923
0.000000 0.098137 0.337352
0.097564 0.108649 0.351697
0.220259 0.120815 0.366329
0.349177 0.134461 0.381179
0.484724 0.148995 0.396131
0.013868 0.269866 0.389271
0.143017 0.288143 0.404271
0.278869 0.307460 0.419354
0.421896 0.327776 0.434518
0.572474 0.349071 0.449759
0.055883 0.479308 0.442768
0.198680 0.504996 0.458050
0.349138 0.531764 0.473409
0.507548 0.559599 0.488844
0.674164 0.588492 0.504355
0.106104 0.729423 0.497241
0.264146 0.763112 0.512793
0.422816 0.783397 0.527707
0.579304 0.797231 0.542308
0.735791 0.811065 0.556908
0.000000 0.000000 0.476856
0.066121 0.000000 0.491201
0.185891 0.000000 0.505546
0.305661 0.000000 0.519892
0.425431 0.000000 0.534237
0.000000 0.102323 0.527666
0.101794 0.113120 0.542088
0.226169 0.126136 0.557065
0.356626 0.140146 0.572212
0.493821 0.155017 0.587478
0.018222 0.277015 0.580472
0.148797 0.295713 0.595795
0.286212 0.315431 0.611215
0.430907 0.336139 0.626728
0.583239 0.357820 0.642330
0.061099 0.489406 0.635172
0.205543 0.515526 0.650821
0.357730 0.542720 0.666555
0.517940 0.570977 0.682373
0.686418 0.600290 0.698275
0.112306 0.742701 0.690980
0.271531 0.775072 0.706810
0.428019 0.788906 0.721410
0.584507 0.802740 0.736011
0.740995 0.816574 0.750612
0.000000 0.000000 0.667170
0.070104 0.000000 0.681515
0.189874 0.000000 0.695860
0.309644 0.000000 0.710205
0.429612 0.000000 0.724570
0.000000 0.106509 0.717979
0.106524 0.118158 0.732726
0.232281 0.131608 0.748014
0.364277 0.145966 0.763476
0.503127 0.161171 0.779071
0.022664 0.284335 0.771912
0.154697 0.303445 0.787571
0.293698 0.323559 0.803340
0.440078 0.344656 0.819211
0.594175 0.366723 0.835181
0.066421 0.499677 0.827854
0.212530 0.526226 0.843876
0.366462 0.553845 0.859991
0.528484 0.582523 0.876199
0.698835 0.612255 0.892498
0.118625 0.756160 0.885021
0.276735 0.780580 0.900513
0.433223 0.794414 0.915114
0.589710 0.808249 0.929714
0.746198 0.822083 0.944315
