assets/lighting/cinematic/grade-liminal-empty-mall/lut.cube
TITLE "Liminal Empty Mall"
# TKRS lighting-batch-001 original LUT
# Intended usage: desaturated empty retail / hotel corridor
# License: CC0-1.0
LUT_3D_SIZE 9
DOMAIN_MIN 0.0 0.0 0.0
DOMAIN_MAX 1.0 1.0 1.0
0.039987 0.039987 0.040893
0.098079 0.048595 0.049695
0.156170 0.057202 0.058498
0.214262 0.065810 0.067301
0.272353 0.074417 0.076103
0.330445 0.083025 0.084906
0.388537 0.091632 0.093708
0.448220 0.100584 0.102803
0.509795 0.109902 0.112209
0.068750 0.117903 0.070307
0.126841 0.126510 0.079110
0.184933 0.135118 0.087912
0.243076 0.143755 0.096731
0.302819 0.153163 0.105995
0.363692 0.162876 0.115462
0.425659 0.172821 0.125096
0.488750 0.182980 0.134891
0.552996 0.193346 0.144846
0.097687 0.196157 0.099865
0.156831 0.205979 0.109208
0.216900 0.216112 0.118734
0.277967 0.226497 0.128423
0.340090 0.237116 0.138273
0.403316 0.247960 0.148282
0.467687 0.259024 0.158453
0.533238 0.270306 0.168785
0.600001 0.281806 0.179282
0.129494 0.280459 0.131769
0.190607 0.291551 0.141674
0.252779 0.302884 0.151738
0.316057 0.314450 0.161964
0.380480 0.326247 0.172352
0.446086 0.338272 0.182905
0.512906 0.350526 0.193625
0.580967 0.363006 0.204514
0.650298 0.375713 0.215572
0.163524 0.370199 0.165493
0.226796 0.382519 0.175938
0.291223 0.395078 0.186548
0.356837 0.407875 0.197325
0.423670 0.420908 0.208272
0.491751 0.434177 0.219389
0.561104 0.447682 0.230679
0.631753 0.461422 0.242143
0.703721 0.475399 0.253784
0.199788 0.465573 0.201045
0.265375 0.479165 0.212049
0.332189 0.493001 0.223225
0.400255 0.507081 0.234575
0.469600 0.521404 0.246099
0.540247 0.535970 0.257800
0.612216 0.550779 0.269680
0.685529 0.565832 0.281739
0.760205 0.581129 0.293980
0.238368 0.566849 0.238491
0.306394 0.581759 0.250076
0.375705 0.596920 0.261837
0.446324 0.612330 0.273778
0.518271 0.627990 0.285899
0.591566 0.643901 0.298203
0.666229 0.660061 0.310689
0.742276 0.676472 0.323361
0.819726 0.693134 0.336219
0.279343 0.674266 0.277898
0.349912 0.690538 0.290081
0.421816 0.707065 0.302447
0.495073 0.723849 0.314996
0.569702 0.740888 0.327732
0.645721 0.758184 0.340654
0.723146 0.775736 0.353764
0.801994 0.793545 0.367063
0.882001 0.811362 0.380453
0.322789 0.788035 0.319325
0.395990 0.805707 0.332124
0.470568 0.823640 0.345110
0.546541 0.841834 0.358285
0.623925 0.860290 0.371649
0.700228 0.875964 0.384059
0.772795 0.886638 0.394617
0.845363 0.897313 0.405174
0.917930 0.907987 0.415732
0.042877 0.042877 0.093881
0.100969 0.051485 0.102684
0.159060 0.060092 0.111486
0.217152 0.068700 0.120289
0.275243 0.077307 0.129091
0.333335 0.085915 0.137894
0.391502 0.094540 0.146719
0.452044 0.103688 0.156198
0.513926 0.113077 0.165937
0.071640 0.120793 0.123295
0.129731 0.129400 0.132098
0.187823 0.138008 0.140900
0.246349 0.146865 0.149914
0.306392 0.156397 0.159500
0.367512 0.166191 0.169309
0.429724 0.176208 0.179308
0.493062 0.186437 0.189485
0.557561 0.196872 0.199838
0.100771 0.199412 0.153159
0.160108 0.209351 0.162828
0.220383 0.219572 0.172704
0.281667 0.230037 0.182764
0.344017 0.240732 0.193001
0.407479 0.251651 0.203414
0.472092 0.262788 0.214000
0.537892 0.274143 0.224759
0.604910 0.285716 0.235694
0.132815 0.284156 0.186241
0.194136 0.295330 0.196538
0.256528 0.306741 0.207010
0.320034 0.318385 0.217655
0.384695 0.330259 0.228475
0.450546 0.342361 0.239469
0.517616 0.354691 0.250638
0.585934 0.367247 0.261985
0.655526 0.380031 0.273510
0.167066 0.374309 0.221331
0.230564 0.386709 0.232210
0.295225 0.399348 0.243264
0.361081 0.412224 0.254494
0.428162 0.425337 0.265902
0.496496 0.438685 0.277488
0.566108 0.452269 0.289254
0.637022 0.466088 0.301201
0.709259 0.480144 0.313332
0.203559 0.470109 0.258370
0.269386 0.483783 0.269839
0.336445 0.497701 0.281486
0.404764 0.511863 0.293314
0.474367 0.526267 0.305324
0.545276 0.540915 0.317517
0.617513 0.555807 0.329894
0.691097 0.570941 0.342457
0.766049 0.586320 0.355207
0.242375 0.571827 0.297396
0.310653 0.586822 0.309468
0.380220 0.602066 0.321724
0.451100 0.617560 0.334164
0.523313 0.633305 0.346791
0.596879 0.649299 0.359605
0.671816 0.665543 0.372608
0.748142 0.682038 0.385801
0.825874 0.698784 0.399185
0.283596 0.679701 0.338456
0.354426 0.696058 0.351146
0.426594 0.712672 0.364025
0.500121 0.729541 0.377092
0.575024 0.746667 0.390350
0.651320 0.764048 0.403800
0.729027 0.781687 0.417442
0.808159 0.799582 0.431279
0.885611 0.814946 0.444006
0.327294 0.793939 0.381599
0.400763 0.811699 0.394923
0.475614 0.829719 0.408438
0.551864 0.848002 0.422146
0.629529 0.866546 0.436049
0.703838 0.879548 0.447612
0.776406 0.890222 0.458169
0.848973 0.900897 0.468727
0.921541 0.911571 0.479284
0.045767 0.045767 0.146869
0.103859 0.054375 0.155672
0.161950 0.062982 0.164474
0.220042 0.071590 0.173277
0.278134 0.080197 0.182079
0.336225 0.088805 0.190882
0.395001 0.097575 0.199962
0.455941 0.106818 0.209789
0.518111 0.116274 0.219881
0.074530 0.123683 0.176283
0.132621 0.132290 0.185086
0.190713 0.140898 0.193888
0.249711 0.150030 0.203282
0.310010 0.159659 0.213210
0.371371 0.169530 0.223379
0.433826 0.179620 0.233754
0.497412 0.189918 0.244325
0.562163 0.200422 0.255085
0.103885 0.202713 0.206642
0.163414 0.212754 0.216659
0.223895 0.223059 0.226900
0.285397 0.233603 0.237343
0.347974 0.244374 0.247979
0.411672 0.255366 0.258803
0.476528 0.266576 0.269813
0.542578 0.278005 0.281006
0.609852 0.289650 0.292385
0.136157 0.287881 0.240955
0.197689 0.299135 0.251655
0.260302 0.310625 0.262543
0.324039 0.322347 0.273615
0.388939 0.334297 0.284872
0.455034 0.346476 0.296313
0.522356 0.358881 0.307939
0.590931 0.371514 0.319749
0.660786 0.384375 0.331745
0.170630 0.378446 0.277439
0.234356 0.390927 0.288759
0.299252 0.403645 0.300263
0.365351 0.416601 0.311952
0.432681 0.429792 0.323826
0.501270 0.443220 0.335886
0.571142 0.456883 0.348133
0.642321 0.470782 0.360567
0.714828 0.484917 0.373191
0.207353 0.474673 0.315986
0.273421 0.488429 0.327924
0.340728 0.502429 0.340048
0.409300 0.516672 0.352359
0.479161 0.531159 0.364858
0.550333 0.545888 0.377546
0.622838 0.560861 0.390425
0.696695 0.576078 0.403495
0.771923 0.591539 0.416758
0.246407 0.576834 0.356607
0.314937 0.591912 0.369170
0.384762 0.607241 0.381924
0.455904 0.622819 0.394868
0.528384 0.638647 0.408003
0.602221 0.654725 0.421332
0.677433 0.671054 0.434854
0.754038 0.687633 0.448571
0.832053 0.704464 0.462484
0.287874 0.685165 0.399333
0.358965 0.701608 0.412534
0.431399 0.718307 0.425929
0.505196 0.735263 0.439517
0.580374 0.752474 0.453301
0.656948 0.769942 0.467281
0.734937 0.787667 0.481459
0.814355 0.805648 0.495835
0.889221 0.818530 0.507558
0.331824 0.799873 0.444203
0.405563 0.817720 0.458054
0.480688 0.835829 0.472102
0.557215 0.854199 0.486347
0.634881 0.872458 0.500607
0.707449 0.883132 0.511164
0.780016 0.893807 0.521721
0.852583 0.904481 0.532279
0.925151 0.915155 0.542836
0.048657 0.048657 0.199857
0.106749 0.057265 0.208660
0.164841 0.065872 0.217462
0.222932 0.074480 0.226265
0.281024 0.083087 0.235067
0.339115 0.091695 0.243870
0.398640 0.100651 0.253402
0.459900 0.109971 0.263589
0.522347 0.119493 0.274050
0.077420 0.126573 0.229272
0.135511 0.135180 0.238074
0.193650 0.143821 0.246924
0.253130 0.153233 0.256845
0.313670 0.162948 0.267135
0.375269 0.172894 0.277677
0.437965 0.183054 0.288442
0.501797 0.193422 0.299417
0.566801 0.203995 0.310592
0.107025 0.206052 0.260328
0.166746 0.216186 0.270709
0.227435 0.226574 0.281330
0.289156 0.237194 0.292168
0.351962 0.248040 0.303211
0.415896 0.259106 0.314455
0.480996 0.270389 0.325895
0.547297 0.281890 0.337530
0.614827 0.293608 0.349358
0.139522 0.291633 0.295917
0.201266 0.302967 0.307029
0.264102 0.314535 0.318341
0.328071 0.326334 0.329847
0.393210 0.338361 0.341548
0.459551 0.350616 0.353442
0.527125 0.363098 0.365528
0.595959 0.375807 0.377808
0.666077 0.388744 0.390280
0.174217 0.382610 0.333822
0.238172 0.395171 0.345589
0.303305 0.407969 0.357548
0.369647 0.421004 0.369701
0.437228 0.434274 0.382046
0.506073 0.447781 0.394584
0.576206 0.461523 0.407316
0.647650 0.475501 0.420243
0.720427 0.489716 0.433364
0.211170 0.479265 0.373896
0.277480 0.493103 0.386307
0.345036 0.507184 0.398911
0.413862 0.521509 0.411710
0.483983 0.536077 0.424702
0.555419 0.550888 0.437891
0.628193 0.565943 0.451275
0.702323 0.581242 0.464855
0.777828 0.596785 0.478634
0.250464 0.581869 0.416125
0.319246 0.597031 0.429185
0.389330 0.612443 0.442440
0.460735 0.628106 0.455891
0.533482 0.644018 0.469539
0.607591 0.660180 0.483385
0.683079 0.676593 0.497430
0.759964 0.693256 0.511675
0.838262 0.710171 0.526120
0.292177 0.690657 0.460530
0.363530 0.707187 0.474246
0.436231 0.723972 0.488160
0.510299 0.741013 0.502273
0.585752 0.758311 0.516586
0.662605 0.775865 0.531100
0.740876 0.793675 0.545815
0.820264 0.811440 0.560553
0.892831 0.822114 0.571110
0.336380 0.805836 0.507139
0.410390 0.823771 0.521521
0.485789 0.841968 0.536103
0.562595 0.860426 0.550887
0.638491 0.876042 0.564159
0.711059 0.886716 0.574716
0.783626 0.897391 0.585274
0.856194 0.908065 0.595831
0.928761 0.918740 0.606389
0.051547 0.051547 0.252846
0.109639 0.060155 0.261648
0.167731 0.068763 0.270451
0.225822 0.077370 0.279253
0.283914 0.085978 0.288056
0.342081 0.094605 0.296910
0.402363 0.103756 0.307046
0.463914 0.113146 0.317607
0.526629 0.122734 0.328450
0.080310 0.129463 0.282260
0.138402 0.138071 0.291062
0.196848 0.146933 0.300298
0.256595 0.156467 0.310617
0.317369 0.166263 0.321281
0.379203 0.176282 0.332211
0.442140 0.186513 0.343376
0.506219 0.196949 0.354763
0.571474 0.207591 0.366363
0.110189 0.209424 0.314227
0.170105 0.219647 0.324987
0.231002 0.230114 0.335999
0.292943 0.240811 0.347241
0.355978 0.251731 0.358702
0.420150 0.262870 0.370373
0.485495 0.274227 0.382251
0.552047 0.285801 0.394332
0.619833 0.297592 0.406616
0.142908 0.295412 0.351132
0.204867 0.306825 0.362665
0.267927 0.318471 0.374407
0.332129 0.330347 0.386354
0.397509 0.342450 0.398505
0.464097 0.354781 0.410857
0.531925 0.367340 0.423410
0.601017 0.380125 0.436163
0.671399 0.393138 0.449116
0.177827 0.386801 0.390482
0.242013 0.399441 0.402702
0.307384 0.412319 0.415122
0.373971 0.425433 0.427744
0.441802 0.438783 0.440565
0.510903 0.452369 0.453586
0.581298 0.466190 0.466808
0.653010 0.480248 0.480230
0.726058 0.494542 0.493852
0.215011 0.483884 0.432100
0.281565 0.497804 0.444990
0.349370 0.511967 0.458080
0.418451 0.526373 0.471369
0.488832 0.541023 0.484860
0.560534 0.555916 0.498551
0.633577 0.571053 0.512444
0.707981 0.586433 0.526539
0.783763 0.602058 0.540837
0.254545 0.586932 0.475955
0.323581 0.602178 0.489514
0.393924 0.617674 0.503274
0.465593 0.633420 0.517236
0.538609 0.649416 0.531400
0.612990 0.665663 0.545767
0.688755 0.682160 0.560337
0.765921 0.698907 0.575112
0.844503 0.715907 0.590092
0.296504 0.696179 0.522051
0.368121 0.712794 0.536284
0.441090 0.729665 0.550720
0.515430 0.746792 0.565361
0.591158 0.764176 0.580206
0.668291 0.781816 0.595256
0.746845 0.799713 0.610512
0.823874 0.815024 0.624105
0.896442 0.825698 0.634662
0.340962 0.811829 0.570408
0.415243 0.829852 0.585323
0.490917 0.848136 0.600443
0.568002 0.866682 0.615770
0.642102 0.879626 0.627711
0.714669 0.890300 0.638268
0.787237 0.900975 0.648826
0.859804 0.911649 0.659383
0.932372 0.922324 0.669941
0.054438 0.054438 0.305834
0.112529 0.063045 0.314636
0.170621 0.071653 0.323439
0.228712 0.080260 0.332241
0.286804 0.088868 0.341044
0.345507 0.097642 0.350343
0.406153 0.106886 0.360903
0.467978 0.116344 0.371850
0.530957 0.125995 0.383088
0.083200 0.132353 0.335248
0.141292 0.140961 0.344050
0.200118 0.150099 0.353893
0.260100 0.159730 0.364606
0.321103 0.169603 0.375658
0.383172 0.179694 0.386986
0.446349 0.189994 0.398562
0.510674 0.200500 0.410370
0.576182 0.211210 0.422401
0.113377 0.212828 0.368347
0.173488 0.223135 0.379498
0.234595 0.233681 0.390913
0.296758 0.244453 0.402569
0.360024 0.255447 0.414454
0.424434 0.266659 0.426560
0.490025 0.278089 0.438883
0.556828 0.289735 0.451417
0.624873 0.301599 0.464162
0.146317 0.299218 0.406603
0.208492 0.310710 0.418565
0.271778 0.322433 0.430745
0.336214 0.334385 0.443140
0.401835 0.346565 0.455747
0.468672 0.358973 0.468563
0.536754 0.371607 0.481587
0.606106 0.384469 0.494818
0.676753 0.397559 0.508256
0.181459 0.391018 0.447422
0.245877 0.403739 0.460101
0.311488 0.416696 0.472988
0.378321 0.429889 0.486083
0.446404 0.443318 0.499385
0.515763 0.456983 0.512894
0.586420 0.470884 0.526609
0.658399 0.485021 0.540530
0.731719 0.499395 0.554658
0.218876 0.488531 0.490603
0.285675 0.502532 0.503976
0.353730 0.516777 0.517555
0.423067 0.531265 0.531340
0.493709 0.545996 0.545332
0.565677 0.560971 0.559530
0.638990 0.576190 0.573936
0.713668 0.591652 0.588548
0.789730 0.607360 0.603368
0.258650 0.592023 0.536096
0.327942 0.607353 0.550158
0.398544 0.622933 0.564427
0.470478 0.638763 0.578903
0.543763 0.654843 0.593587
0.618418 0.671174 0.608478
0.694460 0.687755 0.623577
0.771907 0.704587 0.638885
0.850773 0.721671 0.654403
0.300858 0.701729 0.583895
0.372738 0.718430 0.598649
0.445976 0.735387 0.613612
0.520588 0.752601 0.628782
0.596593 0.770070 0.644162
0.674006 0.787797 0.659751
0.752844 0.805780 0.675551
0.827484 0.818608 0.687657
0.900052 0.829282 0.698215
0.345570 0.817851 0.634012
0.420123 0.835962 0.649463
0.496073 0.854334 0.665124
0.573144 0.872535 0.680706
0.645712 0.883210 0.691263
0.718279 0.893884 0.701821
0.790847 0.904559 0.712378
0.863414 0.915233 0.722936
0.935982 0.925908 0.733493
0.057328 0.057328 0.358822
0.115419 0.065935 0.367624
0.173511 0.074543 0.376427
0.231602 0.083150 0.385229
0.289694 0.091758 0.394032
0.349055 0.100718 0.404011
0.410000 0.110039 0.414982
0.472089 0.119563 0.426327
0.535328 0.129278 0.437970
0.086090 0.135243 0.388236
0.144221 0.143888 0.397124
0.203436 0.153303 0.407707
0.263643 0.163020 0.418820
0.324873 0.172968 0.430272
0.387175 0.183129 0.442008
0.450593 0.193498 0.454003
0.515165 0.204073 0.466240
0.580925 0.214852 0.478710
0.116588 0.216261 0.422697
0.176897 0.226650 0.434250
0.238216 0.237273 0.446077
0.300601 0.248120 0.458156
0.364098 0.259187 0.470473
0.428748 0.270472 0.483021
0.494585 0.281975 0.495794
0.561641 0.293695 0.508787
0.629944 0.305632 0.521998
0.149747 0.303051 0.462336
0.212141 0.314620 0.474734
0.275654 0.326421 0.487359
0.340326 0.338450 0.500207
0.406190 0.350706 0.513275
0.473276 0.363190 0.526560
0.541613 0.375900 0.540061
0.611225 0.388839 0.553775
0.682137 0.402005 0.567703
0.185115 0.395263 0.504646
0.249766 0.408063 0.517789
0.315617 0.421100 0.531147
0.382697 0.434372 0.544721
0.451034 0.447880 0.558508
0.520651 0.461624 0.572508
0.591572 0.475604 0.586721
0.663818 0.489820 0.601145
0.737410 0.504274 0.615782
0.222765 0.493205 0.549406
0.289809 0.507288 0.563266
0.358116 0.521614 0.577339
0.427710 0.536184 0.591624
0.498614 0.550997 0.606121
0.570848 0.566054 0.620830
0.644432 0.581354 0.635751
0.719386 0.596899 0.650884
0.795726 0.612689 0.666230
0.262780 0.597143 0.596551
0.332327 0.612557 0.611121
0.403191 0.628221 0.625902
0.475391 0.644134 0.640896
0.548946 0.660299 0.656101
0.623875 0.676713 0.671520
0.700195 0.693379 0.687151
0.777923 0.710295 0.702995
0.857075 0.727464 0.719054
0.305236 0.707308 0.646065
0.377382 0.724095 0.661344
0.450888 0.741138 0.676835
0.525774 0.758438 0.692539
0.602056 0.775994 0.708456
0.679750 0.793806 0.724587
0.758527 0.811518 0.740652
0.831095 0.822192 0.751210
0.903662 0.832866 0.761767
0.350203 0.823903 0.697951
0.425029 0.842101 0.713942
0.501256 0.860561 0.730146
0.576755 0.876120 0.744258
0.649322 0.886794 0.754815
0.721890 0.897468 0.765373
0.794457 0.908143 0.775930
0.867025 0.918817 0.786488
0.939592 0.929492 0.797045
0.060218 0.060218 0.411810
0.118309 0.068825 0.420613
0.176401 0.077433 0.429415
0.234492 0.086040 0.438218
0.292656 0.094670 0.447108
0.352678 0.103824 0.457905
0.413896 0.113216 0.469290
0.476244 0.122804 0.481042
0.539740 0.132582 0.493100
0.088980 0.138133 0.441224
0.147343 0.147001 0.450690
0.206793 0.156538 0.461746
0.267220 0.166335 0.473267
0.328676 0.176356 0.485128
0.391211 0.186588 0.497282
0.454870 0.197026 0.509704
0.519689 0.207669 0.522378
0.585702 0.218517 0.535293
0.119821 0.219723 0.477283
0.180330 0.230191 0.489248
0.241862 0.240890 0.501496
0.304471 0.251811 0.514005
0.368201 0.262952 0.526762
0.433092 0.274310 0.539758
0.499176 0.285886 0.552988
0.566486 0.297678 0.566445
0.635047 0.309689 0.580128
0.153200 0.306909 0.518335
0.215814 0.318557 0.531175
0.279556 0.330434 0.544251
0.344465 0.342539 0.557559
0.410572 0.354872 0.571094
0.477909 0.367432 0.584853
0.546501 0.380219 0.598834
0.616375 0.393234 0.613036
0.687553 0.406477 0.627457
0.188793 0.399534 0.562156
0.253680 0.412414 0.575768
0.319772 0.425530 0.589603
0.387101 0.438881 0.603660
0.455691 0.452469 0.617937
0.525567 0.466292 0.632433
0.596752 0.480351 0.647147
0.669267 0.494647 0.662078
0.743133 0.509180 0.677227
0.226677 0.497906 0.608512
0.293968 0.512071 0.622863
0.362528 0.526479 0.637434
0.432380 0.541131 0.652222
0.503547 0.556025 0.667228
0.576048 0.571164 0.682451
0.649904 0.586546 0.697891
0.725134 0.602173 0.713548
0.801754 0.618045 0.729423
0.266934 0.602290 0.657323
0.336739 0.617788 0.672403
0.407864 0.633536 0.687700
0.480330 0.649534 0.703214
0.554156 0.665782 0.718946
0.629360 0.682281 0.734894
0.705959 0.699030 0.751060
0.783969 0.716032 0.767444
0.863407 0.733285 0.784045
0.309640 0.712916 0.708563
0.382051 0.729789 0.724369
0.455828 0.746918 0.740391
0.530988 0.764304 0.756632
0.607547 0.781946 0.773090
0.685523 0.799845 0.789766
0.762138 0.815102 0.804204
0.834705 0.825776 0.814762
0.907272 0.836451 0.825319
0.354863 0.829984 0.762228
0.429962 0.848270 0.778761
0.506467 0.866818 0.795511
0.580365 0.879704 0.807810
0.652932 0.890378 0.818368
0.725500 0.901053 0.828925
0.798067 0.911727 0.839483
0.870635 0.922401 0.850040
0.943202 0.933076 0.860598
0.063108 0.063108 0.464798
0.121199 0.071715 0.473601
0.179291 0.080323 0.482403
0.237383 0.088930 0.491206
0.296010 0.097708 0.500733
0.356361 0.106954 0.512029
0.417840 0.116414 0.523833
0.480441 0.126066 0.536002
0.544193 0.135908 0.548484
0.091870 0.141023 0.494212
0.150521 0.150168 0.504515
0.210186 0.159801 0.516014
0.270830 0.169676 0.527952
0.332511 0.179768 0.540232
0.395281 0.190070 0.552813
0.459180 0.200577 0.565669
0.524246 0.211289 0.578787
0.590513 0.222205 0.592154
0.123076 0.223211 0.532110
0.183788 0.233758 0.544497
0.245535 0.244532 0.557174
0.308369 0.255528 0.570121
0.372333 0.266742 0.583325
0.437465 0.278173 0.596775
0.503798 0.289821 0.610467
0.571361 0.301687 0.624394
0.640182 0.313770 0.638554
0.156676 0.310794 0.574602
0.219511 0.322519 0.587891
0.283483 0.334473 0.601425
0.348630 0.346655 0.615197
0.414982 0.359064 0.629204
0.482570 0.371700 0.643443
0.551419 0.384564 0.657909
0.621555 0.397655 0.672603
0.693000 0.410975 0.687521
0.192495 0.403833 0.619955
0.257617 0.416791 0.634042
0.323953 0.429986 0.648358
0.391531 0.443417 0.662903
0.460376 0.457084 0.677673
0.530512 0.470986 0.692668
0.601962 0.485125 0.707888
0.674747 0.499500 0.723330
0.748886 0.514113 0.738994
0.230614 0.502635 0.667922
0.298153 0.516882 0.682770
0.366966 0.531372 0.697842
0.437077 0.546105 0.713137
0.508507 0.561081 0.728655
0.581277 0.576301 0.744396
0.655405 0.591766 0.760358
0.730911 0.607475 0.776542
0.807812 0.623429 0.792949
0.271113 0.607466 0.718412
0.341176 0.623048 0.734006
0.412564 0.638880 0.749823
0.485298 0.654961 0.765861
0.559395 0.671294 0.782121
0.634874 0.687877 0.798603
0.711752 0.704711 0.815307
0.790046 0.721797 0.832232
0.869770 0.739135 0.849380
0.314069 0.718553 0.771390
0.386747 0.735512 0.787726
0.460795 0.752727 0.804283
0.536229 0.770199 0.821063
0.613067 0.787927 0.838064
0.691325 0.805912 0.855287
0.765748 0.818686 0.867757
0.838315 0.829360 0.878314
0.910883 0.840035 0.888871
0.359549 0.836095 0.826845
0.434922 0.854469 0.843922
0.511408 0.872613 0.860805
0.583975 0.883288 0.871363
0.656543 0.893962 0.881920
0.729110 0.904637 0.892477
0.801678 0.915311 0.903035
0.874245 0.925986 0.913592
0.946813 0.936660 0.924150
