assets/lighting/cinematic/grade-liminal-empty-mall/lut.cube
TITLE "Liminal Empty Mall"
# TKRS lighting-batch-001 original LUT
# Intended usage: desaturated empty retail / hotel corridor
# License: CC0-1.0
LUT_3D_SIZE 17
DOMAIN_MIN 0.0 0.0 0.0
DOMAIN_MAX 1.0 1.0 1.0
0.039987 0.039987 0.040893
0.069033 0.044291 0.045294
0.098079 0.048595 0.049695
0.127124 0.052898 0.054097
0.156170 0.057202 0.058498
0.185216 0.061506 0.062899
0.214262 0.065810 0.067301
0.243308 0.070113 0.071702
0.272353 0.074417 0.076103
0.301399 0.078721 0.080504
0.330445 0.083025 0.084906
0.359491 0.087328 0.089307
0.388537 0.091632 0.093708
0.417953 0.096018 0.098179
0.448220 0.100584 0.102803
0.478849 0.105216 0.107483
0.509795 0.109902 0.112209
0.054368 0.078945 0.055600
0.083414 0.083249 0.060001
0.112460 0.087552 0.064403
0.141506 0.091856 0.068804
0.170552 0.096160 0.073205
0.199597 0.100464 0.077606
0.228643 0.104767 0.082008
0.257689 0.109071 0.086409
0.286735 0.113375 0.090810
0.315780 0.117679 0.095211
0.345424 0.122186 0.099751
0.375588 0.126845 0.104396
0.406062 0.131572 0.109092
0.436827 0.136357 0.113833
0.467880 0.141197 0.118615
0.499221 0.146088 0.123439
0.530853 0.151030 0.128303
0.068750 0.117903 0.070307
0.097795 0.122206 0.074708
0.126841 0.126510 0.079110
0.155887 0.130814 0.083511
0.184933 0.135118 0.087912
0.213979 0.139421 0.092313
0.243076 0.143755 0.096731
0.272793 0.148408 0.101331
0.302819 0.153163 0.105995
0.333120 0.157989 0.110706
0.363692 0.162876 0.115462
0.394537 0.167821 0.120258
0.425659 0.172821 0.125096
0.457062 0.177874 0.129973
0.488750 0.182980 0.134891
0.520726 0.188137 0.139848
0.552996 0.193346 0.144846
0.083131 0.156860 0.085014
0.112177 0.161164 0.089415
0.141222 0.165468 0.093817
0.170429 0.169926 0.098292
0.200039 0.174686 0.102918
0.229902 0.179540 0.107599
0.260016 0.184468 0.112326
0.290385 0.189461 0.117095
0.321014 0.194513 0.121906
0.351909 0.199624 0.126757
0.383076 0.204790 0.131648
0.414521 0.210011 0.136579
0.446248 0.215286 0.141551
0.478262 0.220615 0.146562
0.510567 0.225996 0.151613
0.543168 0.231431 0.156704
0.576069 0.236919 0.161836
0.097687 0.196157 0.099865
0.127148 0.201022 0.104511
0.156831 0.205979 0.109208
0.186745 0.211012 0.113950
0.216900 0.216112 0.118734
0.247305 0.221274 0.123558
0.277967 0.226497 0.128423
0.308893 0.231778 0.133328
0.340090 0.237116 0.138273
0.371562 0.242510 0.143258
0.403316 0.247960 0.148282
0.435356 0.253465 0.153347
0.467687 0.259024 0.158453
0.500313 0.264638 0.163599
0.533238 0.270306 0.168785
0.566466 0.276029 0.174013
0.600001 0.281806 0.179282
0.113300 0.237621 0.115579
0.143234 0.242830 0.120377
0.173407 0.248105 0.125216
0.203830 0.253442 0.130094
0.234509 0.258839 0.135013
0.265453 0.264296 0.139971
0.296666 0.269811 0.144969
0.328156 0.275383 0.150008
0.359927 0.281012 0.155087
0.391983 0.286697 0.160206
0.424331 0.292438 0.165366
0.456974 0.298235 0.170566
0.489916 0.304088 0.175808
0.523161 0.309997 0.181091
0.556713 0.315961 0.186416
0.590576 0.321981 0.191783
0.624752 0.328056 0.197191
0.129494 0.280459 0.131769
0.159922 0.285975 0.136702
0.190607 0.291551 0.141674
0.221558 0.297188 0.146686
0.252779 0.302884 0.151738
0.284277 0.308638 0.156831
0.316057 0.314450 0.161964
0.348123 0.320320 0.167137
0.380480 0.326247 0.172352
0.413134 0.332231 0.177608
0.446086 0.338272 0.182905
0.479342 0.344371 0.188244
0.512906 0.350526 0.193625
0.546780 0.356737 0.199048
0.580967 0.363006 0.204514
0.615473 0.369331 0.210022
0.650298 0.375713 0.215572
0.146235 0.324643 0.148407
0.177184 0.330463 0.153473
0.208405 0.336344 0.158579
0.239904 0.342284 0.163726
0.271686 0.348283 0.168914
0.303755 0.354341 0.174143
0.336116 0.360458 0.179413
0.368774 0.366633 0.184724
0.401731 0.372866 0.190078
0.434993 0.379157 0.195473
0.468563 0.385506 0.200910
0.502443 0.391913 0.206390
0.536638 0.398378 0.211913
0.571151 0.404900 0.217478
0.605984 0.411481 0.223087
0.641141 0.418119 0.228738
0.676624 0.424816 0.234434
0.163524 0.370199 0.165493
0.195018 0.376329 0.170695
0.226796 0.382519 0.175938
0.258863 0.388769 0.181222
0.291223 0.395078 0.186548
0.323879 0.401447 0.191916
0.356837 0.407875 0.197325
0.390100 0.414362 0.202777
0.423670 0.420908 0.208272
0.457553 0.427513 0.213809
0.491751 0.434177 0.219389
0.526267 0.440900 0.225012
0.561104 0.447682 0.230679
0.596265 0.454522 0.236389
0.631753 0.461422 0.242143
0.667571 0.468381 0.247941
0.703721 0.475399 0.253784
0.181372 0.417165 0.183037
0.213431 0.423609 0.188377
0.245784 0.430114 0.193759
0.278436 0.436680 0.199183
0.311389 0.443306 0.204649
0.344648 0.449992 0.210158
0.378216 0.456738 0.215710
0.412097 0.463544 0.221305
0.446294 0.470409 0.226943
0.480809 0.477335 0.232624
0.515646 0.484321 0.238349
0.550808 0.491366 0.244118
0.586297 0.498472 0.249932
0.622117 0.505637 0.255789
0.658269 0.512862 0.261691
0.694757 0.520148 0.267638
0.731583 0.527493 0.273630
0.199788 0.465573 0.201045
0.232430 0.472338 0.206526
0.265375 0.479165 0.212049
0.298627 0.486052 0.217616
0.332189 0.493001 0.223225
0.366064 0.500010 0.228878
0.400255 0.507081 0.234575
0.434767 0.514212 0.240315
0.469600 0.521404 0.246099
0.504760 0.528656 0.251927
0.540247 0.535970 0.257800
0.576065 0.543344 0.263717
0.612216 0.550779 0.269680
0.648704 0.558275 0.275687
0.685529 0.565832 0.281739
0.722696 0.573450 0.287837
0.760205 0.581129 0.293980
0.218783 0.515457 0.219527
0.252024 0.522549 0.225151
0.285576 0.529703 0.230819
0.319442 0.536919 0.236530
0.353625 0.544196 0.242286
0.388129 0.551535 0.248085
0.422957 0.558935 0.253928
0.458110 0.566397 0.259816
0.493592 0.573921 0.265749
0.529406 0.581507 0.271726
0.565553 0.589154 0.277749
0.602037 0.596863 0.283816
0.638860 0.604634 0.289930
0.676024 0.612466 0.296088
0.713532 0.620360 0.302293
0.751385 0.628316 0.308544
0.789586 0.636334 0.314841
0.238368 0.566849 0.238491
0.272222 0.574273 0.244261
0.306394 0.581759 0.250076
0.340887 0.589308 0.255934
0.375705 0.596920 0.261837
0.410850 0.604594 0.267785
0.446324 0.612330 0.273778
0.482130 0.620129 0.279816
0.518271 0.627990 0.285899
0.554749 0.635914 0.292028
0.591566 0.643901 0.298203
0.628725 0.651950 0.304423
0.666229 0.660061 0.310689
0.704078 0.668235 0.317002
0.742276 0.676472 0.323361
0.780825 0.684771 0.329767
0.819726 0.693134 0.336219
0.258551 0.619776 0.257946
0.293032 0.627537 0.263864
0.327837 0.635362 0.269827
0.362970 0.643250 0.275835
0.398433 0.651201 0.281889
0.434229 0.659215 0.287988
0.470361 0.667293 0.294132
0.506830 0.675434 0.300322
0.543640 0.683638 0.306558
0.580791 0.691905 0.312840
0.618288 0.700236 0.319169
0.656131 0.708630 0.325544
0.694323 0.717087 0.331965
0.732867 0.725608 0.338433
0.771763 0.734192 0.344949
0.811015 0.742840 0.351511
0.850623 0.751552 0.358121
0.279343 0.674266 0.277898
0.314462 0.682370 0.283967
0.349912 0.690538 0.290081
0.385696 0.698769 0.296241
0.421816 0.707065 0.302447
0.458274 0.715425 0.308699
0.495073 0.723849 0.314996
0.532215 0.732336 0.321341
0.569702 0.740888 0.327732
0.607537 0.749504 0.334169
0.645721 0.758184 0.340654
0.684257 0.766928 0.347185
0.723146 0.775736 0.353764
0.762392 0.784608 0.360390
0.801994 0.793545 0.367063
0.841956 0.802546 0.373785
0.882001 0.811362 0.380453
0.300753 0.730344 0.298355
0.336522 0.738796 0.304577
0.372627 0.747311 0.310844
0.409072 0.755892 0.317158
0.445859 0.764537 0.323518
0.482989 0.773247 0.329925
0.520464 0.782021 0.336379
0.558288 0.790861 0.342879
0.596463 0.799765 0.349427
0.634989 0.808734 0.356021
0.673869 0.817767 0.362664
0.713106 0.826866 0.369354
0.752700 0.836029 0.376091
0.791114 0.843663 0.382256
0.827398 0.849000 0.387535
0.863682 0.854337 0.392814
0.899965 0.859675 0.398093
0.322789 0.788035 0.319325
0.359218 0.796838 0.325701
0.395990 0.805707 0.332124
0.433105 0.814640 0.338594
0.470568 0.823640 0.345110
0.508379 0.832704 0.351674
0.546541 0.841834 0.358285
0.585055 0.851029 0.364943
0.623925 0.860290 0.371649
0.663151 0.869616 0.378403
0.700228 0.875964 0.384059
0.736512 0.881301 0.389338
0.772795 0.886638 0.394617
0.809079 0.891976 0.399896
0.845363 0.897313 0.405174
0.881647 0.902650 0.410453
0.917930 0.907987 0.415732
0.041432 0.041432 0.067387
0.070478 0.045736 0.071788
0.099524 0.050040 0.076190
0.128570 0.054343 0.080591
0.157615 0.058647 0.084992
0.186661 0.062951 0.089393
0.215707 0.067255 0.093795
0.244753 0.071558 0.098196
0.273798 0.075862 0.102597
0.302844 0.080166 0.106998
0.331890 0.084470 0.111400
0.360936 0.088774 0.115801
0.389982 0.093077 0.120202
0.419747 0.097542 0.124775
0.450122 0.102133 0.129477
0.480833 0.106784 0.134237
0.511853 0.111487 0.139046
0.055813 0.080390 0.082094
0.084859 0.084694 0.086495
0.113905 0.088997 0.090897
0.142951 0.093301 0.095298
0.171997 0.097605 0.099699
0.201042 0.101909 0.104100
0.230088 0.106212 0.108502
0.259134 0.110516 0.112903
0.288180 0.114820 0.117304
0.317290 0.119147 0.121725
0.347185 0.123742 0.126373
0.377433 0.128425 0.131097
0.407978 0.133172 0.135874
0.438810 0.137976 0.140700
0.469929 0.142833 0.145570
0.501336 0.147741 0.150484
0.533033 0.152700 0.155441
0.070195 0.119348 0.096801
0.099240 0.123651 0.101202
0.128286 0.127955 0.105604
0.157332 0.132259 0.110005
0.186378 0.136563 0.114406
0.215424 0.140866 0.118807
0.244697 0.145300 0.123300
0.274505 0.149996 0.127980
0.304599 0.154776 0.132723
0.334963 0.159623 0.137517
0.365597 0.164531 0.142358
0.396503 0.169494 0.147244
0.427687 0.174512 0.152173
0.459151 0.179583 0.157144
0.490901 0.184705 0.162157
0.522941 0.189880 0.167213
0.555274 0.195106 0.172310
0.084576 0.158305 0.111508
0.113622 0.162609 0.115909
0.142668 0.166913 0.120311
0.172019 0.171511 0.124890
0.201692 0.176307 0.129593
0.231613 0.181187 0.134355
0.261782 0.186138 0.139165
0.292207 0.191151 0.144022
0.322894 0.196223 0.148922
0.353847 0.201352 0.153866
0.385073 0.206537 0.158852
0.416578 0.211776 0.163879
0.448365 0.217069 0.168949
0.480440 0.222416 0.174061
0.512808 0.227815 0.179214
0.545472 0.233268 0.184409
0.578436 0.238773 0.189646
0.099225 0.197778 0.126489
0.128735 0.202677 0.131214
0.158466 0.207661 0.135993
0.188431 0.212717 0.140819
0.218638 0.217838 0.145691
0.249096 0.223021 0.150606
0.279813 0.228264 0.155564
0.310796 0.233564 0.160564
0.342049 0.238921 0.165606
0.373580 0.244334 0.170690
0.405393 0.249802 0.175816
0.437494 0.255325 0.180984
0.469885 0.260903 0.186193
0.502573 0.266535 0.191445
0.535561 0.272222 0.196739
0.568852 0.277963 0.202075
0.602451 0.283758 0.207453
0.114903 0.239362 0.142478
0.144884 0.244594 0.147365
0.175108 0.249890 0.152295
0.205583 0.255248 0.157267
0.236316 0.260665 0.162282
0.267314 0.266141 0.167338
0.298584 0.271675 0.172436
0.330131 0.277266 0.177576
0.361960 0.282914 0.182758
0.394076 0.288618 0.187982
0.426484 0.294378 0.193248
0.459188 0.300194 0.198556
0.492192 0.306066 0.203907
0.525500 0.311993 0.209300
0.559116 0.317976 0.214736
0.593042 0.324015 0.220215
0.627283 0.330109 0.225737
0.131152 0.282304 0.158975
0.161631 0.287840 0.164004
0.192369 0.293437 0.169075
0.223373 0.299094 0.174187
0.254650 0.304809 0.179342
0.286205 0.310583 0.184538
0.318042 0.316414 0.189776
0.350167 0.322304 0.195056
0.382584 0.328250 0.200379
0.415298 0.334253 0.205744
0.448312 0.340314 0.211152
0.481631 0.346431 0.216603
0.515257 0.352605 0.222096
0.549195 0.358836 0.227633
0.583447 0.365123 0.233213
0.618017 0.371468 0.238837
0.652908 0.377869 0.244504
0.147947 0.326590 0.175943
0.178950 0.332431 0.181112
0.210226 0.338332 0.186322
0.241781 0.344292 0.191575
0.273620 0.350311 0.196870
0.305748 0.356389 0.202207
0.338168 0.362525 0.207587
0.370886 0.368719 0.213009
0.403905 0.374972 0.218474
0.437228 0.381282 0.223982
0.470860 0.387651 0.229534
0.504804 0.394077 0.235129
0.539063 0.400561 0.240768
0.573641 0.407103 0.246450
0.608539 0.413703 0.252177
0.643762 0.420361 0.257947
0.679312 0.427077 0.263763
0.165292 0.372251 0.193379
0.196842 0.378401 0.198688
0.228677 0.384611 0.204040
0.260802 0.390881 0.209434
0.293220 0.397210 0.214871
0.325937 0.403599 0.220351
0.358955 0.410046 0.225874
0.392280 0.416553 0.231440
0.425913 0.423119 0.237050
0.459858 0.429744 0.242704
0.494120 0.436428 0.248401
0.528700 0.443170 0.254143
0.563602 0.449972 0.259929
0.598829 0.456832 0.265759
0.634384 0.463752 0.271634
0.670269 0.470730 0.277554
0.706486 0.477768 0.283519
0.183197 0.419322 0.211286
0.215314 0.425787 0.216738
0.247726 0.432312 0.222232
0.280437 0.438898 0.227770
0.313450 0.445544 0.233351
0.346771 0.452250 0.238976
0.380401 0.459016 0.244645
0.414345 0.465842 0.250357
0.448605 0.472728 0.256114
0.483184 0.479674 0.261915
0.518086 0.486680 0.267761
0.553314 0.493745 0.273651
0.588869 0.500871 0.279586
0.624755 0.508056 0.285566
0.660975 0.515302 0.291592
0.697531 0.522607 0.297663
0.734425 0.529973 0.303780
0.201671 0.467838 0.229672
0.234372 0.474624 0.235268
0.267377 0.481471 0.240907
0.300690 0.488379 0.246591
0.334314 0.495348 0.252318
0.368251 0.502378 0.258090
0.402506 0.509468 0.263907
0.437082 0.516620 0.269767
0.471980 0.523832 0.275673
0.507205 0.531105 0.281624
0.542758 0.538439 0.287619
0.578642 0.545834 0.293661
0.614861 0.553290 0.299747
0.651416 0.560806 0.305880
0.688310 0.568383 0.312058
0.725545 0.576022 0.318282
0.763123 0.583721 0.324553
0.220724 0.517832 0.248542
0.254026 0.524944 0.254285
0.287640 0.532119 0.260072
0.321568 0.539355 0.265903
0.355815 0.546653 0.271779
0.390383 0.554013 0.277700
0.425274 0.561434 0.283666
0.460493 0.568917 0.289678
0.496041 0.576461 0.295734
0.531920 0.584068 0.301837
0.568135 0.591736 0.307985
0.604686 0.599465 0.314179
0.641577 0.607257 0.320419
0.678810 0.615110 0.326705
0.716386 0.623025 0.333038
0.754309 0.631002 0.339418
0.792581 0.639040 0.345844
0.240369 0.569334 0.267905
0.274285 0.576779 0.273797
0.308520 0.584287 0.279733
0.343077 0.591857 0.285715
0.377959 0.599489 0.291741
0.413169 0.607184 0.297814
0.448709 0.614942 0.303931
0.484581 0.622762 0.310095
0.520788 0.630644 0.316305
0.557334 0.638589 0.322561
0.594219 0.646596 0.328863
0.631447 0.654666 0.335212
0.669019 0.662799 0.341608
0.706938 0.670994 0.348050
0.745205 0.679252 0.354539
0.783824 0.687572 0.361076
0.822796 0.695956 0.367660
0.260613 0.622375 0.287768
0.295157 0.630157 0.293810
0.330026 0.638003 0.299898
0.365224 0.645912 0.306032
0.400753 0.653885 0.312211
0.436615 0.661920 0.318437
0.472813 0.670019 0.324708
0.509350 0.678181 0.331026
0.546227 0.686407 0.337391
0.583447 0.694695 0.343803
0.621012 0.703047 0.350261
0.658925 0.711462 0.356767
0.697187 0.719941 0.363320
0.735800 0.728483 0.369920
0.774767 0.737089 0.376567
0.814090 0.745758 0.383263
0.853770 0.754491 0.390006
0.281467 0.676980 0.308137
0.316650 0.685105 0.314332
0.352166 0.693294 0.320573
0.388015 0.701548 0.326861
0.424202 0.709865 0.333195
0.460727 0.718246 0.339576
0.497593 0.726691 0.346003
0.534804 0.735201 0.352478
0.572360 0.743774 0.359000
0.610263 0.752411 0.365569
0.648517 0.761112 0.372185
0.687123 0.769878 0.378849
0.726083 0.778708 0.385561
0.765399 0.787601 0.392321
0.805073 0.796560 0.399128
0.845107 0.805582 0.405984
0.883806 0.813154 0.412230
0.302939 0.733175 0.329019
0.338774 0.741648 0.335369
0.374946 0.750185 0.341766
0.411457 0.758787 0.348210
0.448311 0.767454 0.354700
0.485509 0.776186 0.361238
0.523054 0.784982 0.367823
0.560947 0.793843 0.374456
0.599190 0.802769 0.381136
0.637786 0.811760 0.387864
0.676737 0.820815 0.394640
0.716044 0.829935 0.401465
0.755710 0.839120 0.408337
0.792919 0.845455 0.414033
0.829203 0.850792 0.419311
0.865487 0.856129 0.424590
0.901771 0.861467 0.429869
0.325038 0.790984 0.350421
0.361534 0.799809 0.356928
0.398373 0.808699 0.363482
0.435557 0.817655 0.370083
0.473088 0.826676 0.376732
0.510968 0.835762 0.383429
0.549199 0.844914 0.390173
0.587783 0.854132 0.396966
0.626723 0.863414 0.403807
0.665749 0.872419 0.410557
0.702033 0.877756 0.415836
0.738317 0.883093 0.421114
0.774601 0.888430 0.426393
0.810884 0.893768 0.431672
0.847168 0.899105 0.436950
0.883452 0.904442 0.442229
0.919736 0.909779 0.447508
0.042877 0.042877 0.093881
0.071923 0.047181 0.098282
0.100969 0.051485 0.102684
0.130015 0.055788 0.107085
0.159060 0.060092 0.111486
0.188106 0.064396 0.115887
0.217152 0.068700 0.120289
0.246198 0.073004 0.124690
0.275243 0.077307 0.129091
0.304289 0.081611 0.133492
0.333335 0.085915 0.137894
0.362381 0.090219 0.142295
0.391502 0.094540 0.146719
0.421576 0.099076 0.151415
0.452044 0.103688 0.156198
0.482833 0.108357 0.161041
0.513926 0.113077 0.165937
0.057258 0.081835 0.108588
0.086304 0.086139 0.112989
0.115350 0.090442 0.117391
0.144396 0.094746 0.121792
0.173442 0.099050 0.126193
0.202487 0.103354 0.130594
0.231533 0.107658 0.134996
0.260579 0.111961 0.139397
0.289625 0.116265 0.143798
0.318963 0.120675 0.148308
0.348969 0.125306 0.153041
0.379293 0.130013 0.157846
0.409907 0.134779 0.162708
0.440806 0.139601 0.167620
0.471990 0.144476 0.172581
0.503461 0.149401 0.177587
0.535223 0.154376 0.182639
0.071640 0.120793 0.123295
0.100686 0.125096 0.127696
0.129731 0.129400 0.132098
0.158777 0.133704 0.136499
0.187823 0.138008 0.140900
0.216869 0.142312 0.145302
0.246349 0.146865 0.149914
0.276233 0.151592 0.154675
0.306392 0.156397 0.159500
0.336817 0.161265 0.164380
0.367512 0.166191 0.169309
0.398479 0.171173 0.174286
0.429724 0.176208 0.179308
0.461250 0.181297 0.184374
0.493062 0.186437 0.189485
0.525164 0.191629 0.194640
0.557561 0.196872 0.199838
0.086021 0.159750 0.138002
0.115067 0.164054 0.142404
0.144147 0.168397 0.146833
0.173625 0.173110 0.151532
0.203356 0.177937 0.156317
0.233332 0.182842 0.161161
0.263558 0.187814 0.166058
0.294039 0.192847 0.171004
0.324782 0.197939 0.175996
0.355794 0.203087 0.181033
0.387079 0.208290 0.186115
0.418643 0.213547 0.191241
0.450491 0.218858 0.196410
0.482627 0.224223 0.201623
0.515057 0.229640 0.206880
0.547783 0.235110 0.212180
0.580811 0.240633 0.217523
0.100771 0.199412 0.153159
0.130328 0.204342 0.157965
0.160108 0.209351 0.162828
0.190124 0.214429 0.167742
0.220383 0.219572 0.172704
0.250895 0.224775 0.177711
0.281667 0.230037 0.182764
0.312706 0.235357 0.187861
0.344017 0.240732 0.193001
0.375606 0.246164 0.198186
0.407479 0.251651 0.203414
0.439639 0.257192 0.208685
0.472092 0.262788 0.214000
0.504842 0.268438 0.219358
0.537892 0.274143 0.224759
0.571247 0.279902 0.230205
0.604910 0.285716 0.235694
0.116510 0.241112 0.169431
0.146541 0.246365 0.174409
0.176815 0.251682 0.179432
0.207342 0.257060 0.184500
0.238129 0.262497 0.189612
0.269182 0.267993 0.194767
0.300508 0.273546 0.199967
0.332113 0.279157 0.205209
0.364000 0.284823 0.210495
0.396176 0.290546 0.215825
0.428645 0.296325 0.221198
0.461410 0.302160 0.226614
0.494476 0.308050 0.232075
0.527847 0.313996 0.237579
0.561526 0.319997 0.243126
0.595516 0.326055 0.248718
0.629822 0.332167 0.254354
0.132815 0.284156 0.186241
0.163345 0.289713 0.191368
0.194136 0.295330 0.196538
0.225195 0.301006 0.201752
0.256528 0.306741 0.207010
0.288139 0.312535 0.212311
0.320034 0.318385 0.217655
0.352218 0.324294 0.223043
0.384695 0.330259 0.228475
0.417470 0.336282 0.233950
0.450546 0.342361 0.239469
0.483926 0.348498 0.245031
0.517616 0.354691 0.250638
0.551617 0.360941 0.256290
0.585934 0.367247 0.261985
0.620569 0.373611 0.267725
0.655526 0.380031 0.273510
0.149665 0.328545 0.203543
0.180722 0.334406 0.208816
0.212053 0.340326 0.214131
0.243665 0.346306 0.219491
0.275561 0.352345 0.224893
0.307747 0.358442 0.230340
0.340227 0.364598 0.235830
0.373005 0.370812 0.241364
0.406085 0.377084 0.246942
0.439471 0.383414 0.252564
0.473166 0.389802 0.258230
0.507173 0.396248 0.263941
0.541496 0.402751 0.269696
0.576138 0.409313 0.275496
0.611102 0.415932 0.281342
0.646391 0.422610 0.287232
0.682008 0.429345 0.293167
0.167066 0.374309 0.221331
0.198672 0.380479 0.226749
0.230564 0.386709 0.232210
0.262747 0.392999 0.237715
0.295225 0.399348 0.243264
0.328001 0.405757 0.248857
0.361081 0.412224 0.254494
0.394466 0.418751 0.260176
0.428162 0.425337 0.265902
0.462171 0.431981 0.271672
0.496496 0.438685 0.277488
0.531141 0.445447 0.283348
0.566108 0.452269 0.289254
0.601401 0.459149 0.295205
0.637022 0.466088 0.301201
0.672974 0.473087 0.307244
0.709259 0.480144 0.313332
0.185027 0.421486 0.239605
0.217202 0.427971 0.245169
0.249673 0.434517 0.250777
0.282444 0.441123 0.256430
0.315518 0.447789 0.262126
0.348900 0.454515 0.267868
0.382592 0.461301 0.273654
0.416599 0.468148 0.279484
0.450923 0.475054 0.285360
0.485566 0.482020 0.291281
0.520533 0.489045 0.297248
0.555826 0.496131 0.303260
0.591448 0.503277 0.309318
0.627401 0.510482 0.315422
0.663688 0.517748 0.321571
0.700312 0.525074 0.327767
0.737274 0.532460 0.334009
0.203559 0.470109 0.258370
0.236320 0.476916 0.264082
0.269386 0.483783 0.269839
0.302760 0.490712 0.275640
0.336445 0.497701 0.281486
0.370446 0.504752 0.287378
0.404764 0.511863 0.293314
0.439404 0.519035 0.299296
0.474367 0.526267 0.305324
0.509657 0.533561 0.311397
0.545276 0.540915 0.317517
0.581227 0.548330 0.323682
0.617513 0.555807 0.329894
0.654135 0.563343 0.336152
0.691097 0.570941 0.342457
0.728401 0.578600 0.348809
0.766049 0.586320 0.355207
0.222671 0.520213 0.277632
0.256034 0.527346 0.283493
0.289710 0.534542 0.289400
0.323701 0.541799 0.295352
0.358011 0.549117 0.301350
0.392643 0.556498 0.307393
0.427599 0.563939 0.313482
0.462883 0.571443 0.319617
0.498496 0.579008 0.325799
0.534442 0.586635 0.332026
0.570724 0.594324 0.338300
0.607343 0.602074 0.344621
0.644302 0.609886 0.350989
0.681603 0.617760 0.357403
0.719249 0.625696 0.363865
0.757241 0.633694 0.370374
0.795582 0.641753 0.376930
0.242375 0.571827 0.297396
0.276354 0.579293 0.303409
0.310653 0.586822 0.309468
0.345274 0.594413 0.315573
0.380220 0.602066 0.321724
0.415495 0.609782 0.327921
0.451100 0.617560 0.334164
0.487039 0.625401 0.340454
0.523313 0.633305 0.346791
0.559926 0.641270 0.353174
0.596879 0.649299 0.359605
0.634175 0.657390 0.366083
0.671816 0.665543 0.372608
0.709804 0.673759 0.379180
0.748142 0.682038 0.385801
0.786831 0.690380 0.392469
0.825874 0.698784 0.399185
0.262681 0.624981 0.317668
0.297288 0.632785 0.323835
0.332222 0.640652 0.330048
0.367485 0.648582 0.336307
0.403079 0.656576 0.342613
0.439008 0.664633 0.348966
0.475273 0.672753 0.355365
0.511876 0.680936 0.361812
0.548821 0.689183 0.368306
0.586110 0.697492 0.374847
0.623744 0.705866 0.381436
0.661725 0.714302 0.388073
0.700057 0.722802 0.394757
0.738741 0.731366 0.401489
0.777779 0.739993 0.408270
0.817172 0.748683 0.415099
0.856924 0.757437 0.421976
0.283596 0.679701 0.338456
0.318845 0.687848 0.344778
0.354426 0.696058 0.351146
0.390341 0.704333 0.357562
0.426594 0.712672 0.364025
0.463187 0.721075 0.370535
0.500121 0.729541 0.377092
0.537399 0.738072 0.383698
0.575024 0.746667 0.390350
0.612997 0.755325 0.397051
0.651320 0.764048 0.403800
0.689996 0.772835 0.410597
0.729027 0.781687 0.417442
0.768414 0.790602 0.424336
0.808159 0.799582 0.431279
0.848265 0.808626 0.438270
0.885611 0.814946 0.444006
0.305131 0.736012 0.359764
0.341032 0.744507 0.366243
0.377270 0.753066 0.372769
0.413849 0.761690 0.379343
0.450771 0.770379 0.385964
0.488037 0.779132 0.392634
0.525650 0.787950 0.399351
0.563612 0.796833 0.406116
0.601925 0.805780 0.412930
0.640591 0.814793 0.419791
0.679612 0.823870 0.426702
0.718991 0.833012 0.433661
0.758441 0.841910 0.440530
0.794725 0.847247 0.445809
0.831008 0.852584 0.451087
0.867292 0.857921 0.456366
0.903576 0.863259 0.461645
0.327294 0.793939 0.381599
0.363857 0.802786 0.388237
0.400763 0.811699 0.394923
0.438015 0.820676 0.401656
0.475614 0.829719 0.408438
0.513563 0.838828 0.415268
0.551864 0.848002 0.422146
0.590519 0.857241 0.429073
0.629529 0.866546 0.436049
0.667555 0.874211 0.442333
0.703838 0.879548 0.447612
0.740122 0.884885 0.452890
0.776406 0.890222 0.458169
0.812689 0.895560 0.463448
0.848973 0.900897 0.468727
0.885257 0.906234 0.474005
0.921541 0.911571 0.479284
0.044322 0.044322 0.120375
0.073368 0.048626 0.124776
0.102414 0.052930 0.129178
0.131460 0.057234 0.133579
0.160505 0.061537 0.137980
0.189551 0.065841 0.142381
0.218597 0.070145 0.146783
0.247643 0.074449 0.151184
0.276689 0.078752 0.155585
0.305734 0.083056 0.159987
0.334780 0.087360 0.164388
0.363826 0.091664 0.168789
0.393227 0.096051 0.173316
0.423431 0.100618 0.178101
