assets/lighting/cinematic/grade-liminal-empty-mall/lut.cube
TITLE "Liminal Empty Mall"
# TKRS lighting-batch-001 original LUT
# Intended usage: desaturated empty retail / hotel corridor
# License: CC0-1.0
LUT_3D_SIZE 5
DOMAIN_MIN 0.0 0.0 0.0
DOMAIN_MAX 1.0 1.0 1.0
0.039987 0.039987 0.040893
0.156170 0.057202 0.058498
0.272353 0.074417 0.076103
0.388537 0.091632 0.093708
0.509795 0.109902 0.112209
0.097687 0.196157 0.099865
0.216900 0.216112 0.118734
0.340090 0.237116 0.138273
0.467687 0.259024 0.158453
0.600001 0.281806 0.179282
0.163524 0.370199 0.165493
0.291223 0.395078 0.186548
0.423670 0.420908 0.208272
0.561104 0.447682 0.230679
0.703721 0.475399 0.253784
0.238368 0.566849 0.238491
0.375705 0.596920 0.261837
0.518271 0.627990 0.285899
0.666229 0.660061 0.310689
0.819726 0.693134 0.336219
0.322789 0.788035 0.319325
0.470568 0.823640 0.345110
0.623925 0.860290 0.371649
0.772795 0.886638 0.394617
0.917930 0.907987 0.415732
0.045767 0.045767 0.146869
0.161950 0.062982 0.164474
0.278134 0.080197 0.182079
0.395001 0.097575 0.199962
0.518111 0.116274 0.219881
0.103885 0.202713 0.206642
0.223895 0.223059 0.226900
0.347974 0.244374 0.247979
0.476528 0.266576 0.269813
0.609852 0.289650 0.292385
0.170630 0.378446 0.277439
0.299252 0.403645 0.300263
0.432681 0.429792 0.323826
0.571142 0.456883 0.348133
0.714828 0.484917 0.373191
0.246407 0.576834 0.356607
0.384762 0.607241 0.381924
0.528384 0.638647 0.408003
0.677433 0.671054 0.434854
0.832053 0.704464 0.462484
0.331824 0.799873 0.444203
0.480688 0.835829 0.472102
0.634881 0.872458 0.500607
0.780016 0.893807 0.521721
0.925151 0.915155 0.542836
0.051547 0.051547 0.252846
0.167731 0.068763 0.270451
0.283914 0.085978 0.288056
0.402363 0.103756 0.307046
0.526629 0.122734 0.328450
0.110189 0.209424 0.314227
0.231002 0.230114 0.335999
0.355978 0.251731 0.358702
0.485495 0.274227 0.382251
0.619833 0.297592 0.406616
0.177827 0.386801 0.390482
0.307384 0.412319 0.415122
0.441802 0.438783 0.440565
0.581298 0.466190 0.466808
0.726058 0.494542 0.493852
0.254545 0.586932 0.475955
0.393924 0.617674 0.503274
0.538609 0.649416 0.531400
0.688755 0.682160 0.560337
0.844503 0.715907 0.590092
0.340962 0.811829 0.570408
0.490917 0.848136 0.600443
0.642102 0.879626 0.627711
0.787237 0.900975 0.648826
0.932372 0.922324 0.669941
0.057328 0.057328 0.358822
0.173511 0.074543 0.376427
0.289694 0.091758 0.394032
0.410000 0.110039 0.414982
0.535328 0.129278 0.437970
0.116588 0.216261 0.422697
0.238216 0.237273 0.446077
0.364098 0.259187 0.470473
0.494585 0.281975 0.495794
0.629944 0.305632 0.521998
0.185115 0.395263 0.504646
0.315617 0.421100 0.531147
0.451034 0.447880 0.558508
0.591572 0.475604 0.586721
0.737410 0.504274 0.615782
0.262780 0.597143 0.596551
0.403191 0.628221 0.625902
0.548946 0.660299 0.656101
0.700195 0.693379 0.687151
0.857075 0.727464 0.719054
0.350203 0.823903 0.697951
0.501256 0.860561 0.730146
0.649322 0.886794 0.754815
0.794457 0.908143 0.775930
0.939592 0.929492 0.797045
0.063108 0.063108 0.464798
0.179291 0.080323 0.482403
0.296010 0.097708 0.500733
0.417840 0.116414 0.523833
0.544193 0.135908 0.548484
0.123076 0.223211 0.532110
0.245535 0.244532 0.557174
0.372333 0.266742 0.583325
0.503798 0.289821 0.610467
0.640182 0.313770 0.638554
0.192495 0.403833 0.619955
0.323953 0.429986 0.648358
0.460376 0.457084 0.677673
0.601962 0.485125 0.707888
0.748886 0.514113 0.738994
0.271113 0.607466 0.718412
0.412564 0.638880 0.749823
0.559395 0.671294 0.782121
0.711752 0.704711 0.815307
0.869770 0.739135 0.849380
0.359549 0.836095 0.826845
0.511408 0.872613 0.860805
0.656543 0.893962 0.881920
0.801678 0.915311 0.903035
0.946813 0.936660 0.924150
