assets/lighting/cinematic/grade-hospital-cool/lut.cube
TITLE "Hospital Cool White"
# TKRS lighting-batch-001 original LUT
# Intended usage: sterile hospital / clinic cool fluorescent
# License: CC0-1.0
LUT_3D_SIZE 17
DOMAIN_MIN 0.0 0.0 0.0
DOMAIN_MAX 1.0 1.0 1.0
0.000000 0.000000 0.000000
0.009134 0.000000 0.000000
0.049884 0.000000 0.000000
0.090635 0.000000 0.000000
0.131386 0.000000 0.000000
0.172137 0.000000 0.000000
0.212888 0.000000 0.000000
0.253639 0.000000 0.000000
0.294390 0.000000 0.000000
0.335141 0.000000 0.000000
0.375892 0.002526 0.002755
0.416642 0.006091 0.006643
0.457393 0.009655 0.010530
0.498144 0.013220 0.014418
0.538895 0.016784 0.018305
0.579646 0.020349 0.022192
0.620397 0.023913 0.026080
0.000000 0.017994 0.000000
0.020581 0.021558 0.000000
0.061332 0.025122 0.000000
0.102083 0.028687 0.000000
0.142834 0.032251 0.000000
0.183585 0.035816 0.000000
0.224336 0.039380 0.000283
0.265087 0.042945 0.004171
0.305837 0.046509 0.008058
0.346588 0.050073 0.011946
0.387339 0.053638 0.015833
0.428090 0.057202 0.019720
0.468841 0.060767 0.023608
0.509592 0.064331 0.027495
0.551469 0.068018 0.031422
0.594836 0.071859 0.035405
0.638927 0.075766 0.039423
0.000000 0.069105 0.000000
0.032029 0.072669 0.000000
0.072780 0.076234 0.000000
0.113531 0.079798 0.001699
0.154282 0.083363 0.005586
0.195032 0.086927 0.009473
0.235783 0.090491 0.013361
0.276534 0.094056 0.017248
0.317285 0.097620 0.021136
0.358036 0.101185 0.025023
0.398789 0.104750 0.028911
0.441082 0.108649 0.032868
0.484156 0.112672 0.036864
0.527860 0.116774 0.040895
0.572172 0.120945 0.044958
0.617091 0.125180 0.049055
0.662621 0.129476 0.053186
0.002726 0.120216 0.003114
0.043477 0.123781 0.007001
0.084228 0.127345 0.010889
0.124978 0.130910 0.014776
0.165729 0.134474 0.018663
0.206480 0.138038 0.022551
0.247231 0.141603 0.026438
0.288285 0.145302 0.030345
0.330407 0.149399 0.034319
0.373119 0.153617 0.038328
0.416394 0.157923 0.042370
0.460236 0.162307 0.046446
0.504654 0.166763 0.050555
0.549658 0.171287 0.054699
0.595259 0.175877 0.058877
0.641467 0.180533 0.063091
0.688292 0.185252 0.067341
0.014173 0.171328 0.016191
0.054924 0.174892 0.020079
0.095675 0.178457 0.023966
0.136426 0.182021 0.027854
0.177603 0.185979 0.031787
0.219401 0.190277 0.035774
0.261700 0.194698 0.039796
0.304515 0.199216 0.043850
0.347862 0.203820 0.047938
0.391758 0.208502 0.052060
0.436218 0.213259 0.056216
0.481256 0.218088 0.060407
0.526884 0.222987 0.064634
0.573114 0.227955 0.068897
0.619957 0.232991 0.073197
0.667424 0.238093 0.077534
0.715523 0.243262 0.081908
0.025626 0.222480 0.029273
0.066631 0.226781 0.033235
0.108033 0.231287 0.037234
0.149881 0.235921 0.041268
0.192207 0.240658 0.045334
0.235037 0.245487 0.049434
0.278393 0.250401 0.053569
0.322293 0.255396 0.057738
0.366753 0.260467 0.061942
0.411789 0.265614 0.066182
0.457412 0.270834 0.070458
0.503636 0.276126 0.074771
0.550470 0.281488 0.079122
0.597927 0.286921 0.083510
0.646015 0.292423 0.087937
0.694744 0.297995 0.092402
0.744123 0.303635 0.096906
0.037644 0.277289 0.042744
0.079456 0.282251 0.046823
0.121750 0.287311 0.050936
0.164548 0.292462 0.055082
0.207874 0.297698 0.059264
0.251744 0.303016 0.063481
0.296174 0.308414 0.067734
0.341180 0.313889 0.072024
0.386774 0.319440 0.076351
0.432968 0.325066 0.080715
0.479773 0.330766 0.085117
0.527201 0.336538 0.089558
0.575259 0.342383 0.094037
0.623959 0.348300 0.098556
0.673308 0.354288 0.103114
0.723315 0.360347 0.107713
0.773987 0.366476 0.112351
0.050216 0.334687 0.056601
0.092953 0.340168 0.060795
0.136220 0.345737 0.065026
0.180034 0.351389 0.069292
0.224412 0.357123 0.073595
0.269366 0.362937 0.077935
0.314910 0.368828 0.082313
0.361056 0.374798 0.086729
0.407815 0.380843 0.091184
0.455196 0.386964 0.095678
0.503209 0.393159 0.100211
0.551864 0.399429 0.104784
0.601169 0.405772 0.109397
0.651132 0.412189 0.114050
0.701761 0.418679 0.118745
0.753063 0.425242 0.123480
0.805047 0.431877 0.128258
0.063363 0.394542 0.070854
0.107102 0.400537 0.075171
0.151408 0.406616 0.079525
0.196293 0.412776 0.083917
0.241771 0.419017 0.088347
0.287853 0.425338 0.092816
0.334549 0.431737 0.097324
0.381869 0.438213 0.101871
0.429823 0.444767 0.106459
0.478420 0.451397 0.111086
0.527667 0.458103 0.115755
0.577574 0.464885 0.120464
0.628148 0.471742 0.125215
0.679397 0.478673 0.130007
0.731326 0.485680 0.134841
0.783944 0.492761 0.139718
0.837256 0.499916 0.144637
0.077112 0.456911 0.085525
0.121914 0.463427 0.089969
0.167311 0.470025 0.094452
0.213314 0.476704 0.098975
0.259935 0.483464 0.103537
0.307181 0.490303 0.108139
0.355064 0.497222 0.112781
0.403590 0.504219 0.117464
0.452769 0.511294 0.122189
0.502609 0.518447 0.126955
0.553117 0.525677 0.131762
0.604301 0.532984 0.136612
0.656167 0.540367 0.141504
0.708722 0.547827 0.146439
0.761972 0.555363 0.151417
0.815924 0.562976 0.156438
0.870584 0.570664 0.161502
0.091489 0.521867 0.100631
0.137403 0.528912 0.105207
0.183936 0.536039 0.109824
0.231097 0.543248 0.114481
0.278897 0.550538 0.119180
0.327343 0.557909 0.123919
0.376443 0.565359 0.128700
0.426205 0.572889 0.133523
0.476638 0.580498 0.138388
0.527747 0.588186 0.143296
0.579539 0.595952 0.148246
0.632022 0.603796 0.153239
0.685202 0.611718 0.158276
0.739084 0.619718 0.163357
0.793675 0.627796 0.168481
0.848980 0.635951 0.173649
0.905006 0.644184 0.178862
0.106517 0.589477 0.116187
0.153584 0.597062 0.120900
0.201291 0.604729 0.125655
0.249646 0.612479 0.130451
0.298658 0.620310 0.135289
0.348334 0.628223 0.140170
0.398681 0.636216 0.145093
0.449707 0.644290 0.150059
0.501417 0.652444 0.155068
0.553820 0.660678 0.160121
0.606920 0.668991 0.165217
0.660724 0.677384 0.170358
0.715238 0.685856 0.175542
0.770468 0.694408 0.180771
0.826419 0.703038 0.186045
0.883096 0.711747 0.191364
0.940505 0.720535 0.196728
0.122216 0.659807 0.132208
0.170472 0.667941 0.137061
0.219387 0.676159 0.141957
0.268967 0.684460 0.146896
0.319221 0.692843 0.151878
0.370156 0.701308 0.156903
0.421776 0.709855 0.161971
0.474090 0.718483 0.167084
0.527104 0.727193 0.172240
0.580822 0.735983 0.177441
0.635252 0.744855 0.182686
0.690398 0.753807 0.187976
0.746267 0.762839 0.193311
0.802863 0.771952 0.198692
0.860192 0.781145 0.204118
0.918259 0.790418 0.209590
0.977068 0.799771 0.215107
0.138603 0.732917 0.148705
0.188081 0.741611 0.153702
0.238234 0.750389 0.158743
0.289069 0.759250 0.163827
0.340592 0.768195 0.168956
0.392810 0.777222 0.174128
0.445729 0.786332 0.179345
0.499355 0.795525 0.184607
0.553693 0.804800 0.189913
0.608750 0.814157 0.195265
0.664529 0.823596 0.200662
0.721038 0.833117 0.206105
0.778280 0.842719 0.211593
0.836261 0.852403 0.217128
0.894986 0.862168 0.222708
0.953179 0.870955 0.228131
1.000000 0.875488 0.232745
0.155694 0.808864 0.165689
0.206423 0.818126 0.170834
0.257842 0.827473 0.176022
0.309958 0.836904 0.181256
0.362776 0.846420 0.186533
0.416302 0.856019 0.191856
0.470542 0.865702 0.197225
0.525502 0.875468 0.202638
0.581186 0.885318 0.208097
0.637601 0.895251 0.213603
0.694750 0.905267 0.219154
0.752639 0.915365 0.224752
0.808194 0.922360 0.229811
0.861515 0.926893 0.234425
0.914837 0.931427 0.239039
0.968158 0.935960 0.243653
1.000000 0.940494 0.248267
0.173505 0.887700 0.183172
0.225511 0.897539 0.188466
0.278222 0.907464 0.193805
0.331642 0.917474 0.199190
0.385778 0.927569 0.204620
0.440635 0.937749 0.210096
0.496218 0.948013 0.215618
0.552533 0.958362 0.221186
0.609583 0.968795 0.226801
0.663208 0.973766 0.231491
0.716530 0.978299 0.236105
0.769851 0.982832 0.240719
0.823173 0.987366 0.245333
0.876494 0.991899 0.249947
0.929816 0.996433 0.254561
0.983137 1.000000 0.259175
1.000000 1.000000 0.263790
0.192048 0.969474 0.201162
0.245357 0.979898 0.206609
0.299383 0.990409 0.212101
0.354131 1.000000 0.217640
0.409607 1.000000 0.223225
0.464901 1.000000 0.228556
0.518223 1.000000 0.233170
0.571544 1.000000 0.237785
0.624866 1.000000 0.242399
0.678187 1.000000 0.247013
0.731509 1.000000 0.251627
0.784830 1.000000 0.256241
0.838152 1.000000 0.260855
0.891473 1.000000 0.265469
0.944795 1.000000 0.270084
0.998116 1.000000 0.274698
1.000000 1.000000 0.279312
0.000000 0.000000 0.007867
0.010289 0.000000 0.011754
0.051040 0.000000 0.015642
0.091791 0.000000 0.019529
0.132542 0.000000 0.023416
0.173293 0.000000 0.027304
0.214044 0.000000 0.031191
0.254795 0.000000 0.035079
0.295545 0.000000 0.038966
0.336296 0.000173 0.042853
0.377047 0.003737 0.046741
0.417798 0.007301 0.050628
0.458549 0.010866 0.054516
0.499300 0.014430 0.058403
0.540051 0.017995 0.062291
0.580802 0.021559 0.066178
0.621553 0.025124 0.070065
0.000000 0.019204 0.020944
0.021737 0.022768 0.024832
0.062488 0.026333 0.028719
0.103239 0.029897 0.032606
0.143990 0.033462 0.036494
0.184740 0.037026 0.040381
0.225491 0.040591 0.044269
0.266242 0.044155 0.048156
0.306993 0.047719 0.052044
0.347744 0.051284 0.055931
0.388495 0.054848 0.059818
0.429246 0.058413 0.063706
0.469997 0.061977 0.067593
0.510748 0.065542 0.071481
0.553380 0.069314 0.075524
0.596949 0.073179 0.079637
0.641205 0.077106 0.083796
0.000000 0.070315 0.034022
0.033185 0.073880 0.037909
0.073935 0.077444 0.041797
0.114686 0.081009 0.045684
0.155437 0.084573 0.049571
0.196188 0.088138 0.053459
0.236939 0.091702 0.057346
0.277690 0.095266 0.061234
0.318441 0.098831 0.065121
0.359192 0.102395 0.069009
0.400331 0.106050 0.072939
0.442890 0.110005 0.077015
0.486123 0.114057 0.081146
0.529968 0.118183 0.085321
0.574416 0.122376 0.089538
0.619469 0.126632 0.093795
0.665133 0.130948 0.098092
0.003881 0.121427 0.047099
0.044632 0.124991 0.050987
0.085383 0.128556 0.054874
0.126134 0.132120 0.058762
0.166885 0.135684 0.062649
0.207636 0.139249 0.066536
0.248387 0.142813 0.070424
0.289805 0.146676 0.074415
0.332081 0.150820 0.078514
0.374922 0.155070 0.082661
0.418322 0.159403 0.086851
0.462288 0.163812 0.091083
0.506829 0.168292 0.095355
0.551958 0.172838 0.099666
0.597685 0.177451 0.104018
0.644021 0.182128 0.108409
0.690975 0.186869 0.112841
0.015329 0.172538 0.060177
0.056080 0.176103 0.064064
0.096831 0.179667 0.067952
0.137602 0.183255 0.071845
0.179010 0.187421 0.075901
0.220920 0.191766 0.080018
0.263328 0.196222 0.084182
0.306253 0.200771 0.088387
0.349712 0.205401 0.092634
0.393723 0.210110 0.096920
0.438300 0.214891 0.101246
0.483458 0.219744 0.105612
0.529207 0.224667 0.110018
0.575560 0.229658 0.114464
0.622529 0.234716 0.118950
0.670122 0.239841 0.123477
0.718350 0.245032 0.128044
0.026811 0.223904 0.073312
0.067892 0.228295 0.077394
0.109381 0.232848 0.081529
0.151321 0.237519 0.085708
0.193746 0.242288 0.089929
0.236679 0.247147 0.094189
0.280142 0.252088 0.098490
0.324152 0.257109 0.102831
0.368726 0.262207 0.107211
0.413877 0.267378 0.111632
0.459618 0.272623 0.116092
0.505963 0.277939 0.120593
0.552920 0.283325 0.125135
0.600501 0.288782 0.129717
0.648716 0.294308 0.134340
0.697573 0.299902 0.139005
0.747082 0.305565 0.143712
0.038888 0.278963 0.087240
0.080789 0.283959 0.091475
0.123177 0.289050 0.095751
0.166076 0.294231 0.100066
0.209505 0.299495 0.104421
0.253482 0.304840 0.108816
0.298023 0.310265 0.113251
0.343143 0.315766 0.117726
0.388853 0.321343 0.122242
0.435165 0.326994 0.126798
0.482091 0.332718 0.131395
0.529642 0.338515 0.136034
0.577825 0.344385 0.140714
0.626651 0.350325 0.145435
0.676129 0.356337 0.150199
0.726265 0.362420 0.155005
0.777069 0.368574 0.159854
0.051517 0.336538 0.101647
0.094352 0.342050 0.106017
0.137721 0.347647 0.110426
0.181641 0.353327 0.114876
0.226127 0.359088 0.119366
0.271194 0.364929 0.123896
0.316853 0.370847 0.128467
0.363115 0.376842 0.133079
0.409993 0.382913 0.137733
0.457495 0.389059 0.142428
0.505632 0.395280 0.147165
0.554412 0.401575 0.151944
0.603844 0.407943 0.156766
0.653936 0.414385 0.161630
0.704696 0.420900 0.166537
0.756130 0.427487 0.171487
0.808247 0.434147 0.176481
0.064723 0.396568 0.116506
0.108567 0.402592 0.121010
0.152981 0.408699 0.125555
0.197977 0.414887 0.130141
0.243568 0.421155 0.134769
0.289766 0.427502 0.139437
0.336580 0.433928 0.144148
0.384021 0.440430 0.148900
0.432097 0.447010 0.153694
0.480818 0.453666 0.158532
0.530192 0.460398 0.163411
0.580227 0.467205 0.168334
0.630930 0.474087 0.173300
0.682309 0.481044 0.178310
0.734371 0.488076 0.183364
0.787123 0.495182 0.188461
0.840571 0.502363 0.193603
0.078534 0.459115 0.131821
0.123446 0.465658 0.136464
0.168956 0.472284 0.141147
0.215075 0.478991 0.145873
0.261813 0.485778 0.150641
0.309179 0.492644 0.155451
0.357183 0.499589 0.160303
0.405833 0.506613 0.165199
0.455137 0.513715 0.170137
0.505104 0.520894 0.175119
0.555741 0.528150 0.180145
0.607054 0.535483 0.185215
0.659052 0.542892 0.190328
0.711740 0.550378 0.195486
0.765125 0.557940 0.200689
0.819213 0.565578 0.205937
0.874010 0.573292 0.211229
0.092976 0.524250 0.147604
0.139005 0.531323 0.152387
0.185654 0.538478 0.157212
0.232935 0.545715 0.162080
0.280855 0.553032 0.166992
0.329424 0.560430 0.171946
0.378649 0.567907 0.176944
0.428538 0.575464 0.181986
0.479098 0.583100 0.187071
0.530336 0.590814 0.192201
0.582260 0.598607 0.197375
0.634875 0.606478 0.202594
0.688189 0.614426 0.207858
0.742206 0.622453 0.213168
0.796933 0.630557 0.218522
0.852377 0.638738 0.223922
0.908541 0.646997 0.229368
0.108071 0.592043 0.163863
0.155256 0.599656 0.168790
0.203084 0.607352 0.173761
0.251561 0.615129 0.178774
0.300697 0.622988 0.183832
0.350499 0.630928 0.188934
0.400974 0.638949 0.194080
0.452128 0.647050 0.199270
0.503969 0.655231 0.204506
0.556504 0.663492 0.209786
0.609737 0.671833 0.215112
0.663676 0.680253 0.220483
0.718326 0.688752 0.225900
0.773693 0.697330 0.231362
0.829782 0.705987 0.236871
0.886599 0.714722 0.242426
0.944148 0.723537 0.248028
0.123839 0.662560 0.180611
0.172217 0.670723 0.185684
0.221255 0.678969 0.190802
0.270961 0.687297 0.195964
0.321342 0.695708 0.201171
0.372405 0.704201 0.206423
0.424155 0.712776 0.211720
0.476601 0.721432 0.217062
0.529747 0.730169 0.222450
0.583600 0.738987 0.227883
0.638165 0.747886 0.233363
0.693448 0.756865 0.238888
0.749454 0.765925 0.244460
0.806189 0.775065 0.250079
0.863658 0.784285 0.255745
0.921866 0.793585 0.261457
0.980818 0.802965 0.267217
0.140296 0.735860 0.197855
0.189899 0.744583 0.203078
0.240178 0.753389 0.208346
0.291141 0.762278 0.213659
0.342794 0.771251 0.219018
0.395144 0.780307 0.224422
0.448195 0.789445 0.229873
0.501955 0.798666 0.235369
0.556428 0.807969 0.240912
0.611620 0.817354 0.246501
0.667537 0.826820 0.252136
0.724184 0.836369 0.257819
0.781566 0.845999 0.263548
0.839688 0.855710 0.269325
0.898554 0.865503 0.275150
0.954691 0.872494 0.280339
1.000000 0.877028 0.284953
0.157459 0.812000 0.215605
0.208316 0.821291 0.220980
0.259864 0.830667 0.226401
0.312110 0.840126 0.231868
0.365060 0.849670 0.237381
0.418720 0.859298 0.242941
0.473095 0.869009 0.248547
0.528190 0.878804 0.254200
0.584012 0.888682 0.259899
0.640564 0.898643 0.265646
0.697853 0.908687 0.271440
0.755883 0.918813 0.277282
0.809706 0.923900 0.282019
0.863027 0.928433 0.286633
0.916349 0.932966 0.291247
0.969670 0.937500 0.295861
1.000000 0.942033 0.300476
0.175343 0.891032 0.233870
0.227480 0.900900 0.239400
0.280322 0.910854 0.244976
0.333876 0.920893 0.250599
0.388146 0.931016 0.256269
0.443139 0.941225 0.261986
0.498858 0.951518 0.267750
0.555310 0.961895 0.273562
0.611399 0.970772 0.279085
0.664720 0.975305 0.283699
0.718042 0.979839 0.288313
0.771363 0.984372 0.292927
0.824685 0.988905 0.297541
0.878006 0.993439 0.302155
0.931328 0.997972 0.306770
0.984649 1.000000 0.311384
1.000000 1.000000 0.315998
0.193961 0.973004 0.252658
0.247403 0.983458 0.258345
0.301563 0.993998 0.264079
0.356446 1.000000 0.269860
0.412059 1.000000 0.275689
0.466413 1.000000 0.280765
0.519735 1.000000 0.285379
0.573056 1.000000 0.289993
0.626378 1.000000 0.294607
0.679699 1.000000 0.299221
0.733021 1.000000 0.303835
0.786342 1.000000 0.308449
0.839664 1.000000 0.313064
0.892985 1.000000 0.317678
0.946307 1.000000 0.322292
0.999628 1.000000 0.326906
1.000000 1.000000 0.331520
0.000000 0.000000 0.051852
0.011445 0.000000 0.055740
0.052196 0.000000 0.059627
0.092947 0.000000 0.063514
0.133698 0.000000 0.067402
0.174448 0.000000 0.071289
0.215199 0.000000 0.075177
0.255950 0.000000 0.079064
0.296701 0.000000 0.082952
0.337452 0.001383 0.086839
0.378203 0.004947 0.090726
0.418954 0.008512 0.094614
0.459705 0.012076 0.098501
0.500456 0.015641 0.102389
0.541206 0.019205 0.106276
0.581957 0.022770 0.110163
0.622708 0.026334 0.114051
0.000000 0.020415 0.064930
0.022893 0.023979 0.068817
0.063643 0.027543 0.072705
0.104394 0.031108 0.076592
0.145145 0.034672 0.080479
0.185896 0.038237 0.084367
0.226647 0.041801 0.088254
0.267398 0.045366 0.092142
0.308149 0.048930 0.096029
0.348900 0.052494 0.099916
0.389651 0.056059 0.103804
0.430401 0.059623 0.107691
0.471152 0.063188 0.111579
0.512358 0.066804 0.115528
0.555349 0.070619 0.119706
0.599099 0.074506 0.123958
0.643512 0.078452 0.128265
0.000000 0.071526 0.078007
0.034340 0.075090 0.081895
0.075091 0.078655 0.085782
0.115842 0.082219 0.089669
0.156593 0.085784 0.093557
0.197344 0.089348 0.097444
0.238095 0.092912 0.101332
0.278846 0.096477 0.105219
0.319596 0.100041 0.109107
0.360347 0.103606 0.112994
0.401986 0.107379 0.117038
0.444735 0.111372 0.121247
0.488116 0.115450 0.125520
0.532100 0.119600 0.129846
0.576682 0.123814 0.134221
0.621868 0.128091 0.138642
0.667665 0.132428 0.143109
0.005037 0.122637 0.091085
0.045788 0.126202 0.094972
0.086539 0.129766 0.098860
0.127290 0.133331 0.102747
0.168041 0.136895 0.106634
0.208791 0.140459 0.110522
0.249565 0.144035 0.114415
0.291366 0.148069 0.118562
0.333779 0.152253 0.122796
0.376746 0.156533 0.127089
0.420268 0.160893 0.131433
0.464356 0.165326 0.135825
0.509021 0.169828 0.140264
0.554274 0.174398 0.144747
0.600127 0.179032 0.149274
0.646590 0.183731 0.153846
0.693673 0.188493 0.158461
0.016485 0.173749 0.104162
0.057236 0.177313 0.108050
0.097986 0.180878 0.111937
0.138904 0.184638 0.115909
0.180437 0.188882 0.120096
0.222454 0.193268 0.124353
0.264969 0.197757 0.128665
0.308004 0.202334 0.133027
0.351576 0.206992 0.137436
0.395702 0.211725 0.141891
0.440396 0.216532 0.146390
0.485673 0.221408 0.150933
0.531543 0.226354 0.155521
0.578020 0.231368 0.160152
0.625114 0.236449 0.164827
0.672834 0.241596 0.169545
0.721191 0.246810 0.174308
0.028004 0.225371 0.117423
0.069162 0.229826 0.121638
0.110737 0.234422 0.125916
0.152771 0.239128 0.130247
0.195295 0.243928 0.134627
0.238332 0.248816 0.139052
0.281902 0.253785 0.143523
0.326022 0.258832 0.148039
0.370709 0.263955 0.152598
0.415976 0.269151 0.157202
0.461837 0.274420 0.161849
0.508301 0.279760 0.166540
0.555382 0.285171 0.171274
0.603088 0.290651 0.176052
0.651429 0.296200 0.180874
0.700415 0.301818 0.185740
0.750053 0.307504 0.190651
0.040137 0.280648 0.131836
0.082129 0.285678 0.136233
0.124613 0.290800 0.140675
0.167611 0.296009 0.145162
0.211145 0.301301 0.149694
0.255230 0.306674 0.154269
0.299882 0.312124 0.158889
0.345115 0.317651 0.163552
0.390942 0.323253 0.168258
0.437373 0.328930 0.173009
0.484421 0.334679 0.177803
0.532094 0.340500 0.182641
0.580402 0.346394 0.187523
0.629355 0.352359 0.192449
0.678961 0.358395 0.197420
0.729228 0.364502 0.202435
0.780163 0.370680 0.207495
0.052823 0.338400 0.146807
0.095757 0.343941 0.151355
0.139229 0.349567 0.155946
0.183255 0.355275 0.160581
0.227851 0.361063 0.165260
0.273030 0.366930 0.169983
0.318804 0.372874 0.174749
0.365184 0.378895 0.179559
0.412181 0.384992 0.184413
0.459805 0.391163 0.189311
0.508066 0.397409 0.194254
0.556972 0.403729 0.199241
0.606531 0.410123 0.204272
0.656752 0.416589 0.209349
0.707642 0.423129 0.214470
0.759208 0.429741 0.219636
0.811458 0.436425 0.224848
0.066089 0.398605 0.162280
0.110039 0.404657 0.166974
0.154561 0.410791 0.171713
0.199669 0.417007 0.176495
0.245374 0.423302 0.181321
0.291688 0.429676 0.186191
0.338621 0.436127 0.191106
0.386182 0.442656 0.196064
0.434381 0.449262 0.201067
0.483226 0.455944 0.206115
0.532727 0.462701 0.211208
0.582890 0.469534 0.216346
0.633723 0.476442 0.221529
0.685233 0.483424 0.226757
0.737428 0.490481 0.232031
0.790313 0.497613 0.237351
0.843896 0.504818 0.242717
0.079963 0.461328 0.178247
0.124986 0.467899 0.183089
0.170609 0.474553 0.187975
0.216843 0.481287 0.192906
0.263699 0.488101 0.197881
0.311185 0.494994 0.202900
0.359311 0.501966 0.207964
0.408085 0.509016 0.213073
0.457515 0.516144 0.218227
0.507609 0.523349 0.223427
0.558374 0.530632 0.228672
0.609818 0.537990 0.233962
0.661947 0.545426 0.239299
0.714769 0.552938 0.244682
0.768288 0.560525 0.250110
0.822512 0.568189 0.255586
0.877446 0.575929 0.261108
0.094470 0.526643 0.194712
0.140613 0.533744 0.199703
0.187380 0.540927 0.204738
0.234780 0.548191 0.209819
0.282822 0.555536 0.214944
0.331514 0.562960 0.220115
0.380864 0.570465 0.225331
0.430879 0.578048 0.230593
0.481567 0.585711 0.235900
0.532936 0.593452 0.241253
0.584990 0.601271 0.246653
0.637738 0.609168 0.252098
0.691186 0.617144 0.257591
0.745338 0.625196 0.263129
0.800203 0.633327 0.268715
0.855784 0.641534 0.274348
0.912087 0.649819 0.280028
0.109632 0.594619 0.211680
0.156936 0.602261 0.216822
0.204884 0.609984 0.222009
0.253485 0.617789 0.227241
0.302745 0.625676 0.232520
0.352673 0.633643 0.237844
0.403275 0.641691 0.243214
0.454559 0.649819 0.248630
0.506531 0.658028 0.254092
0.559197 0.666316 0.259602
0.612564 0.674683 0.265158
0.666638 0.683130 0.270760
0.721424 0.691656 0.276410
0.776928 0.700261 0.282108
0.833155 0.708945 0.287853
0.890112 0.717707 0.293645
0.947802 0.726548 0.299485
0.125468 0.665323 0.229158
0.173969 0.673514 0.234453
0.223131 0.681788 0.239793
0.272963 0.690145 0.245180
0.323471 0.698583 0.250613
0.374662 0.707104 0.256093
0.426543 0.715706 0.261619
0.479120 0.724390 0.267192
0.532399 0.733155 0.272812
0.586386 0.742000 0.278479
0.641087 0.750926 0.284194
0.696507 0.759933 0.289956
0.752651 0.769020 0.295766
0.809526 0.778187 0.301623
0.867135 0.787434 0.307529
0.925484 0.796762 0.313483
0.984578 0.806169 0.319486
0.141996 0.738813 0.247153
0.191724 0.747564 0.252603
0.242131 0.756398 0.258099
0.293222 0.765316 0.263642
0.345005 0.774317 0.269233
0.397486 0.783401 0.274870
0.450670 0.792567 0.280554
0.504563 0.801816 0.286286
0.559171 0.811147 0.292065
0.614500 0.820559 0.297893
0.670555 0.830054 0.303768
0.727341 0.839630 0.309691
0.784863 0.849288 0.315663
0.843125 0.859027 0.321683
0.902134 0.868847 0.327752
0.956203 0.874034 0.332547
1.000000 0.878567 0.337162
0.159232 0.815146 0.265672
0.210216 0.824466 0.271279
0.261894 0.833870 0.276934
0.314271 0.843358 0.282635
0.367354 0.852931 0.288385
0.421147 0.862587 0.294181
0.475657 0.872326 0.300026
0.530888 0.882149 0.305919
0.586847 0.892055 0.311860
0.643538 0.902045 0.317849
0.700966 0.912117 0.323887
0.757896 0.920906 0.329613
0.811218 0.925439 0.334227
0.864539 0.929973 0.338841
0.917861 0.934506 0.343456
0.971182 0.939039 0.348070
1.000000 0.943573 0.352684
0.177189 0.894373 0.284723
0.229457 0.904271 0.290489
0.282431 0.914253 0.296304
0.336118 0.924321 0.302166
0.390523 0.934474 0.308076
0.445651 0.944711 0.314035
0.501507 0.955033 0.320042
0.558098 0.965439 0.326097
0.612911 0.972311 0.331293
0.666232 0.976845 0.335907
0.719554 0.981378 0.340521
0.772875 0.985912 0.345135
0.826197 0.990445 0.349750
0.879518 0.994978 0.354364
0.932840 0.999512 0.358978
0.986161 1.000000 0.363592
1.000000 1.000000 0.368206
0.195882 0.976545 0.304312
0.249457 0.987028 0.310240
0.303751 0.997597 0.316216
0.358770 1.000000 0.322240
0.414519 1.000000 0.328314
0.467925 1.000000 0.332973
0.521247 1.000000 0.337587
0.574568 1.000000 0.342201
0.627890 1.000000 0.346815
0.681211 1.000000 0.351429
0.734533 1.000000 0.356044
0.787854 1.000000 0.360658
0.841176 1.000000 0.365272
0.894497 1.000000 0.369886
0.947819 1.000000 0.374500
1.000000 1.000000 0.379114
1.000000 1.000000 0.383728
0.000000 0.000000 0.095838
0.012601 0.000000 0.099725
0.053351 0.000000 0.103613
0.094102 0.000000 0.107500
0.134853 0.000000 0.111387
0.175604 0.000000 0.115275
0.216355 0.000000 0.119162
0.257106 0.000000 0.123050
0.297857 0.000000 0.126937
0.338608 0.002594 0.130824
0.379359 0.006158 0.134712
0.420109 0.009722 0.138599
0.460860 0.013287 0.142487
0.501611 0.016851 0.146374
