assets/lighting/cinematic/grade-hospital-cool/lut.cube
TITLE "Hospital Cool White"
# TKRS lighting-batch-001 original LUT
# Intended usage: sterile hospital / clinic cool fluorescent
# License: CC0-1.0
LUT_3D_SIZE 5
DOMAIN_MIN 0.0 0.0 0.0
DOMAIN_MAX 1.0 1.0 1.0
0.000000 0.000000 0.000000
0.131386 0.000000 0.000000
0.294390 0.000000 0.000000
0.457393 0.009655 0.010530
0.620397 0.023913 0.026080
0.014173 0.171328 0.016191
0.177603 0.185979 0.031787
0.347862 0.203820 0.047938
0.526884 0.222987 0.064634
0.715523 0.243262 0.081908
0.063363 0.394542 0.070854
0.241771 0.419017 0.088347
0.429823 0.444767 0.106459
0.628148 0.471742 0.125215
0.837256 0.499916 0.144637
0.122216 0.659807 0.132208
0.319221 0.692843 0.151878
0.527104 0.727193 0.172240
0.746267 0.762839 0.193311
0.977068 0.799771 0.215107
0.192048 0.969474 0.201162
0.409607 1.000000 0.223225
0.624866 1.000000 0.242399
0.838152 1.000000 0.260855
1.000000 1.000000 0.279312
0.000000 0.000000 0.139823
0.136009 0.000000 0.155373
0.299012 0.000240 0.170922
0.462016 0.014497 0.186472
0.626285 0.028806 0.202270
0.018796 0.176170 0.192133
0.183340 0.191849 0.208749
0.355343 0.210199 0.227368
0.536256 0.229752 0.246889
0.726914 0.250388 0.267223
0.068841 0.402706 0.254200
0.249009 0.427622 0.274822
0.438977 0.453792 0.296227
0.639339 0.481176 0.318415
0.850581 0.509755 0.341387
0.128749 0.670877 0.326687
0.327753 0.704362 0.349946
0.537732 0.739154 0.373997
0.759076 0.775238 0.398847
0.992131 0.812604 0.424504
0.199747 0.983656 0.408094
0.417628 1.000000 0.432775
0.630914 1.000000 0.451232
0.844200 1.000000 0.469688
1.000000 1.000000 0.488145
0.000000 0.000000 0.315765
0.140631 0.000000 0.331315
0.303635 0.005082 0.346864
0.466639 0.019339 0.362414
0.634678 0.033834 0.379796
0.023419 0.181012 0.368075
0.189302 0.197928 0.387217
0.363026 0.216714 0.408590
0.545836 0.236641 0.431109
0.738520 0.257636 0.454629
0.074418 0.411024 0.439560
0.256378 0.436372 0.463427
0.448283 0.462957 0.488223
0.650697 0.490748 0.513923
0.864086 0.519730 0.540515
0.135396 0.682101 0.523501
0.336417 0.716032 0.550417
0.548508 0.751264 0.578218
0.772045 0.787784 0.606903
1.000000 0.822799 0.634889
0.207568 0.997997 0.617566
0.423677 1.000000 0.641608
0.636963 1.000000 0.660065
0.850249 1.000000 0.678522
1.000000 1.000000 0.696978
0.000000 0.000000 0.491707
0.145254 0.000000 0.507257
0.308258 0.009924 0.522806
0.471261 0.024181 0.538356
0.643731 0.038945 0.558916
0.028117 0.186297 0.544909
0.195441 0.204170 0.567371
0.370897 0.223359 0.591702
0.555614 0.243653 0.617363
0.750334 0.265004 0.644182
0.080098 0.419490 0.626998
0.263877 0.445263 0.654216
0.457739 0.472261 0.682488
0.662221 0.500458 0.711776
0.877771 0.529841 0.742057
0.142157 0.693477 0.722687
0.345214 0.727851 0.753324
0.559430 0.763522 0.784933
0.785173 0.800478 0.817506
1.000000 0.828957 0.843722
0.215512 1.000000 0.829603
0.429725 1.000000 0.850442
0.643011 1.000000 0.868898
0.856297 1.000000 0.887355
1.000000 1.000000 0.905811
0.000000 0.000000 0.667649
0.149877 0.000508 0.683199
0.312880 0.014766 0.698748
0.476986 0.029083 0.715301
0.653231 0.044137 0.739778
0.032953 0.192181 0.723816
0.201737 0.210556 0.749336
0.378945 0.230131 0.776787
0.565585 0.250787 0.805713
0.762351 0.272493 0.835931
0.085881 0.428103 0.816571
0.271506 0.454296 0.847233
0.467345 0.481703 0.879063
0.673910 0.510304 0.912011
0.891633 0.540089 0.946043
0.149033 0.705004 0.924277
0.354143 0.739821 0.958697
0.570500 0.775929 0.994170
0.798462 0.813319 1.000000
1.000000 0.835115 1.000000
0.222488 1.000000 1.000000
0.435774 1.000000 1.000000
0.649060 1.000000 1.000000
0.862346 1.000000 1.000000
1.000000 1.000000 1.000000
