assets/lighting/cinematic/grade-hospital-cool/lut.cube
TITLE "Hospital Cool White"
# TKRS lighting-batch-001 original LUT
# Intended usage: sterile hospital / clinic cool fluorescent
# License: CC0-1.0
LUT_3D_SIZE 9
DOMAIN_MIN 0.0 0.0 0.0
DOMAIN_MAX 1.0 1.0 1.0
0.000000 0.000000 0.000000
0.049884 0.000000 0.000000
0.131386 0.000000 0.000000
0.212888 0.000000 0.000000
0.294390 0.000000 0.000000
0.375892 0.002526 0.002755
0.457393 0.009655 0.010530
0.538895 0.016784 0.018305
0.620397 0.023913 0.026080
0.000000 0.069105 0.000000
0.072780 0.076234 0.000000
0.154282 0.083363 0.005586
0.235783 0.090491 0.013361
0.317285 0.097620 0.021136
0.398789 0.104750 0.028911
0.484156 0.112672 0.036864
0.572172 0.120945 0.044958
0.662621 0.129476 0.053186
0.014173 0.171328 0.016191
0.095675 0.178457 0.023966
0.177603 0.185979 0.031787
0.261700 0.194698 0.039796
0.347862 0.203820 0.047938
0.436218 0.213259 0.056216
0.526884 0.222987 0.064634
0.619957 0.232991 0.073197
0.715523 0.243262 0.081908
0.037644 0.277289 0.042744
0.121750 0.287311 0.050936
0.207874 0.297698 0.059264
0.296174 0.308414 0.067734
0.386774 0.319440 0.076351
0.479773 0.330766 0.085117
0.575259 0.342383 0.094037
0.673308 0.354288 0.103114
0.773987 0.366476 0.112351
0.063363 0.394542 0.070854
0.151408 0.406616 0.079525
0.241771 0.419017 0.088347
0.334549 0.431737 0.097324
0.429823 0.444767 0.106459
0.527667 0.458103 0.115755
0.628148 0.471742 0.125215
0.731326 0.485680 0.134841
0.837256 0.499916 0.144637
0.091489 0.521867 0.100631
0.183936 0.536039 0.109824
0.278897 0.550538 0.119180
0.376443 0.565359 0.128700
0.476638 0.580498 0.138388
0.579539 0.595952 0.148246
0.685202 0.611718 0.158276
0.793675 0.627796 0.168481
0.905006 0.644184 0.178862
0.122216 0.659807 0.132208
0.219387 0.676159 0.141957
0.319221 0.692843 0.151878
0.421776 0.709855 0.161971
0.527104 0.727193 0.172240
0.635252 0.744855 0.182686
0.746267 0.762839 0.193311
0.860192 0.781145 0.204118
0.977068 0.799771 0.215107
0.155694 0.808864 0.165689
0.257842 0.827473 0.176022
0.362776 0.846420 0.186533
0.470542 0.865702 0.197225
0.581186 0.885318 0.208097
0.694750 0.905267 0.219154
0.808194 0.922360 0.229811
0.914837 0.931427 0.239039
1.000000 0.940494 0.248267
0.192048 0.969474 0.201162
0.299383 0.990409 0.212101
0.409607 1.000000 0.223225
0.518223 1.000000 0.233170
0.624866 1.000000 0.242399
0.731509 1.000000 0.251627
0.838152 1.000000 0.260855
0.944795 1.000000 0.270084
1.000000 1.000000 0.279312
0.000000 0.000000 0.051852
0.052196 0.000000 0.059627
0.133698 0.000000 0.067402
0.215199 0.000000 0.075177
0.296701 0.000000 0.082952
0.378203 0.004947 0.090726
0.459705 0.012076 0.098501
0.541206 0.019205 0.106276
0.622708 0.026334 0.114051
0.000000 0.071526 0.078007
0.075091 0.078655 0.085782
0.156593 0.085784 0.093557
0.238095 0.092912 0.101332
0.319596 0.100041 0.109107
0.401986 0.107379 0.117038
0.488116 0.115450 0.125520
0.576682 0.123814 0.134221
0.667665 0.132428 0.143109
0.016485 0.173749 0.104162
0.097986 0.180878 0.111937
0.180437 0.188882 0.120096
0.264969 0.197757 0.128665
0.351576 0.206992 0.137436
0.440396 0.216532 0.146390
0.531543 0.226354 0.155521
0.625114 0.236449 0.164827
0.721191 0.246810 0.174308
0.040137 0.280648 0.131836
0.124613 0.290800 0.140675
0.211145 0.301301 0.149694
0.299882 0.312124 0.158889
0.390942 0.323253 0.168258
0.484421 0.334679 0.177803
0.580402 0.346394 0.187523
0.678961 0.358395 0.197420
0.780163 0.370680 0.207495
0.066089 0.398605 0.162280
0.154561 0.410791 0.171713
0.245374 0.423302 0.181321
0.338621 0.436127 0.191106
0.434381 0.449262 0.201067
0.532727 0.462701 0.211208
0.633723 0.476442 0.221529
0.737428 0.490481 0.232031
0.843896 0.504818 0.242717
0.094470 0.526643 0.194712
0.187380 0.540927 0.204738
0.282822 0.555536 0.214944
0.380864 0.570465 0.225331
0.481567 0.585711 0.235900
0.584990 0.601271 0.246653
0.691186 0.617144 0.257591
0.800203 0.633327 0.268715
0.912087 0.649819 0.280028
0.125468 0.665323 0.229158
0.223131 0.681788 0.239793
0.323471 0.698583 0.250613
0.426543 0.715706 0.261619
0.532399 0.733155 0.272812
0.641087 0.750926 0.284194
0.752651 0.769020 0.295766
0.867135 0.787434 0.307529
0.984578 0.806169 0.319486
0.159232 0.815146 0.265672
0.261894 0.833870 0.276934
0.367354 0.852931 0.288385
0.475657 0.872326 0.300026
0.586847 0.892055 0.311860
0.700966 0.912117 0.323887
0.811218 0.925439 0.334227
0.917861 0.934506 0.343456
1.000000 0.943573 0.352684
0.195882 0.976545 0.304312
0.303751 0.997597 0.316216
0.414519 1.000000 0.328314
0.521247 1.000000 0.337587
0.627890 1.000000 0.346815
0.734533 1.000000 0.356044
0.841176 1.000000 0.365272
0.947819 1.000000 0.374500
1.000000 1.000000 0.383728
0.000000 0.000000 0.139823
0.054507 0.000000 0.147598
0.136009 0.000000 0.155373
0.217511 0.000000 0.163148
0.299012 0.000240 0.170922
0.380514 0.007368 0.178697
0.462016 0.014497 0.186472
0.543518 0.021626 0.194247
0.626285 0.028806 0.202270
0.000000 0.073947 0.165978
0.077402 0.081076 0.173753
0.158904 0.088205 0.181528
0.240406 0.095333 0.189303
0.321908 0.102462 0.197078
0.405454 0.110081 0.205482
0.492178 0.118261 0.214558
0.581274 0.126712 0.223906
0.672782 0.135408 0.233484
0.018796 0.176170 0.192133
0.100317 0.183330 0.199932
0.183340 0.191849 0.208749
0.268293 0.200857 0.217933
0.355343 0.210199 0.227368
0.444627 0.219836 0.237024
0.536256 0.229752 0.246889
0.630325 0.239938 0.256957
0.726914 0.250388 0.267223
0.042654 0.284054 0.221341
0.127505 0.294329 0.230859
0.214451 0.304942 0.240592
0.303629 0.315870 0.250531
0.395151 0.327101 0.260671
0.489111 0.338625 0.271009
0.585590 0.350438 0.281543
0.684661 0.362536 0.292273
0.786388 0.374916 0.303197
0.068841 0.402706 0.254200
0.157743 0.415004 0.264412
0.249009 0.427622 0.274822
0.342728 0.440553 0.285427
0.438977 0.453792 0.296227
0.537826 0.467334 0.307223
0.639339 0.481176 0.318415
0.743573 0.495317 0.329802
0.850581 0.509755 0.341387
0.097478 0.531457 0.289336
0.190855 0.545852 0.300208
0.286780 0.560570 0.311275
0.385320 0.575607 0.322538
0.486534 0.590960 0.333997
0.590481 0.606627 0.345653
0.697211 0.622605 0.357507
0.806772 0.638893 0.369559
0.919212 0.655490 0.381811
0.128749 0.670877 0.326687
0.226906 0.687455 0.338218
0.327753 0.704362 0.349946
0.431345 0.721595 0.361872
0.537732 0.739154 0.373997
0.646961 0.757035 0.386321
0.759076 0.775238 0.398847
0.874119 0.793761 0.411574
0.992131 0.812604 0.424504
0.162799 0.821467 0.366263
0.265978 0.840305 0.378460
0.371965 0.859480 0.390858
0.480806 0.878989 0.403457
0.592544 0.898831 0.416258
0.707220 0.919005 0.429262
0.814242 0.928518 0.438644
0.920885 0.937585 0.447872
1.000000 0.946652 0.457100
0.199747 0.983656 0.408094
0.308151 1.000000 0.420969
0.417628 1.000000 0.432775
0.524271 1.000000 0.442004
0.630914 1.000000 0.451232
0.737557 1.000000 0.460460
0.844200 1.000000 0.469688
0.950843 1.000000 0.478917
1.000000 1.000000 0.488145
0.000000 0.000000 0.227794
0.056818 0.000000 0.235569
0.138320 0.000000 0.243344
0.219822 0.000000 0.251119
0.301324 0.002661 0.258893
0.382825 0.009789 0.266668
0.464327 0.016918 0.274443
0.545829 0.024047 0.282218
0.630374 0.031309 0.290845
0.000000 0.076368 0.253949
0.079714 0.083497 0.261724
0.161216 0.090626 0.269499
0.242717 0.097754 0.277274
0.324244 0.104890 0.285062
0.409062 0.112825 0.294285
0.496327 0.121103 0.304002
0.585942 0.129639 0.314031
0.677969 0.138415 0.324323
0.021107 0.178591 0.280104
0.102871 0.186138 0.288325
0.186297 0.194866 0.297781
0.271668 0.203995 0.307621
0.359160 0.213440 0.317748
0.448908 0.223173 0.328130
0.541021 0.233181 0.338749
0.635588 0.243457 0.349595
0.732690 0.253997 0.360661
0.045192 0.287503 0.311277
0.130428 0.297896 0.321500
0.217791 0.308619 0.331969
0.307413 0.319651 0.342672
0.399400 0.330982 0.353598
0.493844 0.342605 0.364744
0.590823 0.354514 0.376104
0.690407 0.366708 0.387678
0.792660 0.379184 0.399463
0.071617 0.406846 0.346624
0.160955 0.419254 0.357631
0.252677 0.431979 0.368855
0.346871 0.445015 0.380293
0.443611 0.458357 0.391944
0.542966 0.472001 0.403806
0.644997 0.485945 0.415878
0.749761 0.500187 0.428160
0.857311 0.514725 0.440651
0.100513 0.536309 0.384510
0.194360 0.550814 0.396238
0.290771 0.565641 0.408176
0.389810 0.580786 0.420325
0.491538 0.596245 0.432683
0.596010 0.612018 0.445251
0.703276 0.628101 0.458029
0.813385 0.644495 0.471017
0.926380 0.661197 0.484215
0.132058 0.676470 0.424800
0.230712 0.693160 0.437234
0.332069 0.710178 0.449879
0.436182 0.727522 0.462733
0.543101 0.745190 0.475797
0.652873 0.763181 0.489072
0.765540 0.781492 0.502558
0.881145 0.800124 0.516256
0.999727 0.819075 0.530165
0.166395 0.827826 0.467465
0.270093 0.846779 0.480606
0.376610 0.866068 0.493957
0.485991 0.885690 0.507520
0.598278 0.905645 0.521295
0.710623 0.922531 0.533832
0.817266 0.931597 0.543060
0.923909 0.940664 0.552289
1.000000 0.949731 0.561517
0.203642 0.990806 0.512511
0.312584 1.000000 0.526363
0.420652 1.000000 0.537192
0.527295 1.000000 0.546420
0.633938 1.000000 0.555648
0.740581 1.000000 0.564877
0.847224 1.000000 0.574105
0.953867 1.000000 0.583333
1.000000 1.000000 0.592562
0.000000 0.000000 0.315765
0.059130 0.000000 0.323540
0.140631 0.000000 0.331315
0.222133 0.000000 0.339090
0.303635 0.005082 0.346864
0.385137 0.012210 0.354639
0.466639 0.019339 0.362414
0.548140 0.026468 0.370189
0.634678 0.033834 0.379796
0.000523 0.078789 0.341920
0.082025 0.085918 0.349695
0.163527 0.093047 0.357470
0.245029 0.100175 0.365245
0.327301 0.107528 0.373553
0.412775 0.115605 0.383477
0.500556 0.123974 0.393871
0.590681 0.132592 0.404607
0.683224 0.141448 0.415636
0.023419 0.181012 0.368075
0.105493 0.189045 0.377093
0.189302 0.197928 0.387217
0.275090 0.207169 0.397744
0.363026 0.216714 0.408590
0.453240 0.226542 0.419719
0.545836 0.236641 0.431109
0.640903 0.247007 0.442749
0.738520 0.257636 0.454629
0.047754 0.290994 0.401658
0.133380 0.301502 0.412610
0.221165 0.312331 0.423836
0.311234 0.323466 0.435318
0.403690 0.334896 0.447046
0.498619 0.346617 0.459013
0.596100 0.358624 0.471212
0.696199 0.370914 0.483641
0.798980 0.383485 0.496297
0.074418 0.411024 0.439560
0.164195 0.423540 0.451376
0.256378 0.436372 0.463427
0.351049 0.449512 0.475711
0.448283 0.462957 0.488223
0.548145 0.476703 0.500961
0.650697 0.490748 0.513923
0.755993 0.505091 0.527108
0.864086 0.519730 0.540515
0.103574 0.541199 0.480240
0.197895 0.555814 0.492834
0.294794 0.570749 0.505654
0.394336 0.586001 0.518697
0.496579 0.601567 0.531963
0.601578 0.617445 0.545451
0.709382 0.633634 0.559161
0.820039 0.650132 0.573091
0.933592 0.666939 0.587243
0.135396 0.682101 0.523501
0.234549 0.698902 0.536848
0.336417 0.716032 0.550417
0.441054 0.733486 0.564207
0.548508 0.751264 0.578218
0.658823 0.769363 0.592450
0.772045 0.787784 0.606903
0.888213 0.806524 0.621577
1.000000 0.822799 0.634889
0.170022 0.834225 0.569282
0.274240 0.853292 0.583374
0.381289 0.872694 0.597686
0.491211 0.892430 0.612220
0.604049 0.912497 0.626974
0.713648 0.925610 0.638249
0.820291 0.934677 0.647477
0.926934 0.943743 0.656705
1.000000 0.952810 0.665934
0.207568 0.997997 0.617566
0.317034 1.000000 0.632380
0.423677 1.000000 0.641608
0.530320 1.000000 0.650837
0.636963 1.000000 0.660065
0.743606 1.000000 0.669293
0.850249 1.000000 0.678522
0.956892 1.000000 0.687750
1.000000 1.000000 0.696978
0.000000 0.000000 0.403736
0.061441 0.000000 0.411511
0.142943 0.000000 0.419286
0.224445 0.000374 0.427061
0.305946 0.007503 0.434835
0.387448 0.014631 0.442610
0.468950 0.021760 0.450385
0.551646 0.028944 0.458762
0.639140 0.036379 0.469146
0.002835 0.081210 0.429891
0.084336 0.088339 0.437666
0.165838 0.095468 0.445441
0.247340 0.102596 0.453216
0.330564 0.110232 0.462453
0.416575 0.118418 0.473079
0.504858 0.126874 0.484181
0.595487 0.135574 0.495649
0.688544 0.144509 0.507435
0.025738 0.183481 0.456128
0.108160 0.192015 0.466254
0.192351 0.201030 0.477074
0.278557 0.210378 0.488317
0.366939 0.220020 0.499904
0.457619 0.229941 0.511799
0.550701 0.240132 0.523978
0.646269 0.250587 0.536426
0.744401 0.261305 0.549134
0.050339 0.294525 0.492498
0.136361 0.305144 0.504201
0.224573 0.316079 0.516201
0.315093 0.327315 0.528479
0.408019 0.338845 0.541023
0.503437 0.350663 0.553823
0.601420 0.362766 0.566873
0.702037 0.375151 0.580169
0.805347 0.387818 0.593705
0.077245 0.415239 0.533016
0.167466 0.427863 0.545654
0.260111 0.440800 0.558546
0.355263 0.454044 0.571686
0.452992 0.467591 0.585069
0.553364 0.481439 0.598693
0.656438 0.495586 0.612554
0.762268 0.510029 0.626651
0.870906 0.524768 0.640982
0.106663 0.546126 0.576530
0.201459 0.560850 0.590001
0.298850 0.575893 0.603712
0.398897 0.591252 0.617659
0.501657 0.606924 0.631842
0.607185 0.622908 0.646258
0.715529 0.639202 0.660907
0.826735 0.655806 0.675787
0.940848 0.672717 0.690899
0.138762 0.687770 0.622795
0.238416 0.704683 0.637063
0.340799 0.721923 0.651564
0.445961 0.739487 0.666297
0.553951 0.757374 0.681262
0.664812 0.775583 0.696458
0.778589 0.794112 0.711885
0.895321 0.812961 0.727542
1.000000 0.825878 0.739306
0.173678 0.840663 0.671719
0.278419 0.859844 0.686768
0.386001 0.879359 0.702048
0.496467 0.899208 0.717558
0.609857 0.919387 0.733299
0.716672 0.928689 0.742665
0.823315 0.937756 0.751894
0.929958 0.946823 0.761122
1.000000 0.955889 0.770350
0.211524 1.000000 0.723262
0.320058 1.000000 0.736797
0.426701 1.000000 0.746025
0.533344 1.000000 0.755253
0.639987 1.000000 0.764482
0.746630 1.000000 0.773710
0.853273 1.000000 0.782938
0.959916 1.000000 0.792166
1.000000 1.000000 0.801395
0.000000 0.000000 0.491707
0.063752 0.000000 0.499482
0.145254 0.000000 0.507257
0.226756 0.002795 0.515031
0.308258 0.009924 0.522806
0.389759 0.017052 0.530581
0.471261 0.024181 0.538356
0.555537 0.031449 0.547792
0.643731 0.038945 0.558916
0.005146 0.083631 0.517862
0.086648 0.090760 0.525637
0.168149 0.097889 0.533412
0.249693 0.105033 0.541241
0.333940 0.112978 0.551762
0.420452 0.121261 0.563112
0.509228 0.129802 0.574945
0.600358 0.138582 0.587167
0.693927 0.147597 0.599728
0.028117 0.186297 0.544909
0.110865 0.195035 0.555827
0.195441 0.204170 0.567371
0.282068 0.213620 0.579353
0.370897 0.223359 0.591702
0.462046 0.233372 0.604380
0.555614 0.243653 0.617363
0.651685 0.254198 0.630634
0.750334 0.265004 0.644182
0.052947 0.298095 0.583809
0.139371 0.308823 0.596281
0.228014 0.319861 0.609073
0.318988 0.331198 0.622162
0.412388 0.342826 0.635535
0.508296 0.354741 0.649181
0.606785 0.366941 0.663093
0.707920 0.379422 0.677265
0.811761 0.392183 0.691692
0.080098 0.419490 0.626998
0.170765 0.432221 0.640472
0.263877 0.445263 0.654216
0.359512 0.458611 0.668223
0.457739 0.472261 0.682488
0.558623 0.486210 0.697007
0.662221 0.500458 0.711776
0.768587 0.515001 0.726794
0.877771 0.529841 0.742057
0.109780 0.551090 0.673387
0.205054 0.565923 0.687745
0.302938 0.581074 0.702355
0.403492 0.596539 0.717215
0.506772 0.612318 0.732322
0.612831 0.628407 0.747674
0.721716 0.644806 0.763270
0.833473 0.661514 0.779107
0.948147 0.678530 0.795186
0.142157 0.693477 0.722687
0.242315 0.710501 0.737883
0.345214 0.727851 0.753324
0.450903 0.745526 0.769008
0.559430 0.763522 0.784933
0.670840 0.781840 0.801100
0.785173 0.800478 0.817506
0.902471 0.819435 0.834152
1.000000 0.828957 0.843722
0.177363 0.847139 0.774778
0.282630 0.866434 0.790791
0.390747 0.886063 0.807045
0.501757 0.906024 0.823539
0.613053 0.922701 0.837854
0.719696 0.931768 0.847082
0.826339 0.940835 0.856310
0.932982 0.949902 0.865538
1.000000 0.958968 0.874767
0.215512 1.000000 0.829603
0.323082 1.000000 0.841213
0.429725 1.000000 0.850442
0.536368 1.000000 0.859670
0.643011 1.000000 0.868898
0.749654 1.000000 0.878126
0.856297 1.000000 0.887355
0.962940 1.000000 0.896583
1.000000 1.000000 0.905811
0.000000 0.000000 0.579678
0.066064 0.000000 0.587453
0.147565 0.000000 0.595228
0.229067 0.005216 0.603002
0.310569 0.012345 0.610777
0.392071 0.019473 0.618552
0.473597 0.026604 0.626347
0.559615 0.033974 0.637245
0.648432 0.041531 0.649121
0.007457 0.086052 0.605833
0.088959 0.093181 0.613608
0.170461 0.100310 0.621383
0.252595 0.107676 0.630114
0.337405 0.115760 0.641493
0.424399 0.124134 0.653589
0.513662 0.132757 0.666177
0.605291 0.141617 0.679171
0.699371 0.150712 0.692526
0.030523 0.189208 0.634143
0.113605 0.198099 0.645831
0.198570 0.207346 0.658120
0.285621 0.216896 0.670863
0.374899 0.226729 0.683993
0.466519 0.236834 0.697471
0.560576 0.247205 0.711272
0.657151 0.257838 0.725379
0.756317 0.268733 0.739779
0.055579 0.301703 0.675601
0.142411 0.312538 0.688861
0.231488 0.323678 0.702459
0.322920 0.335114 0.716374
0.416796 0.346841 0.730588
0.513196 0.358852 0.745092
0.612192 0.371148 0.759877
0.713848 0.383724 0.774935
0.818222 0.396581 0.790262
0.082977 0.423779 0.721514
0.174094 0.436616 0.735836
0.267675 0.449762 0.750443
0.363796 0.463213 0.765328
0.462523 0.476964 0.780484
0.563921 0.491015 0.795908
0.668045 0.505364 0.811594
0.774948 0.520008 0.827540
0.884680 0.534948 0.843742
0.112923 0.556092 0.770814
0.208680 0.571033 0.786069
0.307060 0.586291 0.801588
0.408123 0.601863 0.817369
0.511924 0.617747 0.833409
0.618515 0.633942 0.849704
0.727943 0.650446 0.866254
0.840253 0.667259 0.883056
0.955489 0.684379 0.900108
0.145581 0.699222 0.823179
0.246245 0.716357 0.839312
0.349662 0.733817 0.855700
0.455880 0.751601 0.872342
0.564947 0.769707 0.889235
0.676906 0.788134 0.906378
0.791798 0.806880 0.923771
0.906049 0.822969 0.938910
1.000000 0.832036 0.948139
0.181079 0.853654 0.878463
0.286873 0.873063 0.895447
0.395527 0.892804 0.912682
0.507083 0.912878 0.930165
0.616078 0.925780 0.942270
0.722721 0.934847 0.951498
0.829364 0.943914 0.960727
0.936007 0.952981 0.969955
1.000000 0.962048 0.979183
0.219464 1.000000 0.936402
0.326107 1.000000 0.945630
0.432750 1.000000 0.954858
0.539393 1.000000 0.964086
0.646036 1.000000 0.973315
0.752679 1.000000 0.982543
0.859322 1.000000 0.991771
0.965965 1.000000 1.000000
1.000000 1.000000 1.000000
0.000000 0.000000 0.667649
0.068375 0.000000 0.675424
0.149877 0.000508 0.683199
0.231378 0.007637 0.690973
0.312880 0.014766 0.698748
0.394382 0.021894 0.706523
0.476986 0.029083 0.715301
0.563832 0.036521 0.727134
0.653231 0.044137 0.739778
0.009768 0.088473 0.693804
0.091270 0.095602 0.701579
0.172772 0.102731 0.709354
0.255648 0.110383 0.719478
0.340943 0.118575 0.731664
0.428410 0.127035 0.744524
0.518157 0.135740 0.757887
0.610283 0.144680 0.771672
0.704875 0.153853 0.785836
0.032953 0.192181 0.723816
0.116378 0.201203 0.736280
0.201737 0.210556 0.749336
0.289215 0.220205 0.762859
0.378945 0.230131 0.776787
0.471038 0.240326 0.791080
0.565585 0.250787 0.805713
0.662666 0.261509 0.820668
0.762351 0.272493 0.835931
0.058234 0.305347 0.767885
0.145479 0.316287 0.781949
0.234996 0.327529 0.796369
0.326887 0.339064 0.811121
0.421242 0.350888 0.826190
0.518137 0.362996 0.841562
0.617643 0.375387 0.857230
0.719821 0.388059 0.873184
0.824729 0.401011 0.889420
0.085881 0.428103 0.816571
0.177453 0.441046 0.831752
0.271506 0.454296 0.847233
0.368115 0.467849 0.863005
0.467345 0.481703 0.879063
0.569258 0.495855 0.895400
0.673910 0.510304 0.912011
0.781352 0.525048 0.928893
0.891633 0.540089 0.946043
0.116095 0.561130 0.868819
0.212335 0.576179 0.884979
0.311214 0.591544 0.901416
0.412788 0.607222 0.918126
0.517113 0.623212 0.935106
0.624238 0.639512 0.952352
0.734211 0.656121 0.969863
0.847075 0.673038 0.987635
0.962874 0.690263 1.000000
0.149033 0.705004 0.924277
0.250206 0.722250 0.941354
0.354143 0.739821 0.958697
0.460893 0.757714 0.976303
0.570500 0.775929 0.994170
0.683010 0.794464 1.000000
0.798462 0.813319 1.000000
0.909073 0.826048 1.000000
1.000000 0.835115 1.000000
0.184825 0.860208 0.982778
0.291147 0.879730 1.000000
0.400340 0.899584 1.000000
0.512445 0.919770 1.000000
0.619102 0.928860 1.000000
0.725745 0.937926 1.000000
0.832388 0.946993 1.000000
0.939031 0.956060 1.000000
1.000000 0.965127 1.000000
0.222488 1.000000 1.000000
0.329131 1.000000 1.000000
0.435774 1.000000 1.000000
0.542417 1.000000 1.000000
0.649060 1.000000 1.000000
0.755703 1.000000 1.000000
0.862346 1.000000 1.000000
0.968989 1.000000 1.000000
1.000000 1.000000 1.000000
