assets/lighting/cinematic/grade-infrared-ish/lut.cube
TITLE "Infrared-ish"
# TKRS lighting-batch-001 original LUT
# Intended usage: stylized false-color foliage/sky swap feel
# License: CC0-1.0
LUT_3D_SIZE 17
DOMAIN_MIN 0.0 0.0 0.0
DOMAIN_MAX 1.0 1.0 1.0
0.000000 0.000000 0.000000
0.011914 0.000000 0.000000
0.088328 0.000000 0.000000
0.164742 0.000000 0.000000
0.241155 0.000000 0.000000
0.317569 0.000000 0.000000
0.393983 0.000000 0.000000
0.470397 0.000000 0.000000
0.546811 0.000000 0.000000
0.623225 0.000000 0.000000
0.699638 0.000000 0.000000
0.776052 0.000000 0.000000
0.852466 0.000000 0.000000
0.928880 0.000000 0.000000
1.000000 0.000000 0.000000
1.000000 0.000000 0.000000
1.000000 0.000000 0.000000
0.000000 0.002172 0.000000
0.000000 0.000000 0.000000
0.075065 0.000000 0.000000
0.151479 0.000000 0.000000
0.227893 0.000000 0.000000
0.304307 0.000000 0.000000
0.380721 0.000000 0.000000
0.457134 0.000000 0.000000
0.533548 0.000000 0.000000
0.609962 0.000000 0.000000
0.686376 0.000000 0.000000
0.762790 0.000000 0.000000
0.839204 0.000000 0.000000
0.915618 0.000000 0.000000
0.992031 0.000000 0.000000
1.000000 0.000000 0.000000
1.000000 0.000000 0.000000
0.000000 0.058343 0.000000
0.000000 0.055042 0.000000
0.061803 0.051742 0.000000
0.138217 0.048441 0.000000
0.214630 0.045141 0.000000
0.291044 0.041840 0.000000
0.367458 0.038539 0.000000
0.443872 0.035239 0.000000
0.520286 0.031938 0.000000
0.596700 0.028638 0.000000
0.673114 0.025337 0.000000
0.749527 0.022036 0.000000
0.825377 0.018797 0.000000
0.900620 0.015577 0.000000
0.975517 0.012327 0.000000
1.000000 0.009038 0.000000
1.000000 0.005703 0.000000
0.000000 0.114515 0.000000
0.000000 0.111214 0.000000
0.048540 0.107913 0.000000
0.124954 0.104613 0.000000
0.201368 0.101312 0.000000
0.277782 0.098011 0.000000
0.354196 0.094711 0.000000
0.430609 0.091410 0.000000
0.506993 0.088135 0.000000
0.582790 0.085259 0.000000
0.658256 0.082450 0.000000
0.733422 0.079650 0.000000
0.808289 0.076841 0.000000
0.882850 0.074009 0.000000
0.957101 0.071147 0.000000
1.000000 0.068250 0.000000
1.000000 0.065312 0.000000
0.000000 0.170686 0.000000
0.000000 0.167385 0.000000
0.035278 0.164085 0.000000
0.111692 0.160784 0.000000
0.188105 0.157484 0.000000
0.264416 0.154471 0.000000
0.340399 0.152011 0.000000
0.416124 0.149648 0.000000
0.491582 0.147322 0.000000
0.566763 0.145011 0.000000
0.641657 0.142697 0.000000
0.716254 0.140372 0.000000
0.790548 0.138026 0.000000
0.864531 0.135654 0.000000
0.938197 0.133251 0.000000
1.000000 0.130812 0.000000
1.000000 0.128334 0.000000
0.000000 0.226858 0.000000
0.000000 0.223557 0.000000
0.021998 0.221086 0.000000
0.098228 0.219077 0.000000
0.174238 0.217185 0.000000
0.250007 0.215354 0.000000
0.325516 0.213557 0.000000
0.400754 0.211777 0.000000
0.475709 0.209999 0.000000
0.550371 0.208216 0.000000
0.624732 0.206419 0.000000
0.698785 0.204603 0.000000
0.772522 0.202763 0.000000
0.845938 0.200894 0.000000
0.919026 0.198992 0.000000
0.991781 0.197054 0.000000
1.000000 0.195077 0.000000
0.000000 0.286471 0.000000
0.000000 0.285073 0.000000
0.008704 0.283756 0.000000
0.084556 0.282489 0.000000
0.160148 0.281254 0.000000
0.235469 0.280036 0.000000
0.310508 0.278826 0.000000
0.385255 0.277614 0.000000
0.459702 0.276394 0.000000
0.533841 0.275160 0.000000
0.607666 0.273907 0.000000
0.681170 0.272630 0.000000
0.754347 0.271326 0.000000
0.827192 0.269991 0.000000
0.899700 0.268623 0.000000
0.971865 0.267218 0.000000
1.000000 0.265773 0.000000
0.000000 0.351813 0.000000
0.000000 0.351136 0.000000
0.000000 0.350489 0.000000
0.070964 0.349861 0.000000
0.146104 0.349243 0.000000
0.220952 0.348627 0.000000
0.295500 0.348007 0.000000
0.369739 0.347377 0.000000
0.443664 0.346732 0.000000
0.517269 0.346069 0.000000
0.590547 0.345382 0.000000
0.663493 0.344669 0.000000
0.736101 0.343927 0.000000
0.808368 0.343152 0.000000
0.880288 0.342343 0.000000
0.951858 0.341496 0.000000
1.000000 0.340610 0.000000
0.000000 0.421327 0.000000
0.000000 0.421311 0.000000
0.000000 0.421308 0.000000
0.057500 0.421309 0.000000
0.132160 0.421309 0.000000
0.206512 0.421303 0.000000
0.280548 0.421286 0.000000
0.354264 0.421253 0.000000
0.427652 0.421201 0.000000
0.500709 0.421127 0.000000
0.573428 0.421027 0.000000
0.645805 0.420899 0.000000
0.717836 0.420740 0.000000
0.789516 0.420547 0.000000
0.860841 0.420319 0.000000
0.931807 0.420052 0.000000
1.000000 0.419746 0.000000
0.000000 0.495070 0.000000
0.000000 0.495707 0.000000
0.000000 0.496345 0.000000
0.044189 0.496981 0.000000
0.118346 0.497608 0.000000
0.192182 0.498223 0.000000
0.265690 0.498822 0.000000
0.338865 0.499402 0.000000
0.411703 0.499960 0.000000
0.484199 0.500493 0.000000
0.556347 0.500998 0.000000
0.628145 0.501473 0.000000
0.699588 0.501915 0.000000
0.770672 0.502323 0.000000
0.841393 0.502694 0.000000
0.911748 0.503027 0.000000
0.981733 0.503319 0.000000
0.000000 0.573156 0.000000
0.000000 0.574449 0.000000
0.000000 0.575736 0.000000
0.031047 0.577014 0.000000
0.104683 0.578279 0.000000
0.177985 0.579527 0.000000
0.250949 0.580757 0.000000
0.323570 0.581964 0.000000
0.395844 0.583147 0.000000
0.467766 0.584302 0.000000
0.539334 0.585428 0.000000
0.610542 0.586523 0.000000
0.681387 0.587584 0.000000
0.751866 0.588609 0.000000
0.821974 0.589597 0.000000
0.891710 0.590545 0.000000
0.961069 0.591453 0.000000
0.000000 0.655705 0.000000
0.000000 0.657660 0.000000
0.000000 0.659604 0.000000
0.018088 0.661535 0.000000
0.091185 0.663449 0.000000
0.163938 0.665343 0.000000
0.236344 0.667216 0.000000
0.308398 0.669064 0.000000
0.380096 0.670886 0.000000
0.451434 0.672679 0.000000
0.522409 0.674440 0.000000
0.593018 0.676169 0.000000
0.663256 0.677863 0.000000
0.733121 0.679521 0.000000
0.802609 0.681140 0.000000
0.871717 0.682720 0.000000
0.940443 0.684258 0.000000
0.000000 0.742829 0.000000
0.000000 0.745454 0.000000
0.000000 0.748065 0.000000
0.005322 0.750658 0.000000
0.077865 0.753233 0.000000
0.150056 0.755785 0.000000
0.221891 0.758313 0.000000
0.293365 0.760815 0.000000
0.364476 0.763289 0.000000
0.435219 0.765732 0.000000
0.505592 0.768142 0.000000
0.575592 0.770519 0.000000
0.645214 0.772860 0.000000
0.714456 0.775164 0.000000
0.783316 0.777429 0.000000
0.851790 0.779654 0.000000
0.919875 0.781836 0.000000
0.000000 0.834632 0.000000
0.000000 0.837936 0.000000
0.000000 0.841223 0.000000
0.000000 0.844490 0.000000
0.064735 0.847736 0.000000
0.136350 0.850957 0.000000
0.207602 0.854153 0.000000
0.278485 0.857320 0.000000
0.348998 0.860457 0.000000
0.419137 0.863563 0.000000
0.488898 0.866635 0.000000
0.558279 0.869672 0.000000
0.627277 0.872673 0.000000
0.695889 0.875635 0.000000
0.765089 0.875029 0.000000
0.835283 0.870445 0.000000
0.905477 0.865861 0.000000
0.000000 0.931211 0.000000
0.000000 0.935204 0.000000
0.000000 0.939177 0.000000
0.000000 0.943128 0.000000
0.051802 0.947055 0.000000
0.122830 0.950955 0.000000
0.193488 0.954829 0.000000
0.263770 0.958672 0.000000
0.333675 0.962485 0.000000
0.403200 0.966265 0.000000
0.472340 0.970010 0.000000
0.542323 0.966798 0.000000
0.612518 0.962214 0.000000
0.682712 0.957630 0.000000
0.752906 0.953045 0.000000
0.823100 0.948461 0.000000
0.893294 0.943877 0.000000
0.000000 1.000000 0.000000
0.000000 1.000000 0.000000
0.000000 1.000000 0.000000
0.000000 1.000000 0.000000
0.039074 1.000000 0.000000
0.109505 1.000000 0.000000
0.179558 1.000000 0.000000
0.249364 1.000000 0.000000
0.319558 1.000000 0.000000
0.389752 1.000000 0.000000
0.459946 1.000000 0.000000
0.530141 1.000000 0.000000
0.600335 1.000000 0.000000
0.670529 1.000000 0.000000
0.740723 1.000000 0.000000
0.810917 1.000000 0.000000
0.881111 1.000000 0.000000
0.000000 1.000000 0.000000
0.000000 1.000000 0.000000
0.000000 1.000000 0.000000
0.000000 1.000000 0.000000
0.026599 1.000000 0.000000
0.096793 1.000000 0.000000
0.166987 1.000000 0.000000
0.237181 1.000000 0.000000
0.307375 1.000000 0.000000
0.377569 1.000000 0.000000
0.447763 1.000000 0.000000
0.517958 1.000000 0.000000
0.588152 1.000000 0.000000
0.658346 1.000000 0.000000
0.728540 1.000000 0.000000
0.798734 1.000000 0.000000
0.868928 1.000000 0.000000
0.000000 0.000000 0.013927
0.010575 0.000000 0.010145
0.086989 0.000000 0.006363
0.163403 0.000000 0.002581
0.239817 0.000000 0.000000
0.316230 0.000000 0.000000
0.392644 0.000000 0.000000
0.469058 0.000000 0.000000
0.545472 0.000000 0.000000
0.621886 0.000000 0.000000
0.698300 0.000000 0.000000
0.774713 0.000000 0.000000
0.851127 0.000000 0.000000
0.927541 0.000000 0.000000
1.000000 0.000000 0.000000
1.000000 0.000000 0.000000
1.000000 0.000000 0.000000
0.000000 0.001051 0.001204
0.000000 0.000000 0.000000
0.073726 0.000000 0.000000
0.150140 0.000000 0.000000
0.226554 0.000000 0.000000
0.302968 0.000000 0.000000
0.379382 0.000000 0.000000
0.455796 0.000000 0.000000
0.532209 0.000000 0.000000
0.608623 0.000000 0.000000
0.685037 0.000000 0.000000
0.761451 0.000000 0.000000
0.837865 0.000000 0.000000
0.914279 0.000000 0.000000
0.990693 0.000000 0.000000
1.000000 0.000000 0.000000
1.000000 0.000000 0.000000
0.000000 0.057222 0.000000
0.000000 0.053922 0.000000
0.060464 0.050621 0.000000
0.136878 0.047320 0.000000
0.213292 0.044020 0.000000
0.289705 0.040719 0.000000
0.366119 0.037418 0.000000
0.442533 0.034118 0.000000
0.518947 0.030817 0.000000
0.595361 0.027517 0.000000
0.671775 0.024216 0.000000
0.748157 0.020920 0.000000
0.823711 0.017706 0.000000
0.898869 0.014477 0.000000
0.973692 0.011215 0.000000
1.000000 0.007911 0.000000
1.000000 0.004559 0.000000
0.000000 0.113394 0.000000
0.000000 0.110093 0.000000
0.047201 0.106792 0.000000
0.123615 0.103492 0.000000
0.200029 0.100191 0.000000
0.276443 0.096891 0.000000
0.352857 0.093590 0.000000
0.429271 0.090289 0.000000
0.505499 0.087141 0.000000
0.581205 0.084302 0.000000
0.656606 0.081499 0.000000
0.731711 0.078698 0.000000
0.806517 0.075882 0.000000
0.881019 0.073041 0.000000
0.955210 0.070167 0.000000
1.000000 0.067257 0.000000
1.000000 0.064305 0.000000
0.000000 0.169565 0.000000
0.000000 0.166265 0.000000
0.033939 0.162964 0.000000
0.110353 0.159663 0.000000
0.186767 0.156363 0.000000
0.262980 0.153618 0.000000
0.338911 0.151202 0.000000
0.414585 0.148855 0.000000
0.489991 0.146537 0.000000
0.565119 0.144226 0.000000
0.639958 0.141909 0.000000
0.714501 0.139578 0.000000
0.788739 0.137223 0.000000
0.862664 0.134841 0.000000
0.936271 0.132427 0.000000
1.000000 0.129975 0.000000
1.000000 0.127483 0.000000
0.000000 0.225737 0.000000
0.000000 0.222556 0.000000
0.020652 0.220384 0.000000
0.096846 0.218425 0.000000
0.172817 0.216558 0.000000
0.248541 0.214741 0.000000
0.324004 0.212952 0.000000
0.399193 0.211173 0.000000
0.474097 0.209395 0.000000
0.548706 0.207608 0.000000
0.623014 0.205805 0.000000
0.697011 0.203981 0.000000
0.770693 0.202131 0.000000
0.844051 0.200252 0.000000
0.917081 0.198338 0.000000
0.989777 0.196387 0.000000
1.000000 0.194397 0.000000
0.000000 0.285985 0.000000
0.000000 0.284619 0.000000
0.007369 0.283321 0.000000
0.083179 0.282067 0.000000
0.158727 0.280839 0.000000
0.234002 0.279625 0.000000
0.308992 0.278415 0.000000
0.383688 0.277201 0.000000
0.458083 0.275977 0.000000
0.532169 0.274737 0.000000
0.605939 0.273476 0.000000
0.679387 0.272190 0.000000
0.752508 0.270876 0.000000
0.825295 0.269530 0.000000
0.897743 0.268150 0.000000
0.969849 0.266732 0.000000
1.000000 0.265274 0.000000
0.000000 0.351579 0.000000
0.000000 0.350913 0.000000
0.000000 0.350274 0.000000
0.069599 0.349651 0.000000
0.144692 0.349034 0.000000
0.219490 0.348418 0.000000
0.293987 0.347795 0.000000
0.368174 0.347160 0.000000
0.442046 0.346509 0.000000
0.515596 0.345838 0.000000
0.588818 0.345143 0.000000
0.661707 0.344420 0.000000
0.734258 0.343667 0.000000
0.806466 0.342881 0.000000
0.878326 0.342059 0.000000
0.949835 0.341200 0.000000
1.000000 0.340300 0.000000
0.000000 0.421320 0.000000
0.000000 0.421309 0.000000
0.000000 0.421308 0.000000
0.056149 0.421310 0.000000
0.130760 0.421308 0.000000
0.205060 0.421299 0.000000
0.279044 0.421277 0.000000
0.352705 0.421238 0.000000
0.426039 0.421179 0.000000
0.499039 0.421096 0.000000
0.571701 0.420987 0.000000
0.644020 0.420849 0.000000
0.715992 0.420678 0.000000
0.787612 0.420474 0.000000
0.858877 0.420232 0.000000
0.929781 0.419953 0.000000
1.000000 0.419632 0.000000
0.000000 0.495286 0.000000
0.000000 0.495924 0.000000
0.000000 0.496562 0.000000
0.042854 0.497195 0.000000
0.116960 0.497818 0.000000
0.190742 0.498428 0.000000
0.264196 0.499021 0.000000
0.337316 0.499594 0.000000
0.410098 0.500144 0.000000
0.482536 0.500667 0.000000
0.554626 0.501163 0.000000
0.626365 0.501627 0.000000
0.697748 0.502058 0.000000
0.768771 0.502453 0.000000
0.839431 0.502812 0.000000
0.909723 0.503131 0.000000
0.979646 0.503409 0.000000
0.000000 0.573596 0.000000
0.000000 0.574887 0.000000
0.000000 0.576171 0.000000
0.029730 0.577445 0.000000
0.103312 0.578705 0.000000
0.176560 0.579947 0.000000
0.249468 0.581169 0.000000
0.322032 0.582369 0.000000
0.394249 0.583542 0.000000
0.466113 0.584688 0.000000
0.537621 0.585804 0.000000
0.608769 0.586887 0.000000
0.679553 0.587936 0.000000
0.749970 0.588949 0.000000
0.820017 0.589923 0.000000
0.889689 0.590858 0.000000
0.958985 0.591752 0.000000
0.000000 0.656370 0.000000
0.000000 0.658321 0.000000
0.000000 0.660261 0.000000
0.016790 0.662187 0.000000
0.089832 0.664094 0.000000
0.162529 0.665982 0.000000
0.234878 0.667847 0.000000
0.306874 0.669686 0.000000
0.378513 0.671498 0.000000
0.449792 0.673280 0.000000
0.520706 0.675031 0.000000
0.591254 0.676748 0.000000
0.661430 0.678430 0.000000
0.731233 0.680075 0.000000
0.800658 0.681681 0.000000
0.869702 0.683247 0.000000
0.938364 0.684771 0.000000
0.000000 0.743722 0.000000
0.000000 0.746342 0.000000
0.000000 0.748948 0.000000
0.004045 0.751535 0.000000
0.076531 0.754102 0.000000
0.148664 0.756647 0.000000
0.220441 0.759166 0.000000
0.291856 0.761659 0.000000
0.362907 0.764122 0.000000
0.433590 0.766554 0.000000
0.503901 0.768954 0.000000
0.573838 0.771318 0.000000
0.643398 0.773647 0.000000
0.712577 0.775938 0.000000
0.781373 0.778189 0.000000
0.849782 0.780400 0.000000
0.917802 0.782568 0.000000
0.000000 0.835756 0.000000
0.000000 0.839054 0.000000
0.000000 0.842335 0.000000
0.000000 0.845595 0.000000
0.063420 0.848833 0.000000
0.134977 0.852045 0.000000
0.206169 0.855231 0.000000
0.276992 0.858389 0.000000
0.347444 0.861515 0.000000
0.417521 0.864610 0.000000
0.487220 0.867670 0.000000
0.556539 0.870695 0.000000
0.625473 0.873683 0.000000
0.694021 0.876633 0.000000
0.763859 0.873473 0.000000
0.834053 0.868888 0.000000
0.904247 0.864304 0.000000
0.000000 0.932569 0.000000
0.000000 0.936555 0.000000
0.000000 0.940521 0.000000
0.000000 0.944464 0.000000
0.050507 0.948382 0.000000
0.121476 0.952274 0.000000
0.192073 0.956137 0.000000
0.262294 0.959971 0.000000
0.332137 0.963772 0.000000
0.401599 0.967540 0.000000
0.470899 0.969825 0.000000
0.541094 0.965241 0.000000
0.611288 0.960657 0.000000
0.681482 0.956073 0.000000
0.751676 0.951489 0.000000
0.821870 0.946904 0.000000
0.892064 0.942320 0.000000
0.000000 1.000000 0.000000
0.000000 1.000000 0.000000
0.000000 1.000000 0.000000
0.000000 1.000000 0.000000
0.037801 1.000000 0.000000
0.108171 1.000000 0.000000
0.178162 1.000000 0.000000
0.248134 1.000000 0.000000
0.318328 1.000000 0.000000
0.388522 1.000000 0.000000
0.458717 1.000000 0.000000
0.528911 1.000000 0.000000
0.599105 1.000000 0.000000
0.669299 1.000000 0.000000
0.739493 1.000000 0.000000
0.809687 1.000000 0.000000
0.879881 1.000000 0.000000
0.000000 1.000000 0.000000
0.000000 1.000000 0.000000
0.000000 1.000000 0.000000
0.000000 1.000000 0.000000
0.025369 1.000000 0.000000
0.095563 1.000000 0.000000
0.165757 1.000000 0.000000
0.235951 1.000000 0.000000
0.306145 1.000000 0.000000
0.376339 1.000000 0.000000
0.446534 1.000000 0.000000
0.516728 1.000000 0.000000
0.586922 1.000000 0.000000
0.657116 1.000000 0.000000
0.727310 1.000000 0.000000
0.797504 1.000000 0.000000
0.867698 1.000000 0.000000
0.000000 0.000000 0.089728
0.009236 0.000000 0.085946
0.085650 0.000000 0.082164
0.162064 0.000000 0.078382
0.238478 0.000000 0.074600
0.314892 0.000000 0.070818
0.391305 0.000000 0.067036
0.467719 0.000000 0.063254
0.544133 0.000000 0.059472
0.620547 0.000000 0.055691
0.696961 0.000000 0.051909
0.773375 0.000000 0.048127
0.849788 0.000000 0.044345
0.926202 0.000000 0.040563
1.000000 0.000000 0.036781
1.000000 0.000000 0.032999
1.000000 0.000000 0.029217
0.000000 0.000000 0.077005
0.000000 0.000000 0.073223
0.072387 0.000000 0.069441
0.148801 0.000000 0.065660
0.225215 0.000000 0.061878
0.301629 0.000000 0.058096
0.378043 0.000000 0.054314
0.454457 0.000000 0.050532
0.530871 0.000000 0.046750
0.607284 0.000000 0.042968
0.683698 0.000000 0.039186
0.760112 0.000000 0.035404
0.836526 0.000000 0.031622
0.912940 0.000000 0.027840
0.989329 0.000000 0.024058
1.000000 0.000000 0.020265
1.000000 0.000000 0.016474
0.000000 0.056101 0.064283
0.000000 0.052801 0.060501
0.059125 0.049500 0.056719
0.135539 0.046199 0.052937
0.211953 0.042899 0.049155
0.288367 0.039598 0.045373
0.364780 0.036298 0.041591
0.441194 0.032997 0.037809
0.517608 0.029696 0.034027
0.594022 0.026396 0.030245
0.670436 0.023095 0.026463
0.746594 0.019827 0.022677
0.822026 0.016612 0.018884
0.897104 0.013374 0.015095
0.971858 0.010098 0.011310
1.000000 0.006778 0.007530
1.000000 0.003410 0.003757
0.000000 0.112273 0.051560
0.000000 0.108972 0.047778
0.045863 0.105672 0.043996
0.122276 0.102371 0.040214
0.198690 0.099070 0.036432
0.275104 0.095770 0.032650
0.351518 0.092469 0.028868
0.427932 0.089168 0.025086
0.503976 0.086168 0.021296
0.579609 0.083348 0.017504
0.654948 0.080549 0.013716
0.729994 0.077744 0.009933
0.804741 0.074920 0.006156
0.879183 0.072069 0.002384
0.953314 0.069183 0.000000
1.000000 0.066259 0.000000
1.000000 0.063292 0.000000
0.000000 0.168444 0.038837
0.000000 0.165144 0.035055
0.032600 0.161843 0.031273
0.109014 0.158542 0.027491
0.185410 0.155311 0.023708
0.261537 0.152785 0.019915
0.337417 0.150400 0.016125
0.413041 0.148066 0.012338
0.488397 0.145752 0.008557
0.563472 0.143440 0.004782
0.638257 0.141120 0.001013
0.712745 0.138781 0.000000
0.786926 0.136418 0.000000
0.860794 0.134025 0.000000
0.934343 0.131598 0.000000
1.000000 0.129133 0.000000
1.000000 0.126627 0.000000
0.000000 0.224616 0.026114
0.000000 0.221776 0.022327
0.019306 0.219704 0.018535
0.095465 0.217783 0.014746
0.171394 0.215937 0.010961
0.247074 0.214131 0.007182
0.322490 0.212347 0.003409
0.397630 0.210570 0.000000
0.472483 0.208789 0.000000
0.547041 0.206998 0.000000
0.621294 0.205188 0.000000
0.695237 0.203356 0.000000
0.768862 0.201497 0.000000
0.842163 0.199606 0.000000
0.915134 0.197680 0.000000
0.987770 0.195716 0.000000
1.000000 0.193711 0.000000
0.000000 0.285511 0.013367
0.000000 0.284172 0.009584
0.006035 0.282891 0.005808
0.081803 0.281647 0.002037
0.157307 0.280426 0.000000
0.232534 0.279214 0.000000
0.307475 0.278003 0.000000
0.382121 0.276787 0.000000
0.456464 0.275558 0.000000
0.530497 0.274311 0.000000
0.604212 0.273042 0.000000
0.677604 0.271747 0.000000
0.750667 0.270423 0.000000
0.823396 0.269065 0.000000
0.895786 0.267672 0.000000
0.967831 0.266241 0.000000
1.000000 0.264769 0.000000
0.000000 0.351349 0.000666
0.000000 0.350694 0.000000
0.000000 0.350061 0.000000
0.068235 0.349441 0.000000
0.143280 0.348825 0.000000
0.218029 0.348207 0.000000
0.292475 0.347581 0.000000
0.366610 0.346941 0.000000
0.440428 0.346284 0.000000
0.513923 0.345605 0.000000
0.587089 0.344901 0.000000
0.659921 0.344168 0.000000
0.732414 0.343404 0.000000
0.804563 0.342606 0.000000
0.876364 0.341772 0.000000
0.947812 0.340899 0.000000
1.000000 0.339985 0.000000
0.000000 0.421315 0.000000
0.000000 0.421308 0.000000
0.000000 0.421309 0.000000
0.054800 0.421310 0.000000
0.129360 0.421306 0.000000
0.203609 0.421293 0.000000
0.277540 0.421265 0.000000
0.351148 0.421220 0.000000
0.424426 0.421154 0.000000
0.497370 0.421062 0.000000
0.569975 0.420944 0.000000
0.642236 0.420795 0.000000
0.714149 0.420613 0.000000
0.785709 0.420396 0.000000
0.856913 0.420142 0.000000
0.927756 0.419849 0.000000
0.998235 0.419514 0.000000
0.000000 0.495502 0.000000
0.000000 0.496141 0.000000
0.000000 0.496777 0.000000
0.041522 0.497408 0.000000
0.115575 0.498027 0.000000
0.189304 0.498632 0.000000
0.262703 0.499218 0.000000
0.335768 0.499783 0.000000
0.408493 0.500325 0.000000
0.480874 0.500839 0.000000
0.552906 0.501324 0.000000
0.624586 0.501777 0.000000
0.695909 0.502196 0.000000
0.766871 0.502579 0.000000
0.837469 0.502924 0.000000
0.907700 0.503230 0.000000
0.977559 0.503494 0.000000
0.000000 0.574035 0.000000
0.000000 0.575324 0.000000
0.000000 0.576605 0.000000
0.028416 0.577874 0.000000
0.101944 0.579129 0.000000
0.175136 0.580365 0.000000
0.247988 0.581579 0.000000
0.320496 0.582770 0.000000
0.392655 0.583935 0.000000
0.464460 0.585071 0.000000
0.535909 0.586175 0.000000
0.606997 0.587247 0.000000
0.677720 0.588284 0.000000
0.748075 0.589284 0.000000
0.818060 0.590245 0.000000
0.887669 0.591166 0.000000
0.956901 0.592045 0.000000
0.000000 0.657034 0.000000
0.000000 0.658982 0.000000
0.000000 0.660917 0.000000
0.015495 0.662837 0.000000
0.088481 0.664738 0.000000
0.161122 0.666618 0.000000
0.233413 0.668474 0.000000
0.305351 0.670305 0.000000
0.376931 0.672107 0.000000
0.448150 0.673879 0.000000
0.519005 0.675618 0.000000
0.589491 0.677324 0.000000
0.659605 0.678993 0.000000
0.729345 0.680625 0.000000
0.798707 0.682218 0.000000
0.867688 0.683769 0.000000
0.936285 0.685279 0.000000
0.000000 0.744613 0.000000
0.000000 0.747229 0.000000
0.000000 0.749828 0.000000
0.002769 0.752409 0.000000
0.075199 0.754969 0.000000
0.147275 0.757505 0.000000
0.218992 0.760016 0.000000
0.290348 0.762498 0.000000
0.361339 0.764951 0.000000
0.431961 0.767373 0.000000
0.502211 0.769761 0.000000
0.572087 0.772113 0.000000
0.641584 0.774429 0.000000
0.710699 0.776707 0.000000
0.779431 0.778944 0.000000
0.847776 0.781141 0.000000
0.915731 0.783295 0.000000
0.000000 0.836878 0.000000
0.000000 0.840171 0.000000
0.000000 0.843445 0.000000
0.000000 0.846697 0.000000
0.062107 0.849927 0.000000
0.133605 0.853131 0.000000
0.204738 0.856307 0.000000
0.275501 0.859454 0.000000
0.345892 0.862570 0.000000
0.415907 0.865653 0.000000
0.485544 0.868702 0.000000
0.554799 0.871714 0.000000
0.623670 0.874689 0.000000
0.692435 0.876500 0.000000
0.762629 0.871916 0.000000
0.832823 0.867332 0.000000
0.903017 0.862747 0.000000
0.000000 0.933925 0.000000
0.000000 0.937905 0.000000
0.000000 0.941863 0.000000
0.000000 0.945798 0.000000
0.049215 0.949707 0.000000
0.120124 0.953589 0.000000
0.190660 0.957443 0.000000
0.260820 0.961265 0.000000
0.330601 0.965056 0.000000
0.400001 0.968812 0.000000
0.469670 0.968268 0.000000
0.539864 0.963684 0.000000
0.610058 0.959100 0.000000
0.680252 0.954516 0.000000
0.750446 0.949932 0.000000
0.820640 0.945348 0.000000
0.890834 0.940763 0.000000
0.000000 1.000000 0.000000
0.000000 1.000000 0.000000
0.000000 1.000000 0.000000
0.000000 1.000000 0.000000
0.036529 1.000000 0.000000
0.106839 1.000000 0.000000
0.176768 1.000000 0.000000
0.246904 1.000000 0.000000
0.317098 1.000000 0.000000
0.387293 1.000000 0.000000
0.457487 1.000000 0.000000
0.527681 1.000000 0.000000
0.597875 1.000000 0.000000
0.668069 1.000000 0.000000
0.738263 1.000000 0.000000
0.808457 1.000000 0.000000
0.878651 1.000000 0.000000
0.000000 1.000000 0.000000
0.000000 1.000000 0.000000
0.000000 1.000000 0.000000
0.000000 1.000000 0.000000
0.024139 1.000000 0.000000
0.094333 1.000000 0.000000
0.164527 1.000000 0.000000
0.234721 1.000000 0.000000
0.304915 1.000000 0.000000
0.375110 1.000000 0.000000
0.445304 1.000000 0.000000
0.515498 1.000000 0.000000
0.585692 1.000000 0.000000
0.655886 1.000000 0.000000
0.726080 1.000000 0.000000
0.796274 1.000000 0.000000
0.866468 1.000000 0.000000
0.000000 0.000000 0.165530
0.007897 0.000000 0.161748
0.084311 0.000000 0.157966
0.160725 0.000000 0.154184
0.237139 0.000000 0.150402
0.313553 0.000000 0.146620
0.389967 0.000000 0.142838
0.466380 0.000000 0.139056
0.542794 0.000000 0.135274
0.619208 0.000000 0.131492
0.695622 0.000000 0.127710
0.772036 0.000000 0.123928
0.848450 0.000000 0.120146
0.924863 0.000000 0.116364
