assets/lighting/cinematic/grade-infrared-ish/lut.cube
TITLE "Infrared-ish"
# TKRS lighting-batch-001 original LUT
# Intended usage: stylized false-color foliage/sky swap feel
# License: CC0-1.0
LUT_3D_SIZE 5
DOMAIN_MIN 0.0 0.0 0.0
DOMAIN_MAX 1.0 1.0 1.0
0.000000 0.000000 0.000000
0.241155 0.000000 0.000000
0.546811 0.000000 0.000000
0.852466 0.000000 0.000000
1.000000 0.000000 0.000000
0.000000 0.170686 0.000000
0.188105 0.157484 0.000000
0.491582 0.147322 0.000000
0.790548 0.138026 0.000000
1.000000 0.128334 0.000000
0.000000 0.421327 0.000000
0.132160 0.421309 0.000000
0.427652 0.421201 0.000000
0.717836 0.420740 0.000000
1.000000 0.419746 0.000000
0.000000 0.742829 0.000000
0.077865 0.753233 0.000000
0.364476 0.763289 0.000000
0.645214 0.772860 0.000000
0.919875 0.781836 0.000000
0.000000 1.000000 0.000000
0.026599 1.000000 0.000000
0.307375 1.000000 0.000000
0.588152 1.000000 0.000000
0.868928 1.000000 0.000000
0.000000 0.000000 0.241331
0.235800 0.000000 0.226203
0.541455 0.000000 0.211076
0.847111 0.000000 0.195948
1.000000 0.000000 0.180820
0.000000 0.166202 0.190440
0.182607 0.153572 0.175241
0.485199 0.144182 0.159637
0.783294 0.134796 0.144032
1.000000 0.124900 0.128491
0.000000 0.421309 0.138365
0.126565 0.421298 0.122854
0.421203 0.421094 0.107442
0.710463 0.420469 0.092143
0.994061 0.419262 0.076968
0.000000 0.746391 0.086603
0.072540 0.756694 0.071476
0.358208 0.766600 0.056484
0.637958 0.775980 0.041636
0.912741 0.781618 0.026953
0.000000 1.000000 0.036266
0.021679 1.000000 0.021679
0.302456 1.000000 0.007193
0.583232 1.000000 0.000000
0.864009 1.000000 0.000000
0.000000 0.000000 0.544538
0.230445 0.000000 0.529410
0.536100 0.000000 0.514282
0.841755 0.000000 0.499154
1.000000 0.000000 0.483857
0.000000 0.161719 0.493647
0.176946 0.150311 0.477888
0.478778 0.141032 0.461255
0.776005 0.131506 0.444501
1.000000 0.121382 0.427724
0.000000 0.421309 0.438393
0.120993 0.421264 0.421620
0.414765 0.420939 0.404883
0.703096 0.420132 0.388205
0.985711 0.418697 0.371607
0.000000 0.749926 0.382152
0.067246 0.760110 0.365586
0.351964 0.769850 0.349116
0.630719 0.779028 0.332754
0.907821 0.775390 0.317296
0.000000 1.000000 0.326826
0.016760 1.000000 0.312022
0.297536 1.000000 0.297536
0.578313 1.000000 0.283050
0.859089 1.000000 0.268564
0.000000 0.000000 0.847744
0.225089 0.000000 0.832616
0.530744 0.000000 0.817488
0.836400 0.000000 0.802360
1.000000 0.000000 0.786250
0.000000 0.157235 0.796853
0.171260 0.147148 0.779880
0.472331 0.137848 0.762111
0.768689 0.128146 0.744139
1.000000 0.117773 0.726074
0.000000 0.421309 0.737569
0.115445 0.421197 0.719487
0.408342 0.420727 0.701385
0.695735 0.419721 0.683296
0.977362 0.418047 0.665244
0.000000 0.753426 0.676719
0.061984 0.763474 0.658685
0.345746 0.773035 0.640711
0.623500 0.781999 0.622813
0.902901 0.769163 0.607639
0.000000 1.000000 0.616851
0.011840 1.000000 0.602365
0.292617 1.000000 0.587879
0.573393 1.000000 0.573393
0.854170 1.000000 0.558907
0.000000 0.000000 1.000000
0.219734 0.000000 1.000000
0.525389 0.000000 1.000000
0.831044 0.000000 1.000000
1.000000 0.000000 1.000000
0.000000 0.153386 1.000000
0.165569 0.144008 1.000000
0.465869 0.134616 1.000000
0.761353 0.124708 1.000000
1.000000 0.114068 1.000000
0.000000 0.421297 1.000000
0.109921 0.421087 1.000000
0.401934 0.420453 0.996931
0.688383 0.419233 0.977399
0.969017 0.417307 0.957865
0.000000 0.756885 0.970286
0.056754 0.766781 0.950758
0.339552 0.776151 0.931257
0.617205 0.781273 0.912468
0.897982 0.762936 0.897982
0.000000 1.000000 0.907194
0.006921 1.000000 0.892708
0.287697 1.000000 0.878222
0.568474 1.000000 0.863736
0.849250 1.000000 0.849250
