assets/lighting/cinematic/grade-infrared-ish/lut.cube
TITLE "Infrared-ish"
# TKRS lighting-batch-001 original LUT
# Intended usage: stylized false-color foliage/sky swap feel
# License: CC0-1.0
LUT_3D_SIZE 9
DOMAIN_MIN 0.0 0.0 0.0
DOMAIN_MAX 1.0 1.0 1.0
0.000000 0.000000 0.000000
0.088328 0.000000 0.000000
0.241155 0.000000 0.000000
0.393983 0.000000 0.000000
0.546811 0.000000 0.000000
0.699638 0.000000 0.000000
0.852466 0.000000 0.000000
1.000000 0.000000 0.000000
1.000000 0.000000 0.000000
0.000000 0.058343 0.000000
0.061803 0.051742 0.000000
0.214630 0.045141 0.000000
0.367458 0.038539 0.000000
0.520286 0.031938 0.000000
0.673114 0.025337 0.000000
0.825377 0.018797 0.000000
0.975517 0.012327 0.000000
1.000000 0.005703 0.000000
0.000000 0.170686 0.000000
0.035278 0.164085 0.000000
0.188105 0.157484 0.000000
0.340399 0.152011 0.000000
0.491582 0.147322 0.000000
0.641657 0.142697 0.000000
0.790548 0.138026 0.000000
0.938197 0.133251 0.000000
1.000000 0.128334 0.000000
0.000000 0.286471 0.000000
0.008704 0.283756 0.000000
0.160148 0.281254 0.000000
0.310508 0.278826 0.000000
0.459702 0.276394 0.000000
0.607666 0.273907 0.000000
0.754347 0.271326 0.000000
0.899700 0.268623 0.000000
1.000000 0.265773 0.000000
0.000000 0.421327 0.000000
0.000000 0.421308 0.000000
0.132160 0.421309 0.000000
0.280548 0.421286 0.000000
0.427652 0.421201 0.000000
0.573428 0.421027 0.000000
0.717836 0.420740 0.000000
0.860841 0.420319 0.000000
1.000000 0.419746 0.000000
0.000000 0.573156 0.000000
0.000000 0.575736 0.000000
0.104683 0.578279 0.000000
0.250949 0.580757 0.000000
0.395844 0.583147 0.000000
0.539334 0.585428 0.000000
0.681387 0.587584 0.000000
0.821974 0.589597 0.000000
0.961069 0.591453 0.000000
0.000000 0.742829 0.000000
0.000000 0.748065 0.000000
0.077865 0.753233 0.000000
0.221891 0.758313 0.000000
0.364476 0.763289 0.000000
0.505592 0.768142 0.000000
0.645214 0.772860 0.000000
0.783316 0.777429 0.000000
0.919875 0.781836 0.000000
0.000000 0.931211 0.000000
0.000000 0.939177 0.000000
0.051802 0.947055 0.000000
0.193488 0.954829 0.000000
0.333675 0.962485 0.000000
0.472340 0.970010 0.000000
0.612518 0.962214 0.000000
0.752906 0.953045 0.000000
0.893294 0.943877 0.000000
0.000000 1.000000 0.000000
0.000000 1.000000 0.000000
0.026599 1.000000 0.000000
0.166987 1.000000 0.000000
0.307375 1.000000 0.000000
0.447763 1.000000 0.000000
0.588152 1.000000 0.000000
0.728540 1.000000 0.000000
0.868928 1.000000 0.000000
0.000000 0.000000 0.089728
0.085650 0.000000 0.082164
0.238478 0.000000 0.074600
0.391305 0.000000 0.067036
0.544133 0.000000 0.059472
0.696961 0.000000 0.051909
0.849788 0.000000 0.044345
1.000000 0.000000 0.036781
1.000000 0.000000 0.029217
0.000000 0.056101 0.064283
0.059125 0.049500 0.056719
0.211953 0.042899 0.049155
0.364780 0.036298 0.041591
0.517608 0.029696 0.034027
0.670436 0.023095 0.026463
0.822026 0.016612 0.018884
0.971858 0.010098 0.011310
1.000000 0.003410 0.003757
0.000000 0.168444 0.038837
0.032600 0.161843 0.031273
0.185410 0.155311 0.023708
0.337417 0.150400 0.016125
0.488397 0.145752 0.008557
0.638257 0.141120 0.001013
0.786926 0.136418 0.000000
0.934343 0.131598 0.000000
1.000000 0.126627 0.000000
0.000000 0.285511 0.013367
0.006035 0.282891 0.005808
0.157307 0.280426 0.000000
0.307475 0.278003 0.000000
0.456464 0.275558 0.000000
0.604212 0.273042 0.000000
0.750667 0.270423 0.000000
0.895786 0.267672 0.000000
1.000000 0.264769 0.000000
0.000000 0.421315 0.000000
0.000000 0.421309 0.000000
0.129360 0.421306 0.000000
0.277540 0.421265 0.000000
0.424426 0.421154 0.000000
0.569975 0.420944 0.000000
0.714149 0.420613 0.000000
0.856913 0.420142 0.000000
0.998235 0.419514 0.000000
0.000000 0.574035 0.000000
0.000000 0.576605 0.000000
0.101944 0.579129 0.000000
0.247988 0.581579 0.000000
0.392655 0.583935 0.000000
0.535909 0.586175 0.000000
0.677720 0.588284 0.000000
0.818060 0.590245 0.000000
0.956901 0.592045 0.000000
0.000000 0.744613 0.000000
0.000000 0.749828 0.000000
0.075199 0.754969 0.000000
0.218992 0.760016 0.000000
0.361339 0.764951 0.000000
0.502211 0.769761 0.000000
0.641584 0.774429 0.000000
0.779431 0.778944 0.000000
0.915731 0.783295 0.000000
0.000000 0.933925 0.000000
0.000000 0.941863 0.000000
0.049215 0.949707 0.000000
0.190660 0.957443 0.000000
0.330601 0.965056 0.000000
0.469670 0.968268 0.000000
0.610058 0.959100 0.000000
0.750446 0.949932 0.000000
0.890834 0.940763 0.000000
0.000000 1.000000 0.000000
0.000000 1.000000 0.000000
0.024139 1.000000 0.000000
0.164527 1.000000 0.000000
0.304915 1.000000 0.000000
0.445304 1.000000 0.000000
0.585692 1.000000 0.000000
0.726080 1.000000 0.000000
0.866468 1.000000 0.000000
0.000000 0.000000 0.241331
0.082972 0.000000 0.233767
0.235800 0.000000 0.226203
0.388628 0.000000 0.218640
0.541455 0.000000 0.211076
0.694283 0.000000 0.203512
0.847111 0.000000 0.195948
0.999938 0.000000 0.188384
1.000000 0.000000 0.180820
0.000000 0.053859 0.215886
0.056447 0.047258 0.208322
0.209275 0.040657 0.200758
0.362103 0.034056 0.193194
0.514930 0.027455 0.185630
0.667721 0.020859 0.178061
0.818609 0.014416 0.170288
0.968164 0.007848 0.162480
1.000000 0.001093 0.154670
0.000000 0.166202 0.190440
0.029922 0.159601 0.182876
0.182607 0.153572 0.175241
0.334420 0.148811 0.167447
0.485199 0.144182 0.159637
0.634848 0.139533 0.151829
0.783294 0.134796 0.144032
0.930480 0.129928 0.136251
1.000000 0.124900 0.128491
0.000000 0.284594 0.164604
0.003371 0.282043 0.156793
0.154468 0.279602 0.148988
0.304444 0.277178 0.141197
0.453226 0.274713 0.133423
0.600756 0.272166 0.125671
0.746985 0.269505 0.117942
0.891869 0.266705 0.110239
1.000000 0.263745 0.102564
0.000000 0.421309 0.138365
0.000000 0.421310 0.130598
0.126565 0.421298 0.122854
0.274536 0.421237 0.115135
0.421203 0.421094 0.107442
0.566524 0.420846 0.099777
0.710463 0.420469 0.092143
0.852986 0.419947 0.084539
0.994061 0.419262 0.076968
0.000000 0.574911 0.112331
0.000000 0.577469 0.104648
0.099212 0.579970 0.096994
0.245034 0.582391 0.089371
0.389470 0.584709 0.081779
0.532488 0.586907 0.074219
0.674056 0.588967 0.066694
0.814147 0.590875 0.059203
0.952735 0.592618 0.051747
0.000000 0.746391 0.086603
0.000000 0.751584 0.079023
0.072540 0.756694 0.071476
0.216100 0.761705 0.063962
0.358208 0.766600 0.056484
0.498836 0.771363 0.049042
0.637958 0.775980 0.041636
0.775550 0.780441 0.034267
0.912741 0.781618 0.026953
0.000000 0.936630 0.061236
0.000000 0.944538 0.053770
0.046637 0.952347 0.046341
0.187840 0.960043 0.038949
0.327534 0.967611 0.031594
0.467210 0.965155 0.024316
0.607598 0.955986 0.017073
0.747986 0.946818 0.009830
0.888375 0.937650 0.002587
0.000000 1.000000 0.036266
0.000000 1.000000 0.028925
0.021679 1.000000 0.021679
0.162067 1.000000 0.014436
0.302456 1.000000 0.007193
0.442844 1.000000 0.000000
0.583232 1.000000 0.000000
0.723620 1.000000 0.000000
0.864009 1.000000 0.000000
0.000000 0.000000 0.392934
0.080295 0.000000 0.385370
0.233122 0.000000 0.377807
0.385950 0.000000 0.370243
0.538778 0.000000 0.362679
0.691605 0.000000 0.355115
0.844433 0.000000 0.347551
0.997261 0.000000 0.339987
1.000000 0.000000 0.332419
0.000000 0.051618 0.367489
0.053770 0.045016 0.359925
0.206597 0.038415 0.352361
0.359425 0.031814 0.344797
0.512253 0.025213 0.337233
0.664597 0.018676 0.329545
0.815146 0.012204 0.321538
0.964440 0.005577 0.313478
1.000000 0.000000 0.305398
0.000000 0.163961 0.342043
0.027245 0.157359 0.334480
0.179781 0.151921 0.326640
0.331412 0.147235 0.318608
0.481992 0.142610 0.310538
0.631429 0.137937 0.302454
0.779653 0.133159 0.294368
0.926609 0.128240 0.286287
1.000000 0.123152 0.278216
0.000000 0.283707 0.315673
0.000713 0.281208 0.307596
0.151632 0.278780 0.299510
0.301413 0.276348 0.291425
0.449987 0.273859 0.283347
0.597299 0.271276 0.275281
0.743300 0.268570 0.267230
0.887949 0.265718 0.259198
1.000000 0.262700 0.251186
0.000000 0.421308 0.288483
0.000000 0.421309 0.280409
0.123776 0.421285 0.272348
0.271536 0.421199 0.264304
0.417982 0.421023 0.256278
0.563076 0.420733 0.248275
0.706779 0.420309 0.240295
0.849059 0.419733 0.232340
0.989886 0.418990 0.224411
0.000000 0.575784 0.261380
0.000000 0.578326 0.253362
0.096486 0.580803 0.245367
0.242085 0.583191 0.237395
0.386291 0.585470 0.229450
0.529071 0.587623 0.221532
0.670395 0.589633 0.213642
0.810237 0.591486 0.205783
0.948570 0.593170 0.197954
0.000000 0.748163 0.234500
0.000000 0.753329 0.226564
0.069889 0.758408 0.218656
0.213215 0.763381 0.210778
0.355083 0.768233 0.202929
0.495465 0.772948 0.195112
0.634336 0.777513 0.187327
0.771673 0.781918 0.179575
0.910281 0.778504 0.172125
0.000000 0.939326 0.207917
0.000000 0.947202 0.200079
0.044067 0.954974 0.192274
0.185028 0.962628 0.184501
0.324474 0.970150 0.176761
0.464750 0.962041 0.169488
0.605138 0.952873 0.162245
0.745527 0.943704 0.155002
0.885915 0.934536 0.147759
0.000000 1.000000 0.181679
0.000000 1.000000 0.174094
0.019219 1.000000 0.166851
0.159608 1.000000 0.159608
0.299996 1.000000 0.152365
0.440384 1.000000 0.145122
0.580772 1.000000 0.137879
0.721161 1.000000 0.130636
0.861549 1.000000 0.123393
0.000000 0.000000 0.544538
0.077617 0.000000 0.536974
0.230445 0.000000 0.529410
0.383272 0.000000 0.521846
0.536100 0.000000 0.514282
0.688928 0.000000 0.506718
0.841755 0.000000 0.499154
0.994583 0.000000 0.491590
1.000000 0.000000 0.483857
0.000000 0.049376 0.519092
0.051092 0.042775 0.511528
0.203920 0.036173 0.503964
0.356747 0.029572 0.496400
0.509575 0.022971 0.488836
0.661375 0.016491 0.480883
0.811648 0.009974 0.472624
0.960693 0.003282 0.464296
1.000000 0.000000 0.455934
0.000000 0.161719 0.493647
0.024564 0.155210 0.486051
0.176946 0.150311 0.477888
0.328396 0.145665 0.469597
0.478778 0.141032 0.461255
0.628003 0.136328 0.452885
0.776005 0.131506 0.444501
0.922729 0.126532 0.436112
1.000000 0.121382 0.427724
0.000000 0.282844 0.466564
0.000000 0.280380 0.458210
0.148800 0.277958 0.449834
0.298384 0.275511 0.441447
0.446749 0.272994 0.433058
0.593842 0.270372 0.424672
0.739615 0.267619 0.416293
0.884027 0.264713 0.407926
1.000000 0.261634 0.399572
0.000000 0.421309 0.438393
0.000000 0.421306 0.430004
0.120993 0.421264 0.421620
0.268540 0.421151 0.413245
0.414765 0.420939 0.404883
0.559629 0.420605 0.396535
0.703096 0.420132 0.388205
0.845133 0.419501 0.379895
0.985711 0.418697 0.371607
0.000000 0.576653 0.410199
0.000000 0.579175 0.401842
0.093768 0.581625 0.393501
0.239142 0.583978 0.385178
0.383116 0.586216 0.376875
0.525658 0.588322 0.368595
0.666738 0.590281 0.360338
0.806330 0.592078 0.352106
0.944408 0.593701 0.343901
0.000000 0.749926 0.382152
0.000000 0.755065 0.373858
0.067246 0.760110 0.365586
0.210338 0.765043 0.357338
0.351964 0.769850 0.349116
0.492100 0.774516 0.340921
0.630719 0.779028 0.332754
0.767799 0.783375 0.324617
0.907821 0.775390 0.317296
0.000000 0.942011 0.354342
0.000000 0.949854 0.346130
0.041506 0.957587 0.337945
0.182223 0.965198 0.329788
0.321902 0.968096 0.321902
0.462290 0.958928 0.314659
0.602679 0.949759 0.307416
0.743067 0.940591 0.300173
0.883455 0.931422 0.292930
0.000000 1.000000 0.326826
0.000000 1.000000 0.319265
0.016760 1.000000 0.312022
0.157148 1.000000 0.304779
0.297536 1.000000 0.297536
0.437924 1.000000 0.290293
0.578313 1.000000 0.283050
0.718701 1.000000 0.275807
0.859089 1.000000 0.268564
0.000000 0.000000 0.696141
0.074939 0.000000 0.688577
0.227767 0.000000 0.681013
0.380595 0.000000 0.673449
0.533422 0.000000 0.665885
0.686250 0.000000 0.658321
0.839078 0.000000 0.650757
0.991905 0.000000 0.643193
1.000000 0.000000 0.635136
0.000000 0.047134 0.670695
0.048414 0.040533 0.663131
0.201242 0.033932 0.655567
0.354070 0.027330 0.648003
0.506855 0.020737 0.640412
0.658101 0.014294 0.632064
0.808122 0.007723 0.623535
0.956923 0.000964 0.614927
1.000000 0.000000 0.606274
0.000000 0.159477 0.645250
0.021871 0.153479 0.637412
0.174105 0.148724 0.628971
0.325374 0.144095 0.620408
0.475557 0.139445 0.611781
0.624570 0.134706 0.603115
0.772350 0.129835 0.594426
0.918843 0.124804 0.585722
1.000000 0.119589 0.577011
0.000000 0.281997 0.617273
0.000000 0.279557 0.608630
0.145971 0.277132 0.599954
0.295357 0.274666 0.591258
0.443512 0.272117 0.582551
0.590384 0.269453 0.573839
0.735928 0.266650 0.565128
0.880104 0.263687 0.556420
1.000000 0.260547 0.547721
0.000000 0.421310 0.588089
0.000000 0.421298 0.579380
0.118216 0.421235 0.570667
0.265549 0.421091 0.561957
0.411552 0.420840 0.553252
0.556185 0.420461 0.544557
0.699415 0.419936 0.535873
0.841208 0.419248 0.527204
0.981536 0.418383 0.518551
0.000000 0.577516 0.558787
0.000000 0.580017 0.550085
0.091057 0.582436 0.541394
0.236206 0.584752 0.532715
0.379947 0.586947 0.524052
0.522249 0.589005 0.515406
0.663084 0.590910 0.506778
0.802425 0.592649 0.498172
0.940247 0.594210 0.489588
0.000000 0.751680 0.529559
0.000000 0.756790 0.520902
0.064611 0.761798 0.512263
0.207467 0.766690 0.503643
0.348852 0.771451 0.495044
0.488740 0.776066 0.486468
0.627107 0.780523 0.477917
0.764973 0.781445 0.469710
0.905361 0.772277 0.462467
0.000000 0.944686 0.500510
0.000000 0.952493 0.491919
0.038954 0.960186 0.483352
0.179426 0.967752 0.474810
0.319442 0.964982 0.467074
0.459831 0.955814 0.459831
0.600219 0.946646 0.452588
0.740607 0.937477 0.445345
0.880995 0.928309 0.438102
0.000000 1.000000 0.471706
0.000000 1.000000 0.464437
0.014300 1.000000 0.457194
0.154688 1.000000 0.449951
0.295076 1.000000 0.442708
0.435465 1.000000 0.435465
0.575853 1.000000 0.428222
0.716241 1.000000 0.420979
0.856629 1.000000 0.413736
0.000000 0.000000 0.847744
0.072261 0.000000 0.840180
0.225089 0.000000 0.832616
0.377917 0.000000 0.825052
0.530744 0.000000 0.817488
0.683572 0.000000 0.809924
0.836400 0.000000 0.802360
0.989181 0.000000 0.794777
1.000000 0.000000 0.786250
0.000000 0.044892 0.822298
0.045736 0.038291 0.814734
0.198564 0.031690 0.807171
0.351392 0.025088 0.799607
0.503832 0.018555 0.791725
0.654792 0.012081 0.783075
0.804573 0.005450 0.774264
0.953135 0.000000 0.765366
1.000000 0.000000 0.756412
0.000000 0.157235 0.796853
0.019179 0.151831 0.788605
0.171260 0.147148 0.779880
0.322348 0.142523 0.771032
0.472331 0.137848 0.762111
0.621132 0.133068 0.753142
0.768689 0.128146 0.744139
0.914951 0.123054 0.735114
1.000000 0.117773 0.726074
0.000000 0.281162 0.767791
0.000000 0.278735 0.758850
0.143147 0.276302 0.749867
0.292333 0.273811 0.740855
0.440276 0.271227 0.731824
0.586926 0.268518 0.722781
0.732240 0.265663 0.713731
0.876179 0.262642 0.704680
1.000000 0.259437 0.695631
0.000000 0.421309 0.737569
0.000000 0.421284 0.728533
0.115445 0.421197 0.719487
0.262563 0.421019 0.710436
0.408342 0.420727 0.701385
0.552744 0.420300 0.692337
0.695735 0.419721 0.683296
0.837284 0.418975 0.674264
0.977362 0.418047 0.665244
0.000000 0.578373 0.707141
0.000000 0.580848 0.698091
0.088354 0.583235 0.689045
0.233275 0.585512 0.680007
0.376782 0.587662 0.670979
0.518844 0.589669 0.661963
0.659434 0.591520 0.652962
0.798524 0.593200 0.643978
0.936089 0.594698 0.635011
0.000000 0.753426 0.676719
0.000000 0.758503 0.667695
0.061984 0.763474 0.658685
0.204603 0.768323 0.649689
0.345746 0.773035 0.640711
0.485386 0.777598 0.631752
0.623500 0.781999 0.622813
0.762513 0.778332 0.614882
0.902901 0.769163 0.607639
0.000000 0.947349 0.646419
0.000000 0.955119 0.637447
0.036410 0.962771 0.628495
0.176637 0.970290 0.619563
0.316983 0.961869 0.612245
0.457371 0.952700 0.605002
0.597759 0.943532 0.597759
0.738147 0.934364 0.590516
0.878535 0.925195 0.583273
0.000000 1.000000 0.616851
0.000000 1.000000 0.609608
0.011840 1.000000 0.602365
0.152228 1.000000 0.595122
0.292617 1.000000 0.587879
0.433005 1.000000 0.580636
0.573393 1.000000 0.573393
0.713781 1.000000 0.566150
0.854170 1.000000 0.558907
0.000000 0.000000 0.999347
0.069584 0.000000 0.991783
0.222411 0.000000 0.984219
0.375239 0.000000 0.976655
0.528067 0.000000 0.969091
0.680894 0.000000 0.961527
0.833722 0.000000 0.953963
0.985846 0.000000 0.946048
1.000000 0.000000 0.937191
0.000000 0.042650 0.973901
0.043059 0.036049 0.966338
0.195886 0.029448 0.958774
0.348714 0.022847 0.951210
0.500739 0.016370 0.942859
0.651456 0.009849 0.933910
0.801005 0.003155 0.924805
0.949330 0.000000 0.915607
1.000000 0.000000 0.906344
0.000000 0.155109 0.948379
0.016491 0.150223 0.939626
0.168415 0.145578 0.930609
0.319319 0.140944 0.921465
0.469102 0.136239 0.912241
0.617690 0.131414 0.902960
0.765023 0.126437 0.893637
0.911053 0.121283 0.884285
1.000000 0.115932 0.874911
0.000000 0.280334 0.918115
0.000000 0.277912 0.908867
0.140327 0.275465 0.899570
0.289311 0.272946 0.890235
0.437041 0.270322 0.880874
0.583469 0.267566 0.871495
0.728552 0.264656 0.862102
0.872253 0.261575 0.852702
1.000000 0.258305 0.843298
0.000000 0.421306 0.886830
0.000000 0.421263 0.877461
0.112680 0.421148 0.868076
0.259582 0.420933 0.858681
0.405136 0.420598 0.849279
0.549306 0.420121 0.839875
0.692058 0.419487 0.830472
0.833362 0.418680 0.821074
0.973189 0.417688 0.811682
0.000000 0.579222 0.855258
0.000000 0.581670 0.845855
0.085658 0.584021 0.836451
0.230351 0.586257 0.827050
0.373623 0.588361 0.817654
0.515445 0.590316 0.808266
0.655787 0.592110 0.798888
0.794625 0.593729 0.789522
0.931934 0.595164 0.780171
0.000000 0.755161 0.823628
0.000000 0.760204 0.814235
0.059365 0.765135 0.804850
0.201746 0.769939 0.795477
0.342646 0.774602 0.786116
0.482038 0.779111 0.776770
0.619898 0.783455 0.767441
0.760053 0.775218 0.760053
0.900442 0.766050 0.752810
0.000000 0.950000 0.792067
0.000000 0.957732 0.782712
0.033875 0.965340 0.773372
0.174135 0.967923 0.764660
0.314523 0.958755 0.757417
0.454911 0.949587 0.750174
0.595299 0.940418 0.742931
0.735687 0.931250 0.735687
0.876076 0.922082 0.728444
0.000000 1.000000 0.762023
0.000000 1.000000 0.754780
0.009380 1.000000 0.747537
0.149769 1.000000 0.740294
0.290157 1.000000 0.733051
0.430545 1.000000 0.725808
0.570933 1.000000 0.718565
0.711322 1.000000 0.711322
0.851710 1.000000 0.704079
0.000000 0.000000 1.000000
0.066906 0.000000 1.000000
0.219734 0.000000 1.000000
0.372561 0.000000 1.000000
0.525389 0.000000 1.000000
0.678217 0.000000 1.000000
0.831044 0.000000 1.000000
0.982360 0.000000 1.000000
1.000000 0.000000 1.000000
0.000000 0.040409 1.000000
0.040381 0.033807 1.000000
0.193209 0.027206 1.000000
0.345997 0.020616 1.000000
0.497610 0.014172 1.000000
0.648099 0.007597 1.000000
0.797419 0.000835 1.000000
0.945511 0.000000 1.000000
1.000000 0.000000 1.000000
0.000000 0.153386 1.000000
0.013807 0.148636 1.000000
0.165569 0.144008 1.000000
0.316287 0.139357 1.000000
0.465869 0.134616 1.000000
0.614243 0.129742 1.000000
0.761353 0.124708 1.000000
0.907150 0.119489 1.000000
1.000000 0.114068 1.000000
0.000000 0.279511 1.000000
0.000000 0.277086 1.000000
0.137512 0.274619 1.000000
0.286292 0.272068 1.000000
0.433808 0.269402 1.000000
0.580012 0.266596 1.000000
0.724864 0.263630 1.000000
0.868326 0.260486 1.000000
1.000000 0.257149 0.990722
0.000000 0.421297 1.000000
0.000000 0.421233 1.000000
0.109921 0.421087 1.000000
0.256606 0.420834 1.000000
0.401934 0.420453 0.996931
0.545871 0.419924 0.987167
0.688383 0.419233 0.977399
0.829441 0.418365 0.967631
0.969017 0.417307 0.957865
0.000000 0.580063 1.000000
0.000000 0.582480 0.993377
0.082969 0.584794 0.983611
0.227433 0.586987 0.973843
0.370470 0.589042 0.964075
0.512049 0.590944 0.954311
0.652145 0.592680 0.944554
0.790730 0.594238 0.934804
0.927781 0.595607 0.925065
0.000000 0.756885 0.970286
0.000000 0.761892 0.960520
0.056754 0.766781 0.950758
0.198897 0.771539 0.941003
0.339552 0.776151 0.931257
0.478695 0.780606 0.921522
0.617205 0.781273 0.912468
0.757594 0.772104 0.905225
0.897982 0.762936 0.897982
0.000000 0.952639 0.937454
0.000000 0.960330 0.927711
0.031348 0.967893 0.917981
0.171675 0.964810 0.909831
0.312063 0.955641 0.902588
0.452451 0.946473 0.895345
0.592840 0.937305 0.888102
0.733228 0.928136 0.880859
0.873616 0.918968 0.873616
0.000000 1.000000 0.907194
0.000000 1.000000 0.899951
0.006921 1.000000 0.892708
0.147309 1.000000 0.885465
0.287697 1.000000 0.878222
0.428085 1.000000 0.870979
0.568474 1.000000 0.863736
0.708862 1.000000 0.856493
0.849250 1.000000 0.849250
