assets/lighting/cinematic/grade-game-muted-rpg/lut.cube
TITLE "Muted RPG"
# TKRS lighting-batch-001 original LUT
# Intended usage: desaturated muddy RPG overworld
# License: CC0-1.0
LUT_3D_SIZE 17
DOMAIN_MIN 0.0 0.0 0.0
DOMAIN_MAX 1.0 1.0 1.0
0.000000 0.000000 0.000000
0.017017 0.000000 0.000000
0.052910 0.000000 0.000000
0.088802 0.000000 0.000000
0.124694 0.000000 0.000000
0.160586 0.000000 0.000000
0.196479 0.003216 0.003170
0.232371 0.006868 0.006772
0.268263 0.010521 0.010373
0.304155 0.014173 0.013974
0.340048 0.017826 0.017576
0.375940 0.021479 0.021177
0.411832 0.025131 0.024778
0.447724 0.028784 0.028380
0.483617 0.032436 0.031981
0.519509 0.036089 0.035582
0.555401 0.039742 0.039184
0.000000 0.025494 0.000000
0.029420 0.029147 0.000000
0.065312 0.032800 0.000880
0.101204 0.036452 0.004482
0.137097 0.040105 0.008083
0.172989 0.043757 0.011684
0.208881 0.047410 0.015286
0.244773 0.051063 0.018887
0.280666 0.054715 0.022488
0.316558 0.058368 0.026090
0.352450 0.062020 0.029691
0.388342 0.065673 0.033292
0.424235 0.069326 0.036894
0.460376 0.073016 0.040512
0.497971 0.076920 0.044229
0.536173 0.080900 0.047991
0.574890 0.084941 0.051790
0.005930 0.069689 0.005793
0.041822 0.073342 0.009394
0.077715 0.076994 0.012995
0.113607 0.080647 0.016597
0.149499 0.084299 0.020198
0.185391 0.087952 0.023799
0.221284 0.091605 0.027401
0.257176 0.095257 0.031002
0.293068 0.098910 0.034603
0.328960 0.102562 0.038205
0.365457 0.106384 0.041859
0.402894 0.110433 0.045594
0.440829 0.114565 0.049370
0.479232 0.118766 0.053183
0.518098 0.123030 0.057033
0.557431 0.127354 0.060919
0.597235 0.131737 0.064843
0.018333 0.113883 0.017908
0.054225 0.117536 0.021509
0.090117 0.121189 0.025110
0.126009 0.124841 0.028712
0.161902 0.128494 0.032313
0.197794 0.132146 0.035914
0.233686 0.135799 0.039516
0.270366 0.139842 0.043214
0.307566 0.144045 0.046964
0.345198 0.148338 0.050754
0.383262 0.152706 0.054580
0.421763 0.157143 0.058443
0.460710 0.161645 0.062343
0.500112 0.166211 0.066281
0.539975 0.170838 0.070255
0.580308 0.175526 0.074268
0.621119 0.180275 0.078319
0.030735 0.158078 0.030023
0.066628 0.161730 0.033624
0.102520 0.165383 0.037226
0.138523 0.169166 0.040852
0.175052 0.173399 0.044575
0.211964 0.177763 0.048340
0.249266 0.182221 0.052143
0.286970 0.186761 0.055982
0.325090 0.191376 0.059859
0.363637 0.196061 0.063773
0.402624 0.200813 0.067723
0.442060 0.205632 0.071712
0.481954 0.210515 0.075738
0.522314 0.215462 0.079803
0.563150 0.220472 0.083907
0.604469 0.225545 0.088051
0.646277 0.230680 0.092234
0.043223 0.202653 0.042202
0.079483 0.207057 0.045941
0.116073 0.211589 0.049720
0.153020 0.216220 0.053536
0.190346 0.220936 0.057389
0.228070 0.225732 0.061279
0.266205 0.230603 0.065207
0.304766 0.235546 0.069171
0.343764 0.240559 0.073173
0.383210 0.245639 0.077214
0.423112 0.250788 0.081293
0.463480 0.256002 0.085411
0.504323 0.261282 0.089569
0.545647 0.266627 0.093767
0.587460 0.272038 0.098005
0.629770 0.277512 0.102283
0.672581 0.283052 0.106603
0.056449 0.250335 0.054935
0.093382 0.255233 0.058801
0.130696 0.260214 0.062705
0.168408 0.265274 0.066646
0.206533 0.270410 0.070624
0.245083 0.275620 0.074640
0.284072 0.280901 0.078694
0.323508 0.286253 0.082788
0.363401 0.291674 0.086920
0.403761 0.297163 0.091093
0.444595 0.302721 0.095305
0.485911 0.308346 0.099558
0.527716 0.314038 0.103851
0.570018 0.319796 0.108186
0.612822 0.325622 0.112562
0.656134 0.331513 0.116981
0.699961 0.337471 0.121441
0.070238 0.300076 0.068089
0.107917 0.305408 0.072081
0.146012 0.310817 0.076112
0.184535 0.316301 0.080180
0.223498 0.321859 0.084288
0.262909 0.327489 0.088435
0.302780 0.333190 0.092622
0.343117 0.338961 0.096849
0.383930 0.344803 0.101116
0.425226 0.350714 0.105425
0.467012 0.356694 0.109774
0.509295 0.362743 0.114166
0.552080 0.368860 0.118600
0.595375 0.375045 0.123075
0.639185 0.381299 0.127594
0.683516 0.387620 0.132155
0.728372 0.394010 0.136760
0.084596 0.351842 0.081671
0.123077 0.357607 0.085793
0.162000 0.363448 0.089954
0.201375 0.369363 0.094156
0.241210 0.375350 0.098398
0.281515 0.381410 0.102680
0.322296 0.387542 0.107003
0.363561 0.393745 0.111368
0.405317 0.400019 0.115775
0.447572 0.406363 0.120224
0.490330 0.412777 0.124715
0.533598 0.419262 0.129250
0.577382 0.425816 0.133827
0.621688 0.432440 0.138448
0.666520 0.439134 0.143112
0.711884 0.445897 0.147820
0.757784 0.452730 0.152573
0.099544 0.405683 0.095695
0.138871 0.411888 0.099952
0.178661 0.418168 0.104249
0.218922 0.424522 0.108588
0.259662 0.430950 0.112968
0.300887 0.437450 0.117390
0.342605 0.444023 0.121854
0.384823 0.450668 0.126361
0.427545 0.457385 0.130911
0.470779 0.464174 0.135504
0.514529 0.471034 0.140141
0.558802 0.477965 0.144821
0.603603 0.484968 0.149545
0.648935 0.492041 0.154314
0.694806 0.499186 0.159128
0.741218 0.506401 0.163986
0.788176 0.513687 0.168890
0.115103 0.461657 0.110178
0.155312 0.468310 0.114573
0.196002 0.475039 0.119010
0.237179 0.481842 0.123490
0.278851 0.488719 0.128013
0.321024 0.495670 0.132578
0.363703 0.502694 0.137187
0.406895 0.509791 0.141839
0.450604 0.516962 0.146536
0.494838 0.524205 0.151276
0.539599 0.531520 0.156061
0.584894 0.538908 0.160891
0.630728 0.546369 0.165766
0.677104 0.553902 0.170686
0.724028 0.561507 0.175652
0.771503 0.569184 0.180663
0.819534 0.576933 0.185721
0.131291 0.519819 0.125132
0.172413 0.526930 0.129670
0.214031 0.534116 0.134251
0.256152 0.541377 0.138876
0.298781 0.548713 0.143544
0.341924 0.556123 0.148257
0.385587 0.563608 0.153013
0.429774 0.571167 0.157815
0.474491 0.578800 0.162661
0.519742 0.586507 0.167552
0.565533 0.594287 0.172489
0.611867 0.602142 0.177471
0.658750 0.610069 0.182499
0.706185 0.618071 0.187573
0.754177 0.626145 0.192694
0.802730 0.634293 0.197861
0.851847 0.642515 0.203075
0.148125 0.580223 0.140570
0.190187 0.587799 0.145255
0.232760 0.595451 0.149983
0.275848 0.603178 0.154756
0.319457 0.610982 0.159574
0.363592 0.618861 0.164436
0.408258 0.626815 0.169344
0.453460 0.634845 0.174297
0.499202 0.642949 0.179296
0.545490 0.651129 0.184341
0.592326 0.659383 0.189432
0.639716 0.667712 0.194570
0.687663 0.676115 0.199754
0.736172 0.684593 0.204985
0.785247 0.693146 0.210263
0.834891 0.701773 0.215588
0.885107 0.710474 0.220961
0.165620 0.642917 0.156505
0.208648 0.650966 0.161339
0.252198 0.659092 0.166218
0.296275 0.667295 0.171142
0.340885 0.675574 0.176112
0.386032 0.683930 0.181127
0.431721 0.692362 0.186189
0.477955 0.700870 0.191297
0.524740 0.709454 0.196452
0.572080 0.718114 0.201653
0.619978 0.726850 0.206901
0.668438 0.735661 0.212196
0.717465 0.744548 0.217539
0.767062 0.753511 0.222929
0.817233 0.762550 0.228368
0.867982 0.771664 0.233854
0.915963 0.778102 0.238683
0.183791 0.707946 0.172946
0.227806 0.716476 0.177933
0.272354 0.725084 0.182965
0.317441 0.733770 0.188043
0.363071 0.742533 0.193168
0.409249 0.751373 0.198340
0.455978 0.760290 0.203558
0.503262 0.769284 0.208823
0.551106 0.778356 0.214136
0.599513 0.787504 0.219496
0.648488 0.796729 0.224904
0.698034 0.806031 0.230359
0.748155 0.815409 0.235863
0.794189 0.820203 0.240274
0.840065 0.824830 0.244644
0.885940 0.829457 0.249015
0.931816 0.834084 0.253385
0.202650 0.775353 0.189904
0.247673 0.784372 0.195046
0.293239 0.793469 0.200234
0.339355 0.802644 0.205469
0.386023 0.811898 0.210752
0.433248 0.821230 0.216082
0.481033 0.830640 0.221459
0.529383 0.840128 0.226884
0.578302 0.849694 0.232357
0.626539 0.857678 0.237495
0.672415 0.862305 0.241865
0.718290 0.866931 0.246236
0.764166 0.871558 0.250606
0.810041 0.876185 0.254976
0.855917 0.880812 0.259347
0.901792 0.885439 0.263717
0.947668 0.890065 0.268088
0.222210 0.845177 0.207387
0.268259 0.854691 0.212687
0.314862 0.864285 0.218034
0.362024 0.873957 0.223429
0.409746 0.883709 0.228871
0.458035 0.893540 0.234362
0.504765 0.899779 0.239086
0.550640 0.904406 0.243456
0.596516 0.909033 0.247827
0.642391 0.913659 0.252197
0.688267 0.918286 0.256567
0.734143 0.922913 0.260938
0.780018 0.927540 0.265308
0.825894 0.932167 0.269679
0.871769 0.936793 0.274049
0.917645 0.941420 0.278420
0.963520 0.946047 0.282790
0.000000 0.000000 0.014245
0.018269 0.000000 0.017846
0.054162 0.000000 0.021447
0.090054 0.000000 0.025048
0.125946 0.000000 0.028650
0.161838 0.000803 0.032251
0.197731 0.004456 0.035852
0.233623 0.008109 0.039454
0.269515 0.011761 0.043055
0.305407 0.015414 0.046656
0.341300 0.019066 0.050258
0.377192 0.022719 0.053859
0.413084 0.026372 0.057460
0.448976 0.030024 0.061062
0.484869 0.033677 0.064663
0.520761 0.037329 0.068264
0.556918 0.041001 0.071892
0.000000 0.026735 0.026360
0.030672 0.030387 0.029961
0.066564 0.034040 0.033562
0.102456 0.037693 0.037164
0.138349 0.041345 0.040765
0.174241 0.044998 0.044366
0.210133 0.048651 0.047968
0.246025 0.052303 0.051569
0.281918 0.055956 0.055170
0.317810 0.059608 0.058772
0.353702 0.063261 0.062373
0.389594 0.066914 0.065974
0.425487 0.070566 0.069576
0.462106 0.074331 0.073265
0.499889 0.078264 0.077089
0.538224 0.082266 0.080965
0.577061 0.086326 0.084888
0.007182 0.070929 0.038475
0.043074 0.074582 0.042076
0.078967 0.078235 0.045677
0.114859 0.081887 0.049279
0.150751 0.085540 0.052880
0.186643 0.089192 0.056481
0.222536 0.092845 0.060083
0.258428 0.096498 0.063684
0.294320 0.100150 0.067285
0.330212 0.103803 0.070887
0.367142 0.107747 0.074650
0.404713 0.111828 0.078494
0.442760 0.115985 0.082388
0.481269 0.120208 0.086327
0.520240 0.124492 0.090308
0.559676 0.128836 0.094331
0.599583 0.133238 0.098396
0.019585 0.115124 0.050590
0.055477 0.118776 0.054191
0.091369 0.122429 0.057792
0.127262 0.126082 0.061394
0.163154 0.129734 0.064995
0.199046 0.133387 0.068596
0.235110 0.137136 0.072238
0.271967 0.141258 0.076043
0.309270 0.145494 0.079907
0.346999 0.149813 0.083817
0.385158 0.154205 0.087771
0.423755 0.158665 0.091768
0.462799 0.163189 0.095806
0.502298 0.167775 0.099886
0.542259 0.172423 0.104007
0.582692 0.177132 0.108169
0.623604 0.181901 0.112372
0.031987 0.159318 0.062705
0.067880 0.162971 0.066306
0.103772 0.166623 0.069908
0.139927 0.170583 0.073615
0.176546 0.174869 0.077444
0.213542 0.179267 0.081325
0.250928 0.183755 0.085252
0.288719 0.188320 0.089222
0.326928 0.192959 0.093233
0.365566 0.197667 0.097287
0.404644 0.202442 0.101381
0.444174 0.207283 0.105517
0.484163 0.212188 0.109694
0.524620 0.217156 0.113913
0.565555 0.222188 0.118173
0.606973 0.227282 0.122476
0.648882 0.232438 0.126821
0.044531 0.204131 0.075002
0.080856 0.208584 0.078851
0.117515 0.213151 0.082750
0.154538 0.217812 0.086692
0.191943 0.222556 0.090677
0.229748 0.227378 0.094704
0.267969 0.232274 0.098773
0.306617 0.237240 0.102882
0.345705 0.242276 0.107033
0.385241 0.247380 0.111225
0.425237 0.252551 0.115459
0.465700 0.257788 0.119735
0.506639 0.263090 0.124053
0.548061 0.268458 0.128413
0.589974 0.273890 0.132815
0.632384 0.279386 0.137261
0.675297 0.284947 0.141750
0.057816 0.251988 0.088138
0.094821 0.256915 0.092139
0.132211 0.261924 0.096181
0.170003 0.267010 0.100264
0.208211 0.272171 0.104389
0.246847 0.277405 0.108554
0.285923 0.282711 0.112762
0.325449 0.288086 0.117011
0.365434 0.293530 0.121302
0.405887 0.299043 0.125635
0.446816 0.304624 0.130011
0.488229 0.310271 0.134429
0.530132 0.315986 0.138890
0.572533 0.321767 0.143394
0.615438 0.327615 0.147942
0.658853 0.333529 0.152534
0.702783 0.339509 0.157169
0.071661 0.301878 0.101761
0.109419 0.307237 0.105900
0.147596 0.312671 0.110081
0.186203 0.318181 0.114304
0.225252 0.323763 0.118568
0.264752 0.329417 0.122875
0.304713 0.335142 0.127223
0.345143 0.340937 0.131614
0.386051 0.346803 0.136048
0.427442 0.352737 0.140525
0.469325 0.358740 0.145045
0.511707 0.364812 0.149609
0.554592 0.370953 0.154216
0.597989 0.377161 0.158868
0.641901 0.383438 0.163564
0.686335 0.389782 0.168304
0.731297 0.396195 0.173090
0.086078 0.353791 0.115852
0.124643 0.359582 0.120131
0.163652 0.365448 0.124453
0.203114 0.371388 0.128817
0.243040 0.377400 0.133224
0.283436 0.383484 0.137673
0.324310 0.389640 0.142166
0.365670 0.395867 0.146701
0.407523 0.402165 0.151281
0.449875 0.408533 0.155905
0.492733 0.414972 0.160572
0.536102 0.421480 0.165284
0.579988 0.428058 0.170041
0.624397 0.434706 0.174843
0.669333 0.441423 0.179690
0.714802 0.448210 0.184582
0.760808 0.455066 0.189521
0.101087 0.407782 0.130416
0.140501 0.414013 0.134838
0.180381 0.420318 0.139304
0.220733 0.426697 0.143812
0.261566 0.433149 0.148364
0.302885 0.439674 0.152959
0.344700 0.446272 0.157599
0.387014 0.452941 0.162283
0.429835 0.459683 0.167011
0.473169 0.466496 0.171784
0.517021 0.473380 0.176602
0.561396 0.480336 0.181466
0.606300 0.487362 0.186375
0.651737 0.494460 0.191330
0.697713 0.501628 0.196330
0.744232 0.508867 0.201377
0.791298 0.516178 0.206471
0.116708 0.463908 0.145464
0.157008 0.470587 0.150032
0.197791 0.477341 0.154643
0.239062 0.484169 0.159299
0.280829 0.491071 0.163999
0.323099 0.498047 0.168744
0.365876 0.505096 0.173533
0.409168 0.512218 0.178368
0.452978 0.519413 0.183248
0.497313 0.526681 0.188173
0.542178 0.534021 0.193145
0.587577 0.541434 0.198162
0.633516 0.548919 0.203226
0.679999 0.556476 0.208337
0.727029 0.564106 0.213494
0.774613 0.571808 0.218698
0.822753 0.579581 0.223949
0.132961 0.522225 0.161005
0.174177 0.529362 0.165721
0.215890 0.536573 0.170482
0.258108 0.543860 0.175288
0.300835 0.551221 0.180139
0.344077 0.558657 0.185036
0.387840 0.566167 0.189978
0.432128 0.573751 0.194966
0.476948 0.581409 0.200001
0.522303 0.589141 0.205081
0.568198 0.596947 0.210209
0.614639 0.604826 0.215383
0.661628 0.612778 0.220604
0.709171 0.620805 0.225873
0.757272 0.628904 0.231189
0.805934 0.637077 0.236552
0.855162 0.645323 0.241964
0.149861 0.582787 0.177049
0.192020 0.590389 0.181917
0.234690 0.598067 0.186830
0.277877 0.605820 0.191789
0.321586 0.613649 0.196794
0.365823 0.621554 0.201845
0.410591 0.629534 0.206943
0.455896 0.637589 0.212087
0.501743 0.645719 0.217278
0.548136 0.653923 0.222517
0.595078 0.662203 0.227803
0.642576 0.670557 0.233136
0.690632 0.678986 0.238517
0.739250 0.687489 0.243946
0.788434 0.696067 0.249423
0.838189 0.704720 0.254949
0.888518 0.713447 0.260523
0.167423 0.645642 0.193606
0.210550 0.653717 0.198627
0.254200 0.661869 0.203695
0.298378 0.670098 0.208810
0.343090 0.678403 0.213972
0.388341 0.686785 0.219180
0.434133 0.695243 0.224436
0.480473 0.703777 0.229739
0.527364 0.712386 0.235089
0.574811 0.721072 0.240488
0.622817 0.729834 0.245934
0.671387 0.738671 0.251429
0.720523 0.747584 0.256972
0.770231 0.756572 0.262564
0.820513 0.765636 0.268205
0.871374 0.774776 0.273894
0.917564 0.779673 0.278344
0.185663 0.710834 0.210684
0.229779 0.719391 0.215862
0.274429 0.728025 0.221088
0.319620 0.736737 0.226361
0.365354 0.745526 0.231681
0.411636 0.754393 0.237049
0.458471 0.763336 0.242465
0.505862 0.772357 0.247929
0.553814 0.781454 0.253441
0.602330 0.790628 0.259002
0.651414 0.799879 0.264612
0.701070 0.809207 0.270270
0.749914 0.817148 0.275565
0.795789 0.821775 0.279936
0.841665 0.826401 0.284306
0.887540 0.831028 0.288676
0.933416 0.835655 0.293047
0.204593 0.778407 0.228292
0.249718 0.787452 0.233630
0.295389 0.796576 0.239015
0.341609 0.805778 0.244449
0.388383 0.815059 0.249930
0.435714 0.824417 0.255460
0.483607 0.833854 0.261039
0.532066 0.843368 0.266666
0.581094 0.852960 0.272342
0.628139 0.859249 0.277156
0.674015 0.863876 0.281527
0.719891 0.868503 0.285897
0.765766 0.873130 0.290267
0.811642 0.877756 0.294638
0.857517 0.882383 0.299008
0.903393 0.887010 0.303379
0.949268 0.891637 0.307749
0.224224 0.848399 0.246439
0.270378 0.857940 0.251938
0.317087 0.867561 0.257486
0.364354 0.877260 0.263082
0.412185 0.887039 0.268727
0.460490 0.896724 0.274377
0.506365 0.901350 0.278747
0.552241 0.905977 0.283118
0.598116 0.910604 0.287488
0.643992 0.915231 0.291859
0.689867 0.919858 0.296229
0.735743 0.924484 0.300599
0.781618 0.929111 0.304970
0.827494 0.933738 0.309340
0.873369 0.938365 0.313711
0.919245 0.942991 0.318081
0.965120 0.947618 0.322452
0.000000 0.000000 0.046927
0.019521 0.000000 0.050528
0.055414 0.000000 0.054129
0.091306 0.000000 0.057731
0.127198 0.000000 0.061332
0.163090 0.002044 0.064933
0.198983 0.005696 0.068534
0.234875 0.009349 0.072136
0.270767 0.013002 0.075737
0.306659 0.016654 0.079338
0.342552 0.020307 0.082940
0.378444 0.023959 0.086541
0.414336 0.027612 0.090142
0.450228 0.031265 0.093744
0.486121 0.034917 0.097345
0.522013 0.038570 0.100946
0.558739 0.042283 0.104668
0.000000 0.027975 0.059042
0.031924 0.031628 0.062643
0.067816 0.035281 0.066244
0.103708 0.038933 0.069846
0.139601 0.042586 0.073447
0.175493 0.046238 0.077048
0.211385 0.049891 0.080650
0.247277 0.053544 0.084251
0.283170 0.057196 0.087852
0.319062 0.060849 0.091454
0.354954 0.064501 0.095055
0.390846 0.068154 0.098656
0.426739 0.071807 0.102258
0.463901 0.075658 0.106082
0.501840 0.079616 0.110019
0.540300 0.083638 0.114017
0.579254 0.087717 0.118068
0.008434 0.072170 0.071157
0.044326 0.075822 0.074758
0.080219 0.079475 0.078359
0.116111 0.083128 0.081961
0.152003 0.086780 0.085562
0.187896 0.090433 0.089163
0.223788 0.094085 0.092765
0.259680 0.097738 0.096366
0.295572 0.101391 0.099967
0.331684 0.105110 0.103621
0.368863 0.109123 0.107507
0.406555 0.113232 0.111469
0.444710 0.117412 0.115486
0.483324 0.121656 0.119555
0.522397 0.125961 0.123671
0.561936 0.130324 0.127834
0.601945 0.134746 0.132042
0.020837 0.116364 0.083272
0.056729 0.120017 0.086873
0.092621 0.123669 0.090474
0.128514 0.127322 0.094076
0.164406 0.130975 0.097677
0.200298 0.134627 0.101278
0.236615 0.138518 0.105025
0.273589 0.142686 0.108942
0.310991 0.146952 0.112925
0.348815 0.151297 0.116962
0.387069 0.155712 0.121048
0.425761 0.160194 0.125181
0.464901 0.164739 0.129361
0.504496 0.169347 0.133585
0.544557 0.174016 0.137854
0.585089 0.178745 0.142168
0.626101 0.183534 0.146526
0.033239 0.160559 0.095387
0.069132 0.164211 0.098988
0.105025 0.167866 0.102590
0.141350 0.172023 0.106442
0.178053 0.176351 0.110386
0.215132 0.180782 0.114389
0.252603 0.185297 0.118444
0.290480 0.189888 0.122547
0.328777 0.194550 0.126698
0.367505 0.199281 0.130893
0.406676 0.204079 0.135134
0.446299 0.208942 0.139419
0.486383 0.213868 0.143749
0.526938 0.218858 0.148124
0.567970 0.223911 0.152542
0.609488 0.229026 0.157006
0.651498 0.234204 0.161513
0.045845 0.205628 0.107870
0.082235 0.210124 0.111837
0.118966 0.214724 0.115859
0.156064 0.219414 0.119932
0.193548 0.224185 0.124053
0.231436 0.229033 0.128220
0.269742 0.233953 0.132432
0.308478 0.238943 0.136689
0.347654 0.244002 0.140991
0.387283 0.249129 0.145337
0.427372 0.254322 0.149727
0.467930 0.259581 0.154162
0.508965 0.264906 0.158642
0.550486 0.270295 0.163166
0.592498 0.275749 0.167734
0.635009 0.281268 0.172348
0.678024 0.286850 0.177007
0.059188 0.253652 0.121427
0.096266 0.258607 0.125565
0.133734 0.263643 0.129748
0.171606 0.268755 0.133977
0.209897 0.273941 0.138250
0.248619 0.279199 0.142568
0.287782 0.284528 0.146930
0.327398 0.289927 0.151337
0.367476 0.295395 0.155788
0.408022 0.300931 0.160283
0.449047 0.306534 0.164824
0.490557 0.312205 0.169409
0.532558 0.317942 0.174039
0.575059 0.323746 0.178714
0.618065 0.329616 0.183435
0.661582 0.335553 0.188201
0.705616 0.341555 0.193012
0.073090 0.303689 0.135527
0.110928 0.309074 0.139817
0.149186 0.314534 0.144151
0.187878 0.320068 0.148529
0.227014 0.325675 0.152952
0.266603 0.331353 0.157419
0.306655 0.337102 0.161931
0.347178 0.342921 0.166488
0.388180 0.348810 0.171089
0.429667 0.354768 0.175736
0.471648 0.360795 0.180427
0.514128 0.366890 0.185164
0.557114 0.373054 0.189947
0.600612 0.379285 0.194776
0.644627 0.385585 0.199650
0.689165 0.391953 0.204570
0.734231 0.398388 0.209537
0.087566 0.355750 0.150134
0.126215 0.361566 0.154573
0.165310 0.367457 0.159057
0.204861 0.373421 0.163585
0.244876 0.379458 0.168158
0.285364 0.385567 0.172776
0.326333 0.391747 0.177439
0.367788 0.397998 0.182147
0.409738 0.404320 0.186900
0.452188 0.410712 0.191700
0.495145 0.417174 0.196545
0.538615 0.423706 0.201436
0.582603 0.430308 0.206373
0.627115 0.436979 0.211357
0.672155 0.443720 0.216388
0.717729 0.450530 0.221465
0.763842 0.457410 0.226590
0.102636 0.409889 0.165245
0.142138 0.416146 0.169834
0.182107 0.422476 0.174468
0.222551 0.428880 0.179147
0.263477 0.435357 0.183872
0.304891 0.441907 0.188642
0.346802 0.448529 0.193458
0.389214 0.455223 0.198320
0.432134 0.461988 0.203228
0.475568 0.468826 0.208182
0.519521 0.475734 0.213183
0.563999 0.482714 0.218231
0.609007 0.489765 0.223325
0.654549 0.496886 0.228467
0.700630 0.504079 0.233656
0.747256 0.511342 0.238892
0.794430 0.518676 0.244176
0.118320 0.466168 0.180862
0.158711 0.472872 0.185603
0.199586 0.479651 0.190390
0.240952 0.486505 0.195223
0.282815 0.493432 0.200102
0.325182 0.500433 0.205026
0.368058 0.507507 0.209998
0.411449 0.514653 0.215015
0.455361 0.521873 0.220080
0.499798 0.529166 0.225192
0.544766 0.536531 0.230350
0.590269 0.543968 0.235557
0.636313 0.551477 0.240810
0.682902 0.559059 0.246112
0.730040 0.566713 0.251461
0.777732 0.574439 0.256859
0.825981 0.582238 0.262305
0.134637 0.524640 0.196994
0.175947 0.531802 0.201889
0.217756 0.539039 0.206831
0.260070 0.546351 0.211819
0.302896 0.553738 0.216854
0.346237 0.561199 0.221936
0.390101 0.568734 0.227064
0.434491 0.576343 0.232240
0.479414 0.584027 0.237464
0.524873 0.591784 0.242735
0.570873 0.599614 0.248054
0.617419 0.607518 0.253421
0.664516 0.615496 0.258836
0.712167 0.623547 0.264299
0.760376 0.631671 0.269811
0.809148 0.639869 0.275372
0.858486 0.648140 0.280982
0.151603 0.585360 0.213647
0.193859 0.592988 0.218699
0.236627 0.600691 0.223797
0.279913 0.608470 0.228943
0.323723 0.616325 0.234136
0.368061 0.624255 0.239377
0.412932 0.632261 0.244666
0.458341 0.640341 0.250002
0.504292 0.648497 0.255386
0.550790 0.656727 0.260819
0.597840 0.665032 0.266300
0.645445 0.673411 0.271830
0.693609 0.681865 0.277409
0.742336 0.690394 0.283036
0.791631 0.698997 0.288713
0.841497 0.707675 0.294439
0.891937 0.716427 0.300215
0.169234 0.648375 0.230828
0.212459 0.656477 0.236039
0.256209 0.664655 0.241297
0.300489 0.672910 0.246603
0.345303 0.681241 0.251957
0.390657 0.689649 0.257359
0.436554 0.698132 0.262809
0.482999 0.706692 0.268308
0.529997 0.715328 0.273855
0.577551 0.724039 0.279452
0.625665 0.732826 0.285097
0.674344 0.741689 0.290792
0.723590 0.750628 0.296536
0.773409 0.759642 0.302330
0.823802 0.768732 0.308174
0.873288 0.776618 0.313636
0.919164 0.781245 0.318006
0.187543 0.713731 0.248546
0.231759 0.722314 0.253918
0.276512 0.730975 0.259337
0.321805 0.739713 0.264805
0.367644 0.748529 0.270322
0.414031 0.757421 0.275887
0.460972 0.766391 0.281502
0.508470 0.775437 0.287165
0.556530 0.784561 0.292878
0.605155 0.793761 0.298640
0.654349 0.803038 0.304452
0.704116 0.812392 0.310314
0.751514 0.818719 0.315227
0.797390 0.823346 0.319597
0.843265 0.827973 0.323968
0.889141 0.832600 0.328338
0.935016 0.837226 0.332708
0.206542 0.781470 0.266808
0.251771 0.790542 0.272342
0.297545 0.799692 0.277926
0.343871 0.808921 0.283558
0.390750 0.818228 0.289239
0.438189 0.827613 0.294970
0.486189 0.837076 0.300750
0.534757 0.846617 0.306580
0.583864 0.856194 0.312447
0.629740 0.860820 0.316818
0.675615 0.865447 0.321188
0.721491 0.870074 0.325559
0.767366 0.874701 0.329929
0.813242 0.879328 0.334299
0.859117 0.883954 0.338670
0.904993 0.888581 0.343040
0.950868 0.893208 0.347411
0.226246 0.851631 0.285620
0.272504 0.861199 0.291320
0.319319 0.870846 0.297069
0.366693 0.880572 0.302867
0.414631 0.890378 0.308715
0.462090 0.898295 0.314038
0.507966 0.902922 0.318409
0.553841 0.907548 0.322779
0.599717 0.912175 0.327150
0.645592 0.916802 0.331520
0.691468 0.921429 0.335891
0.737343 0.926056 0.340261
0.783219 0.930682 0.344631
0.829094 0.935309 0.349002
0.874970 0.939936 0.353372
0.920845 0.944563 0.357743
0.966721 0.949190 0.362113
0.000000 0.000000 0.079609
0.020773 0.000000 0.083210
0.056666 0.000000 0.086811
0.092558 0.000000 0.090413
0.128450 0.000000 0.094014
0.164342 0.003284 0.097615
0.200235 0.006937 0.101217
0.236127 0.010590 0.104818
0.272019 0.014242 0.108419
0.307911 0.017895 0.112020
0.343804 0.021547 0.115622
0.379696 0.025200 0.119223
0.415588 0.028853 0.122824
0.451480 0.032505 0.126426
