assets/lighting/cinematic/grade-game-muted-rpg/lut.cube
TITLE "Muted RPG"
# TKRS lighting-batch-001 original LUT
# Intended usage: desaturated muddy RPG overworld
# License: CC0-1.0
LUT_3D_SIZE 5
DOMAIN_MIN 0.0 0.0 0.0
DOMAIN_MAX 1.0 1.0 1.0
0.000000 0.000000 0.000000
0.124694 0.000000 0.000000
0.268263 0.010521 0.010373
0.411832 0.025131 0.024778
0.555401 0.039742 0.039184
0.030735 0.158078 0.030023
0.175052 0.173399 0.044575
0.325090 0.191376 0.059859
0.481954 0.210515 0.075738
0.646277 0.230680 0.092234
0.084596 0.351842 0.081671
0.241210 0.375350 0.098398
0.405317 0.400019 0.115775
0.577382 0.425816 0.133827
0.757784 0.452730 0.152573
0.148125 0.580223 0.140570
0.319457 0.610982 0.159574
0.499202 0.642949 0.179296
0.687663 0.676115 0.199754
0.885107 0.710474 0.220961
0.222210 0.845177 0.207387
0.409746 0.883709 0.228871
0.596516 0.909033 0.247827
0.780018 0.927540 0.265308
0.963520 0.946047 0.282790
0.000000 0.000000 0.112291
0.129702 0.000872 0.126696
0.273271 0.015483 0.141101
0.416840 0.030093 0.155506
0.562603 0.044871 0.170422
0.035743 0.163040 0.160751
0.181103 0.179351 0.176499
0.332507 0.197756 0.193901
0.490858 0.217251 0.212161
0.656765 0.237756 0.231220
0.090560 0.359692 0.219009
0.248572 0.383600 0.238354
0.414192 0.408654 0.258481
0.587861 0.434832 0.279393
0.769940 0.462122 0.301094
0.155109 0.590533 0.287201
0.328019 0.621703 0.309192
0.509415 0.654078 0.331982
0.699591 0.687650 0.355580
0.898806 0.722414 0.379996
0.230310 0.858121 0.364374
0.419415 0.896811 0.388991
0.602917 0.915318 0.406473
0.786419 0.933825 0.423955
0.969921 0.952332 0.441436
0.000000 0.000000 0.243019
0.134710 0.005834 0.257424
0.278279 0.020444 0.271829
0.421848 0.035055 0.286235
0.570817 0.050120 0.302844
0.040755 0.168014 0.291496
0.187327 0.185468 0.309715
0.340093 0.204261 0.329442
0.499937 0.224102 0.350218
0.667435 0.244945 0.371940
0.096621 0.367680 0.358019
0.256055 0.391981 0.380075
0.423204 0.417419 0.403028
0.598487 0.443975 0.426864
0.782254 0.471642 0.451578
0.162202 0.600983 0.435760
0.336704 0.632563 0.460792
0.519763 0.665346 0.486700
0.711663 0.699322 0.513485
0.912657 0.734491 0.541150
0.238527 0.871210 0.523455
0.425816 0.903096 0.547637
0.609318 0.921603 0.565119
0.792820 0.940110 0.582601
0.976323 0.958617 0.600083
0.000000 0.000000 0.373747
0.139719 0.010796 0.388152
0.283288 0.025406 0.402557
0.426857 0.040017 0.416963
0.579461 0.055457 0.436614
0.045970 0.173723 0.423693
0.193700 0.191726 0.444352
0.347839 0.210885 0.466559
0.509185 0.231069 0.489962
0.678282 0.252249 0.514437
0.102782 0.375804 0.498752
0.263657 0.400494 0.523601
0.432351 0.426312 0.549450
0.609262 0.453247 0.576272
0.794726 0.481290 0.604052
0.169405 0.611572 0.586275
0.345512 0.643562 0.614401
0.530245 0.676751 0.643473
0.723879 0.711132 0.673488
0.919315 0.740976 0.699919
0.246861 0.884446 0.684648
0.432217 0.909381 0.706284
0.615720 0.927888 0.723765
0.799222 0.946395 0.741247
0.982724 0.964902 0.758729
0.001158 0.001147 0.504475
0.144727 0.015757 0.518880
0.288296 0.030368 0.533285
0.433680 0.045160 0.549458
0.588431 0.060879 0.571844
0.051292 0.179686 0.557317
0.200209 0.198114 0.580502
0.355737 0.217627 0.605315
0.518597 0.238151 0.631442
0.689302 0.259667 0.658750
0.109043 0.384060 0.641252
0.271380 0.409136 0.668970
0.441633 0.435335 0.697779
0.620184 0.462646 0.727644
0.807354 0.491066 0.758542
0.176718 0.622301 0.738774
0.354444 0.654699 0.770044
0.540863 0.688293 0.802325
0.736241 0.723080 0.835610
0.925716 0.747261 0.858565
0.255117 0.897159 0.847448
0.438619 0.915666 0.864930
0.622121 0.934173 0.882412
0.805623 0.952680 0.899893
0.989125 0.971187 0.917375
