assets/lighting/cinematic/grade-game-muted-rpg/lut.cube
TITLE "Muted RPG"
# TKRS lighting-batch-001 original LUT
# Intended usage: desaturated muddy RPG overworld
# License: CC0-1.0
LUT_3D_SIZE 9
DOMAIN_MIN 0.0 0.0 0.0
DOMAIN_MAX 1.0 1.0 1.0
0.000000 0.000000 0.000000
0.052910 0.000000 0.000000
0.124694 0.000000 0.000000
0.196479 0.003216 0.003170
0.268263 0.010521 0.010373
0.340048 0.017826 0.017576
0.411832 0.025131 0.024778
0.483617 0.032436 0.031981
0.555401 0.039742 0.039184
0.005930 0.069689 0.005793
0.077715 0.076994 0.012995
0.149499 0.084299 0.020198
0.221284 0.091605 0.027401
0.293068 0.098910 0.034603
0.365457 0.106384 0.041859
0.440829 0.114565 0.049370
0.518098 0.123030 0.057033
0.597235 0.131737 0.064843
0.030735 0.158078 0.030023
0.102520 0.165383 0.037226
0.175052 0.173399 0.044575
0.249266 0.182221 0.052143
0.325090 0.191376 0.059859
0.402624 0.200813 0.067723
0.481954 0.210515 0.075738
0.563150 0.220472 0.083907
0.646277 0.230680 0.092234
0.056449 0.250335 0.054935
0.130696 0.260214 0.062705
0.206533 0.270410 0.070624
0.284072 0.280901 0.078694
0.363401 0.291674 0.086920
0.444595 0.302721 0.095305
0.527716 0.314038 0.103851
0.612822 0.325622 0.112562
0.699961 0.337471 0.121441
0.084596 0.351842 0.081671
0.162000 0.363448 0.089954
0.241210 0.375350 0.098398
0.322296 0.387542 0.107003
0.405317 0.400019 0.115775
0.490330 0.412777 0.124715
0.577382 0.425816 0.133827
0.666520 0.439134 0.143112
0.757784 0.452730 0.152573
0.115103 0.461657 0.110178
0.196002 0.475039 0.119010
0.278851 0.488719 0.128013
0.363703 0.502694 0.137187
0.450604 0.516962 0.146536
0.539599 0.531520 0.156061
0.630728 0.546369 0.165766
0.724028 0.561507 0.175652
0.819534 0.576933 0.185721
0.148125 0.580223 0.140570
0.232760 0.595451 0.149983
0.319457 0.610982 0.159574
0.408258 0.626815 0.169344
0.499202 0.642949 0.179296
0.592326 0.659383 0.189432
0.687663 0.676115 0.199754
0.785247 0.693146 0.210263
0.885107 0.710474 0.220961
0.183791 0.707946 0.172946
0.272354 0.725084 0.182965
0.363071 0.742533 0.193168
0.455978 0.760290 0.203558
0.551106 0.778356 0.214136
0.648488 0.796729 0.224904
0.748155 0.815409 0.235863
0.840065 0.824830 0.244644
0.931816 0.834084 0.253385
0.222210 0.845177 0.207387
0.314862 0.864285 0.218034
0.409746 0.883709 0.228871
0.504765 0.899779 0.239086
0.596516 0.909033 0.247827
0.688267 0.918286 0.256567
0.780018 0.927540 0.265308
0.871769 0.936793 0.274049
0.963520 0.946047 0.282790
0.000000 0.000000 0.046927
0.055414 0.000000 0.054129
0.127198 0.000000 0.061332
0.198983 0.005696 0.068534
0.270767 0.013002 0.075737
0.342552 0.020307 0.082940
0.414336 0.027612 0.090142
0.486121 0.034917 0.097345
0.558739 0.042283 0.104668
0.008434 0.072170 0.071157
0.080219 0.079475 0.078359
0.152003 0.086780 0.085562
0.223788 0.094085 0.092765
0.295572 0.101391 0.099967
0.368863 0.109123 0.107507
0.444710 0.117412 0.115486
0.522397 0.125961 0.123671
0.601945 0.134746 0.132042
0.033239 0.160559 0.095387
0.105025 0.167866 0.102590
0.178053 0.176351 0.110386
0.252603 0.185297 0.118444
0.328777 0.194550 0.126698
0.406676 0.204079 0.135134
0.486383 0.213868 0.143749
0.567970 0.223911 0.152542
0.651498 0.234204 0.161513
0.059188 0.253652 0.121427
0.133734 0.263643 0.129748
0.209897 0.273941 0.138250
0.287782 0.284528 0.146930
0.367476 0.295395 0.155788
0.449047 0.306534 0.164824
0.532558 0.317942 0.174039
0.618065 0.329616 0.183435
0.705616 0.341555 0.193012
0.087566 0.355750 0.150134
0.165310 0.367457 0.159057
0.244876 0.379458 0.168158
0.326333 0.391747 0.177439
0.409738 0.404320 0.186900
0.495145 0.417174 0.196545
0.582603 0.430308 0.206373
0.672155 0.443720 0.216388
0.763842 0.457410 0.226590
0.118320 0.466168 0.180862
0.199586 0.479651 0.190390
0.282815 0.493432 0.200102
0.368058 0.507507 0.209998
0.455361 0.521873 0.220080
0.544766 0.536531 0.230350
0.636313 0.551477 0.240810
0.730040 0.566713 0.251461
0.825981 0.582238 0.262305
0.151603 0.585360 0.213647
0.236627 0.600691 0.223797
0.323723 0.616325 0.234136
0.412932 0.632261 0.244666
0.504292 0.648497 0.255386
0.597840 0.665032 0.266300
0.693609 0.681865 0.277409
0.791631 0.698997 0.288713
0.891937 0.716427 0.300215
0.187543 0.713731 0.248546
0.276512 0.730975 0.259337
0.367644 0.748529 0.270322
0.460972 0.766391 0.281502
0.556530 0.784561 0.292878
0.654349 0.803038 0.304452
0.751514 0.818719 0.315227
0.843265 0.827973 0.323968
0.935016 0.837226 0.332708
0.226246 0.851631 0.285620
0.319319 0.870846 0.297069
0.414631 0.890378 0.308715
0.507966 0.902922 0.318409
0.599717 0.912175 0.327150
0.691468 0.921429 0.335891
0.783219 0.930682 0.344631
0.874970 0.939936 0.353372
0.966721 0.949190 0.362113
0.000000 0.000000 0.112291
0.057918 0.000000 0.119493
0.129702 0.000872 0.126696
0.201487 0.008177 0.133899
0.273271 0.015483 0.141101
0.345056 0.022788 0.148304
0.416840 0.030093 0.155506
0.488625 0.037398 0.162709
0.562603 0.044871 0.170422
0.010938 0.074651 0.136521
0.082723 0.081956 0.143723
0.154507 0.089261 0.150926
0.226292 0.096566 0.158129
0.298076 0.103871 0.165331
0.372388 0.111905 0.173439
0.448665 0.120288 0.181930
0.526759 0.128918 0.190666
0.606714 0.137781 0.199618
0.035743 0.163040 0.160751
0.107737 0.170663 0.168204
0.181103 0.179351 0.176499
0.255984 0.188407 0.185084
0.332507 0.197756 0.193901
0.410771 0.207375 0.202929
0.490858 0.217251 0.212161
0.572836 0.227378 0.221592
0.656765 0.237756 0.231220
0.061950 0.257009 0.188268
0.136799 0.267107 0.197164
0.213292 0.277505 0.206267
0.291527 0.288188 0.215572
0.371586 0.299147 0.225075
0.453537 0.310378 0.234774
0.537440 0.321877 0.244669
0.623349 0.333641 0.254759
0.711312 0.345670 0.265045
0.090560 0.359692 0.219009
0.168647 0.371500 0.228583
0.248572 0.383600 0.238354
0.330402 0.395985 0.248320
0.414192 0.408654 0.258481
0.499996 0.421603 0.268839
0.587861 0.434832 0.279393
0.677828 0.448338 0.290144
0.769940 0.462122 0.301094
0.121563 0.470713 0.251997
0.203199 0.484298 0.262229
0.286810 0.498179 0.272658
0.372445 0.512353 0.283284
0.460150 0.526818 0.294107
0.549968 0.541574 0.305129
0.641936 0.556619 0.316351
0.736091 0.571953 0.327773
0.832468 0.587575 0.339397
0.155109 0.590533 0.287201
0.240523 0.605967 0.298097
0.328019 0.621703 0.309192
0.417637 0.637741 0.320486
0.509415 0.654078 0.331982
0.603389 0.670715 0.343680
0.699591 0.687650 0.355580
0.798053 0.704883 0.367686
0.898806 0.722414 0.379996
0.191323 0.719553 0.324648
0.280700 0.736902 0.336217
0.372247 0.754560 0.347989
0.465999 0.772527 0.359964
0.561988 0.790802 0.372144
0.660244 0.809383 0.384529
0.754715 0.821862 0.394550
0.846466 0.831115 0.403291
0.938217 0.840369 0.412031
0.230310 0.858121 0.364374
0.323805 0.877444 0.376629
0.419415 0.896811 0.388991
0.511166 0.906064 0.397732
0.602917 0.915318 0.406473
0.694668 0.924571 0.415214
0.786419 0.933825 0.423955
0.878170 0.943079 0.432695
0.969921 0.952332 0.441436
0.000000 0.000000 0.177655
0.060422 0.000000 0.184857
0.132206 0.003353 0.192060
0.203991 0.010658 0.199263
0.275775 0.017963 0.206465
0.347560 0.025269 0.213668
0.419344 0.032574 0.220871
0.491129 0.039879 0.228073
0.566645 0.047484 0.236473
0.013442 0.077132 0.201885
0.085227 0.084437 0.209087
0.157011 0.091742 0.216290
0.228796 0.099047 0.223493
0.301116 0.106534 0.231011
0.376002 0.114722 0.239682
0.452686 0.123192 0.248718
0.531180 0.131903 0.258028
0.611540 0.140842 0.267582
0.038248 0.165520 0.226115
0.110520 0.173561 0.234112
0.184196 0.182391 0.242937
0.259407 0.191551 0.252077
0.336280 0.200993 0.261479
0.414910 0.210700 0.271118
0.495376 0.220662 0.280982
0.577746 0.230875 0.291064
0.662078 0.241336 0.301361
0.064734 0.260403 0.255472
0.139892 0.270605 0.264961
0.216718 0.281101 0.274683
0.295305 0.291879 0.284627
0.375732 0.302931 0.294788
0.458064 0.314253 0.305162
0.542360 0.325842 0.315747
0.628673 0.337697 0.326541
0.717049 0.349815 0.337544
0.093578 0.363669 0.288302
0.172011 0.375577 0.298540
0.252299 0.387774 0.308991
0.334503 0.400256 0.319652
0.418681 0.413020 0.330522
0.504883 0.426064 0.341601
0.593155 0.439387 0.352888
0.683540 0.452988 0.364384
0.776077 0.466866 0.376088
0.124832 0.475293 0.323585
0.206840 0.488979 0.334532
0.290834 0.502960 0.345686
0.376864 0.517233 0.357049
0.464974 0.531797 0.368621
0.555204 0.546651 0.380401
0.647594 0.561794 0.392391
0.742179 0.577226 0.404591
0.838993 0.592946 0.417002
0.158642 0.595740 0.361238
0.244448 0.611277 0.372886
0.332346 0.627116 0.384742
0.422375 0.643256 0.396809
0.514572 0.659695 0.409085
0.608972 0.676433 0.421573
0.705609 0.693469 0.434272
0.804512 0.710803 0.447183
0.905712 0.728436 0.460307
0.195131 0.725410 0.401254
0.284917 0.742864 0.413607
0.376881 0.760627 0.426171
0.471058 0.778699 0.438947
0.567479 0.797078 0.451936
0.666164 0.815751 0.465132
0.757915 0.825004 0.473873
0.849666 0.834258 0.482614
0.941417 0.843511 0.491355
0.234404 0.864647 0.443651
0.328322 0.884078 0.456718
0.422616 0.899953 0.468314
0.514367 0.909207 0.477055
0.606118 0.918460 0.485796
0.697869 0.927714 0.494537
0.789620 0.936968 0.503278
0.881371 0.946221 0.512019
0.973122 0.955475 0.520759
0.000000 0.000000 0.243019
0.062926 0.000000 0.250221
0.134710 0.005834 0.257424
0.206495 0.013139 0.264627
0.278279 0.020444 0.271829
0.350064 0.027750 0.279032
0.421848 0.035055 0.286235
0.494432 0.042426 0.293802
0.570817 0.050120 0.302844
0.015947 0.079612 0.267249
0.087731 0.086918 0.274451
0.159516 0.094223 0.281654
0.231300 0.101528 0.288857
0.304371 0.109276 0.297025
0.379689 0.117570 0.306256
0.456768 0.126124 0.315863
0.535658 0.134913 0.325769
0.616420 0.143930 0.335941
0.040755 0.168014 0.291496
0.113346 0.176516 0.300332
0.187327 0.185468 0.309715
0.262870 0.194727 0.319437
0.340093 0.204261 0.329442
0.419090 0.214055 0.339707
0.499937 0.224102 0.350218
0.582699 0.234400 0.360964
0.667435 0.244945 0.371940
0.067542 0.263834 0.323048
0.143013 0.274137 0.333150
0.220175 0.284730 0.343506
0.299117 0.295602 0.354103
0.379913 0.306746 0.364933
0.462628 0.318159 0.375993
0.547319 0.329838 0.387277
0.634037 0.341783 0.398784
0.722828 0.353991 0.410512
0.096621 0.367680 0.358019
0.175403 0.379687 0.368933
0.256055 0.391981 0.380075
0.338637 0.404559 0.391440
0.423204 0.417419 0.403028
0.509806 0.430558 0.414836
0.598487 0.443975 0.426864
0.689291 0.457670 0.439111
0.782254 0.471642 0.451578
0.128127 0.479908 0.395633
0.210509 0.493694 0.407301
0.294889 0.507774 0.419190
0.381315 0.522146 0.431298
0.469831 0.536809 0.443625
0.560476 0.551761 0.456170
0.653289 0.567003 0.468935
0.748305 0.582532 0.481918
0.845556 0.598350 0.495121
0.162202 0.600983 0.435760
0.248402 0.616622 0.448167
0.336704 0.632563 0.460792
0.427145 0.648805 0.473636
0.519763 0.665346 0.486700
0.614591 0.682185 0.499982
0.711663 0.699322 0.513485
0.811008 0.716758 0.527207
0.912657 0.734491 0.541150
0.198968 0.731302 0.478367
0.289164 0.748862 0.491510
0.381547 0.766730 0.504873
0.476150 0.784906 0.518455
0.573005 0.803389 0.532258
0.669365 0.818893 0.544455
0.761116 0.828147 0.553196
0.852867 0.837400 0.561937
0.944618 0.846654 0.570678
0.238527 0.871210 0.523455
0.332870 0.890748 0.537338
0.425816 0.903096 0.547637
0.517567 0.912349 0.556378
0.609318 0.921603 0.565119
0.701069 0.930857 0.573860
0.792820 0.940110 0.582601
0.884572 0.949364 0.591342
0.976323 0.958617 0.600083
0.000000 0.000000 0.308383
0.065430 0.001010 0.315585
0.137215 0.008315 0.322788
0.208999 0.015620 0.329991
0.280784 0.022925 0.337193
0.352568 0.030230 0.344396
0.424353 0.037536 0.351599
0.498150 0.045015 0.359919
0.575094 0.052778 0.369553
0.018451 0.082093 0.332613
0.090235 0.089399 0.339815
0.162020 0.096704 0.347018
0.233804 0.104009 0.354221
0.307725 0.112060 0.363364
0.383440 0.120448 0.373176
0.460907 0.129083 0.383377
0.540190 0.137950 0.393897
0.621353 0.147043 0.404704
0.043345 0.170821 0.357411
0.116208 0.179518 0.366883
0.190496 0.188580 0.376850
0.266371 0.197935 0.387172
0.343947 0.207558 0.397800
0.423312 0.217439 0.408706
0.504540 0.227571 0.419875
0.587696 0.237953 0.431297
0.672837 0.248583 0.442964
0.070372 0.267299 0.391008
0.146161 0.277703 0.401739
0.223662 0.288392 0.412743
0.302961 0.299356 0.424005
0.384129 0.310592 0.435516
0.467229 0.322096 0.447271
0.552316 0.333865 0.459264
0.639441 0.345899 0.471493
0.728647 0.358197 0.483954
0.099689 0.371725 0.428167
0.178823 0.383830 0.439768
0.259841 0.396221 0.451610
0.342802 0.408895 0.463689
0.427761 0.421849 0.476002
0.514764 0.435083 0.488548
0.603856 0.448595 0.501324
0.695079 0.462384 0.514330
0.788470 0.476450 0.527564
0.131448 0.484557 0.468145
0.214206 0.498443 0.480543
0.298974 0.512622 0.493173
0.385799 0.527093 0.506033
0.474722 0.541855 0.519122
0.565783 0.556905 0.532439
0.659020 0.572244 0.545984
0.754468 0.587872 0.559757
0.852159 0.603788 0.573758
0.165789 0.606260 0.510771
0.252386 0.622002 0.523944
0.341093 0.638046 0.537344
0.431948 0.654389 0.550972
0.524987 0.671031 0.564828
0.620245 0.687971 0.578912
0.717753 0.705210 0.593223
0.817542 0.722747 0.607761
0.916114 0.737833 0.620596
0.202833 0.737231 0.555990
0.293442 0.754895 0.569929
0.386245 0.772868 0.584095
0.481275 0.791148 0.598489
0.578564 0.809736 0.613111
0.672565 0.822036 0.623778
0.764316 0.831289 0.632519
0.856068 0.840543 0.641260
0.947819 0.849797 0.650001
0.242679 0.877810 0.603786
0.337266 0.896985 0.618220
0.429017 0.906238 0.626961
0.520768 0.915492 0.635701
0.612519 0.924745 0.644442
0.704270 0.933999 0.653183
0.796021 0.943253 0.661924
0.887772 0.952506 0.670665
0.979523 0.961760 0.679406
0.000000 0.000000 0.373747
0.067934 0.003490 0.380949
0.139719 0.010796 0.388152
0.211503 0.018101 0.395355
0.283288 0.025406 0.402557
0.355072 0.032711 0.409760
0.426857 0.040017 0.416963
0.502025 0.047630 0.426376
0.579461 0.055457 0.436614
0.020955 0.084574 0.397977
0.092739 0.091879 0.405180
0.164524 0.099185 0.412382
0.236759 0.106685 0.420199
0.311153 0.114879 0.430043
0.387250 0.123354 0.440457
0.465099 0.132069 0.451271
0.544774 0.141013 0.462423
0.626337 0.150183 0.473879
0.045970 0.173723 0.423693
0.119103 0.182560 0.433781
0.193700 0.191726 0.444352
0.269909 0.201174 0.455294
0.347839 0.210885 0.466559
0.427573 0.220852 0.478121
0.509185 0.231069 0.489962
0.592736 0.241535 0.502070
0.678282 0.252249 0.514437
0.073225 0.270800 0.459360
0.149336 0.281301 0.470735
0.227180 0.292085 0.482400
0.306839 0.303142 0.494339
0.388381 0.314469 0.506542
0.471867 0.326063 0.519002
0.557352 0.337922 0.531713
0.644884 0.350046 0.544671
0.734508 0.362434 0.557874
0.102782 0.375804 0.498752
0.182270 0.388006 0.511049
0.263657 0.400494 0.523601
0.347000 0.413263 0.536402
0.432351 0.426312 0.549450
0.519757 0.439641 0.562740
0.609262 0.453247 0.576272
0.700906 0.467130 0.590043
0.794726 0.481290 0.604052
0.134795 0.489239 0.541124
0.217932 0.503225 0.554260
0.303090 0.517504 0.567639
0.390314 0.532074 0.581258
0.479646 0.546933 0.595116
0.571125 0.562082 0.609211
0.664788 0.577519 0.623543
0.760669 0.593245 0.638111
0.858800 0.609259 0.652915
0.169405 0.611572 0.586275
0.256399 0.627417 0.600220
0.345512 0.643562 0.614401
0.436782 0.660007 0.628819
0.530245 0.676751 0.643473
0.625934 0.693792 0.658363
0.723879 0.711132 0.673488
0.824113 0.728770 0.688848
0.919315 0.740976 0.699919
0.206726 0.743195 0.634127
0.297749 0.760964 0.648867
0.390974 0.779042 0.663842
0.486433 0.797426 0.679053
0.584015 0.815925 0.694361
0.675766 0.825178 0.703101
0.767517 0.834432 0.711842
0.859268 0.843686 0.720583
0.951019 0.852939 0.729324
0.246861 0.884446 0.684648
0.340466 0.900127 0.697543
0.432217 0.909381 0.706284
0.523969 0.918634 0.715025
0.615720 0.927888 0.723765
0.707471 0.937142 0.732506
0.799222 0.946395 0.741247
0.890973 0.955649 0.749988
0.982724 0.964902 0.758729
0.000000 0.000000 0.439111
0.070438 0.005971 0.446313
0.142223 0.013277 0.453516
0.214007 0.020582 0.460719
0.285792 0.027887 0.467921
0.357576 0.035192 0.475124
0.430109 0.042568 0.482972
0.506015 0.050267 0.493181
0.583909 0.058157 0.504041
0.023459 0.087055 0.463341
0.095243 0.094360 0.470544
0.167028 0.101665 0.477746
0.239861 0.109430 0.486584
0.314644 0.117729 0.497076
0.391114 0.126287 0.508110
0.469344 0.135081 0.519555
0.549408 0.144102 0.531353
0.631372 0.153348 0.543471
0.048619 0.176682 0.490325
0.122029 0.185640 0.501040
0.196938 0.194904 0.512233
0.273484 0.204443 0.523811
0.351769 0.214241 0.535729
0.431875 0.224294 0.547959
0.513871 0.234596 0.560482
0.597818 0.245146 0.573287
0.683770 0.255944 0.586364
0.076102 0.274334 0.528112
0.152539 0.284932 0.540146
0.230729 0.295809 0.552485
0.310749 0.306958 0.565112
0.392667 0.318376 0.578016
0.476542 0.330061 0.591191
0.562426 0.342010 0.604628
0.650367 0.354223 0.618324
0.740409 0.366701 0.632275
0.105900 0.379915 0.569778
0.185745 0.392215 0.582782
0.267503 0.404799 0.596053
0.351230 0.417663 0.609585
0.436975 0.430808 0.623374
0.524786 0.444230 0.637417
0.614705 0.457930 0.651711
0.706770 0.471908 0.666254
0.801020 0.486162 0.681043
0.138169 0.493956 0.614575
0.221687 0.508042 0.628457
0.307236 0.522420 0.642592
0.394862 0.537088 0.656977
0.484604 0.552046 0.671609
0.576502 0.567292 0.686489
0.670592 0.582827 0.701613
0.766907 0.598651 0.716982
0.865479 0.614762 0.732595
0.173047 0.616919 0.662275
0.260441 0.632866 0.676998
0.349963 0.649113 0.691967
0.441650 0.665660 0.707180
0.535537 0.682505 0.722638
0.631657 0.699648 0.738339
0.730042 0.717089 0.754283
0.830721 0.734828 0.770469
0.922515 0.744118 0.779242
0.210649 0.749195 0.712780
0.302087 0.767069 0.728326
0.395734 0.785251 0.744116
0.491624 0.803740 0.760148
0.587216 0.819067 0.773684
0.678967 0.828321 0.782425
0.770718 0.837575 0.791165
0.862469 0.846828 0.799906
0.954220 0.856082 0.808647
0.251072 0.891119 0.766044
0.343667 0.903270 0.776866
0.435418 0.912523 0.785607
0.527169 0.921777 0.794348
0.618920 0.931031 0.803088
0.710671 0.940284 0.811829
0.802422 0.949538 0.820570
0.894173 0.958791 0.829311
0.985924 0.968045 0.838052
0.001158 0.001147 0.504475
0.072942 0.008452 0.511677
0.144727 0.015757 0.518880
0.216511 0.023063 0.526083
0.288296 0.030368 0.533285
0.360080 0.037673 0.540488
0.433680 0.045160 0.549458
0.510098 0.052925 0.560348
0.588431 0.060879 0.571844
0.025963 0.089536 0.528705
0.097747 0.096841 0.535908
0.169541 0.104152 0.543133
0.243042 0.112216 0.553334
0.318191 0.120608 0.564475
0.395029 0.129248 0.576145
0.473638 0.138119 0.588237
0.554092 0.147216 0.600695
0.636456 0.156539 0.613489
0.051292 0.179686 0.557317
0.124984 0.188754 0.568670
0.200209 0.198114 0.580502
0.277094 0.207742 0.592732
0.355737 0.217627 0.605315
0.436215 0.227764 0.618225
0.518597 0.238151 0.631442
0.602942 0.248785 0.644954
0.689302 0.259667 0.658750
0.079003 0.277902 0.597274
0.155769 0.288595 0.609979
0.234307 0.299565 0.623002
0.314692 0.310806 0.636328
0.396988 0.322315 0.649944
0.481252 0.334089 0.663841
0.567537 0.346128 0.678014
0.655889 0.358431 0.692455
0.746350 0.370998 0.707162
0.109043 0.384060 0.641252
0.189248 0.396457 0.654971
0.271380 0.409136 0.668970
0.355492 0.422096 0.683240
0.441633 0.435335 0.697779
0.529850 0.448852 0.712581
0.620184 0.462646 0.727644
0.712673 0.476718 0.742965
0.807354 0.491066 0.758542
0.141570 0.498707 0.688503
0.225470 0.512892 0.703138
0.311413 0.527368 0.718035
0.399441 0.542135 0.733192
0.489596 0.557191 0.748606
0.581915 0.572536 0.764276
0.676432 0.588169 0.780199
0.773183 0.604090 0.796374
0.872197 0.620300 0.812800
0.176718 0.622301 0.738774
0.264513 0.638350 0.754282
0.354444 0.654699 0.770044
0.446549 0.671347 0.786058
0.540863 0.688293 0.802325
0.637416 0.705537 0.818843
0.736241 0.723080 0.835610
0.833965 0.738007 0.849825
0.925716 0.747261 0.858565
0.214600 0.755231 0.791951
0.306454 0.773209 0.808310
0.400526 0.791495 0.824918
0.496847 0.810089 0.841777
0.590416 0.822210 0.853007
0.682167 0.831464 0.861748
0.773918 0.840717 0.870489
0.865669 0.849971 0.879229
0.957420 0.859224 0.887970
0.255117 0.897159 0.847448
0.346868 0.906412 0.856189
0.438619 0.915666 0.864930
0.530370 0.924920 0.873671
0.622121 0.934173 0.882412
0.713872 0.943427 0.891152
0.805623 0.952680 0.899893
0.897374 0.961934 0.908634
0.989125 0.971187 0.917375
