assets/lighting/cinematic/grade-matrix-green/lut.cube
TITLE "Matrix Green"
# TKRS lighting-batch-001 original LUT
# Intended usage: digital-rain green monochrome-ish
# License: CC0-1.0
LUT_3D_SIZE 5
DOMAIN_MIN 0.0 0.0 0.0
DOMAIN_MAX 1.0 1.0 1.0
0.000000 0.000000 0.000000
0.009287 0.000000 0.000000
0.094670 0.000000 0.000000
0.180052 0.012474 0.008977
0.265435 0.052432 0.037734
0.019146 0.107570 0.019447
0.104528 0.147528 0.048203
0.190920 0.189419 0.077271
0.281023 0.236625 0.107387
0.374659 0.287508 0.138432
0.117490 0.339514 0.118580
0.208902 0.394640 0.149975
0.303882 0.453728 0.182364
0.402673 0.516838 0.215792
0.505466 0.584047 0.250296
0.229464 0.636160 0.228227
0.329486 0.708356 0.263132
0.433584 0.784875 0.299159
0.541907 0.865781 0.336336
0.652305 0.945543 0.373660
0.357366 1.000000 0.350162
0.461868 1.000000 0.385588
0.562920 1.000000 0.418353
0.663972 1.000000 0.451117
0.765024 1.000000 0.483882
0.000000 0.000000 0.000000
0.018902 0.000000 0.019199
0.104284 0.000000 0.047956
0.189667 0.026044 0.076712
0.275049 0.066002 0.105469
0.028760 0.121140 0.087182
0.114143 0.161098 0.115938
0.201558 0.205029 0.145814
0.292515 0.253494 0.176969
0.387044 0.305627 0.209156
0.128125 0.357792 0.188567
0.220347 0.414260 0.221135
0.316203 0.474706 0.254769
0.415919 0.539199 0.289499
0.519679 0.607819 0.325355
0.241625 0.660197 0.302421
0.342577 0.733854 0.338694
0.447645 0.811856 0.376129
0.556971 0.894267 0.414752
0.663684 0.963943 0.450836
0.371223 1.000000 0.429113
0.473247 1.000000 0.462764
0.574299 1.000000 0.495529
0.675351 1.000000 0.528293
0.776403 1.000000 0.561058
0.000000 0.000000 0.058178
0.028517 0.000000 0.086934
0.113899 0.000000 0.115691
0.199281 0.039614 0.144447
0.284664 0.079572 0.173204
0.038375 0.134710 0.154916
0.123925 0.175128 0.183862
0.212381 0.221077 0.214930
0.304187 0.270785 0.247197
0.399614 0.324178 0.280579
0.138905 0.376526 0.259221
0.231952 0.434338 0.293009
0.328694 0.496150 0.327925
0.429345 0.562036 0.363988
0.534079 0.632076 0.401223
0.253950 0.684728 0.377407
0.355842 0.759854 0.415073
0.461887 0.839345 0.453940
0.572223 0.923268 0.494030
0.675063 0.982343 0.528011
0.383575 1.000000 0.507175
0.484626 1.000000 0.539940
0.585678 1.000000 0.572704
0.686730 1.000000 0.605469
0.787782 1.000000 0.638233
0.000000 0.000000 0.125913
0.038131 0.000000 0.154669
0.123514 0.013226 0.183426
0.208896 0.053184 0.212182
0.294602 0.093340 0.241140
0.047989 0.148280 0.222651
0.134115 0.190272 0.252472
0.223377 0.237549 0.284661
0.316036 0.288501 0.318100
0.412368 0.343164 0.352721
0.149830 0.395715 0.330568
0.243718 0.454878 0.365618
0.341358 0.518064 0.401848
0.442951 0.585352 0.439273
0.548666 0.656821 0.477911
0.266442 0.709756 0.453199
0.369282 0.786357 0.492282
0.476311 0.867346 0.532602
0.585390 0.946562 0.572422
0.686442 1.000000 0.605187
0.394954 1.000000 0.584351
0.496005 1.000000 0.617115
0.597057 1.000000 0.649880
0.698109 1.000000 0.682645
0.799161 1.000000 0.715409
0.000000 0.000000 0.193647
0.047746 0.000000 0.222404
0.133128 0.026796 0.251160
0.218511 0.066753 0.279917
0.305486 0.107796 0.309902
0.057604 0.161849 0.290386
0.144484 0.205907 0.321681
0.234543 0.254441 0.355042
0.328061 0.306643 0.389703
0.425306 0.362590 0.425602
0.160905 0.415360 0.402630
0.255646 0.475881 0.438977
0.354193 0.540452 0.476553
0.456738 0.609150 0.515367
0.563441 0.682057 0.555431
0.279101 0.735282 0.529807
0.382898 0.813366 0.570330
0.490919 0.895860 0.612124
0.596769 0.964962 0.649598
0.697821 1.000000 0.682363
0.406333 1.000000 0.661527
0.507385 1.000000 0.694291
0.608436 1.000000 0.727056
0.709488 1.000000 0.759820
0.810540 1.000000 0.792585
