assets/lighting/cinematic/grade-matrix-green/lut.cube
TITLE "Matrix Green"
# TKRS lighting-batch-001 original LUT
# Intended usage: digital-rain green monochrome-ish
# License: CC0-1.0
LUT_3D_SIZE 9
DOMAIN_MIN 0.0 0.0 0.0
DOMAIN_MAX 1.0 1.0 1.0
0.000000 0.000000 0.000000
0.000000 0.000000 0.000000
0.009287 0.000000 0.000000
0.051979 0.000000 0.000000
0.094670 0.000000 0.000000
0.137361 0.000000 0.000000
0.180052 0.012474 0.008977
0.222743 0.032453 0.023356
0.265435 0.052432 0.037734
0.000000 0.000086 0.000000
0.014216 0.020065 0.000000
0.056908 0.040044 0.000000
0.099599 0.060022 0.014212
0.142290 0.080001 0.028590
0.184981 0.099980 0.042969
0.227672 0.119959 0.057347
0.271165 0.140742 0.071887
0.316143 0.162976 0.086748
0.019146 0.107570 0.019447
0.061837 0.127549 0.033825
0.104528 0.147528 0.048203
0.147219 0.167507 0.062581
0.190920 0.189419 0.077271
0.235544 0.212555 0.092215
0.281023 0.236625 0.107387
0.327385 0.261608 0.122791
0.374659 0.287508 0.138432
0.066859 0.215634 0.067888
0.110318 0.238619 0.082685
0.154513 0.262700 0.097713
0.199504 0.287759 0.112968
0.245337 0.313773 0.128457
0.292053 0.340739 0.144187
0.339684 0.368665 0.160163
0.388260 0.397560 0.176392
0.437805 0.427435 0.192879
0.117490 0.339514 0.118580
0.162768 0.366584 0.134156
0.208902 0.394640 0.149975
0.255929 0.423686 0.166042
0.303882 0.453728 0.182364
0.352788 0.484775 0.198946
0.402673 0.516838 0.215792
0.453559 0.549925 0.232907
0.505466 0.584047 0.250296
0.171599 0.479407 0.171955
0.218913 0.510613 0.188371
0.267165 0.542849 0.205048
0.316382 0.576122 0.221992
0.366587 0.610439 0.239206
0.417801 0.645812 0.256696
0.470045 0.682247 0.274464
0.523338 0.719755 0.292516
0.577697 0.758343 0.310854
0.229464 0.636160 0.228227
0.278976 0.671722 0.245541
0.329486 0.708356 0.263132
0.381016 0.746071 0.281003
0.433584 0.784875 0.299159
0.487209 0.824776 0.317602
0.541907 0.865781 0.336336
0.597694 0.907899 0.355364
0.652305 0.945543 0.373660
0.291322 0.810693 0.287580
0.343156 0.850803 0.305840
0.396038 0.892026 0.324388
0.449985 0.934369 0.343229
0.505012 0.977838 0.362366
0.557086 1.000000 0.379624
0.607612 1.000000 0.396006
0.658138 1.000000 0.412389
0.708664 1.000000 0.428771
0.357366 1.000000 0.350162
0.411342 1.000000 0.369206
0.461868 1.000000 0.385588
0.512394 1.000000 0.401970
0.562920 1.000000 0.418353
0.613446 1.000000 0.434735
0.663972 1.000000 0.451117
0.714498 1.000000 0.467500
0.765024 1.000000 0.483882
0.000000 0.000000 0.000000
0.000000 0.000000 0.000000
0.014095 0.000000 0.000000
0.056786 0.000000 0.000000
0.099477 0.000000 0.014088
0.142168 0.000000 0.028467
0.184859 0.019259 0.042845
0.227551 0.039238 0.057223
0.270242 0.059217 0.071601
0.000000 0.006871 0.004945
0.019024 0.026850 0.019323
0.061715 0.046828 0.033701
0.104406 0.066807 0.048079
0.147097 0.086786 0.062458
0.189789 0.106765 0.076836
0.232480 0.126744 0.091214
0.276589 0.148189 0.106006
0.321823 0.170730 0.121106
0.023953 0.114355 0.053314
0.066644 0.134334 0.067692
0.109335 0.154313 0.082071
0.152218 0.174717 0.096541
0.196215 0.197168 0.111474
0.241052 0.220626 0.126665
0.286746 0.245007 0.142099
0.333328 0.270301 0.157779
0.380828 0.296514 0.173708
0.071815 0.223296 0.101945
0.115450 0.246684 0.116976
0.159832 0.271103 0.132256
0.205021 0.296487 0.147779
0.251062 0.322823 0.163549
0.297993 0.350115 0.179571
0.345847 0.378369 0.195848
0.394651 0.407595 0.212387
0.444430 0.437806 0.229191
0.122790 0.348596 0.153491
0.168264 0.376001 0.169353
0.214605 0.404393 0.185467
0.261847 0.433776 0.201839
0.310021 0.464159 0.218474
0.359156 0.495550 0.235375
0.409274 0.527959 0.252549
0.460398 0.561397 0.269997
0.512549 0.595873 0.287725
0.177266 0.489890 0.207864
0.224795 0.521445 0.224596
0.273270 0.554032 0.241596
0.322714 0.587658 0.258869
0.373153 0.622333 0.276419
0.424606 0.658066 0.294250
0.477094 0.694864 0.312365
0.530635 0.732738 0.330768
0.585246 0.771695 0.349462
0.235524 0.648117 0.265226
0.285265 0.684042 0.282878
0.336010 0.721043 0.300812
0.387780 0.759127 0.319031
0.440592 0.798302 0.337540
0.494465 0.838577 0.356341
0.549415 0.879959 0.375437
0.605458 0.922457 0.394832
0.657994 0.954743 0.412248
0.297796 0.824190 0.325736
0.349871 0.864678 0.344350
0.402998 0.906280 0.363259
0.457193 0.949004 0.382463
0.512250 0.992125 0.401830
0.562776 1.000000 0.418212
0.613302 1.000000 0.434594
0.663828 1.000000 0.450976
0.714354 1.000000 0.467359
0.364272 1.000000 0.389529
0.417032 1.000000 0.407794
0.467558 1.000000 0.424176
0.518084 1.000000 0.440558
0.568610 1.000000 0.456941
0.619135 1.000000 0.473323
0.669661 1.000000 0.489705
0.720187 1.000000 0.506088
0.770713 1.000000 0.522470
0.000000 0.000000 0.000000
0.000000 0.000000 0.004821
0.018902 0.000000 0.019199
0.061593 0.000000 0.033578
0.104284 0.000000 0.047956
0.146976 0.006065 0.062334
0.189667 0.026044 0.076712
0.232358 0.046023 0.091091
0.275049 0.066002 0.105469
0.000000 0.013656 0.038812
0.023831 0.033635 0.053190
0.066522 0.053613 0.067569
0.109213 0.073592 0.081947
0.151905 0.093571 0.096325
0.194596 0.113550 0.110703
0.237555 0.133821 0.125189
0.282082 0.155744 0.140256
0.327558 0.178584 0.155608
0.028760 0.121140 0.087182
0.071451 0.141119 0.101560
0.114143 0.161098 0.115938
0.157341 0.182212 0.130636
0.201558 0.205029 0.145814
0.246606 0.228804 0.161262
0.292515 0.253494 0.176969
0.339318 0.279099 0.192932
0.387044 0.305627 0.209156
0.076809 0.231113 0.136129
0.120618 0.254866 0.151408
0.165189 0.279616 0.166951
0.210578 0.305324 0.182750
0.256828 0.331984 0.198809
0.303976 0.359601 0.215128
0.352053 0.388184 0.231712
0.401086 0.417744 0.248566
0.451102 0.448292 0.265692
0.128125 0.357792 0.188567
0.173799 0.385532 0.204719
0.220347 0.414260 0.221135
0.267806 0.443982 0.237817
0.316203 0.474706 0.254769
0.365566 0.506441 0.271995
0.415919 0.539199 0.289499
0.467283 0.572988 0.307285
0.519679 0.607819 0.325355
0.182971 0.500491 0.243957
0.230717 0.532396 0.261008
0.279415 0.565335 0.278335
0.329090 0.599316 0.295941
0.379763 0.634349 0.313830
0.431456 0.670443 0.332005
0.484189 0.707605 0.350470
0.537979 0.745846 0.369227
0.592842 0.785174 0.388280
0.241625 0.660197 0.302421
0.291596 0.696487 0.320414
0.342577 0.733854 0.338694
0.394587 0.772308 0.357265
0.447645 0.811856 0.376129
0.501767 0.852506 0.395291
0.556971 0.894267 0.414752
0.613158 0.936853 0.434453
0.663684 0.963943 0.450836
0.304313 0.837816 0.364098
0.356630 0.878681 0.383071
0.410002 0.920663 0.402341
0.464448 0.963770 0.421913
0.517940 1.000000 0.440417
0.568465 1.000000 0.456800
0.618991 1.000000 0.473182
0.669517 1.000000 0.489564
0.720043 1.000000 0.505947
0.371223 1.000000 0.429113
0.422721 1.000000 0.446382
0.473247 1.000000 0.462764
0.523773 1.000000 0.479146
0.574299 1.000000 0.495529
0.624825 1.000000 0.511911
0.675351 1.000000 0.528293
0.725877 1.000000 0.544675
0.776403 1.000000 0.561058
0.000000 0.000000 0.024310
0.000000 0.000000 0.038689
0.023709 0.000000 0.053067
0.066400 0.000000 0.067445
0.109092 0.000000 0.081823
0.151783 0.012850 0.096201
0.194474 0.032829 0.110580
0.237165 0.052808 0.124958
0.279856 0.072787 0.139336
0.000000 0.020441 0.072680
0.028638 0.040419 0.087058
0.071330 0.060398 0.101436
0.114021 0.080377 0.115814
0.156712 0.100356 0.130193
0.199403 0.120335 0.144571
0.242840 0.141152 0.159321
0.287635 0.163403 0.174644
0.333346 0.186537 0.190260
0.033567 0.127925 0.121049
0.076259 0.147904 0.135427
0.118950 0.167883 0.149805
0.162521 0.189846 0.164863
0.206947 0.212999 0.180298
0.252205 0.237087 0.196014
0.298329 0.262087 0.212000
0.345352 0.288004 0.228255
0.393306 0.314848 0.244779
0.081837 0.239062 0.170448
0.125823 0.263163 0.185988
0.170585 0.288240 0.201803
0.216175 0.314271 0.217887
0.262636 0.341256 0.234239
0.310001 0.369200 0.250862
0.358303 0.398113 0.267758
0.407567 0.428007 0.284931
0.457819 0.458892 0.302383
0.133497 0.367102 0.223809
0.179371 0.395177 0.240260
0.226130 0.424242 0.256982
0.273806 0.454303 0.273978
0.322427 0.485369 0.291252
0.372021 0.517451 0.308807
0.422610 0.550558 0.326645
0.474215 0.584699 0.344771
0.526855 0.619886 0.363187
0.188715 0.511210 0.280235
0.236680 0.543465 0.297610
0.285603 0.576758 0.315268
0.335508 0.611095 0.333211
0.386417 0.646487 0.351442
0.438352 0.682943 0.369964
0.491330 0.720471 0.388781
0.545369 0.759080 0.407896
0.600487 0.798778 0.427311
0.247767 0.672401 0.339814
0.297970 0.709056 0.358151
0.349188 0.746791 0.376781
0.401439 0.785616 0.395706
0.454743 0.825537 0.414929
0.509115 0.866563 0.434454
0.564573 0.908702 0.454283
0.618847 0.946053 0.473041
0.669373 0.973143 0.489423
0.310874 0.851569 0.402670
0.363432 0.892813 0.422002
0.417052 0.935176 0.441638
0.471748 0.978666 0.461578
0.523629 1.000000 0.479005
0.574155 1.000000 0.495388
0.624681 1.000000 0.511770
0.675207 1.000000 0.528152
0.725733 1.000000 0.544535
0.377885 1.000000 0.468587
0.428411 1.000000 0.484970
0.478937 1.000000 0.501352
0.529463 1.000000 0.517734
0.579989 1.000000 0.534116
0.630515 1.000000 0.550499
0.681040 1.000000 0.566881
0.731566 1.000000 0.583263
0.782092 1.000000 0.599646
0.000000 0.000000 0.058178
0.000000 0.000000 0.072556
0.028517 0.000000 0.086934
0.071208 0.000000 0.101312
0.113899 0.000000 0.115691
0.156590 0.019635 0.130069
0.199281 0.039614 0.144447
0.241973 0.059593 0.158825
0.284664 0.079572 0.173204
0.000000 0.027226 0.106547
0.033446 0.047204 0.120925
0.076137 0.067183 0.135304
0.118828 0.087162 0.149682
0.161519 0.107141 0.164060
0.204210 0.127119 0.178438
0.248205 0.148605 0.193590
0.293244 0.171162 0.209179
0.339185 0.194590 0.225068
0.038375 0.134710 0.154916
0.081066 0.154689 0.169295
0.123925 0.175128 0.183862
0.167751 0.197600 0.199228
0.212381 0.221077 0.214930
0.257847 0.245475 0.230923
0.304187 0.270785 0.247197
0.351433 0.297016 0.263749
0.399614 0.324178 0.280579
0.086899 0.247134 0.204909
0.131065 0.271571 0.220719
0.176019 0.296974 0.236815
0.221812 0.323328 0.253191
0.268485 0.350637 0.269844
0.316070 0.378909 0.286776
0.364597 0.408155 0.303988
0.414094 0.438384 0.321484
0.464582 0.469609 0.339266
0.138905 0.376526 0.259221
0.184982 0.404936 0.275976
0.231952 0.434338 0.293009
0.279847 0.464740 0.310325
0.328694 0.496150 0.327925
0.378519 0.528579 0.345812
0.429345 0.562036 0.363988
0.481191 0.596531 0.382458
0.534079 0.632076 0.401223
0.194498 0.522049 0.316699
0.242683 0.554655 0.334403
0.291832 0.588301 0.352396
0.341969 0.622996 0.370678
0.393116 0.658748 0.389255
0.445292 0.695567 0.408128
0.498517 0.733461 0.427301
0.552807 0.772439 0.446775
0.608179 0.812510 0.466554
0.253950 0.684728 0.377407
0.304386 0.721749 0.396092
0.355842 0.759854 0.415073
0.408336 0.799050 0.434355
0.461887 0.839345 0.453940
0.516510 0.880749 0.473831
0.572223 0.923268 0.494030
0.624537 0.955253 0.511629
0.675063 0.982343 0.528011
0.317477 0.865450 0.441450
0.370279 0.907073 0.461146
0.424146 0.949819 0.481149
0.478793 0.992635 0.501211
0.529319 1.000000 0.517593
0.579845 1.000000 0.533976
0.630370 1.000000 0.550358
0.680896 1.000000 0.566740
0.731422 1.000000 0.583122
0.383575 1.000000 0.507175
0.434100 1.000000 0.523557
0.484626 1.000000 0.539940
0.535152 1.000000 0.556322
0.585678 1.000000 0.572704
0.636204 1.000000 0.589087
0.686730 1.000000 0.605469
0.737256 1.000000 0.621851
0.787782 1.000000 0.638233
0.000000 0.000000 0.092045
0.000000 0.000000 0.106423
0.033324 0.000000 0.120802
0.076015 0.000000 0.135180
0.118706 0.006441 0.149558
0.161397 0.026420 0.163936
0.204089 0.046399 0.178315
0.246780 0.066378 0.192693
0.289471 0.086356 0.207071
0.000000 0.034010 0.140414
0.038253 0.053989 0.154793
0.080944 0.073968 0.169171
0.123635 0.093947 0.183549
0.166327 0.113926 0.197927
0.209274 0.134223 0.212504
0.253634 0.156166 0.228001
0.298905 0.179022 0.243864
0.345073 0.202743 0.260034
0.043182 0.141495 0.188784
0.085873 0.161474 0.203162
0.128995 0.182631 0.218094
0.173025 0.205467 0.233738
0.217858 0.229260 0.249716
0.263534 0.253968 0.265994
0.310089 0.279590 0.282563
0.357558 0.306135 0.299418
0.405968 0.333616 0.316559
0.091995 0.255323 0.239519
0.136343 0.280091 0.255609
0.181492 0.305817 0.271993
0.227490 0.332495 0.288666
0.274376 0.360130 0.305625
0.322181 0.388732 0.322871
0.370936 0.418310 0.340405
0.420665 0.448876 0.358228
0.471391 0.480442 0.376344
0.144349 0.386064 0.294807
0.190631 0.414810 0.311870
0.237815 0.444550 0.329221
0.285930 0.475293 0.346860
0.335004 0.507048 0.364790
0.385062 0.539825 0.383012
0.436125 0.573634 0.401531
0.488214 0.608484 0.420347
0.541349 0.644387 0.439464
0.200321 0.533006 0.353354
0.248727 0.565964 0.371390
0.298104 0.599966 0.389720
0.348474 0.635018 0.408346
0.399859 0.671132 0.427272
0.452278 0.708315 0.446498
0.505750 0.746576 0.466029
0.560291 0.785924 0.485866
0.615918 0.826368 0.506012
0.260175 0.697180 0.415202
0.310845 0.734568 0.434236
0.362540 0.773042 0.453573
0.415278 0.812611 0.473215
0.469076 0.853282 0.493164
0.523951 0.895063 0.513423
0.579700 0.937363 0.533835
0.630226 0.964453 0.550217
0.680752 0.991542 0.566599
0.324124 0.879460 0.480442
0.377171 0.921464 0.500504
0.431286 0.964592 0.520876
0.484482 1.000000 0.539799
0.535008 1.000000 0.556181
0.585534 1.000000 0.572563
0.636060 1.000000 0.588946
0.686586 1.000000 0.605328
0.737112 1.000000 0.621710
0.389264 1.000000 0.545763
0.439790 1.000000 0.562145
0.490316 1.000000 0.578528
0.540842 1.000000 0.594910
0.591368 1.000000 0.611292
0.641894 1.000000 0.627674
0.692420 1.000000 0.644057
0.742945 1.000000 0.660439
0.793471 1.000000 0.676821
0.000000 0.000000 0.125913
0.000000 0.000000 0.140291
0.038131 0.000000 0.154669
0.080822 0.000000 0.169047
0.123514 0.013226 0.183426
0.166205 0.033205 0.197804
0.208896 0.053184 0.212182
0.251587 0.073163 0.226560
0.294602 0.093340 0.241140
0.000369 0.040795 0.174282
0.043060 0.060774 0.188660
0.085751 0.080753 0.203038
0.128443 0.100732 0.217417
0.171134 0.120710 0.231795
0.214509 0.141562 0.246771
0.259119 0.163830 0.262559
0.304616 0.186980 0.278704
0.351011 0.210996 0.295164
0.047989 0.148280 0.222651
0.090681 0.168258 0.237029
0.134115 0.190272 0.252472
0.178342 0.213444 0.268399
0.223377 0.237549 0.284661
0.269263 0.262566 0.301232
0.316036 0.288501 0.318100
0.363728 0.315362 0.335264
0.412368 0.343164 0.352721
0.097125 0.263626 0.274283
0.141657 0.288721 0.290659
0.187003 0.314770 0.307339
0.233208 0.341772 0.324315
0.280308 0.369735 0.341585
0.328336 0.398666 0.359150
0.377319 0.428579 0.377009
0.427281 0.459483 0.395164
0.478246 0.491391 0.413618
0.149830 0.395715 0.330568
0.196320 0.424798 0.347946
0.243718 0.454878 0.365618
0.292055 0.485964 0.383584
0.341358 0.518064 0.401848
0.391649 0.551190 0.420410
0.442951 0.585352 0.439273
0.495284 0.620559 0.458440
0.548666 0.656821 0.477911
0.206183 0.544082 0.390199
0.254812 0.577394 0.408571
0.304417 0.611751 0.427243
0.355022 0.647163 0.446216
0.406646 0.683639 0.465493
0.459309 0.721187 0.485076
0.513029 0.759816 0.504968
0.567823 0.799536 0.525170
0.623706 0.840354 0.545685
0.266442 0.709756 0.453199
0.317347 0.747512 0.472587
0.369282 0.786357 0.492282
0.422264 0.826299 0.512286
0.476311 0.867346 0.532602
0.531439 0.909506 0.553231
0.585390 0.946562 0.572422
0.635916 0.973652 0.588805
0.686442 1.000000 0.605187
0.330814 0.893599 0.519646
0.384106 0.935984 0.540076
0.438472 0.979495 0.560820
0.490172 1.000000 0.578387
0.540698 1.000000 0.594769
0.591224 1.000000 0.611151
0.641750 1.000000 0.627534
0.692275 1.000000 0.643916
0.742801 1.000000 0.660298
0.394954 1.000000 0.584351
0.445480 1.000000 0.600733
0.496005 1.000000 0.617115
0.546531 1.000000 0.633498
0.597057 1.000000 0.649880
0.647583 1.000000 0.666262
0.698109 1.000000 0.682645
0.748635 1.000000 0.699027
0.799161 1.000000 0.715409
0.000000 0.000000 0.159780
0.000247 0.000000 0.174158
0.042939 0.000000 0.188536
0.085630 0.000032 0.202915
0.128321 0.020011 0.217293
0.171012 0.039990 0.231671
0.213703 0.059969 0.246049
0.256394 0.079947 0.260428
0.299997 0.100517 0.275442
0.005176 0.047580 0.208149
0.047868 0.067559 0.222528
0.090559 0.087538 0.236906
0.133250 0.107517 0.251284
0.175941 0.127495 0.265662
0.219815 0.149021 0.281191
0.264656 0.171595 0.297271
0.310377 0.195039 0.313705
0.356997 0.219351 0.330461
0.052797 0.155065 0.256519
0.095627 0.175539 0.271197
0.139279 0.198033 0.287000
0.183701 0.221527 0.303215
0.228939 0.245942 0.319769
0.275036 0.271270 0.336638
0.322027 0.297518 0.353813
0.369944 0.324698 0.371290
0.418814 0.352822 0.389068
0.102289 0.272041 0.309204
0.147008 0.297461 0.325874
0.192553 0.323833 0.342855
0.238966 0.351160 0.360141
0.286283 0.379451 0.377728
0.334533 0.408714 0.395615
0.383745 0.438962 0.413804
0.433943 0.470206 0.432295
0.485148 0.502458 0.451089
0.155349 0.405480 0.366509
0.202047 0.434901 0.384205
0.249662 0.465322 0.402202
0.298222 0.496751 0.420501
0.347754 0.529199 0.439102
0.398280 0.562675 0.458007
0.449822 0.597190 0.477218
0.502399 0.632755 0.496737
0.556030 0.669377 0.516566
0.212085 0.555278 0.427238
0.260938 0.588944 0.445949
0.310774 0.623659 0.464966
0.361613 0.659431 0.484289
0.413478 0.696270 0.503920
0.466386 0.734184 0.523863
0.520355 0.773183 0.544118
0.575402 0.813274 0.564688
0.631542 0.854467 0.585574
0.272750 0.722456 0.491400
0.323892 0.760581 0.511145
0.376068 0.799798 0.531201
0.429295 0.840114 0.551570
0.483592 0.881538 0.572255
0.538974 0.924078 0.593257
0.591080 0.955762 0.611010
0.641605 0.982852 0.627393
0.692131 1.000000 0.643775
0.337548 0.907867 0.559064
0.391087 0.950634 0.579864
0.445335 0.993144 0.600592
0.495861 1.000000 0.616975
0.546387 1.000000 0.633357
0.596913 1.000000 0.649739
0.647439 1.000000 0.666121
0.697965 1.000000 0.682504
0.748491 1.000000 0.698886
0.400643 1.000000 0.622939
0.451169 1.000000 0.639321
0.501695 1.000000 0.655703
0.552221 1.000000 0.672086
0.602747 1.000000 0.688468
0.653273 1.000000 0.704850
0.703799 1.000000 0.721233
0.754325 1.000000 0.737615
0.804850 1.000000 0.753997
0.000000 0.000000 0.193647
0.005055 0.000000 0.208026
0.047746 0.000000 0.222404
0.090437 0.006817 0.236782
0.133128 0.026796 0.251160
0.175819 0.046775 0.265539
0.218511 0.066753 0.279917
0.261202 0.086732 0.294295
0.305486 0.107796 0.309902
0.009984 0.054365 0.242017
0.052675 0.074344 0.256395
0.095366 0.094323 0.270773
0.138057 0.114301 0.285151
0.180989 0.134626 0.299832
0.225179 0.156588 0.315764
0.270243 0.179460 0.332139
0.316185 0.203198 0.348869
0.363030 0.227806 0.365927
0.057604 0.161849 0.290386
0.100643 0.183051 0.305567
0.144484 0.205907 0.321681
0.189101 0.229716 0.338191
0.234543 0.254441 0.355042
0.280851 0.280081 0.372216
0.328061 0.306643 0.389703
0.376204 0.334142 0.407499
0.425306 0.362590 0.425602
0.107487 0.280566 0.344288
0.152396 0.306310 0.361258
0.198142 0.333006 0.378546
0.244765 0.360659 0.396146
0.292299 0.389279 0.414054
0.340774 0.418876 0.432269
0.390217 0.449461 0.450791
0.440650 0.481045 0.469621
0.492096 0.513642 0.488760
0.160905 0.415360 0.402630
0.207814 0.445119 0.420650
0.255646 0.475881 0.438977
0.304431 0.507655 0.457611
0.354193 0.540452 0.476553
0.404955 0.574280 0.495804
0.456738 0.609150 0.515367
0.509561 0.645073 0.535242
0.563441 0.682057 0.555431
0.218028 0.566594 0.464471
0.267106 0.600615 0.483526
0.317173 0.635688 0.502890
0.368249 0.671822 0.522566
0.420354 0.709025 0.542556
0.473508 0.747306 0.562860
0.527727 0.786675 0.583481
0.583028 0.827140 0.604421
0.639426 0.868709 0.625681
0.279101 0.735282 0.529807
0.330480 0.773776 0.549911
0.382898 0.813366 0.570330
0.436372 0.854057 0.591067
0.490919 0.895860 0.612124
0.546243 0.937872 0.633216
0.596769 0.964962 0.649598
0.647295 0.992052 0.665981
0.697821 1.000000 0.682363
0.344326 0.922265 0.598696
0.398112 0.965414 0.619869
0.451025 1.000000 0.639180
0.501551 1.000000 0.655562
0.552077 1.000000 0.671945
0.602603 1.000000 0.688327
0.653129 1.000000 0.704709
0.703655 1.000000 0.721092
0.754180 1.000000 0.737474
0.406333 1.000000 0.661527
0.456859 1.000000 0.677909
0.507385 1.000000 0.694291
0.557910 1.000000 0.710674
0.608436 1.000000 0.727056
0.658962 1.000000 0.743438
0.709488 1.000000 0.759820
0.760014 1.000000 0.776203
0.810540 1.000000 0.792585
