assets/lighting/cinematic/grade-matrix-green/lut.cube
TITLE "Matrix Green"
# TKRS lighting-batch-001 original LUT
# Intended usage: digital-rain green monochrome-ish
# License: CC0-1.0
LUT_3D_SIZE 17
DOMAIN_MIN 0.0 0.0 0.0
DOMAIN_MAX 1.0 1.0 1.0
0.000000 0.000000 0.000000
0.000000 0.000000 0.000000
0.000000 0.000000 0.000000
0.000000 0.000000 0.000000
0.009287 0.000000 0.000000
0.030633 0.000000 0.000000
0.051979 0.000000 0.000000
0.073324 0.000000 0.000000
0.094670 0.000000 0.000000
0.116015 0.000000 0.000000
0.137361 0.000000 0.000000
0.158707 0.002485 0.001788
0.180052 0.012474 0.008977
0.201398 0.022464 0.016167
0.222743 0.032453 0.023356
0.244089 0.042443 0.030545
0.265435 0.052432 0.037734
0.000000 0.000000 0.000000
0.000000 0.000000 0.000000
0.000000 0.000000 0.000000
0.011752 0.000000 0.000000
0.033098 0.000000 0.000000
0.054443 0.000000 0.000000
0.075789 0.006280 0.000000
0.097134 0.016270 0.000000
0.118480 0.026259 0.004406
0.139826 0.036248 0.011595
0.161171 0.046238 0.018784
0.182517 0.056227 0.025973
0.203862 0.066217 0.033162
0.225208 0.076206 0.040351
0.246554 0.086195 0.047540
0.267899 0.096185 0.054729
0.289245 0.106174 0.061919
0.000000 0.000086 0.000000
0.000000 0.010075 0.000000
0.014216 0.020065 0.000000
0.035562 0.030054 0.000000
0.056908 0.040044 0.000000
0.078253 0.050033 0.007023
0.099599 0.060022 0.014212
0.120944 0.070012 0.021401
0.142290 0.080001 0.028590
0.163636 0.089990 0.035779
0.184981 0.099980 0.042969
0.206327 0.109969 0.050158
0.227672 0.119959 0.057347
0.249087 0.130018 0.064549
0.271165 0.140742 0.071887
0.293532 0.151744 0.079289
0.316143 0.162976 0.086748
0.000000 0.053828 0.000000
0.016681 0.063817 0.002451
0.038027 0.073807 0.009640
0.059372 0.083796 0.016829
0.080718 0.093786 0.024018
0.102063 0.103775 0.031208
0.123409 0.113764 0.038397
0.144755 0.123754 0.045586
0.166100 0.133743 0.052775
0.187446 0.143733 0.059964
0.209030 0.154063 0.067212
0.231084 0.165018 0.074575
0.253377 0.176239 0.081998
0.275896 0.187696 0.089478
0.298637 0.199379 0.097015
0.321603 0.211285 0.104609
0.344795 0.223413 0.112260
0.019146 0.107570 0.019447
0.040491 0.117560 0.026636
0.061837 0.127549 0.033825
0.083182 0.137538 0.041014
0.104528 0.147528 0.048203
0.125873 0.157517 0.055392
0.147219 0.167507 0.062581
0.168928 0.178237 0.069885
0.190920 0.189419 0.077271
0.213127 0.200867 0.084715
0.235544 0.212555 0.092215
0.258175 0.224475 0.099773
0.281023 0.236625 0.107387
0.304091 0.249003 0.115060
0.327385 0.261608 0.122791
0.350906 0.274443 0.130581
0.374659 0.287508 0.138432
0.042956 0.161312 0.043631
0.064301 0.171302 0.050820
0.085647 0.181291 0.058010
0.107043 0.191457 0.065222
0.128755 0.202539 0.072567
0.150667 0.213952 0.079974
0.172776 0.225631 0.087439
0.195084 0.237555 0.094960
0.217599 0.249718 0.102538
0.240324 0.262116 0.110174
0.263265 0.274746 0.117868
0.286425 0.287610 0.125620
0.309810 0.300708 0.133433
0.333423 0.314040 0.141306
0.357268 0.327609 0.149240
0.381349 0.341414 0.157237
0.405668 0.355458 0.165296
0.066859 0.215634 0.067888
0.088500 0.226971 0.075257
0.110318 0.238619 0.082685
0.132320 0.250534 0.090171
0.154513 0.262700 0.097713
0.176906 0.275110 0.105311
0.199504 0.287759 0.112968
0.222313 0.300647 0.120683
0.245337 0.313773 0.128457
0.268583 0.327136 0.136292
0.292053 0.340739 0.144187
0.315752 0.354581 0.152144
0.339684 0.368665 0.160163
0.363852 0.382991 0.168246
0.388260 0.397560 0.176392
0.412910 0.412374 0.184603
0.437805 0.427435 0.192879
0.091754 0.275580 0.092910
0.113827 0.287992 0.100472
0.136093 0.300653 0.108092
0.158560 0.313558 0.115770
0.181233 0.326706 0.123507
0.204119 0.340096 0.131303
0.227222 0.353729 0.139159
0.250546 0.367605 0.147077
0.274097 0.381724 0.155056
0.297878 0.396088 0.163099
0.321893 0.410698 0.171204
0.346144 0.425555 0.179374
0.370636 0.440660 0.187608
0.395372 0.456014 0.195908
0.420354 0.471619 0.204273
0.445586 0.487477 0.212705
0.471069 0.503588 0.221205
0.117490 0.339514 0.118580
0.140024 0.352925 0.126338
0.162768 0.366584 0.134156
0.185725 0.380488 0.142035
0.208902 0.394640 0.149975
0.232302 0.409039 0.157977
0.255929 0.423686 0.166042
0.279788 0.438582 0.174171
0.303882 0.453728 0.182364
0.328215 0.469125 0.190622
0.352788 0.484775 0.198946
0.377607 0.500679 0.207335
0.402673 0.516838 0.215792
0.427989 0.533253 0.224316
0.453559 0.549925 0.232907
0.479384 0.566856 0.241567
0.505466 0.584047 0.250296
0.144092 0.407415 0.144918
0.167118 0.421845 0.152881
0.190365 0.436526 0.160906
0.213837 0.451458 0.168994
0.237538 0.466643 0.177146
0.261472 0.482080 0.185363
0.285643 0.497773 0.193645
0.310053 0.513720 0.201992
0.334706 0.529924 0.210406
0.359605 0.546386 0.218887
0.384753 0.563106 0.227436
0.410152 0.580087 0.236052
0.435805 0.597328 0.244737
0.461714 0.614832 0.253491
0.487883 0.632600 0.262315
0.514312 0.650632 0.271209
0.541005 0.668930 0.280173
0.171599 0.479407 0.171955
0.195141 0.494882 0.180130
0.218913 0.510613 0.188371
0.242920 0.526602 0.196676
0.267165 0.542849 0.205048
0.291652 0.559355 0.213486
0.316382 0.576122 0.221992
0.341359 0.593149 0.230565
0.366587 0.610439 0.239206
0.392066 0.627993 0.247916
0.417801 0.645812 0.256696
0.443793 0.663896 0.265545
0.470045 0.682247 0.274464
0.496560 0.700866 0.283454
0.523338 0.719755 0.292516
0.550383 0.738913 0.301649
0.577697 0.758343 0.310854
0.200046 0.555615 0.199716
0.224124 0.572163 0.208112
0.248442 0.588973 0.216575
0.273002 0.606046 0.225105
0.297807 0.623383 0.233703
0.322861 0.640984 0.242369
0.348167 0.658852 0.251104
0.373725 0.676986 0.259909
0.399540 0.695388 0.268784
0.425614 0.714060 0.277729
0.451948 0.733001 0.286745
0.478545 0.752214 0.295832
0.505408 0.771699 0.304992
0.532538 0.791457 0.314223
0.559938 0.811490 0.323527
0.587609 0.831798 0.332904
0.615553 0.852382 0.342354
0.229464 0.636160 0.228227
0.254097 0.653807 0.236850
0.278976 0.671722 0.245541
0.304105 0.689904 0.254302
0.329486 0.708356 0.263132
0.355123 0.727078 0.272032
0.381016 0.746071 0.281003
0.407169 0.765336 0.290045
0.433584 0.784875 0.299159
0.460264 0.804688 0.308344
0.487209 0.824776 0.317602
0.514423 0.845140 0.326932
0.541907 0.865781 0.336336
0.569663 0.886701 0.345813
0.597694 0.907899 0.355364
0.626000 0.929378 0.364990
0.652305 0.945543 0.373660
0.259881 0.721152 0.257509
0.285084 0.739923 0.266364
0.310540 0.758966 0.275290
0.336253 0.778282 0.284287
0.362223 0.797872 0.293355
0.388455 0.817738 0.302494
0.414950 0.837880 0.311706
0.441709 0.858298 0.320990
0.468736 0.878995 0.330347
0.496033 0.899971 0.339778
0.523600 0.921227 0.349282
0.551441 0.942764 0.358860
0.579433 0.964234 0.368451
0.604695 0.977779 0.376642
0.629958 0.991324 0.384833
0.655221 1.000000 0.393024
0.680484 1.000000 0.401215
0.291322 0.810693 0.287580
0.317109 0.830610 0.296674
0.343156 0.850803 0.305840
0.369465 0.871275 0.315078
0.396038 0.892026 0.324388
0.422877 0.913057 0.333772
0.449985 0.934369 0.343229
0.477362 0.955962 0.352760
0.505012 0.977838 0.362366
0.531823 0.996470 0.371433
0.557086 1.000000 0.379624
0.582349 1.000000 0.387815
0.607612 1.000000 0.396006
0.632875 1.000000 0.404197
0.658138 1.000000 0.412389
0.683401 1.000000 0.420580
0.708664 1.000000 0.428771
0.323810 0.904876 0.318459
0.350195 0.925960 0.327796
0.376845 0.947326 0.337206
0.403762 0.968974 0.346690
0.430949 0.990906 0.356249
0.458407 1.000000 0.365881
0.484214 1.000000 0.374415
0.509477 1.000000 0.382606
0.534740 1.000000 0.390797
0.560003 1.000000 0.398988
0.585266 1.000000 0.407180
0.610529 1.000000 0.415371
0.635792 1.000000 0.423562
0.661055 1.000000 0.431753
0.686318 1.000000 0.439944
0.711581 1.000000 0.448135
0.736844 1.000000 0.456326
0.357366 1.000000 0.350162
0.384360 1.000000 0.359747
0.411342 1.000000 0.369206
0.436605 1.000000 0.377397
0.461868 1.000000 0.385588
0.487131 1.000000 0.393779
0.512394 1.000000 0.401970
0.537657 1.000000 0.410162
0.562920 1.000000 0.418353
0.588183 1.000000 0.426544
0.613446 1.000000 0.434735
0.638709 1.000000 0.442926
0.663972 1.000000 0.451117
0.689235 1.000000 0.459309
0.714498 1.000000 0.467500
0.739761 1.000000 0.475691
0.765024 1.000000 0.483882
0.000000 0.000000 0.000000
0.000000 0.000000 0.000000
0.000000 0.000000 0.000000
0.000000 0.000000 0.000000
0.011691 0.000000 0.000000
0.033037 0.000000 0.000000
0.054382 0.000000 0.000000
0.075728 0.000000 0.000000
0.097073 0.000000 0.000000
0.118419 0.000000 0.004344
0.139765 0.000000 0.011533
0.161110 0.005877 0.018722
0.182456 0.015867 0.025911
0.203801 0.025856 0.033100
0.225147 0.035846 0.040289
0.246493 0.045835 0.047479
0.267838 0.055824 0.054668
0.000000 0.000000 0.000000
0.000000 0.000000 0.000000
0.000000 0.000000 0.000000
0.014156 0.000000 0.000000
0.035501 0.000000 0.000000
0.056847 0.000000 0.000000
0.078192 0.009673 0.006961
0.099538 0.019662 0.014150
0.120884 0.029651 0.021339
0.142229 0.039641 0.028528
0.163575 0.049630 0.035718
0.184920 0.059620 0.042907
0.206266 0.069609 0.050096
0.227612 0.079598 0.057285
0.248957 0.089588 0.064474
0.270303 0.099577 0.071663
0.291715 0.109615 0.078866
0.000000 0.003478 0.000000
0.000000 0.013468 0.000000
0.016620 0.023457 0.002389
0.037966 0.033447 0.009578
0.059311 0.043436 0.016768
0.080657 0.053425 0.023957
0.102002 0.063415 0.031146
0.123348 0.073404 0.038335
0.144694 0.083394 0.045524
0.166039 0.093383 0.052713
0.187385 0.103372 0.059902
0.208730 0.113362 0.067091
0.230076 0.123351 0.074281
0.251693 0.133620 0.081536
0.273868 0.144451 0.088930
0.296303 0.155534 0.096390
0.318976 0.166840 0.103910
0.000000 0.057221 0.012196
0.019085 0.067210 0.019385
0.040430 0.077199 0.026574
0.061776 0.087189 0.033763
0.083121 0.097178 0.040952
0.104467 0.107168 0.048141
0.125813 0.117157 0.055330
0.147158 0.127146 0.062520
0.168504 0.137136 0.069709
0.189849 0.147125 0.076898
0.211635 0.157749 0.084220
0.233758 0.168801 0.091639
0.256112 0.180104 0.099121
0.278688 0.191638 0.106662
0.301486 0.203397 0.114262
0.324508 0.215379 0.121921
0.347757 0.227583 0.129639
0.021549 0.110963 0.036380
0.042895 0.120952 0.043570
0.064240 0.130942 0.050759
0.085586 0.140931 0.057948
0.106932 0.150920 0.065137
0.128277 0.160910 0.072326
0.149686 0.171039 0.079541
0.171511 0.182002 0.086913
0.193561 0.193279 0.094356
0.215822 0.204809 0.101859
0.238292 0.216577 0.109422
0.260977 0.228576 0.117043
0.283879 0.240803 0.124724
0.307002 0.253258 0.132464
0.330351 0.265941 0.140264
0.353928 0.278854 0.148126
0.377738 0.291998 0.156049
0.045359 0.164705 0.060565
0.066705 0.174694 0.067754
0.088050 0.184684 0.074943
0.109541 0.195173 0.082215
0.131308 0.206383 0.089616
0.153270 0.217890 0.097081
0.175428 0.229653 0.104606
0.197787 0.241659 0.112190
0.220352 0.253902 0.119833
0.243130 0.266379 0.127535
0.266123 0.279089 0.135297
0.289338 0.292032 0.143119
0.312777 0.305209 0.151003
0.336446 0.318622 0.158949
0.360347 0.332270 0.166957
0.384484 0.346157 0.175029
0.408861 0.360282 0.183165
0.069332 0.219443 0.084901
0.091017 0.230895 0.092326
0.112879 0.242636 0.099813
0.134927 0.254638 0.107360
0.157168 0.266888 0.114965
0.179609 0.279379 0.122630
0.202257 0.292109 0.130354
0.225117 0.305078 0.138138
0.248195 0.318284 0.145982
0.271493 0.331729 0.153889
0.295018 0.345413 0.161857
0.318772 0.359337 0.169889
0.342760 0.373503 0.177984
0.366985 0.387911 0.186143
0.391449 0.402563 0.194367
0.416158 0.417461 0.202656
0.441112 0.432606 0.211011
0.094314 0.279767 0.110122
0.116432 0.292264 0.117749
0.138745 0.305008 0.125435
0.161260 0.317996 0.133180
0.183983 0.331226 0.140987
0.206920 0.344699 0.148854
0.230075 0.358414 0.156783
0.253452 0.372373 0.164774
0.277057 0.386575 0.172828
0.300893 0.401022 0.180947
0.324963 0.415716 0.189129
0.349272 0.430657 0.197377
0.373821 0.445846 0.205690
0.398615 0.461286 0.214070
0.423656 0.476976 0.222516
0.448947 0.492920 0.231030
0.474490 0.509117 0.239611
0.120135 0.344041 0.136015
0.142718 0.357536 0.143844
0.165511 0.371278 0.151733
0.188520 0.385267 0.159685
0.211748 0.399502 0.167699
0.235201 0.413985 0.175776
0.258883 0.428716 0.183918
0.282797 0.443697 0.192124
0.306947 0.458929 0.200396
0.331335 0.474412 0.208733
0.355967 0.490148 0.217137
0.380843 0.506138 0.225608
0.405968 0.522384 0.234146
0.431343 0.538886 0.242753
0.456973 0.555646 0.251428
0.482858 0.572665 0.260172
0.509002 0.589945 0.268986
0.146827 0.412288 0.162595
0.169904 0.426803 0.170632
0.193203 0.441569 0.178733
0.216728 0.456586 0.186898
0.240484 0.471857 0.195128
0.264473 0.487381 0.203423
0.288699 0.503160 0.211785
0.313166 0.519194 0.220213
0.337876 0.535486 0.228708
0.362833 0.552035 0.237272
0.388040 0.568844 0.245903
0.413498 0.585913 0.254603
0.439211 0.603243 0.263373
0.465181 0.620837 0.272212
0.491410 0.638694 0.281122
0.517902 0.656817 0.290102
0.544657 0.675205 0.299153
0.174427 0.484633 0.189887
0.198022 0.500196 0.198140
0.221849 0.516014 0.206460
0.245911 0.532091 0.214846
0.270212 0.548425 0.223298
0.294755 0.565020 0.231818
0.319543 0.581875 0.240406
0.344578 0.598992 0.249062
0.369864 0.616371 0.257788
0.395403 0.634015 0.266583
0.421198 0.651923 0.275448
0.447251 0.670098 0.284383
0.473564 0.688540 0.293389
0.500140 0.707251 0.302466
0.526981 0.726231 0.311616
0.554089 0.745481 0.320837
0.581466 0.765004 0.330131
0.202971 0.561206 0.217915
0.227104 0.577843 0.226392
0.251478 0.594742 0.234937
0.276095 0.611904 0.243550
0.300958 0.629330 0.252231
0.326070 0.647022 0.260982
0.351434 0.664980 0.269802
0.377052 0.683205 0.278692
0.402927 0.701699 0.287653
0.429061 0.720462 0.296685
0.455457 0.739496 0.305789
0.482116 0.758801 0.314965
0.509041 0.778378 0.324213
0.536234 0.798230 0.333533
0.563696 0.818356 0.342927
0.591431 0.838758 0.352395
0.619440 0.859436 0.361936
0.232489 0.642123 0.246702
0.257178 0.659861 0.255409
0.282115 0.677867 0.264185
0.307303 0.696140 0.273030
0.332743 0.714684 0.281947
0.358439 0.733498 0.290933
0.384392 0.752583 0.299991
0.410606 0.771941 0.309121
0.437083 0.791573 0.318323
0.463824 0.811479 0.327597
0.490831 0.831660 0.336945
0.518108 0.852119 0.346365
0.545655 0.872854 0.355860
0.573475 0.893868 0.365428
0.601570 0.915162 0.375071
0.629886 0.936598 0.384763
0.655149 0.950143 0.392954
0.263008 0.727496 0.276268
0.288269 0.746359 0.285210
0.313785 0.765495 0.294223
0.339557 0.784904 0.303307
0.365588 0.804588 0.312463
0.391880 0.824547 0.321691
0.418436 0.844783 0.330992
0.445258 0.865296 0.340366
0.472347 0.886087 0.349813
0.499706 0.907158 0.359335
0.527337 0.928509 0.368930
0.555241 0.950142 0.378600
0.582277 0.968834 0.387745
0.607540 0.982379 0.395936
0.632803 0.995924 0.404127
0.658066 1.000000 0.412318
0.683329 1.000000 0.420509
0.294554 0.817426 0.306632
0.320401 0.837436 0.315814
0.346508 0.857725 0.325069
0.372878 0.878291 0.334396
0.399512 0.899137 0.343797
0.426413 0.920263 0.353271
0.453583 0.941670 0.362819
0.481024 0.963359 0.372442
0.508737 0.985331 0.382140
0.534668 1.000000 0.390727
0.559931 1.000000 0.398918
0.585194 1.000000 0.407109
0.610457 1.000000 0.415300
0.635720 1.000000 0.423491
0.660983 1.000000 0.431683
0.686246 1.000000 0.439874
0.711509 1.000000 0.448065
0.327148 0.912005 0.337810
0.353595 0.933184 0.347238
0.380306 0.954646 0.356739
0.407286 0.976390 0.366314
0.434535 0.998419 0.375964
0.461796 1.000000 0.385518
0.487059 1.000000 0.393709
0.512322 1.000000 0.401900
0.537585 1.000000 0.410091
0.562848 1.000000 0.418282
0.588111 1.000000 0.426473
0.613374 1.000000 0.434665
0.638637 1.000000 0.442856
0.663900 1.000000 0.451047
0.689163 1.000000 0.459238
0.714426 1.000000 0.467429
0.739689 1.000000 0.475620
0.360813 1.000000 0.369819
0.387870 1.000000 0.379496
0.414187 1.000000 0.388500
0.439450 1.000000 0.396691
0.464713 1.000000 0.404882
0.489976 1.000000 0.413073
0.515239 1.000000 0.421264
0.540502 1.000000 0.429456
0.565765 1.000000 0.437647
0.591028 1.000000 0.445838
0.616291 1.000000 0.454029
0.641554 1.000000 0.462220
0.666817 1.000000 0.470411
0.692080 1.000000 0.478602
0.717343 1.000000 0.486794
0.742605 1.000000 0.494985
0.767868 1.000000 0.503176
0.000000 0.000000 0.000000
0.000000 0.000000 0.000000
0.000000 0.000000 0.000000
0.000000 0.000000 0.000000
0.014095 0.000000 0.000000
0.035440 0.000000 0.000000
0.056786 0.000000 0.000000
0.078131 0.000000 0.006899
0.099477 0.000000 0.014088
0.120823 0.000000 0.021278
0.142168 0.000000 0.028467
0.163514 0.009270 0.035656
0.184859 0.019259 0.042845
0.206205 0.029249 0.050034
0.227551 0.039238 0.057223
0.248896 0.049227 0.064412
0.270242 0.059217 0.071601
0.000000 0.000000 0.000000
0.000000 0.000000 0.000000
0.000000 0.000000 0.000000
0.016559 0.000000 0.002327
0.037905 0.000000 0.009517
0.059250 0.003076 0.016706
0.080596 0.013065 0.023895
0.101942 0.023054 0.031084
0.123287 0.033044 0.038273
0.144633 0.043033 0.045462
0.165978 0.053023 0.052651
0.187324 0.063012 0.059840
0.208670 0.073001 0.067030
0.230015 0.082991 0.074219
0.251361 0.092980 0.081408
0.272706 0.102970 0.088597
0.294351 0.113182 0.095860
0.000000 0.006871 0.004945
0.000000 0.016860 0.012134
0.019024 0.026850 0.019323
0.040369 0.036839 0.026512
0.061715 0.046828 0.033701
0.083061 0.056818 0.040890
0.104406 0.066807 0.048079
0.125752 0.076797 0.055269
0.147097 0.086786 0.062458
0.168443 0.096775 0.069647
0.189789 0.106765 0.076836
0.211134 0.116754 0.084025
0.232480 0.126744 0.091214
0.254336 0.137266 0.098554
0.276589 0.148189 0.106006
0.299089 0.159349 0.113525
0.321823 0.170730 0.121106
0.000143 0.060613 0.029129
0.021488 0.070602 0.036319
0.042834 0.080592 0.043508
0.064179 0.090581 0.050697
0.085525 0.100571 0.057886
0.106871 0.110560 0.065075
0.128216 0.120549 0.072264
0.149562 0.130539 0.079453
0.170907 0.140528 0.086642
0.192324 0.150625 0.093858
0.214260 0.161471 0.101258
0.236448 0.172613 0.108736
0.258860 0.183996 0.116278
0.281492 0.195607 0.123881
0.304346 0.207442 0.131546
0.327425 0.219498 0.139271
0.350730 0.231778 0.147058
0.023953 0.114355 0.053314
0.045298 0.124345 0.060503
0.066644 0.134334 0.067692
0.087990 0.144323 0.074881
0.109335 0.154313 0.082071
0.130681 0.164302 0.089260
0.152218 0.174717 0.096541
0.174110 0.185801 0.103973
0.196215 0.197168 0.111474
0.218528 0.208780 0.119039
0.241052 0.220626 0.126665
0.263790 0.232703 0.134351
0.286746 0.245007 0.142099
0.309924 0.257540 0.149908
0.333328 0.270301 0.157779
0.356962 0.283292 0.165712
0.380828 0.296514 0.173708
0.047763 0.168097 0.077499
0.069109 0.178087 0.084688
0.090454 0.188076 0.091877
0.112055 0.198941 0.099238
0.133873 0.210260 0.106696
0.155884 0.221857 0.114221
0.178091 0.233704 0.121808
0.200500 0.245791 0.129456
0.223117 0.258113 0.137165
0.245946 0.270669 0.144935
0.268992 0.283458 0.152766
0.292261 0.296481 0.160660
0.315755 0.309738 0.168616
0.339479 0.323230 0.176635
0.363437 0.336959 0.184718
0.387631 0.350927 0.192866
0.412066 0.365134 0.201078
0.071815 0.223296 0.101945
0.093543 0.234852 0.109428
0.115450 0.246684 0.116976
0.137543 0.258771 0.124585
0.159832 0.271103 0.132256
0.182323 0.283675 0.139987
0.205021 0.296487 0.147779
0.227932 0.309536 0.155633
0.251062 0.322823 0.163549
0.274414 0.336349 0.171528
0.297993 0.350115 0.179571
0.321803 0.364121 0.187677
0.345847 0.378369 0.195848
0.370128 0.392860 0.204085
0.394651 0.407595 0.212387
0.419417 0.422577 0.220755
0.444430 0.437806 0.229191
0.096883 0.283983 0.127371
0.119046 0.296565 0.135063
0.141406 0.309392 0.142816
0.163970 0.322462 0.150631
0.186743 0.335775 0.158508
0.209730 0.349330 0.166447
0.232938 0.363127 0.174449
0.256369 0.377168 0.182514
0.280028 0.391454 0.190644
0.303919 0.405985 0.198839
0.328045 0.420762 0.207100
0.352410 0.435787 0.215426
0.377017 0.451061 0.223819
0.401869 0.466586 0.232279
0.426969 0.482363 0.240806
0.452319 0.498392 0.249402
0.477923 0.514676 0.258067
0.122790 0.348596 0.153491
0.145421 0.362175 0.161391
0.168264 0.376001 0.169353
0.191324 0.390073 0.177378
0.214605 0.404393 0.185467
0.238111 0.418960 0.193620
0.261847 0.433776 0.201839
0.285816 0.448842 0.210123
0.310021 0.464159 0.218474
0.334467 0.479727 0.226891
0.359156 0.495550 0.235375
0.384090 0.511627 0.243928
0.409274 0.527959 0.252549
0.434709 0.544549 0.261238
0.460398 0.561397 0.269997
0.486344 0.578504 0.278826
0.512549 0.595873 0.287725
0.149571 0.417189 0.180315
0.172700 0.431789 0.188428
0.196051 0.446640 0.196605
0.219630 0.461744 0.204847
0.243439 0.477100 0.213156
0.267483 0.492711 0.221530
0.291766 0.508576 0.229972
0.316289 0.524698 0.238481
0.341057 0.541077 0.247058
0.366073 0.557714 0.255704
0.391338 0.574611 0.264419
0.416855 0.591769 0.273203
0.442628 0.609189 0.282058
0.468659 0.626872 0.290983
0.494950 0.644819 0.299979
0.521503 0.663032 0.309046
0.548320 0.681511 0.318185
0.177266 0.489890 0.207864
0.200914 0.505539 0.216197
0.224795 0.521445 0.224596
0.248913 0.537609 0.233062
0.273270 0.554032 0.241596
0.297869 0.570715 0.250198
0.322714 0.587658 0.258869
0.347808 0.604864 0.267609
0.373153 0.622333 0.276419
0.398751 0.640067 0.285299
0.424606 0.658066 0.294250
0.450720 0.676331 0.303271
0.477094 0.694864 0.312365
0.503732 0.713666 0.321530
0.530635 0.732738 0.330768
0.557806 0.752081 0.340078
0.585246 0.771695 0.349462
0.205906 0.566826 0.236161
0.230095 0.583552 0.244720
0.254525 0.600541 0.253347
0.279198 0.617792 0.262043
0.304119 0.635309 0.270808
0.329290 0.653091 0.279644
0.354712 0.671139 0.288549
0.380390 0.689456 0.297526
0.406325 0.708041 0.306574
0.432520 0.726896 0.315693
0.458977 0.746021 0.324885
0.485698 0.765419 0.334149
0.512685 0.785089 0.343486
0.539941 0.805034 0.352896
0.567467 0.825253 0.362380
0.595266 0.845749 0.371939
0.623338 0.866522 0.381572
0.235524 0.648117 0.265226
0.260270 0.665946 0.274017
0.285265 0.684042 0.282878
0.310511 0.702408 0.291809
0.336010 0.721043 0.300812
0.361766 0.739949 0.309885
0.387780 0.759127 0.319031
0.414054 0.778577 0.328249
0.440592 0.798302 0.337540
0.467395 0.818302 0.346903
0.494465 0.838577 0.356341
0.521805 0.859129 0.365852
0.549415 0.879959 0.375437
0.577299 0.901069 0.385097
0.605458 0.922457 0.394832
0.632731 0.941198 0.404057
0.657994 0.954743 0.412248
0.266146 0.733872 0.295078
0.291465 0.752827 0.304107
0.317040 0.772056 0.313207
0.342872 0.791558 0.322379
0.368963 0.811335 0.331623
0.395317 0.831388 0.340940
0.421934 0.851718 0.350331
0.448818 0.872326 0.359795
0.475969 0.893212 0.369333
0.503391 0.914378 0.378945
0.531086 0.935824 0.388633
0.559054 0.957552 0.398395
0.585122 0.973434 0.407039
0.610385 0.986979 0.415230
0.635648 1.000000 0.423421
0.660911 1.000000 0.431612
0.686174 1.000000 0.439803
0.297796 0.824190 0.325736
0.323703 0.844295 0.335007
0.349871 0.864678 0.344350
0.376302 0.885339 0.353768
0.402998 0.906280 0.363259
0.429961 0.927501 0.372824
0.457193 0.949004 0.382463
0.484697 0.970789 0.392178
0.512250 0.992125 0.401830
0.537513 1.000000 0.410021
0.562776 1.000000 0.418212
0.588039 1.000000 0.426403
0.613302 1.000000 0.434594
0.638565 1.000000 0.442785
0.663828 1.000000 0.450976
0.689091 1.000000 0.459168
0.714354 1.000000 0.467359
0.330498 0.919166 0.357214
0.357005 0.940441 0.366732
0.383779 0.961999 0.376325
0.410820 0.983840 0.385991
0.438132 1.000000 0.395733
0.464641 1.000000 0.404812
0.489904 1.000000 0.413003
0.515167 1.000000 0.421194
0.540430 1.000000 0.429385
0.565693 1.000000 0.437576
0.590956 1.000000 0.445767
0.616219 1.000000 0.453959
0.641482 1.000000 0.462150
0.666745 1.000000 0.470341
0.692008 1.000000 0.478532
0.717270 1.000000 0.486723
0.742533 1.000000 0.494914
0.364272 1.000000 0.389529
0.391391 1.000000 0.399299
0.417032 1.000000 0.407794
0.442295 1.000000 0.415985
0.467558 1.000000 0.424176
0.492821 1.000000 0.432367
0.518084 1.000000 0.440558
0.543347 1.000000 0.448750
0.568610 1.000000 0.456941
0.593873 1.000000 0.465132
0.619135 1.000000 0.473323
0.644398 1.000000 0.481514
0.669661 1.000000 0.489705
0.694924 1.000000 0.497896
0.720187 1.000000 0.506088
0.745450 1.000000 0.514279
0.770713 1.000000 0.522470
0.000000 0.000000 0.000000
0.000000 0.000000 0.000000
0.000000 0.000000 0.000000
0.000000 0.000000 0.000000
0.016498 0.000000 0.002266
0.037844 0.000000 0.009455
0.059190 0.000000 0.016644
0.080535 0.000000 0.023833
0.101881 0.000000 0.031022
0.123226 0.000000 0.038211
0.144572 0.002673 0.045400
0.165918 0.012662 0.052589
0.187263 0.022652 0.059779
0.208609 0.032641 0.066968
