assets/lighting/cinematic/grade-interior-ambient-soft/lut.cube
TITLE "Interior Ambient Soft"
# TKRS lighting-batch-001 original LUT
# Intended usage: soft bounced interior, gentle roll-off
# License: CC0-1.0
LUT_3D_SIZE 17
DOMAIN_MIN 0.0 0.0 0.0
DOMAIN_MAX 1.0 1.0 1.0
0.092155 0.091237 0.094771
0.148149 0.092253 0.095787
0.201858 0.093228 0.096762
0.254324 0.094180 0.097714
0.305934 0.095117 0.098651
0.356892 0.096042 0.099576
0.407324 0.096958 0.100491
0.457316 0.097865 0.101399
0.506931 0.098766 0.102299
0.556215 0.099660 0.103194
0.605205 0.100549 0.104083
0.653932 0.101434 0.104968
0.702419 0.102314 0.105848
0.750686 0.103190 0.106724
0.798751 0.104063 0.107596
0.846628 0.104932 0.108465
0.894331 0.105797 0.109331
0.095520 0.148697 0.098135
0.151513 0.149713 0.099151
0.205222 0.150688 0.100126
0.257688 0.151640 0.101078
0.309298 0.152577 0.102015
0.360256 0.153502 0.102940
0.410688 0.154417 0.103856
0.460680 0.155325 0.104763
0.510295 0.156225 0.105664
0.559579 0.157120 0.106558
0.608570 0.158009 0.107447
0.657296 0.158894 0.108332
0.705783 0.159774 0.109212
0.754050 0.160650 0.110088
0.802115 0.161522 0.110961
0.849993 0.162391 0.111830
0.897695 0.163257 0.112695
0.098768 0.204178 0.101383
0.154762 0.205195 0.102400
0.208471 0.206170 0.103375
0.260937 0.207122 0.104327
0.312547 0.208059 0.105264
0.363504 0.208984 0.106189
0.413936 0.209899 0.107104
0.463929 0.210806 0.108011
0.513543 0.211707 0.108912
0.562828 0.212602 0.109807
0.611818 0.213491 0.110696
0.660545 0.214375 0.111580
0.709032 0.215255 0.112460
0.757299 0.216132 0.113337
0.805364 0.217004 0.114209
0.853241 0.217873 0.115078
0.900944 0.218739 0.115944
0.101953 0.258578 0.104568
0.157947 0.259595 0.105585
0.211656 0.260570 0.106560
0.264122 0.261522 0.107512
0.315732 0.262459 0.108449
0.366689 0.263384 0.109374
0.417121 0.264299 0.110289
0.467114 0.265207 0.111197
0.516728 0.266107 0.112097
0.566013 0.267002 0.112992
0.615003 0.267891 0.113881
0.663730 0.268775 0.114765
0.712217 0.269655 0.115646
0.760484 0.270532 0.116522
0.808549 0.271404 0.117394
0.856426 0.272273 0.118263
0.904129 0.273139 0.119129
0.105095 0.312231 0.107710
0.161088 0.313247 0.108726
0.214797 0.314222 0.109701
0.267263 0.315174 0.110653
0.318873 0.316111 0.111590
0.369831 0.317036 0.112515
0.420263 0.317951 0.113431
0.470255 0.318859 0.114338
0.519870 0.319759 0.115239
0.569154 0.320654 0.116133
0.618145 0.321543 0.117022
0.666871 0.322428 0.117907
0.715358 0.323308 0.118787
0.763625 0.324184 0.119663
0.811690 0.325056 0.120535
0.859568 0.325925 0.121405
0.907270 0.326791 0.122270
0.108203 0.365312 0.110818
0.164196 0.366328 0.111834
0.217905 0.367303 0.112809
0.270371 0.368255 0.113761
0.321981 0.369192 0.114698
0.372939 0.370117 0.115623
0.423371 0.371033 0.116538
0.473363 0.371940 0.117446
0.522978 0.372841 0.118346
0.572262 0.373735 0.119241
0.621253 0.374624 0.120130
0.669979 0.375509 0.121015
0.718466 0.376389 0.121895
0.766733 0.377265 0.122771
0.814798 0.378137 0.123643
0.862676 0.379007 0.124512
0.910378 0.379872 0.125378
0.111283 0.417932 0.113899
0.167277 0.418948 0.114915
0.220986 0.419923 0.115890
0.273452 0.420876 0.116842
0.325062 0.421812 0.117779
0.376020 0.422737 0.118704
0.426452 0.423653 0.119619
0.476444 0.424560 0.120527
0.526059 0.425461 0.121427
0.575343 0.426355 0.122322
0.624333 0.427245 0.123211
0.673060 0.428129 0.124096
0.721547 0.429009 0.124976
0.769814 0.429885 0.125852
0.817879 0.430758 0.126724
0.865756 0.431627 0.127593
0.913459 0.432493 0.128459
0.114342 0.470166 0.116957
0.170335 0.471182 0.117973
0.224044 0.472157 0.118948
0.276510 0.473109 0.119900
0.328120 0.474046 0.120837
0.379078 0.474971 0.121762
0.429510 0.475887 0.122678
0.479502 0.476794 0.123585
0.529117 0.477695 0.124486
0.578401 0.478589 0.125380
0.627392 0.479478 0.126269
0.676118 0.480363 0.127154
0.724605 0.481243 0.128034
0.772872 0.482119 0.128910
0.820937 0.482992 0.129783
0.868815 0.483861 0.130652
0.916517 0.484727 0.131517
0.117381 0.522068 0.119996
0.173374 0.523084 0.121012
0.227083 0.524059 0.121987
0.279549 0.525011 0.122939
0.331159 0.525948 0.123876
0.382117 0.526873 0.124801
0.432549 0.527789 0.125716
0.482541 0.528696 0.126624
0.532156 0.529597 0.127524
0.581440 0.530491 0.128419
0.630431 0.531380 0.129308
0.679157 0.532265 0.130193
0.727644 0.533145 0.131073
0.775911 0.534021 0.131949
0.823976 0.534893 0.132821
0.871854 0.535763 0.133690
0.919556 0.536628 0.134556
0.120402 0.573679 0.123018
0.176396 0.574695 0.124034
0.230105 0.575670 0.125009
0.282571 0.576622 0.125961
0.334181 0.577559 0.126898
0.385139 0.578484 0.127823
0.435571 0.579399 0.128738
0.485563 0.580307 0.129646
0.535178 0.581207 0.130546
0.584462 0.582102 0.131441
0.633452 0.582991 0.132330
0.682179 0.583876 0.133215
0.730666 0.584756 0.134095
0.778933 0.585632 0.134971
0.826998 0.586504 0.135843
0.874875 0.587373 0.136712
0.922578 0.588239 0.137578
0.123409 0.625031 0.126024
0.179403 0.626047 0.127041
0.233111 0.627022 0.128015
0.285578 0.627974 0.128968
0.337188 0.628911 0.129905
0.388145 0.629836 0.130830
0.438577 0.630752 0.131745
0.488570 0.631659 0.132652
0.538184 0.632560 0.133553
0.587468 0.633454 0.134448
0.636459 0.634343 0.135337
0.685186 0.635228 0.136221
0.733672 0.636108 0.137101
0.781940 0.636984 0.137977
0.830005 0.637856 0.138850
0.877882 0.638726 0.139719
0.925585 0.639591 0.140585
0.126402 0.676150 0.129017
0.182396 0.677166 0.130034
0.236104 0.678141 0.131009
0.288571 0.679093 0.131961
0.340181 0.680030 0.132898
0.391138 0.680955 0.133823
0.441570 0.681871 0.134738
0.491563 0.682778 0.135645
0.541177 0.683679 0.136546
0.590462 0.684573 0.137441
0.639452 0.685462 0.138330
0.688179 0.686347 0.139214
0.736665 0.687227 0.140094
0.784933 0.688103 0.140971
0.832998 0.688976 0.141843
0.880875 0.689845 0.142712
0.928578 0.690711 0.143578
0.129383 0.727057 0.131998
0.185376 0.728074 0.133014
0.239085 0.729049 0.133989
0.291551 0.730001 0.134941
0.343161 0.730938 0.135878
0.394119 0.731863 0.136803
0.444551 0.732778 0.137719
0.494543 0.733686 0.138626
0.544158 0.734586 0.139527
0.593442 0.735481 0.140421
0.642433 0.736370 0.141310
0.691159 0.737254 0.142195
0.739646 0.738134 0.143075
0.787913 0.739011 0.143951
0.835978 0.739883 0.144824
0.883856 0.740752 0.145693
0.931558 0.741618 0.146558
0.132352 0.777771 0.134967
0.188346 0.778787 0.135984
0.242054 0.779762 0.136958
0.294521 0.780714 0.137911
0.346130 0.781651 0.138848
0.397088 0.782576 0.139772
0.447520 0.783492 0.140688
0.497512 0.784399 0.141595
0.547127 0.785300 0.142496
0.596411 0.786194 0.143390
0.645402 0.787083 0.144280
0.694129 0.787968 0.145164
0.742615 0.788848 0.146044
0.790883 0.789724 0.146920
0.838948 0.790597 0.147793
0.886825 0.791466 0.148662
0.934528 0.792331 0.149528
0.135311 0.828305 0.137926
0.191304 0.829322 0.138942
0.245013 0.830297 0.139917
0.297479 0.831249 0.140870
0.349089 0.832186 0.141806
0.400047 0.833111 0.142731
0.450479 0.834026 0.143647
0.500471 0.834934 0.144554
0.550086 0.835834 0.145455
0.599370 0.836729 0.146349
0.648361 0.837618 0.147239
0.697087 0.838502 0.148123
0.745574 0.839383 0.149003
0.793841 0.840259 0.149879
0.841906 0.841131 0.150752
0.889784 0.842000 0.151621
0.937487 0.842866 0.152487
0.138260 0.878674 0.140875
0.194253 0.879691 0.141891
0.247962 0.880665 0.142866
0.300428 0.881618 0.143819
0.352038 0.882555 0.144755
0.402996 0.883479 0.145680
0.453428 0.884395 0.146596
0.503420 0.885302 0.147503
0.553035 0.886203 0.148404
0.602319 0.887097 0.149298
0.651310 0.887987 0.150188
0.700036 0.888871 0.151072
0.748523 0.889751 0.151952
0.796791 0.890627 0.152828
0.844856 0.891500 0.153701
0.892733 0.892369 0.154570
0.940436 0.893235 0.155436
0.141200 0.928888 0.143815
0.197193 0.929904 0.144831
0.250902 0.930879 0.145806
0.303368 0.931832 0.146759
0.354978 0.932768 0.147695
0.405936 0.933693 0.148620
0.456368 0.934609 0.149536
0.506360 0.935516 0.150443
0.555975 0.936417 0.151344
0.605259 0.937311 0.152238
0.654250 0.938201 0.153128
0.702976 0.939085 0.154012
0.751463 0.939965 0.154892
0.799731 0.940841 0.155768
0.847796 0.941714 0.156641
0.895673 0.942583 0.157510
0.943376 0.943449 0.158376
0.092492 0.091573 0.148669
0.148485 0.092589 0.149685
0.202194 0.093564 0.150660
0.254660 0.094517 0.151612
0.306270 0.095453 0.152549
0.357228 0.096378 0.153474
0.407660 0.097294 0.154389
0.457652 0.098201 0.155297
0.507267 0.099102 0.156197
0.556551 0.099996 0.157092
0.605542 0.100886 0.157981
0.654268 0.101770 0.158866
0.702755 0.102650 0.159746
0.751022 0.103526 0.160622
0.799087 0.104399 0.161494
0.846965 0.105268 0.162363
0.894667 0.106134 0.163229
0.095856 0.149033 0.152033
0.151849 0.150049 0.153049
0.205558 0.151024 0.154024
0.258025 0.151976 0.154976
0.309634 0.152913 0.155913
0.360592 0.153838 0.156838
0.411024 0.154754 0.157754
0.461016 0.155661 0.158661
0.510631 0.156562 0.159562
0.559915 0.157456 0.160456
0.608906 0.158345 0.161345
0.657633 0.159230 0.162230
0.706119 0.160110 0.163110
0.754387 0.160986 0.163986
0.802452 0.161859 0.164859
0.850329 0.162728 0.165728
0.898032 0.163593 0.166594
0.099104 0.204515 0.155281
0.155098 0.205531 0.156298
0.208807 0.206506 0.157273
0.261273 0.207458 0.158225
0.312883 0.208395 0.159162
0.363841 0.209320 0.160087
0.414273 0.210235 0.161002
0.464265 0.211143 0.161910
0.513880 0.212043 0.162810
0.563164 0.212938 0.163705
0.612154 0.213827 0.164594
0.660881 0.214712 0.165478
0.709368 0.215592 0.166358
0.757635 0.216468 0.167235
0.805700 0.217340 0.168107
0.853577 0.218209 0.168976
0.901280 0.219075 0.169842
0.102290 0.258915 0.158466
0.158283 0.259931 0.159483
0.211992 0.260906 0.160458
0.264458 0.261858 0.161410
0.316068 0.262795 0.162347
0.367026 0.263720 0.163272
0.417458 0.264635 0.164187
0.467450 0.265543 0.165095
0.517065 0.266443 0.165995
0.566349 0.267338 0.166890
0.615340 0.268227 0.167779
0.664066 0.269112 0.168664
0.712553 0.269992 0.169544
0.760820 0.270868 0.170420
0.808885 0.271740 0.171292
0.856763 0.272609 0.172161
0.904465 0.273475 0.173027
0.105431 0.312567 0.161608
0.161424 0.313583 0.162624
0.215133 0.314558 0.163599
0.267599 0.315510 0.164551
0.319209 0.316447 0.165488
0.370167 0.317372 0.166413
0.420599 0.318288 0.167329
0.470591 0.319195 0.168236
0.520206 0.320096 0.169137
0.569490 0.320990 0.170031
0.618481 0.321879 0.170920
0.667207 0.322764 0.171805
0.715694 0.323644 0.172685
0.763962 0.324520 0.173561
0.812027 0.325392 0.174434
0.859904 0.326262 0.175303
0.907607 0.327127 0.176168
0.108539 0.365648 0.164716
0.164532 0.366664 0.165732
0.218241 0.367639 0.166707
0.270707 0.368592 0.167659
0.322317 0.369528 0.168596
0.373275 0.370453 0.169521
0.423707 0.371369 0.170436
0.473699 0.372276 0.171344
0.523314 0.373177 0.172244
0.572598 0.374071 0.173139
0.621589 0.374961 0.174028
0.670315 0.375845 0.174913
0.718802 0.376725 0.175793
0.767069 0.377601 0.176669
0.815134 0.378474 0.177541
0.863012 0.379343 0.178410
0.910715 0.380209 0.179276
0.111620 0.418268 0.167797
0.167613 0.419285 0.168813
0.221322 0.420259 0.169788
0.273788 0.421212 0.170740
0.325398 0.422149 0.171677
0.376356 0.423074 0.172602
0.426788 0.423989 0.173517
0.476780 0.424896 0.174425
0.526395 0.425797 0.175325
0.575679 0.426692 0.176220
0.624670 0.427581 0.177109
0.673396 0.428465 0.177994
0.721883 0.429345 0.178874
0.770150 0.430221 0.179750
0.818215 0.431094 0.180622
0.866093 0.431963 0.181491
0.913795 0.432829 0.182357
0.114678 0.470502 0.170855
0.170672 0.471519 0.171871
0.224380 0.472493 0.172846
0.276847 0.473446 0.173799
0.328456 0.474383 0.174735
0.379414 0.475308 0.175660
0.429846 0.476223 0.176576
0.479838 0.477130 0.177483
0.529453 0.478031 0.178384
0.578737 0.478926 0.179278
0.627728 0.479815 0.180168
0.676455 0.480699 0.181052
0.724941 0.481579 0.181932
0.773209 0.482455 0.182808
0.821274 0.483328 0.183681
0.869151 0.484197 0.184550
0.916854 0.485063 0.185416
0.117717 0.522404 0.173894
0.173710 0.523420 0.174910
0.227419 0.524395 0.175885
0.279885 0.525348 0.176837
0.331495 0.526284 0.177774
0.382453 0.527209 0.178699
0.432885 0.528125 0.179615
0.482877 0.529032 0.180522
0.532492 0.529933 0.181423
0.581776 0.530827 0.182317
0.630767 0.531717 0.183206
0.679493 0.532601 0.184091
0.727980 0.533481 0.184971
0.776247 0.534357 0.185847
0.824312 0.535230 0.186719
0.872190 0.536099 0.187589
0.919893 0.536965 0.188454
0.120739 0.574015 0.176916
0.176732 0.575031 0.177932
0.230441 0.576006 0.178907
0.282907 0.576959 0.179859
0.334517 0.577895 0.180796
0.385475 0.578820 0.181721
0.435907 0.579736 0.182636
0.485899 0.580643 0.183544
0.535514 0.581544 0.184444
0.584798 0.582438 0.185339
0.633789 0.583328 0.186228
0.682515 0.584212 0.187113
0.731002 0.585092 0.187993
0.779269 0.585968 0.188869
0.827334 0.586841 0.189741
0.875212 0.587710 0.190610
0.922914 0.588576 0.191476
0.123745 0.625367 0.179922
0.179739 0.626383 0.180939
0.233448 0.627358 0.181914
0.285914 0.628311 0.182866
0.337524 0.629247 0.183803
0.388482 0.630172 0.184728
0.438914 0.631088 0.185643
0.488906 0.631995 0.186550
0.538521 0.632896 0.187451
0.587805 0.633790 0.188346
0.636795 0.634680 0.189235
0.685522 0.635564 0.190119
0.734009 0.636444 0.190999
0.782276 0.637320 0.191876
0.830341 0.638193 0.192748
0.878218 0.639062 0.193617
0.925921 0.639928 0.194483
0.126738 0.676486 0.182915
0.182732 0.677503 0.183932
0.236441 0.678477 0.184907
0.288907 0.679430 0.185859
0.340517 0.680367 0.186796
0.391475 0.681292 0.187721
0.441907 0.682207 0.188636
0.491899 0.683114 0.189543
0.541514 0.684015 0.190444
0.590798 0.684910 0.191339
0.639788 0.685799 0.192228
0.688515 0.686683 0.193112
0.737002 0.687563 0.193992
0.785269 0.688439 0.194869
0.833334 0.689312 0.195741
0.881211 0.690181 0.196610
0.928914 0.691047 0.197476
0.129719 0.727394 0.185896
0.185713 0.728410 0.186912
0.239421 0.729385 0.187887
0.291888 0.730337 0.188840
0.343497 0.731274 0.189776
0.394455 0.732199 0.190701
0.444887 0.733114 0.191617
0.494879 0.734022 0.192524
0.544494 0.734922 0.193425
0.593778 0.735817 0.194319
0.642769 0.736706 0.195209
0.691496 0.737591 0.196093
0.739982 0.738471 0.196973
0.788250 0.739347 0.197849
0.836315 0.740219 0.198722
0.884192 0.741088 0.199591
0.931895 0.741954 0.200457
0.132688 0.778107 0.188865
0.188682 0.779123 0.189882
0.242391 0.780098 0.190856
0.294857 0.781051 0.191809
0.346467 0.781987 0.192746
0.397424 0.782912 0.193671
0.447856 0.783828 0.194586
0.497849 0.784735 0.195493
0.547463 0.785636 0.196394
0.596748 0.786530 0.197289
0.645738 0.787420 0.198178
0.694465 0.788304 0.199062
0.742952 0.789184 0.199942
0.791219 0.790060 0.200818
0.839284 0.790933 0.201691
0.887161 0.791802 0.202560
0.934864 0.792668 0.203426
0.135647 0.828642 0.191824
0.191641 0.829658 0.192840
0.245349 0.830633 0.193815
0.297816 0.831585 0.194768
0.349426 0.832522 0.195704
0.400383 0.833447 0.196629
0.450815 0.834362 0.197545
0.500808 0.835270 0.198452
0.550422 0.836170 0.199353
0.599707 0.837065 0.200247
0.648697 0.837954 0.201137
0.697424 0.838839 0.202021
0.745910 0.839719 0.202901
0.794178 0.840595 0.203777
0.842243 0.841467 0.204650
0.890120 0.842336 0.205519
0.937823 0.843202 0.206385
0.138596 0.879010 0.194773
0.194590 0.880027 0.195789
0.248299 0.881002 0.196764
0.300765 0.881954 0.197717
0.352375 0.882891 0.198653
0.403332 0.883816 0.199578
0.453764 0.884731 0.200494
0.503757 0.885639 0.201401
0.553371 0.886539 0.202302
0.602656 0.887434 0.203196
0.651646 0.888323 0.204086
0.700373 0.889207 0.204970
0.748860 0.890088 0.205850
0.797127 0.890964 0.206726
0.845192 0.891836 0.207599
0.893069 0.892705 0.208468
0.940772 0.893571 0.209334
0.141536 0.929224 0.197713
0.197530 0.930241 0.198729
0.251239 0.931216 0.199704
0.303705 0.932168 0.200657
0.355315 0.933105 0.201594
0.406272 0.934030 0.202518
0.456704 0.934945 0.203434
0.506697 0.935853 0.204341
0.556311 0.936753 0.205242
0.605596 0.937648 0.206136
0.654586 0.938537 0.207026
0.703313 0.939421 0.207910
0.751800 0.940302 0.208790
0.800067 0.941178 0.209666
0.848132 0.942050 0.210539
0.896009 0.942919 0.211408
0.943712 0.943785 0.212274
0.092819 0.091901 0.201150
0.148813 0.092917 0.202166
0.202522 0.093892 0.203141
0.254988 0.094844 0.204094
0.306598 0.095781 0.205030
0.357555 0.096706 0.205955
0.407987 0.097621 0.206871
0.457980 0.098529 0.207778
0.507594 0.099429 0.208679
0.556879 0.100324 0.209573
0.605869 0.101213 0.210463
0.654596 0.102098 0.211347
0.703082 0.102978 0.212227
0.751350 0.103854 0.213103
0.799415 0.104726 0.213976
0.847292 0.105595 0.214845
0.894995 0.106461 0.215711
0.096183 0.149360 0.204514
0.152177 0.150377 0.205531
0.205886 0.151351 0.206506
0.258352 0.152304 0.207458
0.309962 0.153241 0.208395
0.360920 0.154166 0.209320
0.411352 0.155081 0.210235
0.461344 0.155988 0.211142
0.510959 0.156889 0.212043
0.560243 0.157784 0.212938
0.609233 0.158673 0.213827
0.657960 0.159557 0.214711
0.706447 0.160437 0.215591
0.754714 0.161313 0.216468
0.802779 0.162186 0.217340
0.850656 0.163055 0.218209
0.898359 0.163921 0.219075
0.099432 0.204842 0.207763
0.155425 0.205858 0.208779
0.209134 0.206833 0.209754
0.261600 0.207786 0.210706
0.313210 0.208722 0.211643
0.364168 0.209647 0.212568
0.414600 0.210563 0.213484
0.464592 0.211470 0.214391
0.514207 0.212371 0.215292
0.563491 0.213265 0.216186
0.612482 0.214155 0.217075
0.661208 0.215039 0.217960
0.709695 0.215919 0.218840
0.757962 0.216795 0.219716
0.806027 0.217668 0.220588
0.853905 0.218537 0.221458
0.901608 0.219403 0.222323
0.102617 0.259242 0.210948
0.158611 0.260258 0.211964
0.212319 0.261233 0.212939
0.264786 0.262186 0.213891
0.316395 0.263122 0.214828
0.367353 0.264047 0.215753
0.417785 0.264963 0.216669
0.467777 0.265870 0.217576
0.517392 0.266771 0.218477
0.566676 0.267665 0.219371
0.615667 0.268555 0.220260
0.664394 0.269439 0.221145
0.712880 0.270319 0.222025
0.761148 0.271195 0.222901
0.809213 0.272068 0.223774
0.857090 0.272937 0.224643
0.904793 0.273803 0.225509
0.105758 0.312894 0.214089
0.161752 0.313911 0.215106
0.215461 0.314885 0.216080
0.267927 0.315838 0.217033
0.319537 0.316775 0.217970
0.370494 0.317700 0.218895
0.420927 0.318615 0.219810
0.470919 0.319522 0.220717
0.520534 0.320423 0.221618
0.569818 0.321318 0.222513
0.618808 0.322207 0.223402
0.667535 0.323091 0.224286
0.716022 0.323971 0.225166
0.764289 0.324847 0.226042
0.812354 0.325720 0.226915
0.860231 0.326589 0.227784
0.907934 0.327455 0.228650
0.108866 0.365975 0.217197
0.164860 0.366992 0.218214
0.218569 0.367967 0.219188
0.271035 0.368919 0.220141
0.322645 0.369856 0.221078
0.373602 0.370781 0.222002
0.424034 0.371696 0.222918
0.474027 0.372604 0.223825
0.523641 0.373504 0.224726
0.572926 0.374399 0.225620
0.621916 0.375288 0.226510
0.670643 0.376173 0.227394
0.719130 0.377053 0.228274
0.767397 0.377929 0.229150
0.815462 0.378801 0.230023
0.863339 0.379670 0.230892
0.911042 0.380536 0.231758
0.111947 0.418596 0.220278
0.167941 0.419612 0.221294
0.221650 0.420587 0.222269
0.274116 0.421539 0.223222
0.325726 0.422476 0.224158
0.376683 0.423401 0.225083
0.427115 0.424316 0.225999
0.477108 0.425224 0.226906
0.526722 0.426124 0.227807
0.576007 0.427019 0.228701
0.624997 0.427908 0.229591
0.673724 0.428793 0.230475
0.722210 0.429673 0.231355
0.770478 0.430549 0.232231
0.818543 0.431421 0.233104
0.866420 0.432290 0.233973
0.914123 0.433156 0.234839
0.115005 0.470830 0.223336
0.170999 0.471846 0.224353
0.224708 0.472821 0.225328
0.277174 0.473773 0.226280
0.328784 0.474710 0.227217
0.379742 0.475635 0.228142
0.430174 0.476550 0.229057
0.480166 0.477458 0.229965
0.529781 0.478358 0.230865
0.579065 0.479253 0.231760
0.628055 0.480142 0.232649
0.676782 0.481027 0.233533
0.725269 0.481907 0.234413
0.773536 0.482783 0.235290
0.821601 0.483655 0.236162
0.869479 0.484524 0.237031
0.917181 0.485390 0.237897
0.118044 0.522732 0.226375
0.174038 0.523748 0.227392
0.227747 0.524723 0.228366
0.280213 0.525675 0.229319
0.331823 0.526612 0.230256
0.382780 0.527537 0.231181
0.433212 0.528452 0.232096
0.483205 0.529360 0.233003
0.532819 0.530260 0.233904
0.582104 0.531155 0.234799
0.631094 0.532044 0.235688
0.679821 0.532929 0.236572
0.728308 0.533809 0.237452
0.776575 0.534685 0.238328
0.824640 0.535557 0.239201
0.872517 0.536426 0.240070
0.920220 0.537292 0.240936
0.121066 0.574342 0.229397
0.177060 0.575359 0.230413
0.230768 0.576334 0.231388
0.283235 0.577286 0.232341
0.334845 0.578223 0.233277
0.385802 0.579148 0.234202
0.436234 0.580063 0.235118
0.486227 0.580971 0.236025
0.535841 0.581871 0.236926
0.585126 0.582766 0.237820
0.634116 0.583655 0.238710
0.682843 0.584539 0.239594
0.731329 0.585420 0.240474
0.779597 0.586296 0.241350
0.827662 0.587168 0.242223
0.875539 0.588037 0.243092
0.923242 0.588903 0.243958
0.124073 0.625694 0.232404
0.180066 0.626711 0.233420
0.233775 0.627686 0.234395
0.286241 0.628638 0.235347
0.337851 0.629575 0.236284
0.388809 0.630500 0.237209
0.439241 0.631415 0.238124
0.489233 0.632323 0.239032
0.538848 0.633223 0.239932
0.588132 0.634118 0.240827
0.637123 0.635007 0.241716
0.685849 0.635892 0.242601
0.734336 0.636772 0.243481
0.782603 0.637648 0.244357
0.830668 0.638520 0.245229
0.878546 0.639389 0.246098
0.926249 0.640255 0.246964
0.127066 0.676814 0.235397
0.183059 0.677830 0.236413
0.236768 0.678805 0.237388
0.289234 0.679757 0.238340
0.340844 0.680694 0.239277
0.391802 0.681619 0.240202
0.442234 0.682534 0.241117
0.492226 0.683442 0.242025
0.541841 0.684342 0.242925
0.591125 0.685237 0.243820
0.640116 0.686126 0.244709
0.688842 0.687011 0.245594
0.737329 0.687891 0.246474
0.785596 0.688767 0.247350
0.833661 0.689639 0.248222
0.881539 0.690508 0.249091
0.929242 0.691374 0.249957
0.130046 0.727721 0.238377
0.186040 0.728737 0.239394
0.239749 0.729712 0.240369
0.292215 0.730665 0.241321
0.343825 0.731601 0.242258
0.394783 0.732526 0.243183
0.445215 0.733442 0.244098
0.495207 0.734349 0.245006
0.544822 0.735250 0.245906
0.594106 0.736144 0.246801
0.643096 0.737034 0.247690
0.691823 0.737918 0.248574
0.740310 0.738798 0.249454
0.788577 0.739674 0.250331
0.836642 0.740547 0.251203
0.884519 0.741416 0.252072
0.932222 0.742282 0.252938
0.133016 0.778435 0.241347
0.189009 0.779451 0.242363
0.242718 0.780426 0.243338
0.295184 0.781378 0.244290
0.346794 0.782315 0.245227
0.397752 0.783240 0.246152
0.448184 0.784155 0.247067
0.498176 0.785063 0.247975
0.547791 0.785963 0.248875
0.597075 0.786858 0.249770
0.646066 0.787747 0.250659
0.694792 0.788632 0.251544
0.743279 0.789512 0.252424
0.791546 0.790388 0.253300
0.839611 0.791260 0.254172
0.887489 0.792129 0.255041
0.935191 0.792995 0.255907
0.135975 0.828969 0.244305
0.191968 0.829986 0.245322
0.245677 0.830960 0.246297
0.298143 0.831913 0.247249
0.349753 0.832850 0.248186
0.400711 0.833774 0.249111
0.451143 0.834690 0.250026
0.501135 0.835597 0.250934
0.550750 0.836498 0.251834
0.600034 0.837392 0.252729
0.649025 0.838282 0.253618
0.697751 0.839166 0.254502
0.746238 0.840046 0.255383
0.794505 0.840922 0.256259
0.842570 0.841795 0.257131
0.890448 0.842664 0.258000
0.938150 0.843530 0.258866
0.138924 0.879338 0.247255
0.194917 0.880354 0.248271
0.248626 0.881329 0.249246
0.301092 0.882281 0.250198
0.352702 0.883218 0.251135
0.403660 0.884143 0.252060
0.454092 0.885059 0.252975
0.504084 0.885966 0.253883
0.553699 0.886867 0.254783
0.602983 0.887761 0.255678
0.651974 0.888650 0.256567
0.700700 0.889535 0.257452
0.749187 0.890415 0.258332
0.797454 0.891291 0.259208
0.845519 0.892164 0.260080
0.893397 0.893033 0.260949
0.941099 0.893898 0.261815
0.141864 0.929552 0.250195
0.197857 0.930568 0.251211
0.251566 0.931543 0.252186
0.304032 0.932495 0.253138
0.355642 0.933432 0.254075
0.406600 0.934357 0.255000
0.457032 0.935273 0.255915
0.507024 0.936180 0.256823
0.556639 0.937081 0.257723
0.605923 0.937975 0.258618
0.654914 0.938864 0.259507
0.703640 0.939749 0.260392
0.752127 0.940629 0.261272
0.800394 0.941505 0.262148
0.848459 0.942378 0.263020
0.896337 0.943247 0.263889
0.944039 0.944112 0.264755
0.093142 0.092223 0.252829
0.149135 0.093239 0.253846
0.202844 0.094214 0.254821
0.255310 0.095167 0.255773
0.306920 0.096103 0.256710
0.357878 0.097028 0.257635
0.408310 0.097944 0.258550
0.458302 0.098851 0.259457
0.507917 0.099752 0.260358
0.557201 0.100646 0.261253
0.606192 0.101536 0.262142
0.654918 0.102420 0.263026
0.703405 0.103300 0.263906
0.751672 0.104176 0.264783
