assets/lighting/cinematic/grade-interior-ambient-soft/lut.cube
TITLE "Interior Ambient Soft"
# TKRS lighting-batch-001 original LUT
# Intended usage: soft bounced interior, gentle roll-off
# License: CC0-1.0
LUT_3D_SIZE 5
DOMAIN_MIN 0.0 0.0 0.0
DOMAIN_MAX 1.0 1.0 1.0
0.092155 0.091237 0.094771
0.305934 0.095117 0.098651
0.506931 0.098766 0.102299
0.702419 0.102314 0.105848
0.894331 0.105797 0.109331
0.105095 0.312231 0.107710
0.318873 0.316111 0.111590
0.519870 0.319759 0.115239
0.715358 0.323308 0.118787
0.907270 0.326791 0.122270
0.117381 0.522068 0.119996
0.331159 0.525948 0.123876
0.532156 0.529597 0.127524
0.727644 0.533145 0.131073
0.919556 0.536628 0.134556
0.129383 0.727057 0.131998
0.343161 0.730938 0.135878
0.544158 0.734586 0.139527
0.739646 0.738134 0.143075
0.931558 0.741618 0.146558
0.141200 0.928888 0.143815
0.354978 0.932768 0.147695
0.555975 0.936417 0.151344
0.751463 0.939965 0.154892
0.943376 0.943449 0.158376
0.093461 0.092542 0.303946
0.307239 0.096422 0.307827
0.508236 0.100071 0.311475
0.703724 0.103619 0.315024
0.895636 0.107102 0.318507
0.106400 0.313536 0.316886
0.320178 0.317416 0.320766
0.521175 0.321064 0.324414
0.716663 0.324613 0.327963
0.908575 0.328096 0.331446
0.118686 0.523373 0.329172
0.332464 0.527253 0.333052
0.533461 0.530902 0.336700
0.728949 0.534450 0.340249
0.920861 0.537933 0.343732
0.130688 0.728362 0.341174
0.344466 0.732243 0.345054
0.545463 0.735891 0.348702
0.740951 0.739440 0.352251
0.932864 0.742923 0.355734
0.142505 0.930193 0.352991
0.356283 0.934074 0.356871
0.557280 0.937722 0.360520
0.752768 0.941270 0.364068
0.944681 0.944754 0.367551
0.094714 0.093795 0.504788
0.308492 0.097675 0.508668
0.509489 0.101324 0.512316
0.704977 0.104872 0.515865
0.896889 0.108356 0.519348
0.107653 0.314789 0.517727
0.321431 0.318669 0.521607
0.522428 0.322317 0.525256
0.717916 0.325866 0.528804
0.909828 0.329349 0.532288
0.119939 0.524626 0.530013
0.333717 0.528506 0.533893
0.534714 0.532155 0.537542
0.730202 0.535703 0.541090
0.922114 0.539187 0.544573
0.131941 0.729615 0.542015
0.345719 0.733496 0.545895
0.546716 0.737144 0.549544
0.742204 0.740693 0.553092
0.934117 0.744176 0.556576
0.143758 0.931446 0.553832
0.357536 0.935327 0.557713
0.558533 0.938975 0.561361
0.754021 0.942523 0.564909
0.945934 0.946007 0.568393
0.095943 0.095025 0.701910
0.309722 0.098905 0.705790
0.510719 0.102554 0.709438
0.706207 0.106102 0.712987
0.898119 0.109585 0.716470
0.108883 0.316019 0.714849
0.322661 0.319899 0.718729
0.523658 0.323547 0.722377
0.719146 0.327096 0.725926
0.911058 0.330579 0.729409
0.121169 0.525856 0.727135
0.334947 0.529736 0.731015
0.535944 0.533385 0.734663
0.731432 0.536933 0.738212
0.923344 0.540416 0.741695
0.133171 0.730845 0.739137
0.346949 0.734726 0.743017
0.547946 0.738374 0.746666
0.743434 0.741922 0.750214
0.935346 0.745406 0.753697
0.144988 0.932676 0.750954
0.358766 0.936556 0.754834
0.559763 0.940205 0.758483
0.755251 0.943753 0.762031
0.947164 0.947237 0.765515
0.097158 0.096239 0.896590
0.310936 0.100120 0.900470
0.511933 0.103768 0.904119
0.707421 0.107317 0.907667
0.899334 0.110800 0.911150
0.110097 0.317233 0.909529
0.323876 0.321114 0.913409
0.524872 0.324762 0.917058
0.720361 0.328310 0.920606
0.912273 0.331794 0.924090
0.122383 0.527070 0.921815
0.336162 0.530951 0.925695
0.537158 0.534599 0.929344
0.732647 0.538148 0.932892
0.924559 0.541631 0.936376
0.134385 0.732060 0.933817
0.348164 0.735940 0.937698
0.549161 0.739589 0.941346
0.744649 0.743137 0.944894
0.936561 0.746621 0.948378
0.146203 0.933891 0.945634
0.359981 0.937771 0.949515
0.560978 0.941419 0.953163
0.756466 0.944968 0.956711
0.948378 0.948451 0.960195
