assets/lighting/cinematic/grade-interior-ambient-soft/lut.cube
TITLE "Interior Ambient Soft"
# TKRS lighting-batch-001 original LUT
# Intended usage: soft bounced interior, gentle roll-off
# License: CC0-1.0
LUT_3D_SIZE 9
DOMAIN_MIN 0.0 0.0 0.0
DOMAIN_MAX 1.0 1.0 1.0
0.092155 0.091237 0.094771
0.201858 0.093228 0.096762
0.305934 0.095117 0.098651
0.407324 0.096958 0.100491
0.506931 0.098766 0.102299
0.605205 0.100549 0.104083
0.702419 0.102314 0.105848
0.798751 0.104063 0.107596
0.894331 0.105797 0.109331
0.098768 0.204178 0.101383
0.208471 0.206170 0.103375
0.312547 0.208059 0.105264
0.413936 0.209899 0.107104
0.513543 0.211707 0.108912
0.611818 0.213491 0.110696
0.709032 0.215255 0.112460
0.805364 0.217004 0.114209
0.900944 0.218739 0.115944
0.105095 0.312231 0.107710
0.214797 0.314222 0.109701
0.318873 0.316111 0.111590
0.420263 0.317951 0.113431
0.519870 0.319759 0.115239
0.618145 0.321543 0.117022
0.715358 0.323308 0.118787
0.811690 0.325056 0.120535
0.907270 0.326791 0.122270
0.111283 0.417932 0.113899
0.220986 0.419923 0.115890
0.325062 0.421812 0.117779
0.426452 0.423653 0.119619
0.526059 0.425461 0.121427
0.624333 0.427245 0.123211
0.721547 0.429009 0.124976
0.817879 0.430758 0.126724
0.913459 0.432493 0.128459
0.117381 0.522068 0.119996
0.227083 0.524059 0.121987
0.331159 0.525948 0.123876
0.432549 0.527789 0.125716
0.532156 0.529597 0.127524
0.630431 0.531380 0.129308
0.727644 0.533145 0.131073
0.823976 0.534893 0.132821
0.919556 0.536628 0.134556
0.123409 0.625031 0.126024
0.233111 0.627022 0.128015
0.337188 0.628911 0.129905
0.438577 0.630752 0.131745
0.538184 0.632560 0.133553
0.636459 0.634343 0.135337
0.733672 0.636108 0.137101
0.830005 0.637856 0.138850
0.925585 0.639591 0.140585
0.129383 0.727057 0.131998
0.239085 0.729049 0.133989
0.343161 0.730938 0.135878
0.444551 0.732778 0.137719
0.544158 0.734586 0.139527
0.642433 0.736370 0.141310
0.739646 0.738134 0.143075
0.835978 0.739883 0.144824
0.931558 0.741618 0.146558
0.135311 0.828305 0.137926
0.245013 0.830297 0.139917
0.349089 0.832186 0.141806
0.450479 0.834026 0.143647
0.550086 0.835834 0.145455
0.648361 0.837618 0.147239
0.745574 0.839383 0.149003
0.841906 0.841131 0.150752
0.937487 0.842866 0.152487
0.141200 0.928888 0.143815
0.250902 0.930879 0.145806
0.354978 0.932768 0.147695
0.456368 0.934609 0.149536
0.555975 0.936417 0.151344
0.654250 0.938201 0.153128
0.751463 0.939965 0.154892
0.847796 0.941714 0.156641
0.943376 0.943449 0.158376
0.092819 0.091901 0.201150
0.202522 0.093892 0.203141
0.306598 0.095781 0.205030
0.407987 0.097621 0.206871
0.507594 0.099429 0.208679
0.605869 0.101213 0.210463
0.703082 0.102978 0.212227
0.799415 0.104726 0.213976
0.894995 0.106461 0.215711
0.099432 0.204842 0.207763
0.209134 0.206833 0.209754
0.313210 0.208722 0.211643
0.414600 0.210563 0.213484
0.514207 0.212371 0.215292
0.612482 0.214155 0.217075
0.709695 0.215919 0.218840
0.806027 0.217668 0.220588
0.901608 0.219403 0.222323
0.105758 0.312894 0.214089
0.215461 0.314885 0.216080
0.319537 0.316775 0.217970
0.420927 0.318615 0.219810
0.520534 0.320423 0.221618
0.618808 0.322207 0.223402
0.716022 0.323971 0.225166
0.812354 0.325720 0.226915
0.907934 0.327455 0.228650
0.111947 0.418596 0.220278
0.221650 0.420587 0.222269
0.325726 0.422476 0.224158
0.427115 0.424316 0.225999
0.526722 0.426124 0.227807
0.624997 0.427908 0.229591
0.722210 0.429673 0.231355
0.818543 0.431421 0.233104
0.914123 0.433156 0.234839
0.118044 0.522732 0.226375
0.227747 0.524723 0.228366
0.331823 0.526612 0.230256
0.433212 0.528452 0.232096
0.532819 0.530260 0.233904
0.631094 0.532044 0.235688
0.728308 0.533809 0.237452
0.824640 0.535557 0.239201
0.920220 0.537292 0.240936
0.124073 0.625694 0.232404
0.233775 0.627686 0.234395
0.337851 0.629575 0.236284
0.439241 0.631415 0.238124
0.538848 0.633223 0.239932
0.637123 0.635007 0.241716
0.734336 0.636772 0.243481
0.830668 0.638520 0.245229
0.926249 0.640255 0.246964
0.130046 0.727721 0.238377
0.239749 0.729712 0.240369
0.343825 0.731601 0.242258
0.445215 0.733442 0.244098
0.544822 0.735250 0.245906
0.643096 0.737034 0.247690
0.740310 0.738798 0.249454
0.836642 0.740547 0.251203
0.932222 0.742282 0.252938
0.135975 0.828969 0.244305
0.245677 0.830960 0.246297
0.349753 0.832850 0.248186
0.451143 0.834690 0.250026
0.550750 0.836498 0.251834
0.649025 0.838282 0.253618
0.746238 0.840046 0.255383
0.842570 0.841795 0.257131
0.938150 0.843530 0.258866
0.141864 0.929552 0.250195
0.251566 0.931543 0.252186
0.355642 0.933432 0.254075
0.457032 0.935273 0.255915
0.556639 0.937081 0.257723
0.654914 0.938864 0.259507
0.752127 0.940629 0.261272
0.848459 0.942378 0.263020
0.944039 0.944112 0.264755
0.093461 0.092542 0.303946
0.203163 0.094533 0.305938
0.307239 0.096422 0.307827
0.408629 0.098263 0.309667
0.508236 0.100071 0.311475
0.606511 0.101854 0.313259
0.703724 0.103619 0.315024
0.800056 0.105368 0.316772
0.895636 0.107102 0.318507
0.100073 0.205483 0.310559
0.209776 0.207475 0.312550
0.313852 0.209364 0.314439
0.415241 0.211204 0.316280
0.514848 0.213012 0.318088
0.613123 0.214796 0.319872
0.710337 0.216561 0.321636
0.806669 0.218309 0.323385
0.902249 0.220044 0.325120
0.106400 0.313536 0.316886
0.216102 0.315527 0.318877
0.320178 0.317416 0.320766
0.421568 0.319256 0.322606
0.521175 0.321064 0.324414
0.619450 0.322848 0.326198
0.716663 0.324613 0.327963
0.812995 0.326361 0.329711
0.908575 0.328096 0.331446
0.112589 0.419237 0.323074
0.222291 0.421228 0.325066
0.326367 0.423117 0.326955
0.427757 0.424958 0.328795
0.527364 0.426766 0.330603
0.625639 0.428550 0.332387
0.722852 0.430314 0.334152
0.819184 0.432063 0.335900
0.914764 0.433798 0.337635
0.118686 0.523373 0.329172
0.228388 0.525364 0.331163
0.332464 0.527253 0.333052
0.433854 0.529094 0.334892
0.533461 0.530902 0.336700
0.631736 0.532685 0.338484
0.728949 0.534450 0.340249
0.825281 0.536199 0.341997
0.920861 0.537933 0.343732
0.124714 0.626336 0.335200
0.234416 0.628327 0.337191
0.338493 0.630216 0.339080
0.439882 0.632057 0.340921
0.539489 0.633865 0.342729
0.637764 0.635648 0.344513
0.734977 0.637413 0.346277
0.831310 0.639162 0.348026
0.926890 0.640896 0.349761
0.130688 0.728362 0.341174
0.240390 0.730354 0.343165
0.344466 0.732243 0.345054
0.445856 0.734083 0.346894
0.545463 0.735891 0.348702
0.643738 0.737675 0.350486
0.740951 0.739440 0.352251
0.837283 0.741188 0.353999
0.932864 0.742923 0.355734
0.136616 0.829611 0.347102
0.246318 0.831602 0.349093
0.350394 0.833491 0.350982
0.451784 0.835331 0.352822
0.551391 0.837139 0.354631
0.649666 0.838923 0.356414
0.746879 0.840688 0.358179
0.843211 0.842436 0.359927
0.938792 0.844171 0.361662
0.142505 0.930193 0.352991
0.252207 0.932184 0.354982
0.356283 0.934074 0.356871
0.457673 0.935914 0.358712
0.557280 0.937722 0.360520
0.655555 0.939506 0.362303
0.752768 0.941270 0.364068
0.849101 0.943019 0.365817
0.944681 0.944754 0.367551
0.094091 0.093172 0.404965
0.203793 0.095163 0.406956
0.307869 0.097053 0.408845
0.409259 0.098893 0.410686
0.508866 0.100701 0.412494
0.607141 0.102485 0.414278
0.704354 0.104249 0.416042
0.800686 0.105998 0.417791
0.896266 0.107733 0.419526
0.100704 0.206114 0.411578
0.210406 0.208105 0.413569
0.314482 0.209994 0.415458
0.415872 0.211834 0.417298
0.515479 0.213642 0.419106
0.613754 0.215426 0.420890
0.710967 0.217191 0.422655
0.807299 0.218939 0.424403
0.902879 0.220674 0.426138
0.107030 0.314166 0.417904
0.216732 0.316157 0.419895
0.320808 0.318046 0.421785
0.422198 0.319887 0.423625
0.521805 0.321695 0.425433
0.620080 0.323478 0.427217
0.717293 0.325243 0.428981
0.813626 0.326992 0.430730
0.909206 0.328726 0.432465
0.113219 0.419867 0.424093
0.222921 0.421859 0.426084
0.326997 0.423748 0.427973
0.428387 0.425588 0.429814
0.527994 0.427396 0.431622
0.626269 0.429180 0.433406
0.723482 0.430944 0.435170
0.819814 0.432693 0.436919
0.915395 0.434428 0.438654
0.119316 0.524003 0.430190
0.229018 0.525994 0.432181
0.333094 0.527884 0.434070
0.434484 0.529724 0.435911
0.534091 0.531532 0.437719
0.632366 0.533316 0.439503
0.729579 0.535080 0.441267
0.825912 0.536829 0.443016
0.921492 0.538564 0.444751
0.125344 0.626966 0.436219
0.235047 0.628957 0.438210
0.339123 0.630846 0.440099
0.440513 0.632687 0.441939
0.540120 0.634495 0.443747
0.638394 0.636279 0.445531
0.735608 0.638043 0.447296
0.831940 0.639792 0.449044
0.927520 0.641527 0.450779
0.131318 0.728993 0.442192
0.241020 0.730984 0.444183
0.345096 0.732873 0.446073
0.446486 0.734713 0.447913
0.546093 0.736521 0.449721
0.644368 0.738305 0.451505
0.741581 0.740070 0.453269
0.837914 0.741818 0.455018
0.933494 0.743553 0.456753
0.137246 0.830241 0.448120
0.246948 0.832232 0.450112
0.351025 0.834121 0.452001
0.452414 0.835962 0.453841
0.552021 0.837770 0.455649
0.650296 0.839553 0.457433
0.747509 0.841318 0.459197
0.843842 0.843066 0.460946
0.939422 0.844801 0.462681
0.143135 0.930823 0.454009
0.252838 0.932815 0.456001
0.356914 0.934704 0.457890
0.458303 0.936544 0.459730
0.557910 0.938352 0.461538
0.656185 0.940136 0.463322
0.753399 0.941901 0.465087
0.849731 0.943649 0.466835
0.945311 0.945384 0.468570
0.094714 0.093795 0.504788
0.204416 0.095786 0.506779
0.308492 0.097675 0.508668
0.409882 0.099516 0.510508
0.509489 0.101324 0.512316
0.607764 0.103108 0.514100
0.704977 0.104872 0.515865
0.801309 0.106621 0.517613
0.896889 0.108356 0.519348
0.101326 0.206736 0.511400
0.211029 0.208728 0.513392
0.315105 0.210617 0.515281
0.416494 0.212457 0.517121
0.516101 0.214265 0.518929
0.614376 0.216049 0.520713
0.711590 0.217814 0.522478
0.807922 0.219562 0.524226
0.903502 0.221297 0.525961
0.107653 0.314789 0.517727
0.217355 0.316780 0.519718
0.321431 0.318669 0.521607
0.422821 0.320509 0.523448
0.522428 0.322317 0.525256
0.620703 0.324101 0.527039
0.717916 0.325866 0.528804
0.814248 0.327614 0.530553
0.909828 0.329349 0.532288
0.113842 0.420490 0.523916
0.223544 0.422481 0.525907
0.327620 0.424370 0.527796
0.429010 0.426211 0.529636
0.528617 0.428019 0.531444
0.626892 0.429803 0.533228
0.724105 0.431567 0.534993
0.820437 0.433316 0.536741
0.916017 0.435051 0.538476
0.119939 0.524626 0.530013
0.229641 0.526617 0.532004
0.333717 0.528506 0.533893
0.435107 0.530347 0.535734
0.534714 0.532155 0.537542
0.632989 0.533939 0.539325
0.730202 0.535703 0.541090
0.826534 0.537452 0.542839
0.922114 0.539187 0.544573
0.125967 0.627589 0.536041
0.235670 0.629580 0.538033
0.339746 0.631469 0.539922
0.441135 0.633310 0.541762
0.540742 0.635118 0.543570
0.639017 0.636901 0.545354
0.736231 0.638666 0.547118
0.832563 0.640415 0.548867
0.928143 0.642150 0.550602
0.131941 0.729615 0.542015
0.241643 0.731607 0.544006
0.345719 0.733496 0.545895
0.447109 0.735336 0.547736
0.546716 0.737144 0.549544
0.644991 0.738928 0.551328
0.742204 0.740693 0.553092
0.838536 0.742441 0.554841
0.934117 0.744176 0.556576
0.137869 0.830864 0.547943
0.247571 0.832855 0.549934
0.351647 0.834744 0.551823
0.453037 0.836584 0.553664
0.552644 0.838392 0.555472
0.650919 0.840176 0.557256
0.748132 0.841941 0.559020
0.844465 0.843689 0.560769
0.940045 0.845424 0.562504
0.143758 0.931446 0.553832
0.253460 0.933437 0.555823
0.357536 0.935327 0.557713
0.458926 0.937167 0.559553
0.558533 0.938975 0.561361
0.656808 0.940759 0.563145
0.754021 0.942523 0.564909
0.850354 0.944272 0.566658
0.945934 0.946007 0.568393
0.095331 0.094412 0.603710
0.205033 0.096403 0.605701
0.309109 0.098293 0.607590
0.410499 0.100133 0.609430
0.510106 0.101941 0.611238
0.608381 0.103725 0.613022
0.705594 0.105489 0.614787
0.801926 0.107238 0.616535
0.897506 0.108973 0.618270
0.101944 0.207354 0.610322
0.211646 0.209345 0.612314
0.315722 0.211234 0.614203
0.417112 0.213074 0.616043
0.516719 0.214882 0.617851
0.614994 0.216666 0.619635
0.712207 0.218431 0.621400
0.808539 0.220179 0.623148
0.904119 0.221914 0.624883
0.108270 0.315406 0.616649
0.217972 0.317397 0.618640
0.322048 0.319286 0.620529
0.423438 0.321127 0.622370
0.523045 0.322935 0.624178
0.621320 0.324718 0.625961
0.718533 0.326483 0.627726
0.814866 0.328232 0.629475
0.910446 0.329966 0.631209
0.114459 0.421107 0.622838
0.224161 0.423099 0.624829
0.328237 0.424988 0.626718
0.429627 0.426828 0.628558
0.529234 0.428636 0.630366
0.627509 0.430420 0.632150
0.724722 0.432184 0.633915
0.821054 0.433933 0.635663
0.916634 0.435668 0.637398
0.120556 0.525243 0.628935
0.230258 0.527234 0.630926
0.334334 0.529123 0.632815
0.435724 0.530964 0.634656
0.535331 0.532772 0.636464
0.633606 0.534556 0.638247
0.730819 0.536320 0.640012
0.827152 0.538069 0.641760
0.922732 0.539804 0.643495
0.126584 0.628206 0.634963
0.236287 0.630197 0.636955
0.340363 0.632086 0.638844
0.441753 0.633927 0.640684
0.541360 0.635735 0.642492
0.639634 0.637519 0.644276
0.736848 0.639283 0.646040
0.833180 0.641032 0.647789
0.928760 0.642767 0.649524
0.132558 0.730233 0.640937
0.242260 0.732224 0.642928
0.346336 0.734113 0.644817
0.447726 0.735953 0.646658
0.547333 0.737761 0.648466
0.645608 0.739545 0.650250
0.742821 0.741310 0.652014
0.839154 0.743058 0.653763
0.934734 0.744793 0.655498
0.138486 0.831481 0.646865
0.248188 0.833472 0.648856
0.352265 0.835361 0.650745
0.453654 0.837202 0.652586
0.553261 0.839010 0.654394
0.651536 0.840793 0.656178
0.748749 0.842558 0.657942
0.845082 0.844306 0.659691
0.940662 0.846041 0.661426
0.144375 0.932063 0.652754
0.254078 0.934055 0.654745
0.358154 0.935944 0.656635
0.459543 0.937784 0.658475
0.559150 0.939592 0.660283
0.657425 0.941376 0.662067
0.754639 0.943141 0.663831
0.850971 0.944889 0.665580
0.946551 0.946624 0.667315
0.095943 0.095025 0.701910
0.205646 0.097016 0.703901
0.309722 0.098905 0.705790
0.411112 0.100746 0.707630
0.510719 0.102554 0.709438
0.608993 0.104337 0.711222
0.706207 0.106102 0.712987
0.802539 0.107851 0.714735
0.898119 0.109585 0.716470
0.102556 0.207966 0.708522
0.212259 0.209958 0.710514
0.316335 0.211847 0.712403
0.417724 0.213687 0.714243
0.517331 0.215495 0.716051
0.615606 0.217279 0.717835
0.712819 0.219043 0.719599
0.809152 0.220792 0.721348
0.904732 0.222527 0.723083
0.108883 0.316019 0.714849
0.218585 0.318010 0.716840
0.322661 0.319899 0.718729
0.424051 0.321739 0.720569
0.523658 0.323547 0.722377
0.621933 0.325331 0.724161
0.719146 0.327096 0.725926
0.815478 0.328844 0.727674
0.911058 0.330579 0.729409
0.115071 0.421720 0.721038
0.224774 0.423711 0.723029
0.328850 0.425600 0.724918
0.430240 0.427441 0.726758
0.529847 0.429249 0.728566
0.628121 0.431033 0.730350
0.725335 0.432797 0.732115
0.821667 0.434546 0.733863
0.917247 0.436281 0.735598
0.121169 0.525856 0.727135
0.230871 0.527847 0.729126
0.334947 0.529736 0.731015
0.436337 0.531577 0.732855
0.535944 0.533385 0.734663
0.634219 0.535168 0.736447
0.731432 0.536933 0.738212
0.827764 0.538681 0.739960
0.923344 0.540416 0.741695
0.127197 0.628819 0.733163
0.236899 0.630810 0.735154
0.340975 0.632699 0.737044
0.442365 0.634540 0.738884
0.541972 0.636348 0.740692
0.640247 0.638131 0.742476
0.737460 0.639896 0.744240
0.833793 0.641644 0.745989
0.929373 0.643379 0.747724
0.133171 0.730845 0.739137
0.242873 0.732837 0.741128
0.346949 0.734726 0.743017
0.448339 0.736566 0.744858
0.547946 0.738374 0.746666
0.646221 0.740158 0.748449
0.743434 0.741922 0.750214
0.839766 0.743671 0.751963
0.935346 0.745406 0.753697
0.139099 0.832093 0.745065
0.248801 0.834085 0.747056
0.352877 0.835974 0.748945
0.454267 0.837814 0.750786
0.553874 0.839622 0.752594
0.652149 0.841406 0.754378
0.749362 0.843171 0.756142
0.845694 0.844919 0.757891
0.941275 0.846654 0.759626
0.144988 0.932676 0.750954
0.254690 0.934667 0.752945
0.358766 0.936556 0.754834
0.460156 0.938397 0.756675
0.559763 0.940205 0.758483
0.658038 0.941989 0.760267
0.755251 0.943753 0.762031
0.851584 0.945502 0.763780
0.947164 0.947237 0.765515
0.096552 0.095634 0.799508
0.206255 0.097625 0.801499
0.310331 0.099514 0.803388
0.411721 0.101354 0.805228
0.511328 0.103162 0.807036
0.609602 0.104946 0.808820
0.706816 0.106711 0.810585
0.803148 0.108459 0.812333
0.898728 0.110194 0.814068
0.103165 0.208575 0.806120
0.212867 0.210566 0.808112
0.316944 0.212456 0.810001
0.418333 0.214296 0.811841
0.517940 0.216104 0.813649
0.616215 0.217888 0.815433
0.713428 0.219652 0.817197
0.809761 0.221401 0.818946
0.905341 0.223136 0.820681
0.109492 0.316627 0.812447
0.219194 0.318619 0.814438
0.323270 0.320508 0.816327
0.424660 0.322348 0.818168
0.524267 0.324156 0.819976
0.622542 0.325940 0.821759
0.719755 0.327705 0.823524
0.816087 0.329453 0.825272
0.911667 0.331188 0.827007
0.115680 0.422329 0.818636
0.225383 0.424320 0.820627
0.329459 0.426209 0.822516
0.430849 0.428050 0.824356
0.530456 0.429858 0.826164
0.628730 0.431641 0.827948
0.725944 0.433406 0.829713
0.822276 0.435155 0.831461
0.917856 0.436889 0.833196
0.121778 0.526465 0.824733
0.231480 0.528456 0.826724
0.335556 0.530345 0.828613
0.436946 0.532185 0.830453
0.536553 0.533993 0.832261
0.634828 0.535777 0.834045
0.732041 0.537542 0.835810
0.828373 0.539290 0.837558
0.923953 0.541025 0.839293
0.127806 0.629428 0.830761
0.237508 0.631419 0.832752
0.341584 0.633308 0.834642
0.442974 0.635148 0.836482
0.542581 0.636956 0.838290
0.640856 0.638740 0.840074
0.738069 0.640505 0.841838
0.834402 0.642253 0.843587
0.929982 0.643988 0.845322
0.133780 0.731454 0.836735
0.243482 0.733446 0.838726
0.347558 0.735335 0.840615
0.448948 0.737175 0.842456
0.548555 0.738983 0.844264
0.646830 0.740767 0.846047
0.744043 0.742531 0.847812
0.840375 0.744280 0.849561
0.935955 0.746015 0.851295
0.139708 0.832702 0.842663
0.249410 0.834694 0.844654
0.353486 0.836583 0.846543
0.454876 0.838423 0.848384
0.554483 0.840231 0.850192
0.652758 0.842015 0.851976
0.749971 0.843780 0.853740
0.846303 0.845528 0.855489
0.941883 0.847263 0.857224
0.145597 0.933285 0.848552
0.255299 0.935276 0.850543
0.359375 0.937165 0.852432
0.460765 0.939006 0.854273
0.560372 0.940814 0.856081
0.658647 0.942598 0.857865
0.755860 0.944362 0.859629
0.852192 0.946111 0.861378
0.947773 0.947846 0.863113
0.097158 0.096239 0.896590
0.206860 0.098231 0.898581
0.310936 0.100120 0.900470
0.412326 0.101960 0.902311
0.511933 0.103768 0.904119
0.610208 0.105552 0.905902
0.707421 0.107317 0.907667
0.803754 0.109065 0.909416
0.899334 0.110800 0.911150
0.103771 0.209181 0.903203
0.213473 0.211172 0.905194
0.317549 0.213061 0.907083
0.418939 0.214902 0.908923
0.518546 0.216710 0.910731
0.616821 0.218494 0.912515
0.714034 0.220258 0.914280
0.810366 0.222007 0.916028
0.905947 0.223742 0.917763
0.110097 0.317233 0.909529
0.219800 0.319224 0.911520
0.323876 0.321114 0.913409
0.425265 0.322954 0.915250
0.524872 0.324762 0.917058
0.623147 0.326546 0.918842
0.720361 0.328310 0.920606
0.816693 0.330059 0.922355
0.912273 0.331794 0.924090
0.116286 0.422935 0.915718
0.225988 0.424926 0.917709
0.330064 0.426815 0.919598
0.431454 0.428655 0.921439
0.531061 0.430463 0.923247
0.629336 0.432247 0.925030
0.726549 0.434012 0.926795
0.822882 0.435760 0.928544
0.918462 0.437495 0.930278
0.122383 0.527070 0.921815
0.232086 0.529062 0.923806
0.336162 0.530951 0.925695
0.437551 0.532791 0.927536
0.537158 0.534599 0.929344
0.635433 0.536383 0.931128
0.732647 0.538148 0.932892
0.828979 0.539896 0.934641
0.924559 0.541631 0.936376
0.128412 0.630033 0.927844
0.238114 0.632025 0.929835
0.342190 0.633914 0.931724
0.443580 0.635754 0.933564
0.543187 0.637562 0.935372
0.641462 0.639346 0.937156
0.738675 0.641111 0.938921
0.835007 0.642859 0.940669
0.930587 0.644594 0.942404
0.134385 0.732060 0.933817
0.244088 0.734051 0.935808
0.348164 0.735940 0.937698
0.449554 0.737781 0.939538
0.549161 0.739589 0.941346
0.647435 0.741373 0.943130
0.744649 0.743137 0.944894
0.840981 0.744886 0.946643
0.936561 0.746621 0.948378
0.140313 0.833308 0.939745
0.250016 0.835299 0.941736
0.354092 0.837188 0.943626
0.455482 0.839029 0.945466
0.555089 0.840837 0.947274
0.653363 0.842621 0.949058
0.750577 0.844385 0.950822
0.846909 0.846134 0.952571
0.942489 0.847869 0.954306
0.146203 0.933891 0.945634
0.255905 0.935882 0.947626
0.359981 0.937771 0.949515
0.461371 0.939611 0.951355
0.560978 0.941419 0.953163
0.659253 0.943203 0.954947
0.756466 0.944968 0.956711
0.852798 0.946716 0.958460
0.948378 0.948451 0.960195
