assets/lighting/cinematic/grade-teal-orange/lut.cube
TITLE "Teal Orange Cinema"
# TKRS lighting-batch-001 original LUT
# Intended usage: blockbuster split-tone grade
# License: CC0-1.0
LUT_3D_SIZE 17
DOMAIN_MIN 0.0 0.0 0.0
DOMAIN_MAX 1.0 1.0 1.0
0.000000 0.000000 0.000000
0.000000 0.000000 0.000000
0.045082 0.000000 0.000000
0.102748 0.000000 0.000000
0.160413 0.000000 0.000000
0.218079 0.000000 0.000000
0.275745 0.000000 0.000000
0.333411 0.000000 0.000000
0.391077 0.000000 0.000000
0.448743 0.000000 0.000000
0.506408 0.000000 0.000000
0.564074 0.000000 0.000000
0.621740 0.000000 0.000000
0.679406 0.000000 0.000000
0.737072 0.000000 0.000000
0.794738 0.000000 0.000000
0.852403 0.000000 0.000000
0.000000 0.000000 0.000000
0.000000 0.000000 0.000000
0.040629 0.000000 0.000000
0.098295 0.000000 0.000000
0.155961 0.000000 0.000000
0.213627 0.000000 0.000000
0.271293 0.000000 0.000000
0.328959 0.000000 0.000000
0.386625 0.000000 0.000000
0.444290 0.000000 0.000000
0.501956 0.000000 0.000000
0.559622 0.000000 0.000000
0.617288 0.000000 0.000000
0.674954 0.000000 0.000000
0.732620 0.000000 0.000000
0.790285 0.000000 0.000000
0.849950 0.000000 0.000000
0.000000 0.044431 0.000000
0.000000 0.042819 0.000000
0.036177 0.041207 0.000000
0.093843 0.039594 0.000000
0.151509 0.037982 0.000000
0.209175 0.036370 0.000000
0.266841 0.034758 0.000000
0.324506 0.033146 0.000000
0.382172 0.031534 0.000000
0.439838 0.029922 0.000000
0.497504 0.028310 0.000000
0.555170 0.026698 0.000000
0.612836 0.025086 0.000000
0.673337 0.023484 0.000000
0.736251 0.021886 0.000000
0.800623 0.020287 0.000000
0.866375 0.018688 0.000000
0.000000 0.108771 0.000000
0.000000 0.107159 0.000000
0.031725 0.105547 0.000000
0.089391 0.103935 0.000000
0.147057 0.102323 0.000000
0.204723 0.100711 0.000000
0.262388 0.099099 0.000000
0.320054 0.097487 0.000000
0.377720 0.095875 0.000000
0.435576 0.094267 0.000000
0.496136 0.092707 0.000000
0.558118 0.091158 0.000000
0.621377 0.089614 0.000000
0.685903 0.088071 0.000000
0.751712 0.086529 0.000000
0.818822 0.084988 0.000000
0.887255 0.083446 0.000000
0.000000 0.173111 0.000000
0.000000 0.171499 0.000000
0.027273 0.169887 0.000000
0.084939 0.168275 0.000000
0.142605 0.166663 0.000000
0.200270 0.165051 0.000000
0.258453 0.163471 0.000000
0.318252 0.161960 0.000000
0.379182 0.160464 0.000000
0.441252 0.158975 0.000000
0.504498 0.157492 0.000000
0.568953 0.156012 0.000000
0.634650 0.154534 0.000000
0.701618 0.153058 0.000000
0.769887 0.151582 0.000000
0.839481 0.150107 0.000000
0.910424 0.148632 0.000000
0.000000 0.237452 0.000000
0.000000 0.235839 0.000000
0.022821 0.234227 0.000000
0.080795 0.232703 0.000000
0.139622 0.231244 0.000000
0.199404 0.229803 0.000000
0.260222 0.228373 0.000000
0.322136 0.226951 0.000000
0.385195 0.225534 0.000000
0.449443 0.224121 0.000000
0.514916 0.222711 0.000000
0.581648 0.221304 0.000000
0.649667 0.219898 0.000000
0.719002 0.218494 0.000000
0.789678 0.217091 0.000000
0.861717 0.215688 0.000000
0.935143 0.214285 0.000000
0.000000 0.301965 0.000000
0.000000 0.300561 0.000000
0.018751 0.299178 0.000000
0.078259 0.297808 0.000000
0.138796 0.296448 0.000000
0.200422 0.295095 0.000000
0.263188 0.293749 0.000000
0.327136 0.292407 0.000000
0.392304 0.291069 0.000000
0.458724 0.289734 0.000000
0.526428 0.288402 0.000000
0.595443 0.287071 0.000000
0.665793 0.285743 0.000000
0.737504 0.284415 0.000000
0.810597 0.283088 0.000000
0.885092 0.281762 0.000000
0.961010 0.280436 0.000000
0.000000 0.367281 0.000000
0.000000 0.365984 0.000000
0.014616 0.364697 0.000000
0.075868 0.363418 0.000000
0.138263 0.362145 0.000000
0.201842 0.360877 0.000000
0.266640 0.359614 0.000000
0.332691 0.358354 0.000000
0.400025 0.357098 0.000000
0.468668 0.355844 0.000000
0.538646 0.354592 0.000000
0.609982 0.353343 0.000000
0.682699 0.352094 0.000000
0.756817 0.350847 0.000000
0.832355 0.349601 0.000000
0.909333 0.348355 0.000000
0.987768 0.347110 0.000000
0.000000 0.433130 0.000000
0.000000 0.431927 0.000000
0.010250 0.430730 0.000000
0.073404 0.429539 0.000000
0.137782 0.428353 0.000000
0.203415 0.427171 0.000000
0.270332 0.425993 0.000000
0.338560 0.424818 0.000000
0.408124 0.423645 0.000000
0.479046 0.422475 0.000000
0.551349 0.421307 0.000000
0.625053 0.420141 0.000000
0.700177 0.418976 0.000000
0.776740 0.417812 0.000000
0.854759 0.416649 0.000000
0.934252 0.415487 0.000000
1.000000 0.414325 0.000000
0.000000 0.499509 0.000000
0.000000 0.498397 0.000000
0.005605 0.497291 0.000000
0.070778 0.496189 0.000000
0.137240 0.495091 0.000000
0.205015 0.493996 0.000000
0.274128 0.492905 0.000000
0.344601 0.491817 0.000000
0.416456 0.490731 0.000000
0.489713 0.489648 0.000000
0.564392 0.488566 0.000000
0.640509 0.487486 0.000000
0.718084 0.486407 0.000000
0.797131 0.485329 0.000000
0.877668 0.484252 0.000000
0.959709 0.483176 0.000000
1.000000 0.482100 0.000000
0.000000 0.566432 0.000000
0.000000 0.565412 0.000000
0.000647 0.564397 0.000000
0.067935 0.563385 0.000000
0.136565 0.562377 0.000000
0.206558 0.561372 0.000000
0.277936 0.560370 0.000000
0.350717 0.559371 0.000000
0.424921 0.558374 0.000000
0.500565 0.557379 0.000000
0.577667 0.556386 0.000000
0.656244 0.555394 0.000000
0.736310 0.554404 0.000000
0.817882 0.553414 0.000000
0.900973 0.552426 0.000000
0.985598 0.551438 0.000000
1.000000 0.550451 0.000000
0.000000 0.633914 0.000000
0.000000 0.632987 0.000000
0.000000 0.632064 0.000000
0.064838 0.631144 0.000000
0.135709 0.630228 0.000000
0.207988 0.629315 0.000000
0.281691 0.628404 0.000000
0.356837 0.627496 0.000000
0.433442 0.626590 0.000000
0.511523 0.625685 0.000000
0.591095 0.624783 0.000000
0.672174 0.623881 0.000000
0.754773 0.622982 0.000000
0.838906 0.622083 0.000000
0.924587 0.621185 0.000000
1.000000 0.620288 0.000000
1.000000 0.619391 0.000000
0.000000 0.701970 0.000000
0.000000 0.701137 0.000000
0.000000 0.700308 0.000000
0.061456 0.699482 0.000000
0.134634 0.698659 0.000000
0.209258 0.697838 0.000000
0.285343 0.697021 0.000000
0.362906 0.696205 0.000000
0.441962 0.695392 0.000000
0.522526 0.694580 0.000000
0.604611 0.693770 0.000000
0.688232 0.692962 0.000000
0.773402 0.692154 0.000000
0.860134 0.691348 0.000000
0.948441 0.690543 0.000000
1.000000 0.689738 0.000000
1.000000 0.688934 0.000000
0.000000 0.770612 0.000000
0.000000 0.769875 0.000000
0.000000 0.769141 0.000000
0.057766 0.768410 0.000000
0.133310 0.767682 0.000000
0.210334 0.766957 0.000000
0.288853 0.766234 0.000000
0.368881 0.765513 0.000000
0.450433 0.764794 0.000000
0.533522 0.764077 0.000000
0.618162 0.763361 0.000000
0.704365 0.762647 0.000000
0.792143 0.761934 0.000000
0.881509 0.761222 0.000000
0.966823 0.759915 0.000000
1.000000 0.758236 0.000000
1.000000 0.756557 0.000000
0.000000 0.839854 0.000000
0.000000 0.839214 0.000000
0.000000 0.838577 0.000000
0.053749 0.837943 0.000000
0.131711 0.837312 0.000000
0.211186 0.836683 0.000000
0.292185 0.836056 0.000000
0.374724 0.835431 0.000000
0.458815 0.834808 0.000000
0.544471 0.834187 0.000000
0.631703 0.833568 0.000000
0.714226 0.831966 0.000000
0.796312 0.830287 0.000000
0.878399 0.828608 0.000000
0.960485 0.826929 0.000000
1.000000 0.825250 0.000000
1.000000 0.823571 0.000000
0.000000 0.909708 0.000000
0.000000 0.909166 0.000000
0.000000 0.908628 0.000000
0.049388 0.908092 0.000000
0.129817 0.907558 0.000000
0.211788 0.907027 0.000000
0.295313 0.906498 0.000000
0.379542 0.905695 0.000000
0.461628 0.904016 0.000000
0.543715 0.902337 0.000000
0.625801 0.900658 0.000000
0.707888 0.898979 0.000000
0.789975 0.897300 0.000000
0.872061 0.895621 0.000000
0.954148 0.893942 0.000000
1.000000 0.892263 0.000000
1.000000 0.890584 0.000000
0.000000 0.980184 0.000000
0.000000 0.979742 0.000000
0.000000 0.979303 0.000000
0.044667 0.978866 0.000000
0.126944 0.977745 0.000000
0.209031 0.976066 0.000000
0.291117 0.974387 0.000000
0.373204 0.972708 0.000000
0.455291 0.971029 0.000000
0.537377 0.969350 0.000000
0.619464 0.967671 0.000000
0.701550 0.965992 0.000000
0.783637 0.964313 0.000000
0.865724 0.962634 0.000000
0.947810 0.960955 0.000000
1.000000 0.959276 0.000000
1.000000 0.957597 0.000000
0.000000 0.000000 0.000000
0.000000 0.000000 0.000000
0.044637 0.000000 0.000000
0.102303 0.000000 0.000000
0.159969 0.000000 0.000000
0.217635 0.000000 0.000000
0.275301 0.000000 0.000000
0.332966 0.000000 0.000000
0.390632 0.000000 0.000000
0.448298 0.000000 0.000000
0.505964 0.000000 0.000000
0.563630 0.000000 0.000000
0.621296 0.000000 0.000000
0.678961 0.000000 0.000000
0.736627 0.000000 0.000000
0.794293 0.000000 0.000000
0.851959 0.000000 0.000000
0.000000 0.000000 0.000000
0.000000 0.000000 0.000000
0.040185 0.000000 0.000000
0.097851 0.000000 0.000000
0.155517 0.000000 0.000000
0.213183 0.000000 0.000000
0.270848 0.000000 0.000000
0.328514 0.000000 0.000000
0.386180 0.000000 0.000000
0.443846 0.000000 0.000000
0.501512 0.000000 0.000000
0.559178 0.000000 0.000000
0.616843 0.000000 0.000000
0.674509 0.000000 0.000000
0.732175 0.000000 0.000000
0.789841 0.000000 0.000000
0.851189 0.000000 0.000000
0.000000 0.043898 0.000000
0.000000 0.042286 0.000000
0.035733 0.040674 0.000000
0.093399 0.039062 0.000000
0.151065 0.037449 0.000000
0.208730 0.035837 0.000000
0.266396 0.034225 0.000000
0.324062 0.032613 0.000000
0.381728 0.031001 0.000000
0.439394 0.029389 0.000000
0.497060 0.027777 0.000000
0.554725 0.026165 0.000000
0.612708 0.024554 0.000000
0.674331 0.022955 0.000000
0.737603 0.021357 0.000000
0.802281 0.019759 0.000000
0.868320 0.018158 0.000000
0.000000 0.108238 0.000000
0.000000 0.106626 0.000000
0.031281 0.105014 0.000000
0.088947 0.103402 0.000000
0.146612 0.101790 0.000000
0.204278 0.100178 0.000000
0.261944 0.098566 0.000000
0.319610 0.096954 0.000000
0.377276 0.095342 0.000000
0.435857 0.093749 0.000000
0.496808 0.092195 0.000000
0.559071 0.090647 0.000000
0.622590 0.089104 0.000000
0.687370 0.087561 0.000000
0.753431 0.086020 0.000000
0.820794 0.084478 0.000000
0.889481 0.082936 0.000000
0.000000 0.172578 0.000000
0.000000 0.170966 0.000000
0.026829 0.169354 0.000000
0.084494 0.167742 0.000000
0.142160 0.166130 0.000000
0.199826 0.164518 0.000000
0.258509 0.162969 0.000000
0.318552 0.161464 0.000000
0.379706 0.159971 0.000000
0.441999 0.158484 0.000000
0.505471 0.157002 0.000000
0.570155 0.155523 0.000000
0.636085 0.154046 0.000000
0.703291 0.152570 0.000000
0.771800 0.151094 0.000000
0.841639 0.149619 0.000000
0.912830 0.148144 0.000000
0.000000 0.236919 0.000000
0.000000 0.235307 0.000000
0.022382 0.233700 0.000000
0.080519 0.232218 0.000000
0.139512 0.230767 0.000000
0.199474 0.229330 0.000000
0.260484 0.227902 0.000000
0.322599 0.226482 0.000000
0.385867 0.225066 0.000000
0.450330 0.223654 0.000000
0.516025 0.222246 0.000000
0.582983 0.220839 0.000000
0.651234 0.219434 0.000000
0.720805 0.218030 0.000000
0.791721 0.216627 0.000000
0.864005 0.215224 0.000000
0.937679 0.213821 0.000000
0.000000 0.301498 0.000000
0.000000 0.300102 0.000000
0.018347 0.298724 0.000000
0.078020 0.297357 0.000000
0.138735 0.296000 0.000000
0.200551 0.294649 0.000000
0.263516 0.293304 0.000000
0.327671 0.291964 0.000000
0.393052 0.290627 0.000000
0.459692 0.289293 0.000000
0.527620 0.287962 0.000000
0.596865 0.286632 0.000000
0.667450 0.285304 0.000000
0.739399 0.283976 0.000000
0.812735 0.282650 0.000000
0.887477 0.281324 0.000000
0.963645 0.279998 0.000000
0.000000 0.366851 0.000000
0.000000 0.365558 0.000000
0.014191 0.364274 0.000000
0.075627 0.362997 0.000000
0.138215 0.361725 0.000000
0.201994 0.360459 0.000000
0.267001 0.359197 0.000000
0.333266 0.357939 0.000000
0.400819 0.356683 0.000000
0.469687 0.355430 0.000000
0.539895 0.354179 0.000000
0.611465 0.352930 0.000000
0.684421 0.351682 0.000000
0.758781 0.350435 0.000000
0.834565 0.349189 0.000000
0.911793 0.347943 0.000000
0.990480 0.346698 0.000000
0.000000 0.432731 0.000000
0.000000 0.431530 0.000000
0.009800 0.430336 0.000000
0.073151 0.429146 0.000000
0.137732 0.427962 0.000000
0.203575 0.426781 0.000000
0.270708 0.425604 0.000000
0.339158 0.424430 0.000000
0.408947 0.423258 0.000000
0.480100 0.422089 0.000000
0.552638 0.420921 0.000000
0.626580 0.419756 0.000000
0.701947 0.418591 0.000000
0.778756 0.417428 0.000000
0.857025 0.416265 0.000000
0.936771 0.415103 0.000000
1.000000 0.413941 0.000000
0.000000 0.499141 0.000000
0.000000 0.498031 0.000000
0.005124 0.496926 0.000000
0.070505 0.495825 0.000000
0.137179 0.494729 0.000000
0.205172 0.493635 0.000000
0.274508 0.492545 0.000000
0.345209 0.491458 0.000000
0.417297 0.490373 0.000000
0.490790 0.489290 0.000000
0.565708 0.488209 0.000000
0.642069 0.487129 0.000000
0.719890 0.486050 0.000000
0.799188 0.484973 0.000000
0.879978 0.483896 0.000000
0.962276 0.482820 0.000000
1.000000 0.481745 0.000000
0.000000 0.566094 0.000000
0.000000 0.565076 0.000000
0.000134 0.564062 0.000000
0.067638 0.563051 0.000000
0.136489 0.562044 0.000000
0.206707 0.561041 0.000000
0.278314 0.560040 0.000000
0.351328 0.559041 0.000000
0.425770 0.558045 0.000000
0.501655 0.557051 0.000000
0.579002 0.556058 0.000000
0.657826 0.555067 0.000000
0.738144 0.554076 0.000000
0.819969 0.553087 0.000000
0.903317 0.552099 0.000000
0.988202 0.551112 0.000000
1.000000 0.550124 0.000000
0.000000 0.633607 0.000000
0.000000 0.632681 0.000000
0.000000 0.631760 0.000000
0.064513 0.630841 0.000000
0.135612 0.629926 0.000000
0.208122 0.629013 0.000000
0.282061 0.628103 0.000000
0.357446 0.627196 0.000000
0.434294 0.626290 0.000000
0.512620 0.625387 0.000000
0.592441 0.624485 0.000000
0.673772 0.623584 0.000000
0.756626 0.622684 0.000000
0.841017 0.621786 0.000000
0.926959 0.620888 0.000000
1.000000 0.619991 0.000000
1.000000 0.619095 0.000000
0.000000 0.701694 0.000000
0.000000 0.700862 0.000000
0.000000 0.700034 0.000000
0.061102 0.699209 0.000000
0.134514 0.698387 0.000000
0.209375 0.697568 0.000000
0.285701 0.696751 0.000000
0.363508 0.695936 0.000000
0.442811 0.695123 0.000000
0.523624 0.694312 0.000000
0.605963 0.693503 0.000000
0.689840 0.692694 0.000000
0.775269 0.691887 0.000000
0.862262 0.691082 0.000000
0.950833 0.690276 0.000000
1.000000 0.689472 0.000000
1.000000 0.688668 0.000000
0.000000 0.770368 0.000000
0.000000 0.769632 0.000000
0.000000 0.768899 0.000000
0.057380 0.768169 0.000000
0.133163 0.767442 0.000000
0.210429 0.766718 0.000000
0.289194 0.765995 0.000000
0.369471 0.765275 0.000000
0.451274 0.764557 0.000000
0.534618 0.763840 0.000000
0.619515 0.763125 0.000000
0.705977 0.762411 0.000000
0.794018 0.761698 0.000000
0.883649 0.760987 0.000000
0.966190 0.759360 0.000000
1.000000 0.757681 0.000000
1.000000 0.756002 0.000000
0.000000 0.839642 0.000000
0.000000 0.839003 0.000000
0.000000 0.838367 0.000000
0.053329 0.837734 0.000000
0.131536 0.837104 0.000000
0.211257 0.836475 0.000000
0.292507 0.835849 0.000000
0.375299 0.835225 0.000000
0.459646 0.834603 0.000000
0.545560 0.833982 0.000000
0.631506 0.833090 0.000000
0.713593 0.831411 0.000000
0.795680 0.829732 0.000000
0.877766 0.828053 0.000000
0.959853 0.826374 0.000000
1.000000 0.824695 0.000000
1.000000 0.823016 0.000000
0.000000 0.909529 0.000000
0.000000 0.908988 0.000000
0.000000 0.908450 0.000000
0.048933 0.907915 0.000000
0.129611 0.907382 0.000000
0.211834 0.906852 0.000000
0.295613 0.906324 0.000000
0.378909 0.905140 0.000000
0.460996 0.903461 0.000000
0.543082 0.901782 0.000000
0.625169 0.900103 0.000000
0.707255 0.898424 0.000000
0.789342 0.896745 0.000000
0.871429 0.895066 0.000000
0.953515 0.893387 0.000000
1.000000 0.891708 0.000000
1.000000 0.890029 0.000000
0.000000 0.980037 0.000000
0.000000 0.979597 0.000000
0.000000 0.979158 0.000000
0.044176 0.978723 0.000000
0.126312 0.977190 0.000000
0.208398 0.975511 0.000000
0.290485 0.973832 0.000000
0.372571 0.972153 0.000000
0.454658 0.970474 0.000000
0.536745 0.968795 0.000000
0.618831 0.967116 0.000000
0.700918 0.965437 0.000000
0.783004 0.963758 0.000000
0.865091 0.962079 0.000000
0.947178 0.960400 0.000000
1.000000 0.958721 0.000000
1.000000 0.957042 0.000000
0.000000 0.000000 0.059019
0.000000 0.000000 0.057206
0.044193 0.000000 0.055393
0.101859 0.000000 0.053580
0.159525 0.000000 0.051767
0.217190 0.000000 0.049954
0.274856 0.000000 0.048141
0.332522 0.000000 0.046328
0.390188 0.000000 0.044515
0.447854 0.000000 0.042702
0.505520 0.000000 0.040889
0.563185 0.000000 0.039077
0.620851 0.000000 0.037264
0.678517 0.000000 0.035451
0.736183 0.000000 0.033638
0.793849 0.000000 0.031825
0.851515 0.000000 0.030012
0.000000 0.000000 0.053014
0.000000 0.000000 0.051201
0.039741 0.000000 0.049388
0.097407 0.000000 0.047575
0.155072 0.000000 0.045762
0.212738 0.000000 0.043949
0.270404 0.000000 0.042136
0.328070 0.000000 0.040323
0.385736 0.000000 0.038510
0.443402 0.000000 0.036697
0.501067 0.000000 0.034885
0.558733 0.000000 0.033072
0.616399 0.000000 0.031259
0.674065 0.000000 0.029446
0.731731 0.000000 0.027633
0.789869 0.000000 0.025812
0.852570 0.000000 0.023929
0.000000 0.043365 0.047009
0.000000 0.041753 0.045196
0.035288 0.040141 0.043383
0.092954 0.038529 0.041570
0.150620 0.036917 0.039757
0.208286 0.035304 0.037944
0.265952 0.033692 0.036131
0.323618 0.032080 0.034318
0.381283 0.030468 0.032506
0.438949 0.028856 0.030693
0.496615 0.027244 0.028880
0.554281 0.025632 0.027067
0.613298 0.024025 0.025226
0.675409 0.022427 0.023340
0.739010 0.020829 0.021454
0.803981 0.019230 0.019576
0.870300 0.017629 0.017708
0.000000 0.107705 0.041004
0.000000 0.106093 0.039191
0.030836 0.104481 0.037378
0.088502 0.102869 0.035565
0.146168 0.101257 0.033752
0.203834 0.099645 0.031939
0.261500 0.098033 0.030127
0.319165 0.096421 0.028314
0.376831 0.094809 0.026501
0.436263 0.093234 0.024638
0.497531 0.091683 0.022751
0.560059 0.090137 0.020867
0.623832 0.088594 0.018991
0.688864 0.087052 0.017127
0.755175 0.085510 0.015275
0.822789 0.083968 0.013438
0.891729 0.082426 0.011616
0.000000 0.172045 0.034999
0.000000 0.170433 0.033186
0.026384 0.168821 0.031373
0.084050 0.167209 0.029560
0.141716 0.165597 0.027747
0.199446 0.163990 0.025930
0.258610 0.162470 0.024049
0.318879 0.160970 0.022162
0.380251 0.159479 0.020280
0.442765 0.157994 0.018408
0.506461 0.156513 0.016547
0.571373 0.155034 0.014700
0.637536 0.153558 0.012867
0.704979 0.152082 0.011050
0.773729 0.150607 0.009250
0.843811 0.149131 0.007466
0.915251 0.147656 0.005701
0.000000 0.236386 0.028994
0.000000 0.234774 0.027181
0.021973 0.233204 0.025345
0.080251 0.231736 0.023459
0.139410 0.230290 0.021574
0.199554 0.228857 0.019695
0.260755 0.227432 0.017826
0.323071 0.226013 0.015969
0.386549 0.224599 0.014126
0.451227 0.223188 0.012298
0.517143 0.221780 0.010486
0.584328 0.220374 0.008691
0.652811 0.218970 0.006913
0.722619 0.217566 0.005153
0.793775 0.216163 0.003412
0.866303 0.214760 0.001690
0.940225 0.213358 0.000000
0.000000 0.301034 0.022870
0.000000 0.299645 0.020986
0.017940 0.298271 0.019110
0.077781 0.296908 0.017245
0.138677 0.295553 0.015392
0.200684 0.294204 0.013554
0.263849 0.292861 0.011731
0.328210 0.291522 0.009924
0.393805 0.290186 0.008134
0.460665 0.288853 0.006362
0.528819 0.287522 0.004608
0.598294 0.286193 0.002872
0.669114 0.284865 0.001157
0.741302 0.283538 0.000000
0.814881 0.282211 0.000000
0.889869 0.280886 0.000000
0.966288 0.279560 0.000000
0.000000 0.366422 0.016665
0.000000 0.365133 0.014816
0.013765 0.363851 0.012983
0.075386 0.362576 0.011165
0.138167 0.361306 0.009363
0.202148 0.360041 0.007579
0.267363 0.358781 0.005812
0.333843 0.357523 0.004064
0.401617 0.356269 0.002335
0.470711 0.355016 0.000625
0.541149 0.353766 0.000000
0.612954 0.352517 0.000000
0.686148 0.351270 0.000000
0.760751 0.350023 0.000000
0.836781 0.348777 0.000000
0.914259 0.347531 0.000000
0.993199 0.346286 0.000000
0.000000 0.432333 0.010600
0.000000 0.431135 0.008804
0.009346 0.429942 0.007025
0.072895 0.428754 0.005264
0.137681 0.427571 0.003522
0.203735 0.426391 0.001799
0.271085 0.425215 0.000095
0.339756 0.424042 0.000000
0.409773 0.422871 0.000000
0.481157 0.421703 0.000000
0.553930 0.420536 0.000000
0.628112 0.419370 0.000000
0.703722 0.418206 0.000000
0.780777 0.417043 0.000000
0.859296 0.415881 0.000000
0.939295 0.414719 0.000000
1.000000 0.413557 0.000000
0.000000 0.498773 0.004718
0.000000 0.497665 0.002982
0.004641 0.496561 0.001265
0.070229 0.495462 0.000000
0.137117 0.494367 0.000000
0.205329 0.493275 0.000000
0.274889 0.492186 0.000000
0.345818 0.491099 0.000000
0.418138 0.490015 0.000000
0.491868 0.488932 0.000000
0.567026 0.487851 0.000000
0.643631 0.486772 0.000000
0.721700 0.485694 0.000000
0.801248 0.484617 0.000000
0.882292 0.483540 0.000000
0.964846 0.482464 0.000000
1.000000 0.481389 0.000000
0.000000 0.565757 0.000000
0.000000 0.564740 0.000000
0.000000 0.563727 0.000000
0.067338 0.562718 0.000000
0.136410 0.561712 0.000000
0.206854 0.560710 0.000000
0.278691 0.559709 0.000000
0.351940 0.558712 0.000000
0.426619 0.557716 0.000000
0.502746 0.556722 0.000000
0.580338 0.555730 0.000000
0.659411 0.554739 0.000000
0.739979 0.553749 0.000000
0.822059 0.552761 0.000000
0.905665 0.551773 0.000000
0.990809 0.550785 0.000000
1.000000 0.549798 0.000000
0.000000 0.633301 0.000000
0.000000 0.632376 0.000000
0.000000 0.631455 0.000000
0.064186 0.630538 0.000000
0.135513 0.629624 0.000000
0.208255 0.628712 0.000000
0.282430 0.627803 0.000000
0.358054 0.626896 0.000000
0.435145 0.625991 0.000000
0.513718 0.625088 0.000000
0.593788 0.624187 0.000000
0.675371 0.623286 0.000000
0.758480 0.622387 0.000000
0.843130 0.621489 0.000000
0.929332 0.620592 0.000000
1.000000 0.619695 0.000000
1.000000 0.618798 0.000000
0.000000 0.701419 0.000000
0.000000 0.700588 0.000000
0.000000 0.699761 0.000000
0.060744 0.698937 0.000000
0.134391 0.698116 0.000000
0.209489 0.697297 0.000000
0.286057 0.696481 0.000000
0.364108 0.695667 0.000000
0.443659 0.694855 0.000000
0.524723 0.694044 0.000000
0.607315 0.693235 0.000000
0.691449 0.692428 0.000000
0.777136 0.691621 0.000000
0.864392 0.690815 0.000000
0.953226 0.690010 0.000000
1.000000 0.689206 0.000000
1.000000 0.688403 0.000000
0.000000 0.770124 0.000000
0.000000 0.769389 0.000000
0.000000 0.768658 0.000000
0.056991 0.767929 0.000000
0.133013 0.767202 0.000000
0.210523 0.766479 0.000000
0.289533 0.765757 0.000000
0.370059 0.765037 0.000000
0.452115 0.764320 0.000000
0.535713 0.763603 0.000000
0.620867 0.762889 0.000000
0.707590 0.762175 0.000000
0.795893 0.761463 0.000000
0.883471 0.760484 0.000000
0.965558 0.758805 0.000000
1.000000 0.757126 0.000000
1.000000 0.755447 0.000000
0.000000 0.839431 0.000000
0.000000 0.838793 0.000000
0.000000 0.838158 0.000000
0.052906 0.837525 0.000000
0.131358 0.836896 0.000000
0.211327 0.836268 0.000000
0.292827 0.835643 0.000000
0.375872 0.835019 0.000000
0.460475 0.834397 0.000000
0.546647 0.833777 0.000000
0.630874 0.832534 0.000000
0.712960 0.830855 0.000000
0.795047 0.829176 0.000000
0.877134 0.827497 0.000000
0.959220 0.825818 0.000000
1.000000 0.824139 0.000000
1.000000 0.822460 0.000000
0.000000 0.909349 0.000000
0.000000 0.908810 0.000000
0.000000 0.908273 0.000000
0.048474 0.907739 0.000000
0.129402 0.907207 0.000000
0.211877 0.906677 0.000000
0.295911 0.906149 0.000000
0.378276 0.904585 0.000000
0.460363 0.902906 0.000000
0.542450 0.901227 0.000000
0.624536 0.899548 0.000000
0.706623 0.897869 0.000000
0.788709 0.896190 0.000000
0.870796 0.894511 0.000000
0.952883 0.892832 0.000000
1.000000 0.891153 0.000000
1.000000 0.889474 0.000000
0.000000 0.979891 0.000000
0.000000 0.979451 0.000000
0.000000 0.979014 0.000000
0.043592 0.978314 0.000000
0.125679 0.976635 0.000000
0.207766 0.974956 0.000000
0.289852 0.973277 0.000000
0.371939 0.971598 0.000000
0.454025 0.969919 0.000000
0.536112 0.968240 0.000000
0.618199 0.966561 0.000000
0.700285 0.964882 0.000000
0.782372 0.963203 0.000000
0.864458 0.961524 0.000000
0.946545 0.959845 0.000000
1.000000 0.958166 0.000000
1.000000 0.956487 0.000000
0.000000 0.000000 0.135903
0.000000 0.000000 0.134090
0.043748 0.000000 0.132277
0.101414 0.000000 0.130465
0.159080 0.000000 0.128652
0.216746 0.000000 0.126839
0.274412 0.000000 0.125026
0.332078 0.000000 0.123213
0.389743 0.000000 0.121400
0.447409 0.000000 0.119587
0.505075 0.000000 0.117774
0.562741 0.000000 0.115961
0.620407 0.000000 0.114148
0.678073 0.000000 0.112335
