assets/lighting/cinematic/grade-teal-orange/lut.cube
TITLE "Teal Orange Cinema"
# TKRS lighting-batch-001 original LUT
# Intended usage: blockbuster split-tone grade
# License: CC0-1.0
LUT_3D_SIZE 5
DOMAIN_MIN 0.0 0.0 0.0
DOMAIN_MAX 1.0 1.0 1.0
0.000000 0.000000 0.000000
0.160413 0.000000 0.000000
0.391077 0.000000 0.000000
0.621740 0.000000 0.000000
0.852403 0.000000 0.000000
0.000000 0.173111 0.000000
0.142605 0.166663 0.000000
0.379182 0.160464 0.000000
0.634650 0.154534 0.000000
0.910424 0.148632 0.000000
0.000000 0.433130 0.000000
0.137782 0.428353 0.000000
0.408124 0.423645 0.000000
0.700177 0.418976 0.000000
1.000000 0.414325 0.000000
0.000000 0.701970 0.000000
0.134634 0.698659 0.000000
0.441962 0.695392 0.000000
0.773402 0.692154 0.000000
1.000000 0.688934 0.000000
0.000000 0.980184 0.000000
0.126944 0.977745 0.000000
0.455291 0.971029 0.000000
0.783637 0.964313 0.000000
1.000000 0.957597 0.000000
0.000000 0.000000 0.212788
0.158636 0.000000 0.205536
0.389299 0.000000 0.198284
0.619962 0.000000 0.191032
0.850626 0.000000 0.183781
0.000000 0.170979 0.188768
0.140827 0.164531 0.181516
0.381397 0.158497 0.171954
0.640483 0.152582 0.161727
0.920135 0.146680 0.151433
0.000000 0.431540 0.158512
0.137577 0.426791 0.148229
0.411429 0.422098 0.138048
0.707282 0.417437 0.128036
1.000000 0.412789 0.118239
0.000000 0.700869 0.124952
0.134137 0.697575 0.115230
0.445353 0.694319 0.105769
0.780875 0.691088 0.096594
1.000000 0.687324 0.088198
0.000000 0.979600 0.093792
0.124414 0.975525 0.086411
0.452760 0.968809 0.080686
0.781107 0.962093 0.074961
1.000000 0.955377 0.069236
0.000000 0.000000 0.520326
0.156858 0.000000 0.513074
0.387521 0.000000 0.505822
0.618185 0.000000 0.498570
0.848848 0.000000 0.491319
0.000000 0.168847 0.496306
0.139879 0.162494 0.487603
0.383872 0.156537 0.472628
0.646539 0.150631 0.456409
0.930061 0.144727 0.439615
0.000000 0.429961 0.451211
0.137358 0.425234 0.434299
0.414764 0.420555 0.417126
0.714447 0.415899 0.399823
1.000000 0.411252 0.382478
0.000000 0.699775 0.394408
0.133598 0.696495 0.377064
0.448733 0.693248 0.359763
0.788361 0.690024 0.342552
1.000000 0.685103 0.330983
0.000000 0.979021 0.337203
0.121883 0.973304 0.329195
0.450230 0.966588 0.323470
0.778576 0.959872 0.317745
1.000000 0.953156 0.312021
0.000000 0.000000 0.827864
0.155080 0.000000 0.820612
0.385744 0.000000 0.813360
0.616407 0.000000 0.806108
0.852543 0.000000 0.796290
0.000000 0.166716 0.803844
0.139412 0.160513 0.790418
0.386536 0.154582 0.769500
0.652782 0.148680 0.746891
0.940178 0.142772 0.723309
0.000000 0.428391 0.739613
0.137118 0.423683 0.715804
0.418123 0.419014 0.691424
0.721666 0.414363 0.666647
1.000000 0.409716 0.641595
0.000000 0.698685 0.658849
0.133016 0.695418 0.633731
0.452099 0.692180 0.608453
0.795859 0.688960 0.583082
1.000000 0.682883 0.573767
0.000000 0.977800 0.577705
0.119353 0.971084 0.571980
0.447699 0.964368 0.566255
0.776046 0.957652 0.560530
1.000000 0.950936 0.554805
0.000000 0.000000 1.000000
0.153303 0.000000 1.000000
0.383966 0.000000 1.000000
0.614630 0.000000 1.000000
0.858956 0.000000 1.000000
0.000000 0.164584 1.000000
0.139070 0.158545 1.000000
0.389347 0.152630 1.000000
0.659187 0.146728 1.000000
0.950468 0.140815 1.000000
0.000000 0.426829 1.000000
0.136856 0.422136 0.992629
0.421499 0.417475 0.960845
0.728933 0.412827 0.928425
1.000000 0.408178 0.895516
0.000000 0.697601 0.918196
0.132390 0.694345 0.885159
0.455451 0.691114 0.851774
0.798866 0.687379 0.822277
1.000000 0.680662 0.816552
0.000000 0.975579 0.820489
0.116822 0.968863 0.814764
0.445169 0.962147 0.809039
0.773515 0.955431 0.803314
1.000000 0.948715 0.797590
