assets/lighting/cinematic/grade-teal-orange/lut.cube
TITLE "Teal Orange Cinema"
# TKRS lighting-batch-001 original LUT
# Intended usage: blockbuster split-tone grade
# License: CC0-1.0
LUT_3D_SIZE 9
DOMAIN_MIN 0.0 0.0 0.0
DOMAIN_MAX 1.0 1.0 1.0
0.000000 0.000000 0.000000
0.045082 0.000000 0.000000
0.160413 0.000000 0.000000
0.275745 0.000000 0.000000
0.391077 0.000000 0.000000
0.506408 0.000000 0.000000
0.621740 0.000000 0.000000
0.737072 0.000000 0.000000
0.852403 0.000000 0.000000
0.000000 0.044431 0.000000
0.036177 0.041207 0.000000
0.151509 0.037982 0.000000
0.266841 0.034758 0.000000
0.382172 0.031534 0.000000
0.497504 0.028310 0.000000
0.612836 0.025086 0.000000
0.736251 0.021886 0.000000
0.866375 0.018688 0.000000
0.000000 0.173111 0.000000
0.027273 0.169887 0.000000
0.142605 0.166663 0.000000
0.258453 0.163471 0.000000
0.379182 0.160464 0.000000
0.504498 0.157492 0.000000
0.634650 0.154534 0.000000
0.769887 0.151582 0.000000
0.910424 0.148632 0.000000
0.000000 0.301965 0.000000
0.018751 0.299178 0.000000
0.138796 0.296448 0.000000
0.263188 0.293749 0.000000
0.392304 0.291069 0.000000
0.526428 0.288402 0.000000
0.665793 0.285743 0.000000
0.810597 0.283088 0.000000
0.961010 0.280436 0.000000
0.000000 0.433130 0.000000
0.010250 0.430730 0.000000
0.137782 0.428353 0.000000
0.270332 0.425993 0.000000
0.408124 0.423645 0.000000
0.551349 0.421307 0.000000
0.700177 0.418976 0.000000
0.854759 0.416649 0.000000
1.000000 0.414325 0.000000
0.000000 0.566432 0.000000
0.000647 0.564397 0.000000
0.136565 0.562377 0.000000
0.277936 0.560370 0.000000
0.424921 0.558374 0.000000
0.577667 0.556386 0.000000
0.736310 0.554404 0.000000
0.900973 0.552426 0.000000
1.000000 0.550451 0.000000
0.000000 0.701970 0.000000
0.000000 0.700308 0.000000
0.134634 0.698659 0.000000
0.285343 0.697021 0.000000
0.441962 0.695392 0.000000
0.604611 0.693770 0.000000
0.773402 0.692154 0.000000
0.948441 0.690543 0.000000
1.000000 0.688934 0.000000
0.000000 0.839854 0.000000
0.000000 0.838577 0.000000
0.131711 0.837312 0.000000
0.292185 0.836056 0.000000
0.458815 0.834808 0.000000
0.631703 0.833568 0.000000
0.796312 0.830287 0.000000
0.960485 0.826929 0.000000
1.000000 0.823571 0.000000
0.000000 0.980184 0.000000
0.000000 0.979303 0.000000
0.126944 0.977745 0.000000
0.291117 0.974387 0.000000
0.455291 0.971029 0.000000
0.619464 0.967671 0.000000
0.783637 0.964313 0.000000
0.947810 0.960955 0.000000
1.000000 0.957597 0.000000
0.000000 0.000000 0.059019
0.044193 0.000000 0.055393
0.159525 0.000000 0.051767
0.274856 0.000000 0.048141
0.390188 0.000000 0.044515
0.505520 0.000000 0.040889
0.620851 0.000000 0.037264
0.736183 0.000000 0.033638
0.851515 0.000000 0.030012
0.000000 0.043365 0.047009
0.035288 0.040141 0.043383
0.150620 0.036917 0.039757
0.265952 0.033692 0.036131
0.381283 0.030468 0.032506
0.496615 0.027244 0.028880
0.613298 0.024025 0.025226
0.739010 0.020829 0.021454
0.870300 0.017629 0.017708
0.000000 0.172045 0.034999
0.026384 0.168821 0.031373
0.141716 0.165597 0.027747
0.258610 0.162470 0.024049
0.380251 0.159479 0.020280
0.506461 0.156513 0.016547
0.637536 0.153558 0.012867
0.773729 0.150607 0.009250
0.915251 0.147656 0.005701
0.000000 0.301034 0.022870
0.017940 0.298271 0.019110
0.138677 0.295553 0.015392
0.263849 0.292861 0.011731
0.393805 0.290186 0.008134
0.528819 0.287522 0.004608
0.669114 0.284865 0.001157
0.814881 0.282211 0.000000
0.966288 0.279560 0.000000
0.000000 0.432333 0.010600
0.009346 0.429942 0.007025
0.137681 0.427571 0.003522
0.271085 0.425215 0.000095
0.409773 0.422871 0.000000
0.553930 0.420536 0.000000
0.703722 0.418206 0.000000
0.859296 0.415881 0.000000
1.000000 0.413557 0.000000
0.000000 0.565757 0.000000
0.000000 0.563727 0.000000
0.136410 0.561712 0.000000
0.278691 0.559709 0.000000
0.426619 0.557716 0.000000
0.580338 0.555730 0.000000
0.739979 0.553749 0.000000
0.905665 0.551773 0.000000
1.000000 0.549798 0.000000
0.000000 0.701419 0.000000
0.000000 0.699761 0.000000
0.134391 0.698116 0.000000
0.286057 0.696481 0.000000
0.443659 0.694855 0.000000
0.607315 0.693235 0.000000
0.777136 0.691621 0.000000
0.953226 0.690010 0.000000
1.000000 0.688403 0.000000
0.000000 0.839431 0.000000
0.000000 0.838158 0.000000
0.131358 0.836896 0.000000
0.292827 0.835643 0.000000
0.460475 0.834397 0.000000
0.630874 0.832534 0.000000
0.795047 0.829176 0.000000
0.959220 0.825818 0.000000
1.000000 0.822460 0.000000
0.000000 0.979891 0.000000
0.000000 0.979014 0.000000
0.125679 0.976635 0.000000
0.289852 0.973277 0.000000
0.454025 0.969919 0.000000
0.618199 0.966561 0.000000
0.782372 0.963203 0.000000
0.946545 0.959845 0.000000
1.000000 0.956487 0.000000
0.000000 0.000000 0.212788
0.043304 0.000000 0.209162
0.158636 0.000000 0.205536
0.273967 0.000000 0.201910
0.389299 0.000000 0.198284
0.504631 0.000000 0.194658
0.619962 0.000000 0.191032
0.735294 0.000000 0.187407
0.850626 0.000000 0.183781
0.000000 0.042299 0.200778
0.034400 0.039075 0.197152
0.149731 0.035851 0.193526
0.265063 0.032626 0.189900
0.380395 0.029402 0.186274
0.495726 0.026178 0.182649
0.614922 0.022969 0.178460
0.741964 0.019772 0.173527
0.874361 0.016569 0.168459
0.000000 0.170979 0.188768
0.025495 0.167755 0.185142
0.140827 0.164531 0.181516
0.258903 0.161477 0.176943
0.381397 0.158497 0.171954
0.508489 0.155535 0.166863
0.640483 0.152582 0.161727
0.777629 0.149631 0.156577
0.920135 0.146680 0.151433
0.000000 0.300114 0.175402
0.017123 0.297369 0.170372
0.138566 0.294660 0.165262
0.264525 0.291975 0.160120
0.395329 0.289304 0.154970
0.531236 0.286643 0.149830
0.672463 0.283987 0.144713
0.819196 0.281335 0.139628
0.971599 0.278683 0.134583
0.000000 0.431540 0.158512
0.008431 0.429156 0.153363
0.137577 0.426791 0.148229
0.271841 0.424439 0.143121
0.411429 0.422098 0.138048
0.556523 0.419765 0.133018
0.707282 0.417437 0.128036
0.863852 0.415112 0.123108
1.000000 0.412789 0.118239
0.000000 0.565084 0.141533
0.000000 0.563060 0.136473
0.136248 0.561049 0.131457
0.279444 0.559049 0.126491
0.428320 0.557059 0.121581
0.583014 0.555075 0.116732
0.743657 0.553095 0.111946
0.910368 0.551120 0.107228
1.000000 0.549146 0.102580
0.000000 0.700869 0.124952
0.000000 0.699216 0.120060
0.134137 0.697575 0.115230
0.286764 0.695943 0.110465
0.445353 0.694319 0.105769
0.610020 0.692701 0.101144
0.780875 0.691088 0.096594
0.958018 0.689479 0.092121
1.000000 0.687324 0.088198
0.000000 0.839009 0.108991
0.000000 0.837739 0.104317
0.130992 0.836480 0.099715
0.293460 0.835230 0.095189
0.462129 0.833987 0.090741
0.629609 0.831424 0.087304
0.793782 0.828066 0.084442
0.957955 0.824708 0.081580
1.000000 0.821350 0.078717
0.000000 0.979600 0.093792
0.000000 0.978726 0.089369
0.124414 0.975525 0.086411
0.288587 0.972167 0.083548
0.452760 0.968809 0.080686
0.616933 0.965451 0.077823
0.781107 0.962093 0.074961
0.945280 0.958735 0.072098
1.000000 0.955377 0.069236
0.000000 0.000000 0.366557
0.042415 0.000000 0.362931
0.157747 0.000000 0.359305
0.273079 0.000000 0.355679
0.388410 0.000000 0.352053
0.503742 0.000000 0.348427
0.619074 0.000000 0.344801
0.734405 0.000000 0.341176
0.849737 0.000000 0.337550
0.000000 0.041233 0.354547
0.033511 0.038009 0.350921
0.148843 0.034785 0.347295
0.264174 0.031561 0.343669
0.379506 0.028336 0.340043
0.494838 0.025112 0.336417
0.616870 0.021912 0.330975
0.745076 0.018714 0.324750
0.878542 0.015508 0.318281
0.000000 0.169913 0.342537
0.024606 0.166689 0.338911
0.140206 0.163496 0.334967
0.259282 0.160488 0.329068
0.382607 0.157516 0.322750
0.510574 0.154558 0.316229
0.643485 0.151606 0.309582
0.781583 0.148656 0.302856
0.925072 0.145704 0.296077
0.000000 0.299201 0.327125
0.016298 0.296470 0.320731
0.138462 0.293770 0.314164
0.265216 0.291090 0.307489
0.396872 0.288423 0.300743
0.533677 0.285764 0.293953
0.675840 0.283110 0.287137
0.823541 0.280458 0.280310
0.976942 0.277806 0.273484
0.000000 0.430749 0.305389
0.007504 0.428372 0.298627
0.137470 0.426012 0.291827
0.272599 0.423664 0.285006
0.413093 0.421326 0.278178
0.559127 0.418995 0.271355
0.710857 0.416668 0.264544
0.868426 0.414344 0.257755
1.000000 0.412021 0.250994
0.000000 0.564413 0.282874
0.000000 0.562393 0.276047
0.136077 0.560387 0.269226
0.280195 0.558390 0.262422
0.430021 0.556402 0.255641
0.585696 0.554420 0.248890
0.747344 0.552442 0.242174
0.915083 0.550467 0.235500
1.000000 0.548493 0.228871
0.000000 0.700321 0.260302
0.000000 0.698672 0.253529
0.133873 0.697034 0.246789
0.287465 0.695405 0.240086
0.447044 0.693783 0.233425
0.612726 0.692167 0.226811
0.784616 0.690556 0.220248
0.962816 0.688947 0.213740
1.000000 0.686214 0.209591
0.000000 0.838588 0.238001
0.000000 0.837322 0.231355
0.130614 0.836066 0.224756
0.294085 0.834819 0.218210
0.463779 0.833578 0.211719
0.628343 0.830314 0.208697
0.792517 0.826956 0.205834
0.956690 0.823598 0.202972
1.000000 0.820240 0.200109
0.000000 0.979310 0.216177
0.000000 0.977772 0.210665
0.123149 0.974414 0.207803
0.287322 0.971056 0.204941
0.451495 0.967698 0.202078
0.615668 0.964340 0.199216
0.779841 0.960982 0.196353
0.944015 0.957624 0.193491
1.000000 0.954266 0.190628
0.000000 0.000000 0.520326
0.041526 0.000000 0.516700
0.156858 0.000000 0.513074
0.272190 0.000000 0.509448
0.387521 0.000000 0.505822
0.502853 0.000000 0.502196
0.618185 0.000000 0.498570
0.733516 0.000000 0.494944
0.848848 0.000000 0.491319
0.000000 0.040167 0.508316
0.032622 0.036943 0.504690
0.147954 0.033719 0.501064
0.263285 0.030495 0.497438
0.378617 0.027271 0.493812
0.494994 0.024051 0.489671
0.619031 0.020855 0.482689
0.748320 0.017655 0.475078
0.882830 0.014446 0.467141
0.000000 0.168847 0.496306
0.023718 0.165623 0.492680
0.139879 0.162494 0.487603
0.259724 0.159503 0.480359
0.383872 0.156537 0.472628
0.512712 0.153582 0.464615
0.646539 0.150631 0.456409
0.785588 0.147680 0.448064
0.930061 0.144727 0.439615
0.000000 0.298293 0.477984
0.015465 0.295575 0.470151
0.138361 0.292883 0.462071
0.265920 0.290207 0.453816
0.398433 0.287543 0.445436
0.536140 0.284886 0.436960
0.679241 0.282233 0.428415
0.827914 0.279581 0.419818
0.982315 0.276929 0.411185
0.000000 0.429961 0.451211
0.006565 0.427590 0.442798
0.137358 0.425234 0.434299
0.273360 0.422890 0.425735
0.414764 0.420555 0.417126
0.561742 0.418225 0.408484
0.714447 0.415899 0.399823
0.873018 0.413576 0.391151
1.000000 0.411252 0.382478
0.000000 0.563744 0.423051
0.000000 0.561729 0.414430
0.135898 0.559726 0.405781
0.280941 0.557732 0.397116
0.431724 0.555746 0.388442
0.588381 0.553765 0.379771
0.751038 0.551789 0.371107
0.919808 0.549814 0.362459
1.000000 0.547841 0.353832
0.000000 0.699775 0.394408
0.000000 0.698129 0.385734
0.133598 0.696495 0.377064
0.288159 0.694868 0.368405
0.448733 0.693248 0.359763
0.615431 0.691634 0.351144
0.788361 0.690024 0.342552
0.967620 0.688416 0.333993
1.000000 0.685103 0.330983
0.000000 0.838168 0.365705
0.000000 0.836906 0.357069
0.130224 0.835653 0.348458
0.294701 0.834408 0.339876
0.462905 0.832562 0.332951
0.627078 0.829204 0.330089
0.791251 0.825846 0.327227
0.955425 0.822488 0.324364
1.000000 0.819130 0.321502
0.000000 0.979021 0.337203
0.000000 0.976662 0.332058
0.121883 0.973304 0.329195
0.286057 0.969946 0.326333
0.450230 0.966588 0.323470
0.614403 0.963230 0.320608
0.778576 0.959872 0.317745
0.942749 0.956514 0.314883
1.000000 0.953156 0.312021
0.000000 0.000000 0.674095
0.040638 0.000000 0.670469
0.155969 0.000000 0.666843
0.271301 0.000000 0.663217
0.386633 0.000000 0.659591
0.501964 0.000000 0.655965
0.617296 0.000000 0.652339
0.732628 0.000000 0.648713
0.849929 0.000000 0.644342
0.000000 0.039101 0.662085
0.031733 0.035877 0.658459
0.147065 0.032653 0.654833
0.262397 0.029429 0.651207
0.377728 0.026205 0.647581
0.496124 0.022995 0.641966
0.621355 0.019798 0.633546
0.751681 0.016595 0.624475
0.887214 0.013383 0.615011
0.000000 0.167782 0.650075
0.022829 0.164557 0.646449
0.139624 0.161501 0.639438
0.260217 0.158521 0.630766
0.385183 0.155559 0.621555
0.514896 0.152606 0.611996
0.649639 0.149655 0.602185
0.789640 0.146704 0.592183
0.935097 0.143750 0.582031
0.000000 0.297391 0.627936
0.014624 0.294682 0.618602
0.138264 0.291997 0.608956
0.266634 0.289326 0.599081
0.400010 0.286664 0.589028
0.538623 0.284009 0.578836
0.682667 0.281356 0.568532
0.832315 0.278705 0.558139
0.987718 0.276052 0.547675
0.000000 0.429175 0.595959
0.005613 0.426810 0.585859
0.137241 0.424458 0.575629
0.274121 0.422117 0.565295
0.416441 0.419784 0.554878
0.564368 0.417456 0.544395
0.718050 0.415131 0.533860
0.877626 0.412808 0.523285
1.000000 0.410484 0.512681
0.000000 0.563076 0.562051
0.000000 0.561065 0.551612
0.135711 0.559066 0.541111
0.281684 0.557075 0.530562
0.433427 0.555091 0.519977
0.591071 0.553112 0.509365
0.754739 0.551136 0.498736
0.924544 0.549162 0.488098
1.000000 0.547189 0.477457
0.000000 0.699229 0.527260
0.000000 0.697588 0.516666
0.133313 0.695956 0.506048
0.288846 0.694332 0.495415
0.450418 0.692714 0.484775
0.618137 0.691101 0.474134
0.792109 0.689492 0.463499
0.966835 0.687351 0.455237
1.000000 0.683993 0.452375
0.000000 0.837750 0.492093
0.000000 0.836491 0.481452
0.129821 0.835240 0.470813
0.295308 0.833997 0.460181
0.461640 0.831452 0.454344
0.625813 0.828094 0.451481
0.789986 0.824736 0.448619
0.954159 0.821378 0.445756
1.000000 0.818020 0.442894
0.000000 0.978733 0.456863
0.000000 0.975552 0.453450
0.120618 0.972194 0.450587
0.284791 0.968836 0.447725
0.448965 0.965478 0.444863
0.613138 0.962120 0.442000
0.777311 0.958762 0.439138
0.941484 0.955404 0.436275
1.000000 0.952046 0.433413
0.000000 0.000000 0.827864
0.039749 0.000000 0.824238
0.155080 0.000000 0.820612
0.270412 0.000000 0.816986
0.385744 0.000000 0.813360
0.501076 0.000000 0.809734
0.616407 0.000000 0.806108
0.731739 0.000000 0.802482
0.852543 0.000000 0.796290
0.000000 0.038035 0.815854
0.030844 0.034811 0.812228
0.146176 0.031587 0.808602
0.261508 0.028363 0.804976
0.376839 0.025139 0.801350
0.497517 0.021938 0.793416
0.623809 0.018740 0.783501
0.755142 0.015534 0.772906
0.891688 0.012319 0.761865
0.000000 0.166716 0.803844
0.021980 0.163521 0.799493
0.139412 0.160513 0.790418
0.260750 0.157540 0.780251
0.386536 0.154582 0.769500
0.517123 0.151630 0.758347
0.652782 0.148680 0.746891
0.793737 0.145728 0.735197
0.940178 0.142772 0.723309
0.000000 0.296492 0.776946
0.013773 0.293792 0.766055
0.138168 0.291112 0.754799
0.267357 0.288445 0.743263
0.401602 0.285786 0.731504
0.541126 0.283132 0.719564
0.686116 0.280480 0.707474
0.836741 0.277828 0.695260
0.993150 0.275174 0.682941
0.000000 0.428391 0.739613
0.004649 0.426031 0.727793
0.137118 0.423683 0.715804
0.274882 0.421345 0.703672
0.418123 0.419014 0.691424
0.567002 0.416687 0.679076
0.721666 0.414363 0.666647
0.882249 0.412039 0.654149
1.000000 0.409716 0.641595
0.000000 0.562410 0.699860
0.000000 0.560403 0.687578
0.135515 0.558407 0.675203
0.282423 0.556418 0.662751
0.435129 0.554436 0.650234
0.593764 0.552458 0.637665
0.758446 0.550483 0.625053
0.929289 0.548509 0.612407
1.000000 0.546536 0.599736
0.000000 0.698685 0.658849
0.000000 0.697047 0.646315
0.133016 0.695418 0.633731
0.289527 0.693796 0.621107
0.452099 0.692180 0.608453
0.620843 0.690569 0.595775
0.795859 0.688960 0.583082
0.965569 0.686241 0.576630
1.000000 0.682883 0.573767
0.000000 0.837332 0.617159
0.000000 0.836076 0.604497
0.129406 0.834829 0.591813
0.295906 0.833588 0.579116
0.460375 0.830341 0.575736
0.624548 0.826983 0.572873
0.788721 0.823625 0.570011
0.952894 0.820267 0.567149
1.000000 0.816909 0.564286
0.000000 0.977800 0.577705
0.000000 0.974442 0.574842
0.119353 0.971084 0.571980
0.283526 0.967726 0.569117
0.447699 0.964368 0.566255
0.611873 0.961010 0.563392
0.776046 0.957652 0.560530
0.940219 0.954294 0.557667
1.000000 0.950936 0.554805
0.000000 0.000000 0.981632
0.038860 0.000000 0.978007
0.154192 0.000000 0.974381
0.269523 0.000000 0.970755
0.384855 0.000000 0.967129
0.500187 0.000000 0.963503
0.615518 0.000000 0.959877
0.730850 0.000000 0.956251
0.855601 0.000000 0.947353
0.000000 0.036969 0.969623
0.029956 0.033745 0.965997
0.145287 0.030521 0.962371
0.260619 0.027297 0.958745
0.376712 0.024078 0.954157
0.499082 0.020881 0.943983
0.626375 0.017681 0.932516
0.758695 0.014472 0.920344
0.896242 0.011254 0.907680
0.000000 0.165650 0.957613
0.021175 0.162519 0.951207
0.139230 0.159527 0.940499
0.261317 0.156561 0.928778
0.387925 0.153606 0.916436
0.519388 0.150655 0.903645
0.655966 0.147704 0.890507
0.797876 0.144751 0.877087
0.945303 0.141794 0.863435
0.000000 0.295597 0.924981
0.012912 0.292904 0.912485
0.138073 0.290229 0.899577
0.268088 0.287565 0.886344
0.403208 0.284908 0.872847
0.543646 0.282255 0.859130
0.689586 0.279603 0.845228
0.841191 0.276951 0.831168
0.998608 0.274296 0.816973
0.000000 0.427609 0.882156
0.003673 0.425254 0.868586
0.136991 0.422909 0.854808
0.275644 0.420574 0.840854
0.419809 0.418244 0.826750
0.569645 0.415918 0.812516
0.725294 0.413595 0.798171
0.886888 0.411271 0.783731
1.000000 0.408947 0.769209
0.000000 0.561745 0.836465
0.000000 0.559742 0.822318
0.135310 0.557748 0.808048
0.283157 0.555762 0.793672
0.436831 0.553782 0.779205
0.596460 0.551805 0.764660
0.762160 0.549830 0.750048
0.934043 0.547857 0.735379
1.000000 0.545884 0.720663
0.000000 0.698143 0.789164
0.000000 0.696508 0.774671
0.132709 0.694881 0.760104
0.290200 0.693262 0.745473
0.453777 0.691647 0.730789
0.623547 0.690037 0.716059
0.799611 0.688429 0.701293
0.964304 0.685131 0.698022
1.000000 0.681773 0.695159
0.000000 0.836916 0.740893
0.000000 0.835663 0.726194
0.128979 0.834418 0.711452
0.294936 0.832589 0.699991
0.459109 0.829231 0.697128
0.623283 0.825873 0.694266
0.787456 0.822515 0.691403
0.951629 0.819157 0.688541
1.000000 0.815799 0.685678
0.000000 0.976690 0.699097
0.000000 0.973332 0.696234
0.118088 0.969974 0.693372
0.282261 0.966616 0.690510
0.446434 0.963258 0.687647
0.610607 0.959900 0.684785
0.774781 0.956542 0.681922
0.938954 0.953184 0.679060
1.000000 0.949825 0.676197
0.000000 0.000000 1.000000
0.037971 0.000000 1.000000
0.153303 0.000000 1.000000
0.268635 0.000000 1.000000
0.383966 0.000000 1.000000
0.499298 0.000000 1.000000
0.614630 0.000000 1.000000
0.731590 0.000000 1.000000
0.858956 0.000000 1.000000
0.000000 0.035903 1.000000
0.029067 0.032679 1.000000
0.144398 0.029455 1.000000
0.259730 0.026231 1.000000
0.377352 0.023021 1.000000
0.500777 0.019824 1.000000
0.629035 0.016621 1.000000
0.762330 0.013409 1.000000
0.900872 0.010187 1.000000
0.000000 0.164584 1.000000
0.020374 0.161525 1.000000
0.139070 0.158545 1.000000
0.261913 0.155583 1.000000
0.389347 0.152630 1.000000
0.521688 0.149679 1.000000
0.659187 0.146728 1.000000
0.802054 0.143774 1.000000
0.950468 0.140815 1.000000
0.000000 0.294704 1.000000
0.012041 0.292018 1.000000
0.137978 0.289347 1.000000
0.268826 0.286686 1.000000
0.404826 0.284030 1.000000
0.546183 0.281378 0.997522
0.693076 0.278726 0.981782
0.845664 0.276073 0.965853
1.000000 0.273418 0.949760
0.000000 0.426829 1.000000
0.002684 0.424477 1.000000
0.136856 0.422136 0.992629
0.276404 0.419803 0.976828
0.421499 0.417475 0.960845
0.572296 0.415150 0.944704
0.728933 0.412827 0.928425
0.891541 0.410503 0.912024
1.000000 0.408178 0.895516
0.000000 0.561082 0.971856
0.000000 0.559082 0.955821
0.135096 0.557091 0.939635
0.283887 0.555107 0.923316
0.438533 0.553128 0.906881
0.599158 0.551152 0.890342
0.765880 0.549178 0.873713
0.938805 0.547205 0.857006
1.000000 0.545231 0.840229
0.000000 0.697601 0.918196
0.000000 0.695969 0.901727
0.132390 0.694345 0.885159
0.290866 0.692727 0.868505
0.455451 0.691114 0.851774
0.626251 0.689505 0.834978
0.798866 0.687379 0.822277
0.963039 0.684020 0.819414
1.000000 0.680662 0.816552
0.000000 0.836501 0.863288
0.000000 0.835250 0.846537
0.128538 0.834007 0.829722
0.293671 0.831479 0.821383
0.457844 0.828121 0.818520
0.622017 0.824763 0.815658
0.786191 0.821405 0.812796
0.950364 0.818047 0.809933
1.000000 0.814689 0.807071
0.000000 0.975579 0.820489
0.000000 0.972221 0.817627
0.116822 0.968863 0.814764
0.280996 0.965505 0.811902
0.445169 0.962147 0.809039
0.609342 0.958789 0.806177
0.773515 0.955431 0.803314
0.937688 0.952073 0.800452
1.000000 0.948715 0.797590
