assets/lighting/cinematic/grade-stage-tungsten/lut.cube
TITLE "Stage Tungsten"
# TKRS lighting-batch-001 original LUT
# Intended usage: theatrical warm key + slight crush
# License: CC0-1.0
LUT_3D_SIZE 17
DOMAIN_MIN 0.0 0.0 0.0
DOMAIN_MAX 1.0 1.0 1.0
0.000000 0.000000 0.000000
0.000000 0.000000 0.000000
0.049762 0.000000 0.000000
0.107043 0.000000 0.000000
0.164324 0.000000 0.000000
0.221605 0.000000 0.000000
0.278887 0.000000 0.000000
0.336168 0.000000 0.000000
0.393449 0.000000 0.000000
0.450730 0.000000 0.000000
0.508011 0.000000 0.000000
0.565292 0.000000 0.000000
0.622573 0.000000 0.000000
0.679854 0.000000 0.000000
0.737135 0.000000 0.000000
0.794416 0.000000 0.000000
0.851698 0.000000 0.000000
0.000000 0.000000 0.000000
0.000000 0.000000 0.000000
0.046564 0.000000 0.000000
0.103845 0.000000 0.000000
0.161127 0.000000 0.000000
0.218408 0.000000 0.000000
0.275689 0.000000 0.000000
0.332970 0.000000 0.000000
0.390251 0.000000 0.000000
0.447532 0.000000 0.000000
0.504813 0.000000 0.000000
0.562094 0.000000 0.000000
0.619375 0.000000 0.000000
0.676656 0.000000 0.000000
0.733938 0.000000 0.000000
0.791219 0.000000 0.000000
0.849627 0.000000 0.000000
0.000000 0.026114 0.000000
0.000000 0.025029 0.000000
0.043367 0.023944 0.000000
0.100648 0.022859 0.000000
0.157929 0.021774 0.000000
0.215210 0.020689 0.000000
0.272491 0.019604 0.000000
0.329772 0.018519 0.000000
0.387053 0.017434 0.000000
0.444334 0.016349 0.000000
0.501615 0.015264 0.000000
0.558896 0.014179 0.000000
0.616178 0.013094 0.000000
0.673851 0.012015 0.000000
0.735063 0.010981 0.000000
0.797807 0.009947 0.000000
0.861846 0.008906 0.000000
0.000000 0.070311 0.000000
0.000000 0.069226 0.000000
0.040169 0.068141 0.000000
0.097450 0.067056 0.000000
0.154731 0.065971 0.000000
0.212012 0.064886 0.000000
0.269293 0.063801 0.000000
0.326574 0.062716 0.000000
0.383855 0.061631 0.000000
0.441136 0.060546 0.000000
0.498419 0.059461 0.000000
0.558430 0.058630 0.000000
0.619893 0.057862 0.000000
0.682552 0.057118 0.000000
0.746380 0.056383 0.000000
0.811381 0.055653 0.000000
0.877567 0.054923 0.000000
0.000000 0.114508 0.000000
0.000000 0.113423 0.000000
0.036971 0.112338 0.000000
0.094252 0.111253 0.000000
0.151533 0.110168 0.000000
0.208814 0.109083 0.000000
0.266095 0.107998 0.000000
0.323376 0.106913 0.000000
0.382160 0.106198 0.000000
0.442387 0.105684 0.000000
0.503697 0.105227 0.000000
0.566092 0.104805 0.000000
0.629591 0.104404 0.000000
0.694217 0.104018 0.000000
0.759994 0.103641 0.000000
0.826943 0.103270 0.000000
0.895087 0.102902 0.000000
0.000000 0.158705 0.000000
0.000000 0.157620 0.000000
0.033773 0.156535 0.000000
0.091054 0.155450 0.000000
0.148335 0.154365 0.000000
0.206237 0.153689 0.000000
0.265278 0.153414 0.000000
0.325274 0.153237 0.000000
0.386261 0.153119 0.000000
0.448279 0.153042 0.000000
0.511363 0.152995 0.000000
0.575545 0.152971 0.000000
0.640854 0.152964 0.000000
0.707315 0.152970 0.000000
0.774953 0.152985 0.000000
0.843790 0.153007 0.000000
0.913846 0.153033 0.000000
0.000000 0.202902 0.000000
0.000000 0.201817 0.000000
0.030641 0.201111 0.000000
0.088557 0.201055 0.000000
0.147274 0.201148 0.000000
0.206881 0.201327 0.000000
0.267440 0.201569 0.000000
0.329001 0.201857 0.000000
0.391605 0.202182 0.000000
0.455286 0.202535 0.000000
0.520078 0.202912 0.000000
0.586006 0.203307 0.000000
0.653099 0.203718 0.000000
0.721378 0.204140 0.000000
0.790865 0.204573 0.000000
0.861581 0.205012 0.000000
0.933545 0.205457 0.000000
0.000000 0.248612 0.000000
0.000000 0.248962 0.000000
0.027947 0.249432 0.000000
0.087070 0.249986 0.000000
0.147126 0.250604 0.000000
0.208168 0.251273 0.000000
0.270238 0.251983 0.000000
0.333372 0.252728 0.000000
0.397604 0.253500 0.000000
0.462962 0.254297 0.000000
0.529473 0.255114 0.000000
0.597162 0.255948 0.000000
0.666049 0.256796 0.000000
0.736157 0.257656 0.000000
0.807505 0.258525 0.000000
0.880111 0.259402 0.000000
0.953992 0.260285 0.000000
0.000000 0.298295 0.000000
0.000000 0.299238 0.000000
0.025231 0.300247 0.000000
0.085704 0.301310 0.000000
0.147195 0.302418 0.000000
0.209742 0.303566 0.000000
0.273378 0.304746 0.000000
0.338132 0.305954 0.000000
0.404030 0.307188 0.000000
0.471099 0.308442 0.000000
0.539359 0.309715 0.000000
0.608832 0.311004 0.000000
0.679539 0.312306 0.000000
0.751497 0.313620 0.000000
0.824724 0.314944 0.000000
0.899238 0.316275 0.000000
0.975053 0.317614 0.000000
0.000000 0.350516 0.000000
0.000000 0.351985 0.000000
0.022418 0.353503 0.000000
0.084343 0.355064 0.000000
0.147350 0.356662 0.000000
0.211469 0.358292 0.000000
0.276727 0.359951 0.000000
0.343148 0.361635 0.000000
0.410755 0.363341 0.000000
0.479570 0.365067 0.000000
0.549612 0.366810 0.000000
0.620901 0.368568 0.000000
0.693453 0.370339 0.000000
0.767286 0.372122 0.000000
0.842416 0.373915 0.000000
0.918857 0.375716 0.000000
0.996626 0.377524 0.000000
0.000000 0.405253 0.000000
0.000000 0.407238 0.000000
0.019475 0.409262 0.000000
0.082932 0.411323 0.000000
0.147523 0.413416 0.000000
0.213272 0.415537 0.000000
0.280203 0.417684 0.000000
0.348337 0.419855 0.000000
0.417693 0.422045 0.000000
0.488291 0.424255 0.000000
0.560149 0.426480 0.000000
0.633283 0.428721 0.000000
0.707709 0.430974 0.000000
0.783442 0.433239 0.000000
0.860498 0.435514 0.000000
0.938891 0.437798 0.000000
1.000000 0.440089 0.000000
0.000000 0.462559 0.000000
0.000000 0.465058 0.000000
0.016381 0.467593 0.000000
0.081436 0.470160 0.000000
0.147669 0.472755 0.000000
0.215100 0.475377 0.000000
0.283751 0.478023 0.000000
0.353640 0.480690 0.000000
0.424784 0.483376 0.000000
0.497200 0.486080 0.000000
0.570905 0.488801 0.000000
0.645913 0.491535 0.000000
0.722241 0.494282 0.000000
0.799901 0.497041 0.000000
0.878907 0.499810 0.000000
0.959273 0.502588 0.000000
1.000000 0.505374 0.000000
0.000000 0.522493 0.000000
0.000000 0.525512 0.000000
0.013120 0.528563 0.000000
0.079830 0.531643 0.000000
0.147757 0.534750 0.000000
0.216917 0.537881 0.000000
0.287330 0.541035 0.000000
0.359012 0.544209 0.000000
0.431979 0.547401 0.000000
0.506247 0.550611 0.000000
0.581830 0.553836 0.000000
0.658743 0.557076 0.000000
0.736998 0.560328 0.000000
0.816610 0.563591 0.000000
0.897591 0.566865 0.000000
0.979953 0.570148 0.000000
1.000000 0.573439 0.000000
0.000000 0.585117 0.000000
0.000000 0.588662 0.000000
0.009682 0.592237 0.000000
0.078097 0.595838 0.000000
0.147762 0.599464 0.000000
0.218694 0.603114 0.000000
0.290908 0.606784 0.000000
0.364419 0.610474 0.000000
0.439243 0.614183 0.000000
0.515394 0.617908 0.000000
0.592885 0.621648 0.000000
0.671729 0.625402 0.000000
0.751939 0.629168 0.000000
0.833527 0.632946 0.000000
0.916505 0.636735 0.000000
1.000000 0.640533 0.000000
1.000000 0.644340 0.000000
0.000000 0.650490 0.000000
0.000000 0.654567 0.000000
0.006056 0.658672 0.000000
0.076221 0.662802 0.000000
0.147667 0.666956 0.000000
0.220407 0.671132 0.000000
0.294458 0.675328 0.000000
0.369833 0.679544 0.000000
0.446545 0.683777 0.000000
0.524608 0.688026 0.000000
0.604035 0.692290 0.000000
0.684837 0.696568 0.000000
0.767027 0.700858 0.000000
0.850615 0.705160 0.000000
0.935614 0.709473 0.000000
1.000000 0.713796 0.000000
1.000000 0.718127 0.000000
0.000000 0.718665 0.000000
0.000000 0.723281 0.000000
0.002234 0.727924 0.000000
0.074190 0.732590 0.000000
0.147454 0.737280 0.000000
0.222039 0.741991 0.000000
0.297960 0.746721 0.000000
0.375229 0.751470 0.000000
0.453860 0.756236 0.000000
0.533864 0.761018 0.000000
0.615253 0.765815 0.000000
0.698038 0.770625 0.000000
0.782232 0.775448 0.000000
0.867844 0.780283 0.000000
0.954884 0.785128 0.000000
1.000000 0.785394 0.000000
1.000000 0.783935 0.000000
0.000000 0.789694 0.000000
0.000000 0.794857 0.000000
0.000000 0.800044 0.000000
0.071993 0.805254 0.000000
0.147109 0.810487 0.000000
0.223573 0.815740 0.000000
0.301395 0.821012 0.000000
0.380589 0.826302 0.000000
0.461166 0.831609 0.000000
0.543137 0.836932 0.000000
0.626514 0.842270 0.000000
0.711307 0.847621 0.000000
0.793623 0.849166 0.000000
0.873180 0.847708 0.000000
0.952737 0.846249 0.000000
1.000000 0.844791 0.000000
1.000000 0.843333 0.000000
0.000000 0.000000 0.000000
0.000000 0.000000 0.000000
0.049492 0.000000 0.000000
0.106773 0.000000 0.000000
0.164054 0.000000 0.000000
0.221335 0.000000 0.000000
0.278616 0.000000 0.000000
0.335897 0.000000 0.000000
0.393178 0.000000 0.000000
0.450459 0.000000 0.000000
0.507740 0.000000 0.000000
0.565022 0.000000 0.000000
0.622303 0.000000 0.000000
0.679584 0.000000 0.000000
0.736865 0.000000 0.000000
0.794146 0.000000 0.000000
0.851427 0.000000 0.000000
0.000000 0.000000 0.000000
0.000000 0.000000 0.000000
0.046294 0.000000 0.000000
0.103575 0.000000 0.000000
0.160856 0.000000 0.000000
0.218137 0.000000 0.000000
0.275418 0.000000 0.000000
0.332699 0.000000 0.000000
0.389980 0.000000 0.000000
0.447262 0.000000 0.000000
0.504543 0.000000 0.000000
0.561824 0.000000 0.000000
0.619105 0.000000 0.000000
0.676386 0.000000 0.000000
0.733667 0.000000 0.000000
0.790948 0.000000 0.000000
0.850377 0.000000 0.000000
0.000000 0.025854 0.000000
0.000000 0.024769 0.000000
0.043096 0.023684 0.000000
0.100377 0.022599 0.000000
0.157658 0.021514 0.000000
0.214939 0.020429 0.000000
0.272220 0.019344 0.000000
0.329502 0.018259 0.000000
0.386783 0.017174 0.000000
0.444064 0.016089 0.000000
0.501345 0.015004 0.000000
0.558626 0.013919 0.000000
0.615907 0.012834 0.000000
0.674317 0.011766 0.000000
0.735874 0.010734 0.000000
0.798844 0.009698 0.000000
0.863082 0.008654 0.000000
0.000000 0.070051 0.000000
0.000000 0.068966 0.000000
0.039898 0.067881 0.000000
0.097179 0.066796 0.000000
0.154460 0.065711 0.000000
0.211742 0.064626 0.000000
0.269023 0.063541 0.000000
0.326304 0.062456 0.000000
0.383585 0.061371 0.000000
0.440866 0.060286 0.000000
0.498592 0.059248 0.000000
0.558959 0.058443 0.000000
0.620623 0.057683 0.000000
0.683463 0.056941 0.000000
0.747464 0.056208 0.000000
0.812635 0.055478 0.000000
0.878990 0.054748 0.000000
0.000000 0.114248 0.000000
0.000000 0.113163 0.000000
0.036700 0.112078 0.000000
0.093982 0.110993 0.000000
0.151263 0.109908 0.000000
0.208544 0.108823 0.000000
0.265825 0.107738 0.000000
0.323176 0.106674 0.000000
0.382420 0.106067 0.000000
0.442819 0.105571 0.000000
0.504289 0.105124 0.000000
0.566840 0.104707 0.000000
0.630495 0.104310 0.000000
0.695279 0.103927 0.000000
0.761214 0.103552 0.000000
0.828324 0.103182 0.000000
0.896631 0.102814 0.000000
0.000000 0.158445 0.000000
0.000000 0.157360 0.000000
0.033503 0.156275 0.000000
0.090784 0.155190 0.000000
0.148065 0.154105 0.000000
0.206242 0.153610 0.000000
0.265421 0.153365 0.000000
0.325552 0.153204 0.000000
0.386678 0.153097 0.000000
0.448838 0.153028 0.000000
0.512067 0.152988 0.000000
0.576397 0.152968 0.000000
0.641857 0.152965 0.000000
0.708471 0.152973 0.000000
0.776266 0.152990 0.000000
0.845262 0.153013 0.000000
0.915480 0.153039 0.000000
0.000000 0.202642 0.000000
0.000000 0.201557 0.000000
0.030408 0.201078 0.000000
0.088421 0.201067 0.000000
0.147248 0.201184 0.000000
0.206973 0.201380 0.000000
0.267659 0.201634 0.000000
0.329351 0.201932 0.000000
0.392091 0.202264 0.000000
0.455914 0.202623 0.000000
0.520849 0.203005 0.000000
0.586926 0.203404 0.000000
0.654170 0.203818 0.000000
0.722603 0.204243 0.000000
0.792247 0.204677 0.000000
0.863122 0.205118 0.000000
0.935248 0.205564 0.000000
0.000000 0.248682 0.000000
0.000000 0.249065 0.000000
0.027720 0.249558 0.000000
0.086952 0.250129 0.000000
0.147126 0.250760 0.000000
0.208293 0.251440 0.000000
0.270492 0.252159 0.000000
0.333762 0.252910 0.000000
0.398133 0.253689 0.000000
0.463635 0.254491 0.000000
0.530293 0.255312 0.000000
0.598131 0.256150 0.000000
0.667171 0.257001 0.000000
0.737435 0.257863 0.000000
0.808941 0.258735 0.000000
0.881707 0.259613 0.000000
0.955752 0.260498 0.000000
0.000000 0.298514 0.000000
0.000000 0.299474 0.000000
0.024998 0.300497 0.000000
0.085590 0.301572 0.000000
0.147206 0.302690 0.000000
0.209884 0.303846 0.000000
0.273654 0.305033 0.000000
0.338548 0.306248 0.000000
0.404589 0.307486 0.000000
0.471804 0.308746 0.000000
0.540213 0.310022 0.000000
0.609839 0.311315 0.000000
0.680701 0.312620 0.000000
0.752817 0.313936 0.000000
0.826204 0.315262 0.000000
0.900879 0.316596 0.000000
0.976859 0.317935 0.000000
0.000000 0.350863 0.000000
0.000000 0.352345 0.000000
0.022175 0.353874 0.000000
0.084226 0.355444 0.000000
0.147365 0.357050 0.000000
0.211619 0.358687 0.000000
0.277017 0.360352 0.000000
0.343581 0.362042 0.000000
0.411335 0.363753 0.000000
0.480299 0.365483 0.000000
0.550494 0.367230 0.000000
0.621937 0.368991 0.000000
0.694647 0.370765 0.000000
0.768640 0.372551 0.000000
0.843931 0.374345 0.000000
0.920537 0.376148 0.000000
0.998472 0.377958 0.000000
0.000000 0.405725 0.000000
0.000000 0.407719 0.000000
0.019219 0.409753 0.000000
0.082809 0.411822 0.000000
0.147536 0.413922 0.000000
0.213426 0.416049 0.000000
0.280501 0.418202 0.000000
0.348782 0.420378 0.000000
0.418288 0.422573 0.000000
0.489039 0.424787 0.000000
0.561051 0.427016 0.000000
0.634342 0.429260 0.000000
0.708928 0.431516 0.000000
0.784824 0.433783 0.000000
0.862044 0.436060 0.000000
0.940602 0.438346 0.000000
1.000000 0.440639 0.000000
0.000000 0.463154 0.000000
0.000000 0.465663 0.000000
0.016111 0.468205 0.000000
0.081304 0.470779 0.000000
0.147679 0.473381 0.000000
0.215255 0.476009 0.000000
0.284053 0.478660 0.000000
0.354092 0.481332 0.000000
0.425389 0.484023 0.000000
0.497960 0.486731 0.000000
0.571823 0.489455 0.000000
0.646992 0.492192 0.000000
0.723481 0.494942 0.000000
0.801305 0.497704 0.000000
0.880478 0.500475 0.000000
0.961012 0.503255 0.000000
1.000000 0.506043 0.000000
0.000000 0.523214 0.000000
0.000000 0.526241 0.000000
0.012836 0.529299 0.000000
0.079689 0.532386 0.000000
0.147761 0.535498 0.000000
0.217069 0.538635 0.000000
0.287633 0.541794 0.000000
0.359468 0.544972 0.000000
0.432591 0.548169 0.000000
0.507017 0.551383 0.000000
0.582761 0.554611 0.000000
0.659836 0.557854 0.000000
0.738256 0.561109 0.000000
0.818034 0.564375 0.000000
0.899183 0.567651 0.000000
0.981714 0.570936 0.000000
1.000000 0.574229 0.000000
0.000000 0.585964 0.000000
0.000000 0.589516 0.000000
0.009383 0.593097 0.000000
0.077944 0.596705 0.000000
0.147758 0.600337 0.000000
0.218841 0.603991 0.000000
0.291209 0.607667 0.000000
0.364877 0.611361 0.000000
0.439860 0.615074 0.000000
0.516171 0.618802 0.000000
0.593825 0.622546 0.000000
0.672833 0.626303 0.000000
0.753210 0.630073 0.000000
0.834967 0.633853 0.000000
0.918115 0.637644 0.000000
1.000000 0.641445 0.000000
1.000000 0.645253 0.000000
0.000000 0.651464 0.000000
0.000000 0.655548 0.000000
0.005740 0.659659 0.000000
0.076056 0.663795 0.000000
0.147653 0.667955 0.000000
0.220549 0.672136 0.000000
0.294756 0.676337 0.000000
0.370290 0.680557 0.000000
0.447164 0.684793 0.000000
0.525390 0.689046 0.000000
0.604982 0.693314 0.000000
0.685951 0.697595 0.000000
0.768309 0.701888 0.000000
0.852068 0.706193 0.000000
0.937238 0.710508 0.000000
1.000000 0.714833 0.000000
1.000000 0.719166 0.000000
0.000000 0.719769 0.000000
0.000000 0.724391 0.000000
0.001902 0.729040 0.000000
0.074011 0.733712 0.000000
0.147430 0.738407 0.000000
0.222173 0.743122 0.000000
0.298253 0.747857 0.000000
0.375684 0.752610 0.000000
0.454479 0.757380 0.000000
0.534648 0.762166 0.000000
0.616204 0.766966 0.000000
0.699159 0.771780 0.000000
0.783522 0.776606 0.000000
0.869306 0.781443 0.000000
0.956521 0.786291 0.000000
1.000000 0.785044 0.000000
1.000000 0.783586 0.000000
0.000000 0.790929 0.000000
0.000000 0.796097 0.000000
0.000000 0.801290 0.000000
0.071799 0.806506 0.000000
0.147074 0.811744 0.000000
0.223698 0.817002 0.000000
0.301682 0.822278 0.000000
0.381040 0.827573 0.000000
0.461783 0.832883 0.000000
0.543922 0.838210 0.000000
0.627468 0.843551 0.000000
0.712432 0.848905 0.000000
0.793247 0.848816 0.000000
0.872804 0.847358 0.000000
0.952361 0.845900 0.000000
1.000000 0.844442 0.000000
1.000000 0.842984 0.000000
0.000000 0.000000 0.016671
0.000000 0.000000 0.015569
0.049221 0.000000 0.014468
0.106502 0.000000 0.013366
0.163783 0.000000 0.012265
0.221064 0.000000 0.011163
0.278346 0.000000 0.010062
0.335627 0.000000 0.008960
0.392908 0.000000 0.007859
0.450189 0.000000 0.006758
0.507470 0.000000 0.005656
0.564751 0.000000 0.004555
0.622032 0.000000 0.003453
0.679313 0.000000 0.002352
0.736594 0.000000 0.001250
0.793875 0.000000 0.000149
0.851156 0.000000 0.000000
0.000000 0.000000 0.013551
0.000000 0.000000 0.012449
0.046023 0.000000 0.011348
0.103304 0.000000 0.010246
0.160586 0.000000 0.009145
0.217867 0.000000 0.008043
0.275148 0.000000 0.006942
0.332429 0.000000 0.005840
0.389710 0.000000 0.004739
0.446991 0.000000 0.003637
0.504272 0.000000 0.002536
0.561553 0.000000 0.001434
0.618834 0.000000 0.000333
0.676115 0.000000 0.000000
0.733396 0.000000 0.000000
0.790678 0.000000 0.000000
0.851216 0.000000 0.000000
0.000000 0.025594 0.010431
0.000000 0.024509 0.009329
0.042826 0.023424 0.008228
0.100107 0.022339 0.007126
0.157388 0.021254 0.006025
0.214669 0.020169 0.004923
0.271950 0.019084 0.003822
0.329231 0.017999 0.002720
0.386512 0.016914 0.001619
0.443793 0.015829 0.000517
0.501074 0.014744 0.000000
0.558355 0.013659 0.000000
0.615637 0.012574 0.000000
0.674881 0.011519 0.000000
0.736722 0.010486 0.000000
0.799906 0.009449 0.000000
0.864338 0.008403 0.000000
0.000000 0.069791 0.007310
0.000000 0.068706 0.006209
0.039628 0.067621 0.005108
0.096909 0.066536 0.004006
0.154190 0.065451 0.002905
0.211471 0.064366 0.001803
0.268752 0.063281 0.000702
0.326033 0.062196 0.000000
0.383314 0.061111 0.000000
0.440595 0.060026 0.000000
0.498892 0.059047 0.000000
0.559519 0.058258 0.000000
0.621375 0.057504 0.000000
0.684390 0.056765 0.000000
0.748562 0.056033 0.000000
0.813902 0.055303 0.000000
0.880425 0.054572 0.000000
0.000000 0.113988 0.004190
0.000000 0.112903 0.003089
0.036430 0.111818 0.001987
0.093711 0.110733 0.000886
0.150992 0.109648 0.000000
0.208273 0.108563 0.000000
0.265554 0.107478 0.000000
0.323230 0.106508 0.000000
0.382703 0.105942 0.000000
0.443267 0.105460 0.000000
0.504893 0.105021 0.000000
0.567599 0.104610 0.000000
0.631409 0.104217 0.000000
0.696350 0.103836 0.000000
0.762444 0.103463 0.000000
0.829715 0.103093 0.000000
0.898184 0.102726 0.000000
0.000000 0.158185 0.001070
0.000000 0.157100 0.000000
0.033232 0.156015 0.000000
0.090513 0.154930 0.000000
0.147867 0.153912 0.000000
0.206260 0.153541 0.000000
0.265574 0.153320 0.000000
0.325840 0.153174 0.000000
0.387103 0.153078 0.000000
0.449404 0.153016 0.000000
0.512778 0.152981 0.000000
0.577256 0.152966 0.000000
0.642866 0.152966 0.000000
0.709635 0.152976 0.000000
0.777585 0.152995 0.000000
0.846740 0.153019 0.000000
0.917119 0.153046 0.000000
0.000000 0.202382 0.000000
0.000000 0.201297 0.000000
0.030178 0.201059 0.000000
0.088287 0.201086 0.000000
0.147224 0.201225 0.000000
0.207069 0.201437 0.000000
0.267881 0.201702 0.000000
0.329705 0.202009 0.000000
0.392582 0.202348 0.000000
0.456545 0.202713 0.000000
0.521626 0.203099 0.000000
0.587851 0.203502 0.000000
0.655246 0.203919 0.000000
0.723833 0.204346 0.000000
0.793634 0.204782 0.000000
0.864669 0.205224 0.000000
0.936956 0.205671 0.000000
0.000000 0.248761 0.000000
0.000000 0.249175 0.000000
0.027492 0.249689 0.000000
0.086835 0.250275 0.000000
0.147128 0.250919 0.000000
0.208419 0.251609 0.000000
0.270749 0.252336 0.000000
0.334155 0.253095 0.000000
0.398665 0.253879 0.000000
0.464311 0.254686 0.000000
0.531115 0.255512 0.000000
0.599104 0.256353 0.000000
0.668297 0.257207 0.000000
0.738717 0.258071 0.000000
0.810381 0.258945 0.000000
0.883308 0.259825 0.000000
0.957515 0.260710 0.000000
0.000000 0.298738 0.000000
0.000000 0.299714 0.000000
0.024763 0.300750 0.000000
0.085475 0.301836 0.000000
0.147218 0.302964 0.000000
0.210026 0.304127 0.000000
0.273932 0.305322 0.000000
0.338965 0.306543 0.000000
0.405150 0.307786 0.000000
0.472511 0.309050 0.000000
0.541070 0.310331 0.000000
0.610849 0.311626 0.000000
0.681866 0.312934 0.000000
0.754139 0.314253 0.000000
0.827687 0.315581 0.000000
0.902525 0.316916 0.000000
0.978669 0.318257 0.000000
0.000000 0.351213 0.000000
0.000000 0.352707 0.000000
0.021930 0.354247 0.000000
0.084109 0.355826 0.000000
0.147379 0.357439 0.000000
0.211770 0.359084 0.000000
0.277308 0.360755 0.000000
0.344016 0.362450 0.000000
0.411916 0.364166 0.000000
0.481030 0.365900 0.000000
0.551377 0.367650 0.000000
0.622976 0.369415 0.000000
0.695843 0.371192 0.000000
0.769996 0.372980 0.000000
0.845449 0.374777 0.000000
0.922220 0.376581 0.000000
1.000000 0.378393 0.000000
0.000000 0.406199 0.000000
0.000000 0.408203 0.000000
0.018963 0.410246 0.000000
0.082685 0.412322 0.000000
0.147550 0.414429 0.000000
0.213581 0.416563 0.000000
0.280800 0.418722 0.000000
0.349227 0.420902 0.000000
0.418884 0.423102 0.000000
0.489787 0.425319 0.000000
0.561955 0.427552 0.000000
0.635404 0.429799 0.000000
0.710149 0.432058 0.000000
0.786207 0.434328 0.000000
0.863591 0.436607 0.000000
0.942316 0.438895 0.000000
1.000000 0.441189 0.000000
0.000000 0.463752 0.000000
0.000000 0.466269 0.000000
0.015841 0.468819 0.000000
0.081172 0.471400 0.000000
0.147688 0.474009 0.000000
0.215409 0.476642 0.000000
0.284355 0.479298 0.000000
0.354545 0.481975 0.000000
0.425995 0.484670 0.000000
0.498722 0.487382 0.000000
0.572742 0.490109 0.000000
0.648071 0.492850 0.000000
0.724723 0.495603 0.000000
0.802712 0.498367 0.000000
0.882050 0.501140 0.000000
0.962752 0.503922 0.000000
1.000000 0.506712 0.000000
0.000000 0.523936 0.000000
0.000000 0.526971 0.000000
0.012551 0.530036 0.000000
0.079547 0.533129 0.000000
0.147764 0.536248 0.000000
0.217221 0.539390 0.000000
0.287936 0.542554 0.000000
0.359925 0.545737 0.000000
0.433204 0.548938 0.000000
0.507788 0.552155 0.000000
0.583692 0.555387 0.000000
0.660930 0.558633 0.000000
0.739514 0.561890 0.000000
0.819459 0.565159 0.000000
0.900776 0.568437 0.000000
0.983477 0.571724 0.000000
1.000000 0.575019 0.000000
0.000000 0.586812 0.000000
0.000000 0.590372 0.000000
0.009082 0.593959 0.000000
0.077790 0.597573 0.000000
0.147754 0.601210 0.000000
0.218989 0.604870 0.000000
0.291511 0.608550 0.000000
0.365335 0.612249 0.000000
0.440477 0.615966 0.000000
0.516949 0.619698 0.000000
0.594765 0.623445 0.000000
0.673939 0.627205 0.000000
0.754482 0.630978 0.000000
0.836407 0.634761 0.000000
0.919726 0.638554 0.000000
1.000000 0.642357 0.000000
1.000000 0.646167 0.000000
0.000000 0.652440 0.000000
0.000000 0.656531 0.000000
0.005423 0.660648 0.000000
0.075889 0.664790 0.000000
0.147639 0.668955 0.000000
0.220690 0.673141 0.000000
0.295054 0.677346 0.000000
0.370748 0.681570 0.000000
0.447782 0.685811 0.000000
0.526172 0.690068 0.000000
0.605929 0.694338 0.000000
0.687065 0.698622 0.000000
0.769592 0.702919 0.000000
0.853521 0.707226 0.000000
0.938864 0.711544 0.000000
1.000000 0.715870 0.000000
1.000000 0.720205 0.000000
0.000000 0.720874 0.000000
0.000000 0.725503 0.000000
0.001568 0.730157 0.000000
0.073830 0.734835 0.000000
0.147405 0.739535 0.000000
0.222306 0.744255 0.000000
0.298546 0.748995 0.000000
0.376139 0.753752 0.000000
0.455097 0.758526 0.000000
0.535432 0.763315 0.000000
0.617156 0.768118 0.000000
0.700279 0.772935 0.000000
0.784814 0.777764 0.000000
0.870770 0.782604 0.000000
0.956427 0.786153 0.000000
1.000000 0.784695 0.000000
1.000000 0.783237 0.000000
0.000000 0.792165 0.000000
0.000000 0.797339 0.000000
0.000000 0.802538 0.000000
0.071604 0.807759 0.000000
0.147037 0.813002 0.000000
0.223822 0.818264 0.000000
0.301969 0.823545 0.000000
0.381491 0.828844 0.000000
0.462399 0.834158 0.000000
0.544706 0.839488 0.000000
0.628422 0.844832 0.000000
0.713314 0.849925 0.000000
0.792871 0.848467 0.000000
0.872428 0.847009 0.000000
0.951985 0.845551 0.000000
1.000000 0.844092 0.000000
1.000000 0.842634 0.000000
0.000000 0.000000 0.056619
0.000000 0.000000 0.055517
0.048951 0.000000 0.054416
0.106232 0.000000 0.053314
0.163513 0.000000 0.052213
0.220794 0.000000 0.051111
0.278075 0.000000 0.050010
0.335356 0.000000 0.048908
0.392637 0.000000 0.047807
0.449918 0.000000 0.046705
0.507199 0.000000 0.045604
0.564481 0.000000 0.044502
0.621762 0.000000 0.043401
0.679043 0.000000 0.042299
