assets/lighting/cinematic/grade-stage-tungsten/lut.cube
TITLE "Stage Tungsten"
# TKRS lighting-batch-001 original LUT
# Intended usage: theatrical warm key + slight crush
# License: CC0-1.0
LUT_3D_SIZE 9
DOMAIN_MIN 0.0 0.0 0.0
DOMAIN_MAX 1.0 1.0 1.0
0.000000 0.000000 0.000000
0.049762 0.000000 0.000000
0.164324 0.000000 0.000000
0.278887 0.000000 0.000000
0.393449 0.000000 0.000000
0.508011 0.000000 0.000000
0.622573 0.000000 0.000000
0.737135 0.000000 0.000000
0.851698 0.000000 0.000000
0.000000 0.026114 0.000000
0.043367 0.023944 0.000000
0.157929 0.021774 0.000000
0.272491 0.019604 0.000000
0.387053 0.017434 0.000000
0.501615 0.015264 0.000000
0.616178 0.013094 0.000000
0.735063 0.010981 0.000000
0.861846 0.008906 0.000000
0.000000 0.114508 0.000000
0.036971 0.112338 0.000000
0.151533 0.110168 0.000000
0.266095 0.107998 0.000000
0.382160 0.106198 0.000000
0.503697 0.105227 0.000000
0.629591 0.104404 0.000000
0.759994 0.103641 0.000000
0.895087 0.102902 0.000000
0.000000 0.202902 0.000000
0.030641 0.201111 0.000000
0.147274 0.201148 0.000000
0.267440 0.201569 0.000000
0.391605 0.202182 0.000000
0.520078 0.202912 0.000000
0.653099 0.203718 0.000000
0.790865 0.204573 0.000000
0.933545 0.205457 0.000000
0.000000 0.298295 0.000000
0.025231 0.300247 0.000000
0.147195 0.302418 0.000000
0.273378 0.304746 0.000000
0.404030 0.307188 0.000000
0.539359 0.309715 0.000000
0.679539 0.312306 0.000000
0.824724 0.314944 0.000000
0.975053 0.317614 0.000000
0.000000 0.405253 0.000000
0.019475 0.409262 0.000000
0.147523 0.413416 0.000000
0.280203 0.417684 0.000000
0.417693 0.422045 0.000000
0.560149 0.426480 0.000000
0.707709 0.430974 0.000000
0.860498 0.435514 0.000000
1.000000 0.440089 0.000000
0.000000 0.522493 0.000000
0.013120 0.528563 0.000000
0.147757 0.534750 0.000000
0.287330 0.541035 0.000000
0.431979 0.547401 0.000000
0.581830 0.553836 0.000000
0.736998 0.560328 0.000000
0.897591 0.566865 0.000000
1.000000 0.573439 0.000000
0.000000 0.650490 0.000000
0.006056 0.658672 0.000000
0.147667 0.666956 0.000000
0.294458 0.675328 0.000000
0.446545 0.683777 0.000000
0.604035 0.692290 0.000000
0.767027 0.700858 0.000000
0.935614 0.709473 0.000000
1.000000 0.718127 0.000000
0.000000 0.789694 0.000000
0.000000 0.800044 0.000000
0.147109 0.810487 0.000000
0.301395 0.821012 0.000000
0.461166 0.831609 0.000000
0.626514 0.842270 0.000000
0.793623 0.849166 0.000000
0.952737 0.846249 0.000000
1.000000 0.843333 0.000000
0.000000 0.000000 0.016671
0.049221 0.000000 0.014468
0.163783 0.000000 0.012265
0.278346 0.000000 0.010062
0.392908 0.000000 0.007859
0.507470 0.000000 0.005656
0.622032 0.000000 0.003453
0.736594 0.000000 0.001250
0.851156 0.000000 0.000000
0.000000 0.025594 0.010431
0.042826 0.023424 0.008228
0.157388 0.021254 0.006025
0.271950 0.019084 0.003822
0.386512 0.016914 0.001619
0.501074 0.014744 0.000000
0.615637 0.012574 0.000000
0.736722 0.010486 0.000000
0.864338 0.008403 0.000000
0.000000 0.113988 0.004190
0.036430 0.111818 0.001987
0.150992 0.109648 0.000000
0.265554 0.107478 0.000000
0.382703 0.105942 0.000000
0.504893 0.105021 0.000000
0.631409 0.104217 0.000000
0.762444 0.103463 0.000000
0.898184 0.102726 0.000000
0.000000 0.202382 0.000000
0.030178 0.201059 0.000000
0.147224 0.201225 0.000000
0.267881 0.201702 0.000000
0.392582 0.202348 0.000000
0.521626 0.203099 0.000000
0.655246 0.203919 0.000000
0.793634 0.204782 0.000000
0.936956 0.205671 0.000000
0.000000 0.298738 0.000000
0.024763 0.300750 0.000000
0.147218 0.302964 0.000000
0.273932 0.305322 0.000000
0.405150 0.307786 0.000000
0.541070 0.310331 0.000000
0.681866 0.312934 0.000000
0.827687 0.315581 0.000000
0.978669 0.318257 0.000000
0.000000 0.406199 0.000000
0.018963 0.410246 0.000000
0.147550 0.414429 0.000000
0.280800 0.418722 0.000000
0.418884 0.423102 0.000000
0.561955 0.427552 0.000000
0.710149 0.432058 0.000000
0.863591 0.436607 0.000000
1.000000 0.441189 0.000000
0.000000 0.523936 0.000000
0.012551 0.530036 0.000000
0.147764 0.536248 0.000000
0.287936 0.542554 0.000000
0.433204 0.548938 0.000000
0.583692 0.555387 0.000000
0.739514 0.561890 0.000000
0.900776 0.568437 0.000000
1.000000 0.575019 0.000000
0.000000 0.652440 0.000000
0.005423 0.660648 0.000000
0.147639 0.668955 0.000000
0.295054 0.677346 0.000000
0.447782 0.685811 0.000000
0.605929 0.694338 0.000000
0.769592 0.702919 0.000000
0.938864 0.711544 0.000000
1.000000 0.720205 0.000000
0.000000 0.792165 0.000000
0.000000 0.802538 0.000000
0.147037 0.813002 0.000000
0.301969 0.823545 0.000000
0.462399 0.834158 0.000000
0.628422 0.844832 0.000000
0.792871 0.848467 0.000000
0.951985 0.845551 0.000000
1.000000 0.842634 0.000000
0.000000 0.000000 0.096566
0.048680 0.000000 0.094363
0.163242 0.000000 0.092161
0.277805 0.000000 0.089958
0.392367 0.000000 0.087755
0.506929 0.000000 0.085552
0.621491 0.000000 0.083349
0.736053 0.000000 0.081146
0.850615 0.000000 0.078943
0.000000 0.025074 0.090326
0.042285 0.022904 0.088123
0.156847 0.020734 0.085920
0.271409 0.018564 0.083717
0.385971 0.016394 0.081515
0.500533 0.014224 0.079312
0.615351 0.012058 0.077123
0.738511 0.009990 0.075313
0.866907 0.007897 0.073579
0.000000 0.113468 0.084086
0.035889 0.111298 0.081883
0.150451 0.109128 0.079680
0.265013 0.106958 0.077477
0.383326 0.105704 0.075608
0.506136 0.104822 0.073867
0.633267 0.104033 0.072151
0.764930 0.103285 0.070439
0.901314 0.102549 0.068721
0.000000 0.201862 0.077846
0.029721 0.201054 0.075905
0.147186 0.201319 0.074156
0.268336 0.201844 0.072438
0.393576 0.202520 0.070726
0.523192 0.203290 0.069009
0.657412 0.204123 0.067280
0.796423 0.204994 0.065532
0.940388 0.205886 0.063761
0.000000 0.299197 0.072724
0.024292 0.301265 0.071013
0.147242 0.303517 0.069297
0.274492 0.305904 0.067570
0.406277 0.308390 0.065826
0.542792 0.310950 0.064059
0.684204 0.313565 0.062267
0.830662 0.316220 0.060447
0.982299 0.318901 0.058596
0.000000 0.407154 0.067860
0.018446 0.411237 0.066119
0.147577 0.415449 0.064357
0.281398 0.419764 0.062569
0.420078 0.424163 0.060754
0.563767 0.428627 0.058908
0.712598 0.433145 0.057030
0.866693 0.437703 0.055118
1.000000 0.442291 0.053169
0.000000 0.525386 0.062870
0.011977 0.531515 0.061060
0.147769 0.537751 0.059219
0.288542 0.544077 0.057347
0.434431 0.550478 0.055440
0.585558 0.556941 0.053498
0.742035 0.563455 0.051518
0.903967 0.570012 0.049499
1.000000 0.576601 0.047441
0.000000 0.654397 0.057663
0.004785 0.662630 0.055762
0.147608 0.670958 0.053825
0.295649 0.679368 0.051852
0.449020 0.687849 0.049840
0.607824 0.696390 0.047788
0.772160 0.704982 0.045695
0.942118 0.713616 0.043560
1.000000 0.722286 0.041382
0.000000 0.794642 0.052185
0.000000 0.805038 0.050179
0.146961 0.815521 0.048134
0.302540 0.826082 0.046049
0.463632 0.836711 0.043921
0.630330 0.847398 0.041750
0.792120 0.847768 0.039257
0.951234 0.844852 0.036670
1.000000 0.841935 0.034082
0.000000 0.000000 0.176462
0.048139 0.000000 0.174259
0.162701 0.000000 0.172056
0.277264 0.000000 0.169853
0.391826 0.000000 0.167650
0.506388 0.000000 0.165447
0.620950 0.000000 0.163245
0.735512 0.000000 0.161042
0.850074 0.000000 0.158839
0.000000 0.024554 0.170222
0.041744 0.022384 0.168019
0.156306 0.020214 0.165816
0.270868 0.018044 0.163613
0.385430 0.015874 0.161410
0.499992 0.013704 0.159207
0.616210 0.011562 0.157194
0.740406 0.009492 0.155876
0.869546 0.007389 0.154696
0.000000 0.112948 0.163982
0.035348 0.110778 0.161779
0.149910 0.108608 0.159576
0.264745 0.106535 0.157446
0.384011 0.105479 0.156084
0.507421 0.104627 0.154888
0.635160 0.103852 0.153766
0.767448 0.103109 0.152684
0.904476 0.102372 0.151625
0.000000 0.201342 0.157742
0.029266 0.201082 0.156295
0.147159 0.201427 0.155082
0.268805 0.201995 0.153950
0.394585 0.202697 0.152863
0.524776 0.203485 0.151801
0.659596 0.204329 0.150752
0.799230 0.205206 0.149707
0.943839 0.206101 0.148659
0.000000 0.299672 0.154136
0.023818 0.301790 0.153043
0.147268 0.304078 0.151978
0.275057 0.306491 0.150927
0.407412 0.308997 0.149882
0.544523 0.311572 0.148835
0.686554 0.314198 0.147781
0.833650 0.316860 0.146715
0.985943 0.319547 0.145633
0.000000 0.408119 0.151102
0.017924 0.412235 0.150057
0.147602 0.416474 0.149011
0.281998 0.420811 0.147958
0.421276 0.425227 0.146894
0.565584 0.429706 0.145815
0.715053 0.434234 0.144719
0.869804 0.438800 0.143600
1.000000 0.443394 0.142459
0.000000 0.526844 0.148135
0.011398 0.533000 0.147073
0.147771 0.539259 0.145997
0.289148 0.545604 0.144903
0.435659 0.552021 0.143789
0.587427 0.558498 0.142652
0.744561 0.565023 0.141488
0.907165 0.571588 0.140298
1.000000 0.578184 0.139078
0.000000 0.656360 0.145088
0.004141 0.664618 0.143977
0.147574 0.672966 0.142844
0.296243 0.681395 0.141685
0.450258 0.689891 0.140499
0.609722 0.698444 0.139284
0.774731 0.707047 0.138038
0.945376 0.715691 0.136760
1.000000 0.722441 0.135238
0.000000 0.797124 0.141881
0.000000 0.807542 0.140699
0.146881 0.818045 0.139489
0.303108 0.828623 0.138249
0.464864 0.839267 0.136976
0.632239 0.849967 0.135670
0.791368 0.847069 0.133084
0.950483 0.844153 0.130497
1.000000 0.841237 0.127910
0.000000 0.000000 0.256358
0.047598 0.000000 0.254155
0.162160 0.000000 0.251952
0.276722 0.000000 0.249749
0.391285 0.000000 0.247546
0.505847 0.000000 0.245343
0.620409 0.000000 0.243140
0.734971 0.000000 0.240937
0.849533 0.000000 0.238734
0.000000 0.024034 0.250118
0.041203 0.021864 0.247915
0.155765 0.019694 0.245712
0.270327 0.017524 0.243509
0.384889 0.015354 0.241306
0.499451 0.013184 0.239103
0.617339 0.011067 0.237475
0.742388 0.008992 0.236692
0.872247 0.006878 0.236093
0.000000 0.112428 0.243878
0.034807 0.110258 0.241675
0.149369 0.108088 0.239472
0.264850 0.106244 0.237639
0.384746 0.105264 0.236807
0.508743 0.104436 0.236185
0.637087 0.103672 0.235676
0.769999 0.102932 0.235240
0.907668 0.102195 0.234854
0.000000 0.201127 0.237820
0.028813 0.201136 0.236927
0.147141 0.201547 0.236280
0.269287 0.202153 0.235755
0.395610 0.202880 0.235309
0.526375 0.203683 0.234915
0.661797 0.204536 0.234559
0.802057 0.205419 0.234226
0.947310 0.206317 0.233910
0.000000 0.300161 0.235837
0.023341 0.302325 0.235379
0.147295 0.304647 0.234978
0.275627 0.307084 0.234616
0.408555 0.309609 0.234281
0.546263 0.312197 0.233963
0.688914 0.314833 0.233654
0.836651 0.317502 0.233350
0.989601 0.320193 0.233045
0.000000 0.409093 0.234675
0.017398 0.413241 0.234335
0.147626 0.417505 0.234015
0.282599 0.421863 0.233705
0.422478 0.426295 0.233401
0.567407 0.430787 0.233096
0.717516 0.435325 0.232787
0.872924 0.439898 0.232470
1.000000 0.444498 0.232141
0.000000 0.528309 0.233757
0.010813 0.534491 0.233452
0.147771 0.540772 0.233147
0.289753 0.547136 0.232839
0.436889 0.553568 0.232524
0.589299 0.560057 0.232197
0.747092 0.566593 0.231856
0.910368 0.573166 0.231498
1.000000 0.579768 0.231122
0.000000 0.658330 0.232891
0.003491 0.666610 0.232577
0.147536 0.674979 0.232252
0.296834 0.683425 0.231914
0.451495 0.691935 0.231559
0.611621 0.700502 0.231186
0.777306 0.709115 0.230792
0.948639 0.717767 0.230375
1.000000 0.721742 0.229066
0.000000 0.799612 0.231972
0.000000 0.810052 0.231620
0.146796 0.820574 0.231250
0.303674 0.831168 0.230860
0.466095 0.841826 0.230446
0.631503 0.849287 0.229499
0.790617 0.846371 0.226912
0.949731 0.843454 0.224325
1.000000 0.840538 0.221738
0.000000 0.000000 0.336254
0.047057 0.000000 0.334051
0.161619 0.000000 0.331848
0.276181 0.000000 0.329645
0.390744 0.000000 0.327442
0.505306 0.000000 0.325239
0.619868 0.000000 0.323036
0.734430 0.000000 0.320833
0.848992 0.000000 0.318630
0.000000 0.023514 0.330013
0.040661 0.021344 0.327810
0.155224 0.019174 0.325608
0.269786 0.017004 0.323405
0.384348 0.014834 0.321202
0.498910 0.012664 0.318999
0.618623 0.010572 0.317989
0.744447 0.008490 0.317773
0.875007 0.006363 0.317778
0.000000 0.111908 0.323773
0.034266 0.109738 0.321570
0.148828 0.107568 0.319367
0.265047 0.105985 0.318059
0.385522 0.105057 0.317790
0.510100 0.104249 0.317766
0.639045 0.103494 0.317889
0.772579 0.102756 0.318113
0.910889 0.102017 0.318411
0.000000 0.201064 0.318145
0.028360 0.201210 0.317814
0.147130 0.201678 0.317758
0.269780 0.202319 0.317860
0.396648 0.203066 0.318069
0.527990 0.203884 0.318357
0.664015 0.204746 0.318703
0.804900 0.205634 0.319094
0.950799 0.206533 0.319518
0.000000 0.300662 0.317835
0.022860 0.302869 0.318028
0.147324 0.305221 0.318304
0.276201 0.307682 0.318642
0.409703 0.310224 0.319026
0.548012 0.312825 0.319445
0.691285 0.315470 0.319891
0.839663 0.318145 0.320356
0.993272 0.320839 0.320834
0.000000 0.410075 0.318582
0.016868 0.414253 0.318959
0.147649 0.418542 0.319373
0.283202 0.422919 0.319815
0.423683 0.427366 0.320277
0.569235 0.431870 0.320753
0.719986 0.436418 0.321238
0.876052 0.440998 0.321728
1.000000 0.445603 0.322217
0.000000 0.529780 0.319739
0.010224 0.535988 0.320199
0.147768 0.542290 0.320673
0.290357 0.548671 0.321157
0.438121 0.555118 0.321646
0.591174 0.561619 0.322135
0.749627 0.568165 0.322622
0.913578 0.574745 0.323103
1.000000 0.581353 0.323575
0.000000 0.660305 0.321075
0.002836 0.668608 0.321564
0.147495 0.676996 0.322054
0.297424 0.685458 0.322541
0.452733 0.693983 0.323023
0.613521 0.702562 0.323497
0.779883 0.711185 0.323959
0.951906 0.719845 0.324408
1.000000 0.721044 0.322894
0.000000 0.802106 0.322460
0.000000 0.812566 0.322943
0.146707 0.823106 0.323418
0.304237 0.833717 0.323882
0.467325 0.844388 0.324334
0.630751 0.848588 0.323327
0.789866 0.845672 0.320740
0.948980 0.842755 0.318153
1.000000 0.839839 0.315566
0.000000 0.000000 0.416149
0.046516 0.000000 0.413946
0.161078 0.000000 0.411743
0.275640 0.000000 0.409540
0.390203 0.000000 0.407338
0.504765 0.000000 0.405135
0.619327 0.000000 0.402932
0.733889 0.000000 0.400729
0.849753 0.000000 0.398800
0.000000 0.022994 0.409909
0.040120 0.020824 0.407706
0.154683 0.018654 0.405503
0.269245 0.016484 0.403300
0.383807 0.014314 0.401097
0.498428 0.012145 0.398916
0.620022 0.010076 0.398749
0.746573 0.007985 0.399128
0.877820 0.005846 0.399757
0.000000 0.111388 0.403669
0.033725 0.109218 0.401466
0.148287 0.107048 0.399263
0.265303 0.105744 0.398722
0.386335 0.104856 0.399044
0.511489 0.104065 0.399638
0.641032 0.103316 0.400409
0.775187 0.102580 0.401307
0.914138 0.101838 0.402302
0.000000 0.201052 0.398710
0.027906 0.201301 0.398967
0.147126 0.201819 0.399525
0.270283 0.202490 0.400270
0.397698 0.203257 0.401149
0.529620 0.204087 0.402129
0.666250 0.204957 0.403189
0.807761 0.205849 0.404312
0.954306 0.206749 0.405485
0.000000 0.301175 0.400135
0.022375 0.303421 0.400994
0.147353 0.305802 0.401959
0.276779 0.308285 0.403007
0.410859 0.310842 0.404120
0.549770 0.313456 0.405285
0.693666 0.316109 0.406493
0.842686 0.318790 0.407735
0.996955 0.321487 0.409003
0.000000 0.411065 0.402827
0.016333 0.415272 0.403930
0.147670 0.419583 0.405087
0.283805 0.423979 0.406289
0.424892 0.428441 0.407525
0.571069 0.432956 0.408789
0.722462 0.437513 0.410075
0.879188 0.442100 0.411377
1.000000 0.446709 0.412690
0.000000 0.531258 0.406085
0.009628 0.537490 0.407316
0.147762 0.543813 0.408576
0.290961 0.550210 0.409858
0.439353 0.556671 0.411158
0.593052 0.563184 0.412470
0.752166 0.569739 0.413789
0.916793 0.576327 0.415114
1.000000 0.582940 0.416439
0.000000 0.662286 0.409642
0.002175 0.670611 0.410939
0.147449 0.679018 0.412249
0.298012 0.687496 0.413568
0.453970 0.696034 0.414892
0.615423 0.704624 0.416217
0.782462 0.713257 0.417540
0.955177 0.721925 0.418859
1.000000 0.720345 0.416722
0.000000 0.804604 0.413347
0.000000 0.815085 0.414670
0.146614 0.825643 0.415995
0.304798 0.836268 0.417319
0.468553 0.846953 0.418639
0.630000 0.847889 0.417155
0.789114 0.844973 0.414567
0.948228 0.842057 0.411980
1.000000 0.839140 0.409393
0.000000 0.000000 0.496045
0.045975 0.000000 0.493842
0.160537 0.000000 0.491639
0.275099 0.000000 0.489436
0.389662 0.000000 0.487233
0.504224 0.000000 0.485030
0.618786 0.000000 0.482827
0.733348 0.000000 0.480624
0.851374 0.000000 0.479298
0.000000 0.022474 0.489805
0.039579 0.020304 0.487602
0.154142 0.018134 0.485399
0.268704 0.015964 0.483196
0.383266 0.013794 0.480993
0.498953 0.011647 0.479275
0.621511 0.009579 0.479770
0.748759 0.007477 0.480765
0.880683 0.005325 0.482036
0.000000 0.110868 0.483565
0.033184 0.108698 0.481362
0.147844 0.106591 0.479302
0.265602 0.105517 0.479641
0.387180 0.104660 0.480576
0.512905 0.103883 0.481808
0.643047 0.103139 0.483242
0.777822 0.102403 0.484827
0.917413 0.101657 0.486529
0.000000 0.201076 0.479527
0.027451 0.201407 0.480395
0.147128 0.201969 0.481586
0.270796 0.202666 0.482991
0.398761 0.203451 0.484553
0.531263 0.204293 0.486237
0.668499 0.205169 0.488020
0.810639 0.206064 0.489884
0.957831 0.206965 0.491814
0.000000 0.301698 0.482744
0.021886 0.303981 0.484282
0.147382 0.306389 0.485948
0.277360 0.308892 0.487716
0.412020 0.311464 0.489567
0.551535 0.314088 0.491487
0.696057 0.316749 0.493464
0.845721 0.319435 0.495489
1.000000 0.322134 0.497554
0.000000 0.412062 0.487414
0.015793 0.416296 0.489252
0.147690 0.420629 0.491161
0.284409 0.425042 0.493130
0.426103 0.429519 0.495147
0.572907 0.434045 0.497206
0.724945 0.438610 0.499298
0.882331 0.443203 0.501418
1.000000 0.447815 0.503561
0.000000 0.532742 0.492797
0.009028 0.538997 0.494807
0.147753 0.545339 0.496859
0.291565 0.551753 0.498946
0.440587 0.558228 0.501062
0.594933 0.564751 0.503201
0.754709 0.571315 0.505359
0.920014 0.577909 0.507532
1.000000 0.584528 0.509715
0.000000 0.664273 0.498594
0.001508 0.672618 0.500706
0.147400 0.681043 0.502842
0.298599 0.689537 0.504997
0.455208 0.698088 0.507167
0.617326 0.706689 0.509349
0.785045 0.715331 0.511538
0.956360 0.722562 0.513136
1.000000 0.719646 0.510549
0.000000 0.807108 0.504635
0.000000 0.817608 0.506803
0.146517 0.828183 0.508983
0.305356 0.838824 0.511171
0.469781 0.849522 0.513364
0.629249 0.847190 0.510982
0.788363 0.844274 0.508395
0.947477 0.841358 0.505808
1.000000 0.838441 0.503221
0.000000 0.000000 0.575941
0.045434 0.000000 0.573738
0.159996 0.000000 0.571535
0.274558 0.000000 0.569332
0.389121 0.000000 0.567129
0.503683 0.000000 0.564926
0.618245 0.000000 0.562723
0.732807 0.000000 0.560520
0.853262 0.000000 0.560058
0.000000 0.021954 0.569701
0.039038 0.019784 0.567498
0.153601 0.017614 0.565295
0.268163 0.015444 0.563092
0.382725 0.013274 0.560889
0.499735 0.011153 0.559919
0.623075 0.009079 0.561061
0.751001 0.006967 0.562693
0.883592 0.004800 0.564622
0.000000 0.110348 0.563460
0.032643 0.108178 0.561257
0.147650 0.106292 0.559813
0.265935 0.105300 0.560827
0.388053 0.104469 0.562396
0.514349 0.103703 0.564283
0.645087 0.102963 0.566394
0.780482 0.102226 0.568677
0.920714 0.101476 0.571098
0.000000 0.201125 0.560608
0.026995 0.201525 0.562108
0.147135 0.202126 0.563950
0.271317 0.202848 0.566028
0.399835 0.203649 0.568285
0.532919 0.204500 0.570684
0.670763 0.205382 0.573200
0.813532 0.206280 0.575813
0.961372 0.207180 0.578508
0.000000 0.302231 0.565666
0.021394 0.304548 0.567896
0.147412 0.306981 0.570274
0.277944 0.309502 0.572772
0.413187 0.312089 0.575370
0.553308 0.314723 0.578052
0.698457 0.317391 0.580806
0.848767 0.320081 0.583621
1.000000 0.322782 0.586489
0.000000 0.413066 0.572346
0.015248 0.417326 0.574929
0.147708 0.421680 0.577598
0.285014 0.426110 0.580341
0.427317 0.430599 0.583146
0.574750 0.435136 0.586006
0.727434 0.439708 0.588911
0.885483 0.444306 0.591855
1.000000 0.448923 0.594833
0.000000 0.534233 0.579877
0.008422 0.540510 0.582673
0.147741 0.546870 0.585524
0.292167 0.553300 0.588422
0.441821 0.559787 0.591360
0.596817 0.566321 0.594332
0.757257 0.572892 0.597334
0.923240 0.579493 0.600360
1.000000 0.586116 0.603405
0.000000 0.666265 0.587934
0.000835 0.674630 0.590866
0.147348 0.683073 0.593833
0.299183 0.691581 0.596830
0.456444 0.700145 0.599852
0.619230 0.708756 0.602894
0.787629 0.717407 0.605954
0.955608 0.721863 0.606964
1.000000 0.718947 0.604377
0.000000 0.809617 0.596326
0.000000 0.820135 0.599344
0.146414 0.830727 0.602384
0.305911 0.841382 0.605441
0.469383 0.849408 0.607397
0.628497 0.846492 0.604810
0.787611 0.843575 0.602223
0.946726 0.840659 0.599636
1.000000 0.837743 0.597049
