assets/lighting/cinematic/grade-stage-tungsten/lut.cube
TITLE "Stage Tungsten"
# TKRS lighting-batch-001 original LUT
# Intended usage: theatrical warm key + slight crush
# License: CC0-1.0
LUT_3D_SIZE 5
DOMAIN_MIN 0.0 0.0 0.0
DOMAIN_MAX 1.0 1.0 1.0
0.000000 0.000000 0.000000
0.164324 0.000000 0.000000
0.393449 0.000000 0.000000
0.622573 0.000000 0.000000
0.851698 0.000000 0.000000
0.000000 0.114508 0.000000
0.151533 0.110168 0.000000
0.382160 0.106198 0.000000
0.629591 0.104404 0.000000
0.895087 0.102902 0.000000
0.000000 0.298295 0.000000
0.147195 0.302418 0.000000
0.404030 0.307188 0.000000
0.679539 0.312306 0.000000
0.975053 0.317614 0.000000
0.000000 0.522493 0.000000
0.147757 0.534750 0.000000
0.431979 0.547401 0.000000
0.736998 0.560328 0.000000
1.000000 0.573439 0.000000
0.000000 0.789694 0.000000
0.147109 0.810487 0.000000
0.461166 0.831609 0.000000
0.793623 0.849166 0.000000
1.000000 0.843333 0.000000
0.000000 0.000000 0.096566
0.163242 0.000000 0.092161
0.392367 0.000000 0.087755
0.621491 0.000000 0.083349
0.850615 0.000000 0.078943
0.000000 0.113468 0.084086
0.150451 0.109128 0.079680
0.383326 0.105704 0.075608
0.633267 0.104033 0.072151
0.901314 0.102549 0.068721
0.000000 0.299197 0.072724
0.147242 0.303517 0.069297
0.406277 0.308390 0.065826
0.684204 0.313565 0.062267
0.982299 0.318901 0.058596
0.000000 0.525386 0.062870
0.147769 0.537751 0.059219
0.434431 0.550478 0.055440
0.742035 0.563455 0.051518
1.000000 0.576601 0.047441
0.000000 0.794642 0.052185
0.146961 0.815521 0.048134
0.463632 0.836711 0.043921
0.792120 0.847768 0.039257
1.000000 0.841935 0.034082
0.000000 0.000000 0.256358
0.162160 0.000000 0.251952
0.391285 0.000000 0.247546
0.620409 0.000000 0.243140
0.849533 0.000000 0.238734
0.000000 0.112428 0.243878
0.149369 0.108088 0.239472
0.384746 0.105264 0.236807
0.637087 0.103672 0.235676
0.907668 0.102195 0.234854
0.000000 0.300161 0.235837
0.147295 0.304647 0.234978
0.408555 0.309609 0.234281
0.688914 0.314833 0.233654
0.989601 0.320193 0.233045
0.000000 0.528309 0.233757
0.147771 0.540772 0.233147
0.436889 0.553568 0.232524
0.747092 0.566593 0.231856
1.000000 0.579768 0.231122
0.000000 0.799612 0.231972
0.146796 0.820574 0.231250
0.466095 0.841826 0.230446
0.790617 0.846371 0.226912
1.000000 0.840538 0.221738
0.000000 0.000000 0.416149
0.161078 0.000000 0.411743
0.390203 0.000000 0.407338
0.619327 0.000000 0.402932
0.849753 0.000000 0.398800
0.000000 0.111388 0.403669
0.148287 0.107048 0.399263
0.386335 0.104856 0.399044
0.641032 0.103316 0.400409
0.914138 0.101838 0.402302
0.000000 0.301175 0.400135
0.147353 0.305802 0.401959
0.410859 0.310842 0.404120
0.693666 0.316109 0.406493
0.996955 0.321487 0.409003
0.000000 0.531258 0.406085
0.147762 0.543813 0.408576
0.439353 0.556671 0.411158
0.752166 0.569739 0.413789
1.000000 0.582940 0.416439
0.000000 0.804604 0.413347
0.146614 0.825643 0.415995
0.468553 0.846953 0.418639
0.789114 0.844973 0.414567
1.000000 0.839140 0.409393
0.000000 0.000000 0.575941
0.159996 0.000000 0.571535
0.389121 0.000000 0.567129
0.618245 0.000000 0.562723
0.853262 0.000000 0.560058
0.000000 0.110348 0.563460
0.147650 0.106292 0.559813
0.388053 0.104469 0.562396
0.645087 0.102963 0.566394
0.920714 0.101476 0.571098
0.000000 0.302231 0.565666
0.147412 0.306981 0.570274
0.413187 0.312089 0.575370
0.698457 0.317391 0.580806
1.000000 0.322782 0.586489
0.000000 0.534233 0.579877
0.147741 0.546870 0.585524
0.441821 0.559787 0.591360
0.757257 0.572892 0.597334
1.000000 0.586116 0.603405
0.000000 0.809617 0.596326
0.146414 0.830727 0.602384
0.469383 0.849408 0.607397
0.787611 0.843575 0.602223
1.000000 0.837743 0.597049
