assets/lighting/cinematic/grade-game-vibrant/lut.cube
TITLE "Game Vibrant"
# TKRS lighting-batch-001 original LUT
# Intended usage: stylized saturated game look
# License: CC0-1.0
LUT_3D_SIZE 17
DOMAIN_MIN 0.0 0.0 0.0
DOMAIN_MAX 1.0 1.0 1.0
0.000000 0.000000 0.000000
0.030324 0.000000 0.000000
0.122764 0.000000 0.000000
0.215205 0.000000 0.000000
0.307645 0.000000 0.000000
0.400085 0.000000 0.000000
0.492525 0.000000 0.000000
0.584965 0.000000 0.000000
0.677405 0.000000 0.000000
0.769845 0.000000 0.000000
0.862286 0.000000 0.000000
0.954726 0.000000 0.000000
1.000000 0.000000 0.000000
1.000000 0.000000 0.000000
1.000000 0.000000 0.000000
1.000000 0.000000 0.000000
1.000000 0.000000 0.000000
0.000000 0.017576 0.000000
0.012184 0.012184 0.000000
0.104624 0.006792 0.000000
0.197064 0.001399 0.000000
0.289504 0.000000 0.000000
0.381945 0.000000 0.000000
0.474385 0.000000 0.000000
0.566825 0.000000 0.000000
0.659265 0.000000 0.000000
0.751705 0.000000 0.000000
0.844145 0.000000 0.000000
0.936585 0.000000 0.000000
1.000000 0.000000 0.000000
1.000000 0.000000 0.000000
1.000000 0.000000 0.000000
1.000000 0.000000 0.000000
1.000000 0.000000 0.000000
0.000000 0.097269 0.000000
0.000000 0.091876 0.000000
0.086484 0.086484 0.000000
0.178924 0.081091 0.000000
0.271364 0.075699 0.000000
0.363804 0.070307 0.000000
0.456244 0.064914 0.000000
0.548685 0.059522 0.000000
0.641125 0.054129 0.000000
0.733565 0.048737 0.000000
0.826005 0.043345 0.000000
0.918445 0.037952 0.000000
1.000000 0.032560 0.000000
1.000000 0.027168 0.000000
1.000000 0.021775 0.000000
1.000000 0.016383 0.000000
1.000000 0.010990 0.000000
0.000000 0.176961 0.000000
0.000000 0.171568 0.000000
0.068343 0.166176 0.000000
0.160784 0.160784 0.000000
0.253224 0.155391 0.000000
0.345664 0.149999 0.000000
0.438104 0.144606 0.000000
0.530544 0.139214 0.000000
0.622984 0.133822 0.000000
0.715424 0.128429 0.000000
0.807865 0.123037 0.000000
0.900305 0.117645 0.000000
0.992745 0.112252 0.000000
1.000000 0.106860 0.000000
1.000000 0.101467 0.000000
1.000000 0.096075 0.000000
1.000000 0.090683 0.000000
0.000000 0.256653 0.000000
0.000000 0.251261 0.000000
0.050203 0.245868 0.000000
0.142643 0.240476 0.000000
0.235083 0.235083 0.000000
0.327524 0.229691 0.000000
0.419964 0.224299 0.000000
0.512404 0.218906 0.000000
0.604844 0.213514 0.000000
0.697284 0.208121 0.000000
0.789724 0.202729 0.000000
0.882164 0.197337 0.000000
0.974605 0.191944 0.000000
1.000000 0.186552 0.000000
1.000000 0.181160 0.000000
1.000000 0.175767 0.000000
1.000000 0.170375 0.000000
0.000000 0.336345 0.000000
0.000000 0.330953 0.000000
0.032063 0.325560 0.000000
0.124503 0.320168 0.000000
0.216943 0.314776 0.000000
0.309383 0.309383 0.000000
0.401823 0.303991 0.000000
0.494264 0.298598 0.000000
0.586704 0.293206 0.000000
0.679144 0.287814 0.000000
0.771584 0.282421 0.000000
0.864024 0.277029 0.000000
0.956464 0.271637 0.000000
1.000000 0.266244 0.000000
1.000000 0.260852 0.000000
1.000000 0.255459 0.000000
1.000000 0.250067 0.000000
0.000000 0.416037 0.000000
0.000000 0.410645 0.000000
0.013922 0.405253 0.000000
0.106363 0.399860 0.000000
0.198803 0.394468 0.000000
0.291243 0.389075 0.000000
0.383683 0.383683 0.000000
0.476123 0.378291 0.000000
0.568563 0.372898 0.000000
0.661004 0.367506 0.000000
0.753444 0.362114 0.000000
0.845884 0.356721 0.000000
0.938324 0.351329 0.000000
1.000000 0.345936 0.000000
1.000000 0.340544 0.000000
1.000000 0.335152 0.000000
1.000000 0.329759 0.000000
0.000000 0.495730 0.000000
0.000000 0.490337 0.000000
0.000000 0.484945 0.000000
0.088222 0.479552 0.000000
0.180662 0.474160 0.000000
0.273103 0.468768 0.000000
0.365543 0.463375 0.000000
0.457983 0.457983 0.000000
0.550423 0.452590 0.000000
0.642863 0.447198 0.000000
0.735303 0.441806 0.000000
0.827743 0.436413 0.000000
0.920184 0.431021 0.000000
1.000000 0.425629 0.000000
1.000000 0.420236 0.000000
1.000000 0.414844 0.000000
1.000000 0.409451 0.000000
0.000000 0.575422 0.000000
0.000000 0.570029 0.000000
0.000000 0.564637 0.000000
0.070082 0.559245 0.000000
0.162522 0.553852 0.000000
0.254962 0.548460 0.000000
0.347402 0.543067 0.000000
0.439843 0.537675 0.000000
0.532283 0.532283 0.000000
0.624723 0.526890 0.000000
0.717163 0.521498 0.000000
0.809603 0.516106 0.000000
0.902043 0.510713 0.000000
0.994483 0.505321 0.000000
1.000000 0.499928 0.000000
1.000000 0.494536 0.000000
1.000000 0.489144 0.000000
0.000000 0.655114 0.000000
0.000000 0.649722 0.000000
0.000000 0.644329 0.000000
0.051942 0.638937 0.000000
0.144382 0.633544 0.000000
0.236822 0.628152 0.000000
0.329262 0.622760 0.000000
0.421702 0.617367 0.000000
0.514142 0.611975 0.000000
0.606583 0.606583 0.000000
0.699023 0.601190 0.000000
0.791463 0.595798 0.000000
0.883903 0.590405 0.000000
0.976343 0.585013 0.000000
1.000000 0.579621 0.000000
1.000000 0.574228 0.000000
1.000000 0.568836 0.000000
0.000000 0.734806 0.000000
0.000000 0.729414 0.000000
0.000000 0.724021 0.000000
0.033801 0.718629 0.000000
0.126241 0.713237 0.000000
0.218682 0.707844 0.000000
0.311122 0.702452 0.000000
0.403562 0.697060 0.000000
0.496002 0.691667 0.000000
0.588442 0.686275 0.000000
0.680882 0.680882 0.000000
0.773323 0.675490 0.000000
0.865763 0.670098 0.000000
0.958203 0.664705 0.000000
1.000000 0.659313 0.000000
1.000000 0.653920 0.000000
1.000000 0.648528 0.000000
0.000000 0.814498 0.000000
0.000000 0.809106 0.000000
0.000000 0.803714 0.000000
0.015661 0.798321 0.000000
0.108101 0.792929 0.000000
0.200541 0.787536 0.000000
0.292981 0.782144 0.000000
0.385422 0.776752 0.000000
0.477862 0.771359 0.000000
0.570302 0.765967 0.000000
0.662742 0.760575 0.000000
0.755182 0.755182 0.000000
0.847622 0.749790 0.000000
0.940062 0.744397 0.000000
1.000000 0.739005 0.000000
1.000000 0.733613 0.000000
1.000000 0.728220 0.000000
0.000000 0.894191 0.000000
0.000000 0.888798 0.000000
0.000000 0.883406 0.000000
0.000000 0.878013 0.000000
0.089961 0.872621 0.000000
0.182401 0.867229 0.000000
0.274841 0.861836 0.000000
0.367281 0.856444 0.000000
0.459721 0.851052 0.000000
0.552162 0.845659 0.000000
0.644602 0.840267 0.000000
0.737042 0.834874 0.000000
0.829482 0.829482 0.000000
0.921922 0.824090 0.000000
1.000000 0.818697 0.000000
1.000000 0.813305 0.000000
1.000000 0.807912 0.000000
0.000000 0.973883 0.000000
0.000000 0.968490 0.000000
0.000000 0.963098 0.000000
0.000000 0.957706 0.000000
0.071820 0.952313 0.000000
0.164261 0.946921 0.000000
0.256701 0.941529 0.000000
0.349141 0.936136 0.000000
0.441581 0.930744 0.000000
0.534021 0.925351 0.000000
0.626461 0.919959 0.000000
0.718902 0.914567 0.000000
0.811342 0.909174 0.000000
0.903782 0.903782 0.000000
0.996222 0.898389 0.000000
1.000000 0.892997 0.000000
1.000000 0.887605 0.000000
0.000000 1.000000 0.000000
0.000000 1.000000 0.000000
0.000000 1.000000 0.000000
0.000000 1.000000 0.000000
0.053680 1.000000 0.000000
0.146120 1.000000 0.000000
0.238560 1.000000 0.000000
0.331001 1.000000 0.000000
0.423441 1.000000 0.000000
0.515881 1.000000 0.000000
0.608321 0.999651 0.000000
0.700761 0.994259 0.000000
0.793201 0.988866 0.000000
0.885642 0.983474 0.000000
0.978082 0.978082 0.000000
1.000000 0.972689 0.000000
1.000000 0.967297 0.000000
0.000000 1.000000 0.000000
0.000000 1.000000 0.000000
0.000000 1.000000 0.000000
0.000000 1.000000 0.000000
0.035540 1.000000 0.000000
0.127980 1.000000 0.000000
0.220420 1.000000 0.000000
0.312860 1.000000 0.000000
0.405300 1.000000 0.000000
0.497741 1.000000 0.000000
0.590181 1.000000 0.000000
0.682621 1.000000 0.000000
0.775061 1.000000 0.000000
0.867501 1.000000 0.000000
0.959941 1.000000 0.000000
1.000000 1.000000 0.000000
1.000000 1.000000 0.000000
0.000000 1.000000 0.000000
0.000000 1.000000 0.000000
0.000000 1.000000 0.000000
0.000000 1.000000 0.000000
0.017399 1.000000 0.000000
0.109840 1.000000 0.000000
0.202280 1.000000 0.000000
0.294720 1.000000 0.000000
0.387160 1.000000 0.000000
0.479600 1.000000 0.000000
0.572040 1.000000 0.000000
0.664481 1.000000 0.000000
0.756921 1.000000 0.000000
0.849361 1.000000 0.000000
0.941801 1.000000 0.000000
1.000000 1.000000 0.000000
1.000000 1.000000 0.000000
0.000000 0.000000 0.033885
0.028493 0.000000 0.028493
0.120933 0.000000 0.023101
0.213373 0.000000 0.017708
0.305813 0.000000 0.012316
0.398254 0.000000 0.006923
0.490694 0.000000 0.001531
0.583134 0.000000 0.000000
0.675574 0.000000 0.000000
0.768014 0.000000 0.000000
0.860454 0.000000 0.000000
0.952894 0.000000 0.000000
1.000000 0.000000 0.000000
1.000000 0.000000 0.000000
1.000000 0.000000 0.000000
1.000000 0.000000 0.000000
1.000000 0.000000 0.000000
0.000000 0.015745 0.015745
0.010353 0.010353 0.010353
0.102793 0.004960 0.004960
0.195233 0.000000 0.000000
0.287673 0.000000 0.000000
0.380113 0.000000 0.000000
0.472553 0.000000 0.000000
0.564994 0.000000 0.000000
0.657434 0.000000 0.000000
0.749874 0.000000 0.000000
0.842314 0.000000 0.000000
0.934754 0.000000 0.000000
1.000000 0.000000 0.000000
1.000000 0.000000 0.000000
1.000000 0.000000 0.000000
1.000000 0.000000 0.000000
1.000000 0.000000 0.000000
0.000000 0.095437 0.000000
0.000000 0.090045 0.000000
0.084652 0.084652 0.000000
0.177093 0.079260 0.000000
0.269533 0.073868 0.000000
0.361973 0.068475 0.000000
0.454413 0.063083 0.000000
0.546853 0.057691 0.000000
0.639293 0.052298 0.000000
0.731734 0.046906 0.000000
0.824174 0.041513 0.000000
0.916614 0.036121 0.000000
1.000000 0.030729 0.000000
1.000000 0.025336 0.000000
1.000000 0.019944 0.000000
1.000000 0.014551 0.000000
1.000000 0.009159 0.000000
0.000000 0.175129 0.000000
0.000000 0.169737 0.000000
0.066512 0.164345 0.000000
0.158952 0.158952 0.000000
0.251392 0.153560 0.000000
0.343833 0.148168 0.000000
0.436273 0.142775 0.000000
0.528713 0.137383 0.000000
0.621153 0.131990 0.000000
0.713593 0.126598 0.000000
0.806033 0.121206 0.000000
0.898474 0.115813 0.000000
0.990914 0.110421 0.000000
1.000000 0.105028 0.000000
1.000000 0.099636 0.000000
1.000000 0.094244 0.000000
1.000000 0.088851 0.000000
0.000000 0.254822 0.000000
0.000000 0.249429 0.000000
0.048372 0.244037 0.000000
0.140812 0.238645 0.000000
0.233252 0.233252 0.000000
0.325692 0.227860 0.000000
0.418132 0.222467 0.000000
0.510573 0.217075 0.000000
0.603013 0.211683 0.000000
0.695453 0.206290 0.000000
0.787893 0.200898 0.000000
0.880333 0.195505 0.000000
0.972773 0.190113 0.000000
1.000000 0.184721 0.000000
1.000000 0.179328 0.000000
1.000000 0.173936 0.000000
1.000000 0.168544 0.000000
0.000000 0.334514 0.000000
0.000000 0.329121 0.000000
0.030231 0.323729 0.000000
0.122672 0.318337 0.000000
0.215112 0.312944 0.000000
0.307552 0.307552 0.000000
0.399992 0.302160 0.000000
0.492432 0.296767 0.000000
0.584872 0.291375 0.000000
0.677313 0.285982 0.000000
0.769753 0.280590 0.000000
0.862193 0.275198 0.000000
0.954633 0.269805 0.000000
1.000000 0.264413 0.000000
1.000000 0.259020 0.000000
1.000000 0.253628 0.000000
1.000000 0.248236 0.000000
0.000000 0.414206 0.000000
0.000000 0.408814 0.000000
0.012091 0.403421 0.000000
0.104531 0.398029 0.000000
0.196971 0.392637 0.000000
0.289412 0.387244 0.000000
0.381852 0.381852 0.000000
0.474292 0.376459 0.000000
0.566732 0.371067 0.000000
0.659172 0.365675 0.000000
0.751612 0.360282 0.000000
0.844053 0.354890 0.000000
0.936493 0.349497 0.000000
1.000000 0.344105 0.000000
1.000000 0.338713 0.000000
1.000000 0.333320 0.000000
1.000000 0.327928 0.000000
0.000000 0.493898 0.000000
0.000000 0.488506 0.000000
0.000000 0.483114 0.000000
0.086391 0.477721 0.000000
0.178831 0.472329 0.000000
0.271271 0.466936 0.000000
0.363711 0.461544 0.000000
0.456152 0.456152 0.000000
0.548592 0.450759 0.000000
0.641032 0.445367 0.000000
0.733472 0.439974 0.000000
0.825912 0.434582 0.000000
0.918352 0.429190 0.000000
1.000000 0.423797 0.000000
1.000000 0.418405 0.000000
1.000000 0.413013 0.000000
1.000000 0.407620 0.000000
0.000000 0.573590 0.000000
0.000000 0.568198 0.000000
0.000000 0.562806 0.000000
0.068251 0.557413 0.000000
0.160691 0.552021 0.000000
0.253131 0.546629 0.000000
0.345571 0.541236 0.000000
0.438011 0.535844 0.000000
0.530451 0.530451 0.000000
0.622892 0.525059 0.000000
0.715332 0.519667 0.000000
0.807772 0.514274 0.000000
0.900212 0.508882 0.000000
0.992652 0.503490 0.000000
1.000000 0.498097 0.000000
1.000000 0.492705 0.000000
1.000000 0.487312 0.000000
0.000000 0.653283 0.000000
0.000000 0.647890 0.000000
0.000000 0.642498 0.000000
0.050110 0.637106 0.000000
0.142550 0.631713 0.000000
0.234991 0.626321 0.000000
0.327431 0.620928 0.000000
0.419871 0.615536 0.000000
0.512311 0.610144 0.000000
0.604751 0.604751 0.000000
0.697191 0.599359 0.000000
0.789632 0.593966 0.000000
0.882072 0.588574 0.000000
0.974512 0.583182 0.000000
1.000000 0.577789 0.000000
1.000000 0.572397 0.000000
1.000000 0.567005 0.000000
0.000000 0.732975 0.000000
0.000000 0.727583 0.000000
0.000000 0.722190 0.000000
0.031970 0.716798 0.000000
0.124410 0.711405 0.000000
0.216850 0.706013 0.000000
0.309290 0.700621 0.000000
0.401731 0.695228 0.000000
0.494171 0.689836 0.000000
0.586611 0.684443 0.000000
0.679051 0.679051 0.000000
0.771491 0.673659 0.000000
0.863931 0.668266 0.000000
0.956372 0.662874 0.000000
1.000000 0.657482 0.000000
1.000000 0.652089 0.000000
1.000000 0.646697 0.000000
0.000000 0.812667 0.000000
0.000000 0.807275 0.000000
0.000000 0.801882 0.000000
0.013830 0.796490 0.000000
0.106270 0.791098 0.000000
0.198710 0.785705 0.000000
0.291150 0.780313 0.000000
0.383590 0.774920 0.000000
0.476030 0.769528 0.000000
0.568471 0.764136 0.000000
0.660911 0.758743 0.000000
0.753351 0.753351 0.000000
0.845791 0.747959 0.000000
0.938231 0.742566 0.000000
1.000000 0.737174 0.000000
1.000000 0.731781 0.000000
1.000000 0.726389 0.000000
0.000000 0.892359 0.000000
0.000000 0.886967 0.000000
0.000000 0.881575 0.000000
0.000000 0.876182 0.000000
0.088130 0.870790 0.000000
0.180570 0.865397 0.000000
0.273010 0.860005 0.000000
0.365450 0.854613 0.000000
0.457890 0.849220 0.000000
0.550330 0.843828 0.000000
0.642770 0.838435 0.000000
0.735211 0.833043 0.000000
0.827651 0.827651 0.000000
0.920091 0.822258 0.000000
1.000000 0.816866 0.000000
1.000000 0.811474 0.000000
1.000000 0.806081 0.000000
0.000000 0.972052 0.000000
0.000000 0.966659 0.000000
0.000000 0.961267 0.000000
0.000000 0.955874 0.000000
0.069989 0.950482 0.000000
0.162429 0.945090 0.000000
0.254869 0.939697 0.000000
0.347310 0.934305 0.000000
0.439750 0.928912 0.000000
0.532190 0.923520 0.000000
0.624630 0.918128 0.000000
0.717070 0.912735 0.000000
0.809510 0.907343 0.000000
0.901951 0.901951 0.000000
0.994391 0.896558 0.000000
1.000000 0.891166 0.000000
1.000000 0.885773 0.000000
0.000000 1.000000 0.000000
0.000000 1.000000 0.000000
0.000000 1.000000 0.000000
0.000000 1.000000 0.000000
0.051849 1.000000 0.000000
0.144289 1.000000 0.000000
0.236729 1.000000 0.000000
0.329169 1.000000 0.000000
0.421609 1.000000 0.000000
0.514050 1.000000 0.000000
0.606490 0.997820 0.000000
0.698930 0.992428 0.000000
0.791370 0.987035 0.000000
0.883810 0.981643 0.000000
0.976250 0.976250 0.000000
1.000000 0.970858 0.000000
1.000000 0.965466 0.000000
0.000000 1.000000 0.000000
0.000000 1.000000 0.000000
0.000000 1.000000 0.000000
0.000000 1.000000 0.000000
0.033709 1.000000 0.000000
0.126149 1.000000 0.000000
0.218589 1.000000 0.000000
0.311029 1.000000 0.000000
0.403469 1.000000 0.000000
0.495909 1.000000 0.000000
0.588349 1.000000 0.000000
0.680790 1.000000 0.000000
0.773230 1.000000 0.000000
0.865670 1.000000 0.000000
0.958110 1.000000 0.000000
1.000000 1.000000 0.000000
1.000000 1.000000 0.000000
0.000000 1.000000 0.000000
0.000000 1.000000 0.000000
0.000000 1.000000 0.000000
0.000000 1.000000 0.000000
0.015568 1.000000 0.000000
0.108008 1.000000 0.000000
0.200449 1.000000 0.000000
0.292889 1.000000 0.000000
0.385329 1.000000 0.000000
0.477769 1.000000 0.000000
0.570209 1.000000 0.000000
0.662649 1.000000 0.000000
0.755089 1.000000 0.000000
0.847530 1.000000 0.000000
0.939970 1.000000 0.000000
1.000000 1.000000 0.000000
1.000000 1.000000 0.000000
0.000000 0.000000 0.129887
0.026662 0.000000 0.124494
0.119102 0.000000 0.119102
0.211542 0.000000 0.113709
0.303982 0.000000 0.108317
0.396422 0.000000 0.102925
0.488862 0.000000 0.097532
0.581303 0.000000 0.092140
0.673743 0.000000 0.086748
0.766183 0.000000 0.081355
0.858623 0.000000 0.075963
0.951063 0.000000 0.070570
1.000000 0.000000 0.065178
1.000000 0.000000 0.059786
1.000000 0.000000 0.054393
1.000000 0.000000 0.049001
1.000000 0.000000 0.043608
0.000000 0.013914 0.111746
0.008521 0.008521 0.106354
0.100962 0.003129 0.100962
0.193402 0.000000 0.095569
0.285842 0.000000 0.090177
0.378282 0.000000 0.084784
0.470722 0.000000 0.079392
0.563162 0.000000 0.074000
0.655602 0.000000 0.068607
0.748043 0.000000 0.063215
0.840483 0.000000 0.057822
0.932923 0.000000 0.052430
1.000000 0.000000 0.047038
1.000000 0.000000 0.041645
1.000000 0.000000 0.036253
1.000000 0.000000 0.030861
1.000000 0.000000 0.025468
0.000000 0.093606 0.093606
0.000000 0.088214 0.088214
0.082821 0.082821 0.082821
0.175261 0.077429 0.077429
0.267701 0.072036 0.072036
0.360142 0.066644 0.066644
0.452582 0.061252 0.061252
0.545022 0.055859 0.055859
0.637462 0.050467 0.050467
0.729902 0.045075 0.045075
0.822342 0.039682 0.039682
0.914783 0.034290 0.034290
1.000000 0.028897 0.028897
1.000000 0.023505 0.023505
1.000000 0.018113 0.018113
1.000000 0.012720 0.012720
1.000000 0.007328 0.007328
0.000000 0.173298 0.075466
0.000000 0.167906 0.070073
0.064681 0.162513 0.064681
0.157121 0.157121 0.059288
0.249561 0.151729 0.053896
0.342001 0.146336 0.048504
0.434441 0.140944 0.043111
0.526882 0.135551 0.037719
0.619322 0.130159 0.032327
0.711762 0.124767 0.026934
0.804202 0.119374 0.021542
0.896642 0.113982 0.016149
0.989082 0.108590 0.010757
1.000000 0.103197 0.005365
1.000000 0.097805 0.000000
1.000000 0.092412 0.000000
1.000000 0.087020 0.000000
0.000000 0.252990 0.057325
0.000000 0.247598 0.051933
0.046541 0.242206 0.046541
0.138981 0.236813 0.041148
0.231421 0.231421 0.035756
0.323861 0.226028 0.030363
0.416301 0.220636 0.024971
0.508741 0.215244 0.019579
0.601181 0.209851 0.014186
0.693622 0.204459 0.008794
0.786062 0.199067 0.003401
0.878502 0.193674 0.000000
0.970942 0.188282 0.000000
1.000000 0.182889 0.000000
1.000000 0.177497 0.000000
1.000000 0.172105 0.000000
1.000000 0.166712 0.000000
0.000000 0.332683 0.039185
0.000000 0.327290 0.033793
0.028400 0.321898 0.028400
0.120840 0.316505 0.023008
0.213281 0.311113 0.017615
0.305721 0.305721 0.012223
0.398161 0.300328 0.006831
0.490601 0.294936 0.001438
0.583041 0.289544 0.000000
0.675481 0.284151 0.000000
0.767921 0.278759 0.000000
0.860362 0.273366 0.000000
0.952802 0.267974 0.000000
1.000000 0.262582 0.000000
1.000000 0.257189 0.000000
1.000000 0.251797 0.000000
1.000000 0.246404 0.000000
0.000000 0.412375 0.021045
0.000000 0.406982 0.015652
0.010260 0.401590 0.010260
0.102700 0.396198 0.004868
0.195140 0.390805 0.000000
0.287580 0.385413 0.000000
0.380020 0.380020 0.000000
0.472461 0.374628 0.000000
0.564901 0.369236 0.000000
0.657341 0.363843 0.000000
0.749781 0.358451 0.000000
0.842221 0.353059 0.000000
0.934661 0.347666 0.000000
1.000000 0.342274 0.000000
1.000000 0.336881 0.000000
1.000000 0.331489 0.000000
1.000000 0.326097 0.000000
0.000000 0.492067 0.002904
0.000000 0.486675 0.000000
0.000000 0.481282 0.000000
0.084560 0.475890 0.000000
0.177000 0.470497 0.000000
0.269440 0.465105 0.000000
0.361880 0.459713 0.000000
0.454320 0.454320 0.000000
0.546760 0.448928 0.000000
0.639201 0.443536 0.000000
0.731641 0.438143 0.000000
0.824081 0.432751 0.000000
0.916521 0.427358 0.000000
1.000000 0.421966 0.000000
1.000000 0.416574 0.000000
1.000000 0.411181 0.000000
1.000000 0.405789 0.000000
0.000000 0.571759 0.000000
0.000000 0.566367 0.000000
0.000000 0.560974 0.000000
0.066419 0.555582 0.000000
0.158860 0.550190 0.000000
0.251300 0.544797 0.000000
0.343740 0.539405 0.000000
0.436180 0.534013 0.000000
0.528620 0.528620 0.000000
0.621060 0.523228 0.000000
0.713500 0.517835 0.000000
0.805941 0.512443 0.000000
0.898381 0.507051 0.000000
0.990821 0.501658 0.000000
1.000000 0.496266 0.000000
1.000000 0.490873 0.000000
1.000000 0.485481 0.000000
0.000000 0.651451 0.000000
0.000000 0.646059 0.000000
0.000000 0.640667 0.000000
0.048279 0.635274 0.000000
0.140719 0.629882 0.000000
0.233159 0.624490 0.000000
0.325600 0.619097 0.000000
0.418040 0.613705 0.000000
0.510480 0.608312 0.000000
0.602920 0.602920 0.000000
0.695360 0.597528 0.000000
0.787800 0.592135 0.000000
0.880240 0.586743 0.000000
0.972681 0.581350 0.000000
1.000000 0.575958 0.000000
1.000000 0.570566 0.000000
1.000000 0.565173 0.000000
0.000000 0.731144 0.000000
0.000000 0.725751 0.000000
0.000000 0.720359 0.000000
0.030139 0.714966 0.000000
0.122579 0.709574 0.000000
0.215019 0.704182 0.000000
0.307459 0.698789 0.000000
0.399899 0.693397 0.000000
0.492339 0.688005 0.000000
0.584780 0.682612 0.000000
0.677220 0.677220 0.000000
0.769660 0.671827 0.000000
0.862100 0.666435 0.000000
0.954540 0.661043 0.000000
1.000000 0.655650 0.000000
1.000000 0.650258 0.000000
1.000000 0.644865 0.000000
0.000000 0.810836 0.000000
0.000000 0.805443 0.000000
0.000000 0.800051 0.000000
0.011998 0.794659 0.000000
0.104439 0.789266 0.000000
0.196879 0.783874 0.000000
0.289319 0.778482 0.000000
0.381759 0.773089 0.000000
0.474199 0.767697 0.000000
0.566639 0.762304 0.000000
0.659079 0.756912 0.000000
0.751520 0.751520 0.000000
0.843960 0.746127 0.000000
0.936400 0.740735 0.000000
1.000000 0.735342 0.000000
1.000000 0.729950 0.000000
1.000000 0.724558 0.000000
0.000000 0.890528 0.000000
0.000000 0.885136 0.000000
0.000000 0.879743 0.000000
0.000000 0.874351 0.000000
0.086298 0.868959 0.000000
0.178738 0.863566 0.000000
0.271179 0.858174 0.000000
0.363619 0.852781 0.000000
0.456059 0.847389 0.000000
0.548499 0.841997 0.000000
0.640939 0.836604 0.000000
0.733379 0.831212 0.000000
0.825819 0.825819 0.000000
0.918260 0.820427 0.000000
1.000000 0.815035 0.000000
1.000000 0.809642 0.000000
1.000000 0.804250 0.000000
0.000000 0.970220 0.000000
0.000000 0.964828 0.000000
0.000000 0.959435 0.000000
0.000000 0.954043 0.000000
0.068158 0.948651 0.000000
0.160598 0.943258 0.000000
0.253038 0.937866 0.000000
0.345478 0.932474 0.000000
0.437919 0.927081 0.000000
0.530359 0.921689 0.000000
0.622799 0.916296 0.000000
0.715239 0.910904 0.000000
0.807679 0.905512 0.000000
0.900119 0.900119 0.000000
0.992559 0.894727 0.000000
1.000000 0.889334 0.000000
1.000000 0.883942 0.000000
0.000000 1.000000 0.000000
0.000000 1.000000 0.000000
0.000000 1.000000 0.000000
0.000000 1.000000 0.000000
0.050018 1.000000 0.000000
0.142458 1.000000 0.000000
0.234898 1.000000 0.000000
0.327338 1.000000 0.000000
0.419778 1.000000 0.000000
0.512218 1.000000 0.000000
0.604658 0.995989 0.000000
0.697099 0.990596 0.000000
0.789539 0.985204 0.000000
0.881979 0.979811 0.000000
0.974419 0.974419 0.000000
1.000000 0.969027 0.000000
1.000000 0.963634 0.000000
0.000000 1.000000 0.000000
0.000000 1.000000 0.000000
0.000000 1.000000 0.000000
0.000000 1.000000 0.000000
0.031877 1.000000 0.000000
0.124317 1.000000 0.000000
0.216758 1.000000 0.000000
0.309198 1.000000 0.000000
0.401638 1.000000 0.000000
0.494078 1.000000 0.000000
0.586518 1.000000 0.000000
0.678958 1.000000 0.000000
0.771398 1.000000 0.000000
0.863839 1.000000 0.000000
0.956279 1.000000 0.000000
1.000000 1.000000 0.000000
1.000000 1.000000 0.000000
0.000000 1.000000 0.000000
0.000000 1.000000 0.000000
0.000000 1.000000 0.000000
0.000000 1.000000 0.000000
0.013737 1.000000 0.000000
0.106177 1.000000 0.000000
0.198617 1.000000 0.000000
0.291057 1.000000 0.000000
0.383498 1.000000 0.000000
0.475938 1.000000 0.000000
0.568378 1.000000 0.000000
0.660818 1.000000 0.000000
0.753258 1.000000 0.000000
0.845698 1.000000 0.000000
0.938138 1.000000 0.000000
1.000000 1.000000 0.000000
1.000000 1.000000 0.000000
0.000000 0.000000 0.225888
0.024830 0.000000 0.220495
0.117271 0.000000 0.215103
0.209711 0.000000 0.209711
0.302151 0.000000 0.204318
0.394591 0.000000 0.198926
0.487031 0.000000 0.193534
0.579471 0.000000 0.188141
0.671911 0.000000 0.182749
0.764352 0.000000 0.177356
0.856792 0.000000 0.171964
0.949232 0.000000 0.166572
1.000000 0.000000 0.161179
1.000000 0.000000 0.155787
