assets/lighting/cinematic/grade-game-vibrant/lut.cube
TITLE "Game Vibrant"
# TKRS lighting-batch-001 original LUT
# Intended usage: stylized saturated game look
# License: CC0-1.0
LUT_3D_SIZE 9
DOMAIN_MIN 0.0 0.0 0.0
DOMAIN_MAX 1.0 1.0 1.0
0.000000 0.000000 0.000000
0.122764 0.000000 0.000000
0.307645 0.000000 0.000000
0.492525 0.000000 0.000000
0.677405 0.000000 0.000000
0.862286 0.000000 0.000000
1.000000 0.000000 0.000000
1.000000 0.000000 0.000000
1.000000 0.000000 0.000000
0.000000 0.097269 0.000000
0.086484 0.086484 0.000000
0.271364 0.075699 0.000000
0.456244 0.064914 0.000000
0.641125 0.054129 0.000000
0.826005 0.043345 0.000000
1.000000 0.032560 0.000000
1.000000 0.021775 0.000000
1.000000 0.010990 0.000000
0.000000 0.256653 0.000000
0.050203 0.245868 0.000000
0.235083 0.235083 0.000000
0.419964 0.224299 0.000000
0.604844 0.213514 0.000000
0.789724 0.202729 0.000000
0.974605 0.191944 0.000000
1.000000 0.181160 0.000000
1.000000 0.170375 0.000000
0.000000 0.416037 0.000000
0.013922 0.405253 0.000000
0.198803 0.394468 0.000000
0.383683 0.383683 0.000000
0.568563 0.372898 0.000000
0.753444 0.362114 0.000000
0.938324 0.351329 0.000000
1.000000 0.340544 0.000000
1.000000 0.329759 0.000000
0.000000 0.575422 0.000000
0.000000 0.564637 0.000000
0.162522 0.553852 0.000000
0.347402 0.543067 0.000000
0.532283 0.532283 0.000000
0.717163 0.521498 0.000000
0.902043 0.510713 0.000000
1.000000 0.499928 0.000000
1.000000 0.489144 0.000000
0.000000 0.734806 0.000000
0.000000 0.724021 0.000000
0.126241 0.713237 0.000000
0.311122 0.702452 0.000000
0.496002 0.691667 0.000000
0.680882 0.680882 0.000000
0.865763 0.670098 0.000000
1.000000 0.659313 0.000000
1.000000 0.648528 0.000000
0.000000 0.894191 0.000000
0.000000 0.883406 0.000000
0.089961 0.872621 0.000000
0.274841 0.861836 0.000000
0.459721 0.851052 0.000000
0.644602 0.840267 0.000000
0.829482 0.829482 0.000000
1.000000 0.818697 0.000000
1.000000 0.807912 0.000000
0.000000 1.000000 0.000000
0.000000 1.000000 0.000000
0.053680 1.000000 0.000000
0.238560 1.000000 0.000000
0.423441 1.000000 0.000000
0.608321 0.999651 0.000000
0.793201 0.988866 0.000000
0.978082 0.978082 0.000000
1.000000 0.967297 0.000000
0.000000 1.000000 0.000000
0.000000 1.000000 0.000000
0.017399 1.000000 0.000000
0.202280 1.000000 0.000000
0.387160 1.000000 0.000000
0.572040 1.000000 0.000000
0.756921 1.000000 0.000000
0.941801 1.000000 0.000000
1.000000 1.000000 0.000000
0.000000 0.000000 0.129887
0.119102 0.000000 0.119102
0.303982 0.000000 0.108317
0.488862 0.000000 0.097532
0.673743 0.000000 0.086748
0.858623 0.000000 0.075963
1.000000 0.000000 0.065178
1.000000 0.000000 0.054393
1.000000 0.000000 0.043608
0.000000 0.093606 0.093606
0.082821 0.082821 0.082821
0.267701 0.072036 0.072036
0.452582 0.061252 0.061252
0.637462 0.050467 0.050467
0.822342 0.039682 0.039682
1.000000 0.028897 0.028897
1.000000 0.018113 0.018113
1.000000 0.007328 0.007328
0.000000 0.252990 0.057325
0.046541 0.242206 0.046541
0.231421 0.231421 0.035756
0.416301 0.220636 0.024971
0.601181 0.209851 0.014186
0.786062 0.199067 0.003401
0.970942 0.188282 0.000000
1.000000 0.177497 0.000000
1.000000 0.166712 0.000000
0.000000 0.412375 0.021045
0.010260 0.401590 0.010260
0.195140 0.390805 0.000000
0.380020 0.380020 0.000000
0.564901 0.369236 0.000000
0.749781 0.358451 0.000000
0.934661 0.347666 0.000000
1.000000 0.336881 0.000000
1.000000 0.326097 0.000000
0.000000 0.571759 0.000000
0.000000 0.560974 0.000000
0.158860 0.550190 0.000000
0.343740 0.539405 0.000000
0.528620 0.528620 0.000000
0.713500 0.517835 0.000000
0.898381 0.507051 0.000000
1.000000 0.496266 0.000000
1.000000 0.485481 0.000000
0.000000 0.731144 0.000000
0.000000 0.720359 0.000000
0.122579 0.709574 0.000000
0.307459 0.698789 0.000000
0.492339 0.688005 0.000000
0.677220 0.677220 0.000000
0.862100 0.666435 0.000000
1.000000 0.655650 0.000000
1.000000 0.644865 0.000000
0.000000 0.890528 0.000000
0.000000 0.879743 0.000000
0.086298 0.868959 0.000000
0.271179 0.858174 0.000000
0.456059 0.847389 0.000000
0.640939 0.836604 0.000000
0.825819 0.825819 0.000000
1.000000 0.815035 0.000000
1.000000 0.804250 0.000000
0.000000 1.000000 0.000000
0.000000 1.000000 0.000000
0.050018 1.000000 0.000000
0.234898 1.000000 0.000000
0.419778 1.000000 0.000000
0.604658 0.995989 0.000000
0.789539 0.985204 0.000000
0.974419 0.974419 0.000000
1.000000 0.963634 0.000000
0.000000 1.000000 0.000000
0.000000 1.000000 0.000000
0.013737 1.000000 0.000000
0.198617 1.000000 0.000000
0.383498 1.000000 0.000000
0.568378 1.000000 0.000000
0.753258 1.000000 0.000000
0.938138 1.000000 0.000000
1.000000 1.000000 0.000000
0.000000 0.000000 0.321889
0.115439 0.000000 0.311104
0.300320 0.000000 0.300320
0.485200 0.000000 0.289535
0.670080 0.000000 0.278750
0.854960 0.000000 0.267965
1.000000 0.000000 0.257181
1.000000 0.000000 0.246396
1.000000 0.000000 0.235611
0.000000 0.089943 0.285608
0.079159 0.079159 0.274824
0.264039 0.068374 0.264039
0.448919 0.057589 0.253254
0.633800 0.046804 0.242469
0.818680 0.036020 0.231685
1.000000 0.025235 0.220900
1.000000 0.014450 0.210115
1.000000 0.003665 0.199330
0.000000 0.249328 0.249328
0.042878 0.238543 0.238543
0.227758 0.227758 0.227758
0.412639 0.216974 0.216974
0.597519 0.206189 0.206189
0.782399 0.195404 0.195404
0.967279 0.184619 0.184619
1.000000 0.173834 0.173834
1.000000 0.163050 0.163050
0.000000 0.408712 0.213047
0.006597 0.397927 0.202262
0.191478 0.387143 0.191478
0.376358 0.376358 0.180693
0.561238 0.365573 0.169908
0.746119 0.354788 0.159123
0.930999 0.344004 0.148339
1.000000 0.333219 0.137554
1.000000 0.322434 0.126769
0.000000 0.568097 0.176767
0.000000 0.557312 0.165982
0.155197 0.546527 0.155197
0.340077 0.535742 0.144412
0.524958 0.524958 0.133627
0.709838 0.514173 0.122843
0.894718 0.503388 0.112058
1.000000 0.492603 0.101273
1.000000 0.481819 0.090488
0.000000 0.727481 0.140486
0.000000 0.716696 0.129701
0.118916 0.705912 0.118916
0.303797 0.695127 0.108132
0.488677 0.684342 0.097347
0.673557 0.673557 0.086562
0.858438 0.662772 0.075777
1.000000 0.651988 0.064992
1.000000 0.641203 0.054208
0.000000 0.886865 0.104205
0.000000 0.876081 0.093420
0.082636 0.865296 0.082636
0.267516 0.854511 0.071851
0.452396 0.843726 0.061066
0.637277 0.832942 0.050281
0.822157 0.822157 0.039497
1.000000 0.811372 0.028712
1.000000 0.800587 0.017927
0.000000 1.000000 0.067925
0.000000 1.000000 0.057140
0.046355 1.000000 0.046355
0.231235 1.000000 0.035570
0.416116 1.000000 0.024785
0.600996 0.992326 0.014001
0.785876 0.981541 0.003216
0.970757 0.970757 0.000000
1.000000 0.959972 0.000000
0.000000 1.000000 0.031644
0.000000 1.000000 0.020859
0.010074 1.000000 0.010074
0.194955 1.000000 0.000000
0.379835 1.000000 0.000000
0.564715 1.000000 0.000000
0.749596 1.000000 0.000000
0.934476 1.000000 0.000000
1.000000 1.000000 0.000000
0.000000 0.000000 0.513892
0.111777 0.000000 0.503107
0.296657 0.000000 0.492322
0.481537 0.000000 0.481537
0.666418 0.000000 0.470753
0.851298 0.000000 0.459968
1.000000 0.000000 0.449183
1.000000 0.000000 0.438398
1.000000 0.000000 0.427613
0.000000 0.086281 0.477611
0.075496 0.075496 0.466826
0.260376 0.064711 0.456041
0.445257 0.053927 0.445257
0.630137 0.043142 0.434472
0.815017 0.032357 0.423687
0.999898 0.021572 0.412902
1.000000 0.010787 0.402118
1.000000 0.000003 0.391333
0.000000 0.245665 0.441330
0.039215 0.234880 0.430546
0.224096 0.224096 0.419761
0.408976 0.213311 0.408976
0.593856 0.202526 0.398191
0.778737 0.191741 0.387406
0.963617 0.180957 0.376622
1.000000 0.170172 0.365837
1.000000 0.159387 0.355052
0.000000 0.405050 0.405050
0.002935 0.394265 0.394265
0.187815 0.383480 0.383480
0.372695 0.372695 0.372695
0.557576 0.361911 0.361911
0.742456 0.351126 0.351126
0.927336 0.340341 0.340341
1.000000 0.329556 0.329556
1.000000 0.318772 0.318772
0.000000 0.564434 0.368769
0.000000 0.553649 0.357984
0.151534 0.542865 0.347199
0.336415 0.532080 0.336415
0.521295 0.521295 0.325630
0.706175 0.510510 0.314845
0.891056 0.499725 0.304060
1.000000 0.488941 0.293276
1.000000 0.478156 0.282491
0.000000 0.723819 0.332488
0.000000 0.713034 0.321704
0.115254 0.702249 0.310919
0.300134 0.691464 0.300134
0.485014 0.680679 0.289349
0.669895 0.669895 0.278565
0.854775 0.659110 0.267780
1.000000 0.648325 0.256995
1.000000 0.637540 0.246210
0.000000 0.883203 0.296208
0.000000 0.872418 0.285423
0.078973 0.861633 0.274638
0.263853 0.850849 0.263853
0.448734 0.840064 0.253069
0.633614 0.829279 0.242284
0.818494 0.818494 0.231499
1.000000 0.807710 0.220714
1.000000 0.796925 0.209930
0.000000 1.000000 0.259927
0.000000 1.000000 0.249142
0.042692 1.000000 0.238358
0.227573 1.000000 0.227573
0.412453 0.999448 0.216788
0.597333 0.988664 0.206003
0.782214 0.977879 0.195218
0.967094 0.967094 0.184434
1.000000 0.956309 0.173649
0.000000 1.000000 0.223646
0.000000 1.000000 0.212862
0.006412 1.000000 0.202077
0.191292 1.000000 0.191292
0.376172 1.000000 0.180507
0.561053 1.000000 0.169723
0.745933 1.000000 0.158938
0.930813 1.000000 0.148153
1.000000 1.000000 0.137368
0.000000 0.000000 0.705894
0.108114 0.000000 0.695109
0.292994 0.000000 0.684325
0.477875 0.000000 0.673540
0.662755 0.000000 0.662755
0.847635 0.000000 0.651970
1.000000 0.000000 0.641186
1.000000 0.000000 0.630401
1.000000 0.000000 0.619616
0.000000 0.082618 0.669613
0.071834 0.071834 0.658829
0.256714 0.061049 0.648044
0.441594 0.050264 0.637259
0.626474 0.039479 0.626474
0.811355 0.028694 0.615690
0.996235 0.017910 0.604905
1.000000 0.007125 0.594120
1.000000 0.000000 0.583335
0.000000 0.242003 0.633333
0.035553 0.231218 0.622548
0.220433 0.220433 0.611763
0.405313 0.209648 0.600979
0.590194 0.198864 0.590194
0.775074 0.188079 0.579409
0.959954 0.177294 0.568624
1.000000 0.166509 0.557839
1.000000 0.155725 0.547055
0.000000 0.401387 0.597052
0.000000 0.390602 0.586267
0.184153 0.379818 0.575483
0.369033 0.369033 0.564698
0.553913 0.358248 0.553913
0.738793 0.347463 0.543128
0.923674 0.336679 0.532344
1.000000 0.325894 0.521559
1.000000 0.315109 0.510774
0.000000 0.560772 0.560772
0.000000 0.549987 0.549987
0.147872 0.539202 0.539202
0.332752 0.528417 0.528417
0.517632 0.517632 0.517632
0.702513 0.506848 0.506848
0.887393 0.496063 0.496063
1.000000 0.485278 0.485278
1.000000 0.474493 0.474493
0.000000 0.720156 0.524491
0.000000 0.709371 0.513706
0.111591 0.698586 0.502921
0.296472 0.687802 0.492137
0.481352 0.677017 0.481352
0.666232 0.666232 0.470567
0.851112 0.655447 0.459782
1.000000 0.644663 0.448998
1.000000 0.633878 0.438213
0.000000 0.879540 0.488210
0.000000 0.868756 0.477425
0.075311 0.857971 0.466641
0.260191 0.847186 0.455856
0.445071 0.836401 0.445071
0.629951 0.825617 0.434286
0.814832 0.814832 0.423502
0.999712 0.804047 0.412717
1.000000 0.793262 0.401932
0.000000 1.000000 0.451930
0.000000 1.000000 0.441145
0.039030 1.000000 0.430360
0.223910 1.000000 0.419575
0.408791 0.995786 0.408791
0.593671 0.985001 0.398006
0.778551 0.974216 0.387221
0.963431 0.963431 0.376436
1.000000 0.952647 0.365651
0.000000 1.000000 0.415649
0.000000 1.000000 0.404864
0.002749 1.000000 0.394079
0.187630 1.000000 0.383295
0.372510 1.000000 0.372510
0.557390 1.000000 0.361725
0.742270 1.000000 0.350940
0.927151 1.000000 0.340156
1.000000 1.000000 0.329371
0.000000 0.000000 0.897897
0.104452 0.000000 0.887112
0.289332 0.000000 0.876327
0.474212 0.000000 0.865542
0.659093 0.000000 0.854758
0.843973 0.000000 0.843973
1.000000 0.000000 0.833188
1.000000 0.000000 0.822403
1.000000 0.000000 0.811619
0.000000 0.078956 0.861616
0.068171 0.068171 0.850831
0.253051 0.057386 0.840046
0.437932 0.046601 0.829262
0.622812 0.035817 0.818477
0.807692 0.025032 0.807692
0.992572 0.014247 0.796907
1.000000 0.003462 0.786123
1.000000 0.000000 0.775338
0.000000 0.238340 0.825335
0.031890 0.227555 0.814551
0.216771 0.216771 0.803766
0.401651 0.205986 0.792981
0.586531 0.195201 0.782196
0.771412 0.184416 0.771412
0.956292 0.173632 0.760627
1.000000 0.162847 0.749842
1.000000 0.152062 0.739057
0.000000 0.397725 0.789055
0.000000 0.386940 0.778270
0.180490 0.376155 0.767485
0.365370 0.365370 0.756700
0.550251 0.354585 0.745916
0.735131 0.343801 0.735131
0.920011 0.333016 0.724346
1.000000 0.322231 0.713561
1.000000 0.311446 0.702777
0.000000 0.557109 0.752774
0.000000 0.546324 0.741989
0.144209 0.535539 0.731205
0.329090 0.524755 0.720420
0.513970 0.513970 0.709635
0.698850 0.503185 0.698850
0.883731 0.492400 0.688065
1.000000 0.481616 0.677281
1.000000 0.470831 0.666496
0.000000 0.716493 0.716493
0.000000 0.705709 0.705709
0.107929 0.694924 0.694924
0.292809 0.684139 0.684139
0.477689 0.673354 0.673354
0.662570 0.662570 0.662570
0.847450 0.651785 0.651785
1.000000 0.641000 0.641000
1.000000 0.630215 0.630215
0.000000 0.875878 0.680213
0.000000 0.865093 0.669428
0.071648 0.854308 0.658643
0.256528 0.843524 0.647858
0.441409 0.832739 0.637074
0.626289 0.821954 0.626289
0.811169 0.811169 0.615504
0.996050 0.800384 0.604719
1.000000 0.789600 0.593935
0.000000 1.000000 0.643932
0.000000 1.000000 0.633147
0.035367 1.000000 0.622363
0.220248 1.000000 0.611578
0.405128 0.992123 0.600793
0.590008 0.981338 0.590008
0.774889 0.970554 0.579223
0.959769 0.959769 0.568439
1.000000 0.948984 0.557654
0.000000 1.000000 0.607651
0.000000 1.000000 0.596867
0.000000 1.000000 0.586082
0.183967 1.000000 0.575297
0.368847 1.000000 0.564512
0.553728 1.000000 0.553728
0.738608 1.000000 0.542943
0.923488 1.000000 0.532158
1.000000 1.000000 0.521373
0.000000 0.000000 1.000000
0.100789 0.000000 1.000000
0.285669 0.000000 1.000000
0.470550 0.000000 1.000000
0.655430 0.000000 1.000000
0.840310 0.000000 1.000000
1.000000 0.000000 1.000000
1.000000 0.000000 1.000000
1.000000 0.000000 1.000000
0.000000 0.075293 1.000000
0.064508 0.064508 1.000000
0.249389 0.053724 1.000000
0.434269 0.042939 1.000000
0.619149 0.032154 1.000000
0.804030 0.021369 0.999695
0.988910 0.010585 0.988910
1.000000 0.000000 0.978125
1.000000 0.000000 0.967340
0.000000 0.234678 1.000000
0.028228 0.223893 1.000000
0.213108 0.213108 0.995768
0.397988 0.202323 0.984984
0.582869 0.191539 0.974199
0.767749 0.180754 0.963414
0.952629 0.169969 0.952629
1.000000 0.159184 0.941844
1.000000 0.148399 0.931060
0.000000 0.394062 0.981057
0.000000 0.383277 0.970272
0.176827 0.372492 0.959488
0.361708 0.361708 0.948703
0.546588 0.350923 0.937918
0.731468 0.340138 0.927133
0.916349 0.329353 0.916349
1.000000 0.318569 0.905564
1.000000 0.307784 0.894779
0.000000 0.553446 0.944777
0.000000 0.542662 0.933992
0.140547 0.531877 0.923207
0.325427 0.521092 0.912422
0.510307 0.510307 0.901637
0.695188 0.499523 0.890853
0.880068 0.488738 0.880068
1.000000 0.477953 0.869283
1.000000 0.467168 0.858498
0.000000 0.712831 0.908496
0.000000 0.702046 0.897711
0.104266 0.691261 0.886926
0.289146 0.680477 0.876142
0.474027 0.669692 0.865357
0.658907 0.658907 0.854572
0.843787 0.648122 0.843787
1.000000 0.637337 0.833003
1.000000 0.626553 0.822218
0.000000 0.872215 0.872215
0.000000 0.861430 0.861430
0.067985 0.850646 0.850646
0.252866 0.839861 0.839861
0.437746 0.829076 0.829076
0.622626 0.818291 0.818291
0.807507 0.807507 0.807507
0.992387 0.796722 0.796722
1.000000 0.785937 0.785937
0.000000 1.000000 0.835935
0.000000 1.000000 0.825150
0.031705 1.000000 0.814365
0.216585 0.999245 0.803580
0.401465 0.988461 0.792796
0.586346 0.977676 0.782011
0.771226 0.966891 0.771226
0.956106 0.956106 0.760441
1.000000 0.945322 0.749656
0.000000 1.000000 0.799654
0.000000 1.000000 0.788869
0.000000 1.000000 0.778084
0.180304 1.000000 0.767300
0.365185 1.000000 0.756515
0.550065 1.000000 0.745730
0.734945 1.000000 0.734945
0.919826 1.000000 0.724161
1.000000 1.000000 0.713376
0.000000 0.000000 1.000000
0.097126 0.000000 1.000000
0.282007 0.000000 1.000000
0.466887 0.000000 1.000000
0.651767 0.000000 1.000000
0.836648 0.000000 1.000000
1.000000 0.000000 1.000000
1.000000 0.000000 1.000000
1.000000 0.000000 1.000000
0.000000 0.071631 1.000000
0.060846 0.060846 1.000000
0.245726 0.050061 1.000000
0.430606 0.039276 1.000000
0.615487 0.028492 1.000000
0.800367 0.017707 1.000000
0.985247 0.006922 1.000000
1.000000 0.000000 1.000000
1.000000 0.000000 1.000000
0.000000 0.231015 1.000000
0.024565 0.220230 1.000000
0.209445 0.209445 1.000000
0.394326 0.198661 1.000000
0.579206 0.187876 1.000000
0.764086 0.177091 1.000000
0.948967 0.166306 1.000000
1.000000 0.155522 1.000000
1.000000 0.144737 1.000000
0.000000 0.390399 1.000000
0.000000 0.379615 1.000000
0.173165 0.368830 1.000000
0.358045 0.358045 1.000000
0.542925 0.347260 1.000000
0.727806 0.336476 1.000000
0.912686 0.325691 1.000000
1.000000 0.314906 1.000000
1.000000 0.304121 1.000000
0.000000 0.549784 1.000000
0.000000 0.538999 1.000000
0.136884 0.528214 1.000000
0.321764 0.517430 1.000000
0.506645 0.506645 1.000000
0.691525 0.495860 1.000000
0.876405 0.485075 1.000000
1.000000 0.474290 1.000000
1.000000 0.463506 1.000000
0.000000 0.709168 1.000000
0.000000 0.698384 1.000000
0.100604 0.687599 1.000000
0.285484 0.676814 1.000000
0.470364 0.666029 1.000000
0.655244 0.655244 1.000000
0.840125 0.644460 1.000000
1.000000 0.633675 1.000000
1.000000 0.622890 1.000000
0.000000 0.868553 1.000000
0.000000 0.857768 1.000000
0.064323 0.846983 1.000000
0.249203 0.836198 1.000000
0.434083 0.825414 1.000000
0.618964 0.814629 1.000000
0.803844 0.803844 0.999509
0.988724 0.793059 0.988724
1.000000 0.782275 0.977940
0.000000 1.000000 1.000000
0.000000 1.000000 1.000000
0.028042 1.000000 1.000000
0.212923 0.995583 0.995583
0.397803 0.984798 0.984798
0.582683 0.974013 0.974013
0.767563 0.963228 0.963228
0.952444 0.952444 0.952444
1.000000 0.941659 0.941659
0.000000 1.000000 0.991656
0.000000 1.000000 0.980872
0.000000 1.000000 0.970087
0.176642 1.000000 0.959302
0.361522 1.000000 0.948517
0.546402 1.000000 0.937733
0.731283 1.000000 0.926948
0.916163 1.000000 0.916163
1.000000 1.000000 0.905378
0.000000 0.000000 1.000000
0.093464 0.000000 1.000000
0.278344 0.000000 1.000000
0.463225 0.000000 1.000000
0.648105 0.000000 1.000000
0.832985 0.000000 1.000000
1.000000 0.000000 1.000000
1.000000 0.000000 1.000000
1.000000 0.000000 1.000000
0.000000 0.067968 1.000000
0.057183 0.057183 1.000000
0.242064 0.046399 1.000000
0.426944 0.035614 1.000000
0.611824 0.024829 1.000000
0.796704 0.014044 1.000000
0.981585 0.003259 1.000000
1.000000 0.000000 1.000000
1.000000 0.000000 1.000000
0.000000 0.227352 1.000000
0.020903 0.216568 1.000000
0.205783 0.205783 1.000000
0.390663 0.194998 1.000000
0.575544 0.184213 1.000000
0.760424 0.173429 1.000000
0.945304 0.162644 1.000000
1.000000 0.151859 1.000000
1.000000 0.141074 1.000000
0.000000 0.386737 1.000000
0.000000 0.375952 1.000000
0.169502 0.365167 1.000000
0.354383 0.354383 1.000000
0.539263 0.343598 1.000000
0.724143 0.332813 1.000000
0.909023 0.322028 1.000000
1.000000 0.311243 1.000000
1.000000 0.300459 1.000000
0.000000 0.546121 1.000000
0.000000 0.535337 1.000000
0.133222 0.524552 1.000000
0.318102 0.513767 1.000000
0.502982 0.502982 1.000000
0.687863 0.492197 1.000000
0.872743 0.481413 1.000000
1.000000 0.470628 1.000000
1.000000 0.459843 1.000000
0.000000 0.705506 1.000000
0.000000 0.694721 1.000000
0.096941 0.683936 1.000000
0.281821 0.673151 1.000000
0.466702 0.662367 1.000000
0.651582 0.651582 1.000000
0.836462 0.640797 1.000000
1.000000 0.630012 1.000000
1.000000 0.619228 1.000000
0.000000 0.864890 1.000000
0.000000 0.854105 1.000000
0.060660 0.843321 1.000000
0.245541 0.832536 1.000000
0.430421 0.821751 1.000000
0.615301 0.810966 1.000000
0.800182 0.800182 1.000000
0.985062 0.789397 1.000000
1.000000 0.778612 1.000000
0.000000 1.000000 1.000000
0.000000 1.000000 1.000000
0.024380 1.000000 1.000000
0.209260 0.991920 1.000000
0.394140 0.981135 1.000000
0.579021 0.970351 1.000000
0.763901 0.959566 1.000000
0.948781 0.948781 1.000000
1.000000 0.937996 1.000000
0.000000 1.000000 1.000000
0.000000 1.000000 1.000000
0.000000 1.000000 1.000000
0.172979 1.000000 1.000000
0.357860 1.000000 1.000000
0.542740 1.000000 1.000000
0.727620 1.000000 1.000000
0.912501 1.000000 1.000000
1.000000 1.000000 1.000000
