assets/lighting/cinematic/grade-game-vibrant/lut.cube
TITLE "Game Vibrant"
# TKRS lighting-batch-001 original LUT
# Intended usage: stylized saturated game look
# License: CC0-1.0
LUT_3D_SIZE 5
DOMAIN_MIN 0.0 0.0 0.0
DOMAIN_MAX 1.0 1.0 1.0
0.000000 0.000000 0.000000
0.307645 0.000000 0.000000
0.677405 0.000000 0.000000
1.000000 0.000000 0.000000
1.000000 0.000000 0.000000
0.000000 0.256653 0.000000
0.235083 0.235083 0.000000
0.604844 0.213514 0.000000
0.974605 0.191944 0.000000
1.000000 0.170375 0.000000
0.000000 0.575422 0.000000
0.162522 0.553852 0.000000
0.532283 0.532283 0.000000
0.902043 0.510713 0.000000
1.000000 0.489144 0.000000
0.000000 0.894191 0.000000
0.089961 0.872621 0.000000
0.459721 0.851052 0.000000
0.829482 0.829482 0.000000
1.000000 0.807912 0.000000
0.000000 1.000000 0.000000
0.017399 1.000000 0.000000
0.387160 1.000000 0.000000
0.756921 1.000000 0.000000
1.000000 1.000000 0.000000
0.000000 0.000000 0.321889
0.300320 0.000000 0.300320
0.670080 0.000000 0.278750
1.000000 0.000000 0.257181
1.000000 0.000000 0.235611
0.000000 0.249328 0.249328
0.227758 0.227758 0.227758
0.597519 0.206189 0.206189
0.967279 0.184619 0.184619
1.000000 0.163050 0.163050
0.000000 0.568097 0.176767
0.155197 0.546527 0.155197
0.524958 0.524958 0.133627
0.894718 0.503388 0.112058
1.000000 0.481819 0.090488
0.000000 0.886865 0.104205
0.082636 0.865296 0.082636
0.452396 0.843726 0.061066
0.822157 0.822157 0.039497
1.000000 0.800587 0.017927
0.000000 1.000000 0.031644
0.010074 1.000000 0.010074
0.379835 1.000000 0.000000
0.749596 1.000000 0.000000
1.000000 1.000000 0.000000
0.000000 0.000000 0.705894
0.292994 0.000000 0.684325
0.662755 0.000000 0.662755
1.000000 0.000000 0.641186
1.000000 0.000000 0.619616
0.000000 0.242003 0.633333
0.220433 0.220433 0.611763
0.590194 0.198864 0.590194
0.959954 0.177294 0.568624
1.000000 0.155725 0.547055
0.000000 0.560772 0.560772
0.147872 0.539202 0.539202
0.517632 0.517632 0.517632
0.887393 0.496063 0.496063
1.000000 0.474493 0.474493
0.000000 0.879540 0.488210
0.075311 0.857971 0.466641
0.445071 0.836401 0.445071
0.814832 0.814832 0.423502
1.000000 0.793262 0.401932
0.000000 1.000000 0.415649
0.002749 1.000000 0.394079
0.372510 1.000000 0.372510
0.742270 1.000000 0.350940
1.000000 1.000000 0.329371
0.000000 0.000000 1.000000
0.285669 0.000000 1.000000
0.655430 0.000000 1.000000
1.000000 0.000000 1.000000
1.000000 0.000000 1.000000
0.000000 0.234678 1.000000
0.213108 0.213108 0.995768
0.582869 0.191539 0.974199
0.952629 0.169969 0.952629
1.000000 0.148399 0.931060
0.000000 0.553446 0.944777
0.140547 0.531877 0.923207
0.510307 0.510307 0.901637
0.880068 0.488738 0.880068
1.000000 0.467168 0.858498
0.000000 0.872215 0.872215
0.067985 0.850646 0.850646
0.437746 0.829076 0.829076
0.807507 0.807507 0.807507
1.000000 0.785937 0.785937
0.000000 1.000000 0.799654
0.000000 1.000000 0.778084
0.365185 1.000000 0.756515
0.734945 1.000000 0.734945
1.000000 1.000000 0.713376
0.000000 0.000000 1.000000
0.278344 0.000000 1.000000
0.648105 0.000000 1.000000
1.000000 0.000000 1.000000
1.000000 0.000000 1.000000
0.000000 0.227352 1.000000
0.205783 0.205783 1.000000
0.575544 0.184213 1.000000
0.945304 0.162644 1.000000
1.000000 0.141074 1.000000
0.000000 0.546121 1.000000
0.133222 0.524552 1.000000
0.502982 0.502982 1.000000
0.872743 0.481413 1.000000
1.000000 0.459843 1.000000
0.000000 0.864890 1.000000
0.060660 0.843321 1.000000
0.430421 0.821751 1.000000
0.800182 0.800182 1.000000
1.000000 0.778612 1.000000
0.000000 1.000000 1.000000
0.000000 1.000000 1.000000
0.357860 1.000000 1.000000
0.727620 1.000000 1.000000
1.000000 1.000000 1.000000
